/* XPM */
static const char *auto_charge_pistol_2[] = {
/* columns rows colors chars-per-pixel */
"82 87 50 1 ",
"s c None",
". c #162F36",
"- c #384751",
"+ c #432F26",
"@ c #A89476",
"# c #76BEC5",
"$ c #466E78",
"% c #156B77",
"& c #15434F",
"* c #09242C",
"= c #D03B3F",
"; c #863F18",
": c #0D1319",
"> c #E79451",
", c #CD6335",
"< c #511607",
"? c #1C0D0D",
"! c #202021",
"~ c #A20D1A",
"^ c #6A0E10",
"| c #320906",
"/ c #212223",
"0 c #070102",
"1 c #191819",
"2 c #DBCDB9",
"3 c #202020",
"4 c #1F1D1E",
"5 c #321A13",
"6 c #151515",
"7 c #08050A",
"8 c #35221C",
"9 c #14181A",
"a c #83370D",
"b c #7C2D0B",
"c c #6C2808",
"d c #AB5010",
"e c #AF571B",
"f c #B86525",
"g c #122026",
"h c #F5A45A",
"i c #9D490E",
"j c #DB833B",
"k c #F29648",
"l c #D57A35",
"m c #F9B06A",
"n c #CA6E28",
"o c #36201B",
"p c #963F13",
"q c #FBC78E",
"r c #FBBB7D",
"ssssssssssssssssssssssssssssssssssssssssssssssssssssssssssssssssssssssssssssssssss",
"ssssssssssssssssssssssssssssssssssssssssssssssssssssssssssssssssssssssssssssssssss",
"ssssssssssssssssssssssssssssssssssssssssssssssssssssssssssssssssssssssssssssssssss",
"ssssssssssssssssssssssssssssssssssssssssssssssssssssssssssssssssssssssssssssssssss",
"ssssssssssssssssssssssssssssssssssssssssssssssssssssssssssssssssssssssssssssssssss",
"ssssssssssssssssssssssssssssssssssssssssssssssssssssssssssssssssssssssssssssssssss",
"ssssssssssssssssssssssssssssssssssssssssssssssssssssssssssssssssssssssssssssssssss",
"ssssssssssssssssssssssssssssssssssssssssssssssssssssssssssssssssssssssssssssssssss",
"ssssssssssssssssssssssssssssssssssssssssssssssssssssssssssssssssssssssssssssssssss",
"ssssssssssssssssssssssssssssssssssssssssssssssssssssssssssssssssssssssssssssssssss",
"ssssssssssssssssssssssssssssssssssssssssssssssssssssssssssssssssssssssssssssssssss",
"ssssssssssssssssssssssssssssssssssssssssssssssssssssssssssssssssssssssssssssssssss",
"ssssssssssssssssssssssssssssssssssssssssssssssssssssssssssssssssssssssssssssssssss",
"ssssssssssssssssssssssssssssssssssssssssssssssssssssssssssssssssssssssssssssssssss",
"ssssssssssssssssssssssssssssssssssssssssssssssssssssssssssssssssssssssssssssssssss",
"ssssssssssssssssssssssssssssssssssssssssssssssssssssssssssssssssssssssssssssssssss",
"ssssssssssssssssssssssssssssssssssssssssssssssssssssssssssssssssssssssssssssssssss",
"ssssssssssssssssssssssssssssssssssssssssssssssssssssssssssssssssssssssssssssssssss",
"ssssssssssssssssssssssssssssssssssssssssssssssssssssssssssssssssssssssssssssssssss",
"ssssssssssssssssssssssssssssssssssssssssssssssssssssssssssssssssssssssssssssssssss",
"ssssssssssssssssssssssssssssssssssssssssssssssssssssssssssssssssssssssssssssssssss",
"ssssssssssssssssssssssssssssssssssssssssssssssssssssssssssssssssssssssssssssssssss",
"ssssssssssssssssssssssssssssssssssssssssssssssssssssssssssssssssssssssssssssssssss",
"ssssssssssssssssssssssssssssssssssssssssssssssssssssssssssssssssssssssssssssssssss",
"ssssssssssssssssssssssssssssssssssssssssssssssssssssssssssssssssssssssssssssssssss",
"ssssssssssssssssssssssssssssssssssssssssssssssssssssssssssssssssssssssssssssssssss",
"ssssssssssssssssssssssssssssssssssssssssssssssssssssssssssssssssssssssssssssssssss",
"ssssssssssssssssssssssssssssssssssssssssssssssssssssssssssssssssssssssssssssssssss",
"ssssssssssssssssssssssssssssssssssssssssssssssssssssssssssssssssssssssssssssssssss",
"ssssssssssssssssssssssssssssssssssssssssssssssssssssssssssssssssssssssssssssssssss",
"ssssssssssssssssssssssssssssssssssssssssssssssssssssssssssssssssssssssssssssssssss",
"ssssssssssssssssssssssssssssssssssssssssssssssssssssssssssssssssssssssssssssssssss",
"ssssssssssssssssssssssssssssssssssssssssssssssssssssssssssssssssssssssssssssssssss",
"ssssssssssssssssssssssssssssssssssssssssssssssssssssssssssssssssssssssssssssssssss",
"ssssssssssssssssssssssssssssssssssssssssssssssssssssssssssssssssssssssssssssssssss",
"ssssssssssssssssssssssssssssssssssssssssssssssssssssssssssssssssssssssssssssssssss",
"ssssssssssssssssssssssssssssssssssssssssssssssssssssssssssssssssssssssssssssssssss",
"ssssssssssssssssssssssssssssssssssssssssssssssssssssssssssssssssssssssssssssssssss",
"ssssssssssssssssssssssssssssssssssssssssssssssssssssssssssssssssssssssssssssssssss",
"ssssssssssssssssssssssssssssssssssssssssssssssssssssssssssssssssssssssssssssssssss",
"ssssssssssssssssssssssssssssssssssssssssssssssssssssssssssssssssssssssssssssssssss",
"ssssssssssssssssssssssssssssssssssssssssssssssssssssssssssssssssssssssssssssssssss",
"ssssssssssssssssssssssssssssssssssssssssssssssssssssssssssssssssssssssssssssssssss",
"ssssssssssssssssssssssssssssssssssssssssssssssssssssssssssssssssssssssssssssssssss",
"ssssssssssssssssssssssssssssssssssssssssssssssssssssssssssssssssssssssssssssssssss",
"ssssssssssssssssssssssssssssssssssssssssssssssssssssssssssssssssssssssssssssssssss",
"ssssssssssssssssssssssssssssssssssssssssssssssssssssssssssssssssssssssssssssssssss",
"ssssssssssssssssssssssssssssssssssssssssssssssssssssssssssssssssssssssssssssssssss",
"ssssssssssssssssssssssssssssssssssssssssssssssssssssssssssssssssssssssssssssssssss",
"ssssssssssssssssssssssssssssssssssssssssssssssssssssssssssssssssssssssssssssssssss",
"ssssssssssssssssssssssssssssssssssssssssssssssssssssssssssssssssssssssssssssssssss",
"ssssssssssssssssssssssssssssssssssssssssssssssssssssssssssssssssssssssssssssssssss",
"ssssssssssssssssssssssssssssssssssssssssssssssssssssssssssssssssssssssssssssssssss",
"ssssssssssssssssssssssssssssssssssssssssssssssssssssssssssssssssssssssssssssssssss",
"ssssssssssssssssssssssssssssssssssssssssssssssss..-+ssssssssssssssssssssssssssssss",
"sssssssssssssssssssssssssssssssssssssssssssss+@#####$-ssssssssssssssssssssssssssss",
"ssssssssssssssssssssssssssssssssssssssssssss.$#######%%sssssssssssssssssssssssssss",
"sssssssssssssssssssssssssssssssssssssssssss.##%%-%%%##%%ssssssssssssssssssssssssss",
"sssssssssssssssssssssssssssssssssssssssssss$#%---&&**$$&ssssssssssssssssssssssssss",
"ssssssssssssssssssssssssssssssssssssssssss&#%$==;=;$.:+-&sssssssssssssssssssssssss",
"ssssssssssssssssssssssssssssssssssssssssss%%-======>,<?$&.ssssssssssssssssssssssss",
"sssssssssssssssssssssssssssssssssssssssss.&!;=======~^|&%&ssssssssssssssssssssssss",
"sssssssssssssssssssssssssssssssssssssssss&-/^~==~=$=~|01%%&sssssssssssssssssssssss",
"sssssssssssssssssssssssssssssssssssssssss.--^~<+###-~~0?%%&sssssssssssssssssssssss",
"sssssssssssssssssssssssssssssssssssssssss.-^~~~;222$|^|?3.&sssssssssssssssssssssss",
"sssssssssssssssssssssssssssssssssssssssssss<~~^@222#*|^?1*-sssssssssssssssssssssss",
"sssssssssssssssssssssssssssssssssssssssss:&&^~~@222-4|^5$+-sssssssssssssssssssssss",
"sssssssssssssssssssssssssssssssssssssssss.&$|<~;$#-6?|<5#-.sssssssssssssssssssssss",
"ssssssssssssssssssssssssssssssssssssssssss.-?7|89//77.&.%%-sssssssssssssssssssssss",
"ssssssssssssssssssssssssssssssssssssssssss$$?+++|1??:**&&$&sssssssssssssssssssssss",
"ssssssssssssssssssssssssssssssssssssssss+,;abc+;defed;5g##&?ssssssssssssssssssssss",
"sssssssssssssssssssssssssssssssssssssssc>hcib;jkkhhkli|-##/i5sssssssssssssssssssss",
"ssssssssssssssssssssssssssssssssssssss;fhlcilkkhhmmjeb0.&*8dcsssssssssssssssssssss",
"ssssssssssssssssssssssssssssssssssssscnejeekkkhmhknac|<b<ciib5ssssssssssssssssssss",
"ssssssssssssssssssssssssssssssssssssopnnncejkjllndb|<nhkncadpcssssssssssssssssssss",
"ssssssssssssssssssssssssssssssssssssciflfcafnnedac|<>qqrkfcdicssssssssssssssssssss",
"sssssssssssssssssssssssssssssssssss8bdnnncciddic||akrqqqm>iiia<sssssssssssssssssss",
"sssssssssssssssssssssssssssssssssssopflll;|bac<<elkmrrrrrhldip<sssssssssssssssssss",
"sssssssssssssssssssssssssssssssssss<inj>>nb<|<ijkkkmmmhhhjnfia5sssssssssssssssssss",
"sssssssssssssssssssssssssssssssssss<aelhhjefjmmmhhmmm>jlnffdda5sssssssssssssssssss",
"ssssssssssssssssssssssssssssssssssscien>>fjmrrrrrmmmjfedpnndda5sssssssssssssssssss",
"ssssssssssssssssssssssssssssssssss<adel>>jhqqrrrmhkjeiacbdefdp<sssssssssssssssssss",
"ssssssssssssssssssssssssssssssssss<pdfnl>>mqrmhkklndpb<<aideibssssssssssssssssssss",
"ssssssssssssssssssssssssssssssssss<pdnnl>mrrh>jllnepb<|<aiidicssssssssssssssssssss",
"ssssssssssssssssssssssssssssssssss<aenjrq>mhh>llfiab<?<<caiip<ssssssssssssssssssss",
"ssssssssssssssssssssssssssssssssss<cdj>rmmm>>>jndac<?bfepaaba|ssssssssssssssssssss",
"ssssssssssssssssssssssssssssssssssbpdn>>ln>m>jndpc||pljjlfaac|ssssssssssssssssssss"
};
