/* XPM */
static const char *dual_neutron_disruptor_3[] = {
/* columns rows colors chars-per-pixel */
"82 60 55 1 ",
"x c None",
". c #40221C",
"- c #44251D",
"+ c #4B2D21",
"@ c #701C11",
"# c #7D2514",
"$ c #7A2C16",
"% c #C62A08",
"& c #B83D11",
"* c #EF570A",
"= c #D63F0B",
"; c #FC860E",
": c #ED4707",
"> c #FD910F",
", c #2E2320",
"< c #FA5C05",
"? c #3D201C",
"! c #FB6C06",
"~ c #FD9A12",
"^ c #FC7C0A",
"| c #EE3E04",
"/ c #FDA918",
"0 c #EC7617",
"1 c #EE3203",
"2 c #893A17",
"3 c #F74904",
"4 c #FEBA1F",
"5 c #FDCA39",
"6 c #FDD94B",
"7 c #FCE874",
"8 c #FC7409",
"9 c #FDF28F",
"a c #FAF7BB",
"b c #ADCFA1",
"c c #41B6BD",
"d c #178791",
"e c #104753",
"f c #0E333D",
"g c #647E6E",
"h c #0E5F6B",
"i c #59E1E2",
"j c #7BF2EE",
"k c #27AAB3",
"l c #9EF6F0",
"m c #013441",
"n c #014250",
"o c #032832",
"p c #161415",
"q c #4ACED1",
"r c #02080C",
"s c #021820",
"t c #222322",
"u c #202021",
"v c #272120",
"w c #172026",
"xxxxxxxxxxxxxxxxxxxxxxxxxxxxxxxxxxxxxxxxxxxxxxxxxxxxxxxxxxxxxxxxxxxxxxxxxxxxxxxxxx",
"xxxxxxxxxxxxxxxxxxxxxxxxxxxxxxxxxxxxxxxxxxxxxxxxxxxxxxxxxxxxxxxxxxxxxxxxxxxxxxxxxx",
"xxxxxxxxxxxxxxxxxxxxxxxxxxxxxxxxxxxxxxxxxxxxxxxxxxxxxxxxxxxxxxxxxxxxxxxxxxxxxxxxxx",
"xxxxxxxxxxxxxxxxxxxxxxxxxxxxxxxxxxxxxxxxxxxxxxxxxxxxxxxxxxxxxxxxxxxxxxxxxxxxxxxxxx",
"xxxxxxxxxxxxxxxxxxxxxxxxxxxxxxxxxxxxxxxxxxxxxxxxxxxxxxxxxxxxxxxxxxxxxxxxxxxxxxxxxx",
"xxxxxxxxxxxxxxxxxxxxxxxxxxxxxxxxxxxxxxxxxxxxxxxxxxxxxxxxxxxxxxxxxxxxxxxxxxxxxxxxxx",
"xxxxxxxxxxxxxxxxxxxxxxxxxxxxxxxxxxxxxxxxxxxxxxxxxxxxxxxxxxxxxxxxxxxxxxxxxxxxxxxxxx",
"xxxxxxxxxxxxxxxxxxxxxxxxxxxxxxxxxxxxxxxxxxxxxxxxxxxxxxxxxxxxxxxxxxxxxxxxxxxxxxxxxx",
"xxxxxxxxxxxxxxxxxxxxxxxxxxxxxxxxxxxxxxxxxxxxxxxxxxxxxxxxxxxxxxxxxxxxxxxxxxxxxxxxxx",
"xxxxxxxxxxxxxxxxxxxxxxxxxxxxxxxxxxxxxxxxxxxxxxxxxxxxxxxxxxxxxxxxxxxxxxxxxxxxxxxxxx",
"xxxxxxxxxxxxxxxxxxxxxxxxxxxxxxxxxxxxxxxxxxxxxxxxxxxxxxxxxxxxxxxxxxxxxxxxxxxxxxxxxx",
"xxxxxxxxxxxxxxxxxxxxxxxxxxxxxxxxxxxxxxxxxxxxxxxxxxxxxxxxxxxxxxxxxxxxxxxxxxxxxxxxxx",
"xxxxxxxxxxxxxxxxxxxxxxxxxxxxxxxxxxxxxxxxxxxxxxxxxxxxxxxxxxxxxxxxxxxxxxxxxxxxxxxxxx",
"xxxxxxxxxxxxxxxxxxxxxxxxxxxxxxxxxxxxxxxxxxxxxxxxxxxxxxxxxxxxxxxxxxxxxxxxxxxxxxxxxx",
"xxxxxxxxxxxxxxxxxxxxxxxxxxxxxxxxxxxxxxxxxxxxxxxxxxxxxxxxxxxxxxxxxxxxxxxxxxxxxxxxxx",
"xxxxxxxxxxxxxxxxxxxxxxxxxxxxxxxxxxxxxxxxxxxxxxxxxxxxxxxxxxxxxxxxxxxxxxxxxxxxxxxxxx",
"xxxxxxxxxxxxxxxxxxxxxxxxxxxxxxxxxxxxxxxxxxxxxxxxxxxxxxxxxxxxxxxxxxxxxxxxxxxxxxxxxx",
"xxxxxxxxxxxxxxxxxxxxxxxxxxxxxxxxxxxxxxxxxxxxxxxxxxxxxxxxxxxxxxxxxxxxxxxxxxxxxxxxxx",
"xxxxxxxxxxxxxxxxxxxxxxxxxxxxxxxxxxxxxxxxxxxxxxxxxxxxxxxxxxxxxxxxxxxxxxxxxxxxxxxxxx",
"xxxxxxxxxxxxxxxxxxxxxxxxxxxxxxxxxxxxxxxx.-xxxxxxxxxxxxxxxxxxxxxxxxxxxxxxxxxxxxxxxx",
"xxxxxxxxxxxxxxxxxxxxxxxxxxxxxxxxxxxxxxxx+@xxxxxxxxxxxxxxxxxxxxxxxxxxxxxxxxxxxxxxxx",
"xxxxxxxxxxxxxxxxxxxxxxxxxxxxxxxxxxxxxxxx-@xxxxxxxxxxxxxxxxxxxxxxxxxxxxxxxxxxxxxxxx",
"xxxxxxxxxxxxxxxxxxxxxxxxxxxxxxxxxxxxxxxx+#xxxxxxxxxxxxxxxxxxxxxxxxxxxxxxxxxxxxxxxx",
"xxxxxxxxxxxxxxxxxxxxxxxxxxxxxxxxxxxxxxxx$#xxxxxxxxxxxxxxxxxxxxxxxxxxxxxxxxxxxxxxxx",
"xxxxxxxxxxxxxxxxxxxxxxxxxxxxxxxxxxxxxxxx#%xxxxxxxxxxxxxxxxxxxxxxxxxxxxxxxxxxxxxxxx",
"xxxxxxxxxxxxxxxxxxxxxxxxxxxxxxxxxxxxxxxx&*@xxxxxxxxxxxxxxxxxxxxxxxxxxxxxxxxxxxxxxx",
"xxxxxxxxxxxxxxxxxxxxxxxxxxxxxxxxxxxxxxxx=;=xxxxxxxxxxxxxxxxxxxxxxxxxxxxxxxxxxxxxxx",
"xxxxxxxxxxxxxxxxxxxxxxxxxxxxxxxxxxxxxxx-:>*@xxxxxxxxxxxxxxxxxxxxxxxxxxxxxxxxxxxxxx",
"xxxxxxxxxxxxxxxxx-,xxxxxxxxxxxxxxxxxxxx#<;<&xxxxxxxxxxxxxxxxxxxxxxxxxxxxxxxxxxxxxx",
"xxxxxxxxxxxxxxxxx?-xxxxxxxxxxxxxxxxxxxx%!~^&xxxxxxxxxxxxxxxx@#-xxxxxxxxxxxxxxxxxxx",
"xxxxxxxxxxxxxxxxxx?@#&.xxxxxxxxxxxxxxx+|;/^0xxxxxxxxxxxxxxx#%#xxxxxxxxxxxxxxxxxxxx",
"xxxxxxxxxxxxxxxxxxxx#1%#xxx+?+2+,xxxxx$3;4^0+2,xxx+#.xxx.#%1#xxxxxxxxxxxxxxxxxxxxx",
"xxxxxxxxxxxxxxxxxxxxx@**=##%%=*:02%22-&<~5^~0&,+&&=%2+2&:31#xxxxxxxxxxxxxxxxxxxxxx",
"xxxxxxxxxxxxxxxxxxxxxx#:*33*3|;;!:*:000~/6>4/!&2^;**:11!<%@xxxxxxxxxxxxxxxxxxxxxxx",
"xxxxxxxxxxxxxxxxxxxxxxx&|!<:<!!/;|!!0/~4/7/4~!<*^~83|!^!%?xxxxxxxxxxxxxxxxxxxxxxxx",
"xxxxxxxxxxxxxxxxxxxxxxx-%3^8!;>>>^88~~446944/~>/~^<!>;<:$xxxxxxxxxxxxxxxxxxxxxxxxx",
"xxxxxxxxxxxxxxxxxxxxxxxx$1:>8;/6/~4/4564794665554;//831=$?xxxxxxxxxxxxxxxxxxxxxxxx",
"xxxxxxxxxxxxxxxxxxxxxxxxx%1~>8~69644677799676654/46/!!333=-xxxxxxxxxxxxxxxxxxxxxxx",
"xxxxxxxxxxxxxxxxxxxxxxxxx+|!~//45776999aa999977655448<<<*&?xxxxxxxxxxxxxxxxxxxxxxx",
"xxxxxxxxxxxxxxxxxxxxxxxx++&|!~467779aaaaaaaaa997754~^^~!11$xxxxxxxxxxxxxxxxxxxxxxx",
"xxxxxxxxxxxxxxxxxxxxxxx-+2&0>~/46777999aaaaaaaa76544~>>!3|2xxxxxxxxxxxxxxxxxxxxxxx",
"xxxxxxxxxxxxxxxxxxxx+#2=00^~/~4545b505677aaaa7600;;>;!<<!<=2##xxxxxxxxxxxxxxxxxxxx",
"xxxxxxxxxxxxxxxxxx?#%3!8!8>~//550cdeefg/566ab++gg&1:^~>8<!<33:2@xxxxxxxxxxxxxxxxxx",
"xxxxxxxxxxxxxxxx?&=|<88^>>/44442hciijkhg556gdkcddd2!<3^>>;!3113|&$-xxxxxxxxxxxxxxx",
"xxxxxxxxxxxxxxxx$%*!888^8^^~~~2eijlllcmng/2odkddoeh&313333<<||%%%$-xxxxxxxxxxxxxxx",
"xxxxxxxxxxxxxxxxx?-@&%1|3:3380pkqhdkcdmoggfmhqidmrn+3^||||=&%@..-xxxxxxxxxxxxxxxxx",
"xxxxxxxxxxxxxxxxxxxxx?+&:|1|3&edhrhkchsogbfshqkkmss,=/;!<:=$$xxxxxxxxxxxxxxxxxxxxx",
"xxxxxxxxxxxxxxxxxxxxxxxx-&<;82eoroillkrfhgrsqiqcdsrp&^8=%&$xxxxxxxxxxxxxxxxxxxxxxx",
"xxxxxxxxxxxxxxxxxxxxxxxxx.&*1+mrrodqikreherskijjdsrp#3|&$?xxxxxxxxxxxxxxxxxxxxxxxx",
"xxxxxxxxxxxxxxxxxxxxxxxxx-%1:torokijqdrehfrfcqiqnmsr$:12@xxxxxxxxxxxxxxxxxxxxxxxxx",
"xxxxxxxxxxxxxxxxxxxxxxxxx21*&horeiljiqfoduedllliknos.312xxxxxxxxxxxxxxxxxxxxxxxxxx",
"xxxxxxxxxxxxxxxxxxxxxxxx@:0|#hosmklllieshrhkqjjjqkho?11&xxxxxxxxxxxxxxxxxxxxxxxxxx",
"xxxxxxxxxxxxxxxxxxxxxxxx@=|%-ssmhkiqccosfrecdkjjqdeov&%%#xxxxxxxxxxxxxxxxxxxxxxxxx",
"xxxxxxxxxxxxxxxxxxxxxxxx%1=$-romdhkqqqhhfwdkjjljdnsrrx@-@xxxxxxxxxxxxxxxxxxxxxxxxx",
"xxxxxxxxxxxxxxxxxxxxxxx+112xxsonnnkqckkdcdeehdkkdhhrrxxxxxxxxxxxxxxxxxxxxxxxxxxxxx",
"xxxxxxxxxxxxxxxxxxxxxxx#%@xxprmnoommnedkkckdheefmmosrxxxxxxxxxxxxxxxxxxxxxxxxxxxxx",
"xxxxxxxxxxxxxxxxxxxxxxx--xxxxxonnnmnhciiiqcijjlqessrrrxxxxxxxxxxxxxxxxxxxxxxxxxxxx",
"xxxxxxxxxxxxxxxxxxxxxxxxxxxxxomoomhdqjjjjljjjjiqhnmossxxxxxxxxxxxxxxxxxxxxxxxxxxxx",
"xxxxxxxxxxxxxxxxxxxxxxxxxxxxssshhhhhkqjlljjjikddhdhmmmxxxxxxxxxxxxxxxxxxxxxxxxxxxx",
"xxxxxxxxxxxxxxxxxxxxxxxxxxxsrsnnnoomehkljijjchommmmoosrxxxxxxxxxxxxxxxxxxxxxxxxxxx"
};
