/* XPM */
static const char *dual_neutron_disruptor_4[] = {
/* columns rows colors chars-per-pixel */
"82 60 53 1 ",
"v c None",
". c #5F2418",
"- c #32221F",
"+ c #A41B0B",
"@ c #3D221D",
"# c #DD2D06",
"$ c #DE4D0B",
"% c #F86D09",
"& c #53201A",
"* c #A02A11",
"= c #E33E06",
"; c #F86206",
": c #F85405",
"> c #FA7708",
", c #F9800E",
"< c #481813",
"? c #F44A05",
"! c #FAA419",
"~ c #CF721A",
"^ c #9F3913",
"| c #63351F",
"/ c #392721",
"0 c #A64B19",
"1 c #F98B0E",
"2 c #FDBB22",
"3 c #FD9613",
"4 c #FDE864",
"5 c #FBD53F",
"6 c #4D8484",
"7 c #292220",
"8 c #1A1919",
"9 c #152D35",
"a c #0F7984",
"b c #3BA7AE",
"c c #278590",
"d c #55C7CD",
"e c #35C3CC",
"f c #0D3D49",
"g c #5BE1E2",
"h c #8CF1EF",
"i c #0B626E",
"j c #030407",
"k c #0E5663",
"l c #074A56",
"m c #011B25",
"n c #080F14",
"o c #032E3B",
"p c #AEF1E4",
"q c #0B2028",
"r c #84E3E1",
"s c #201A1A",
"t c #1B1919",
"u c #081A21",
"vvvvvvvvvvvvvvvvvvvvvvvvvvvvvvvvvvvvvvvvvvvvvvvvvvvvvvvvvvvvvvvvvvvvvvvvvvvvvvvvvv",
"vvvvvvvvvvvvvvvvvvvvvvvvvvvvvvvvvvvvvvvvvvvvvvvvvvvvvvvvvvvvvvvvvvvvvvvvvvvvvvvvvv",
"vvvvvvvvvvvvvvvvvvvvvvvvvvvvvvvvvvvvvvvvvvvvvvvvvvvvvvvvvvvvvvvvvvvvvvvvvvvvvvvvvv",
"vvvvvvvvvvvvvvvvvvvvvvvvvvvvvvvvvvvvvvvvvvvvvvvvvvvvvvvvvvvvvvvvvvvvvvvvvvvvvvvvvv",
"vvvvvvvvvvvvvvvvvvvvvvvvvvvvvvvvvvvvvvvvvvvvvvvvvvvvvvvvvvvvvvvvvvvvvvvvvvvvvvvvvv",
"vvvvvvvvvvvvvvvvvvvvvvvvvvvvvvvvvvvvvvvvvvvvvvvvvvvvvvvvvvvvvvvvvvvvvvvvvvvvvvvvvv",
"vvvvvvvvvvvvvvvvvvvvvvvvvvvvvvvvvvvvvvvvvvvvvvvvvvvvvvvvvvvvvvvvvvvvvvvvvvvvvvvvvv",
"vvvvvvvvvvvvvvvvvvvvvvvvvvvvvvvvvvvvvvvvvvvvvvvvvvvvvvvvvvvvvvvvvvvvvvvvvvvvvvvvvv",
"vvvvvvvvvvvvvvvvvvvvvvvvvvvvvvvvvvvvvvvvvvvvvvvvvvvvvvvvvvvvvvvvvvvvvvvvvvvvvvvvvv",
"vvvvvvvvvvvvvvvvvvvvvvvvvvvvvvvvvvvvvvvvvvvvvvvvvvvvvvvvvvvvvvvvvvvvvvvvvvvvvvvvvv",
"vvvvvvvvvvvvvvvvvvvvvvvvvvvvvvvvvvvvvvvvvvvvvvvvvvvvvvvvvvvvvvvvvvvvvvvvvvvvvvvvvv",
"vvvvvvvvvvvvvvvvvvvvvvvvvvvvvvvvvvvvvvvvvvvvvvvvvvvvvvvvvvvvvvvvvvvvvvvvvvvvvvvvvv",
"vvvvvvvvvvvvvvvvvvvvvvvvvvvvvvvvvvvvvvvvvvvvvvvvvvvvvvvvvvvvvvvvvvvvvvvvvvvvvvvvvv",
"vvvvvvvvvvvvvvvvvvvvvvvvvvvvvvvvvvvvvvvvvvvvvvvvvvvvvvvvvvvvvvvvvvvvvvvvvvvvvvvvvv",
"vvvvvvvvvvvvvvvvvvvvvvvvvvvvvvvvvvvvvvvvvvvvvvvvvvvvvvvvvvvvvvvvvvvvvvvvvvvvvvvvvv",
"vvvvvvvvvvvvvvvvvvvvvvvvvvvvvvvvvvvvvvvvvvvvvvvvvvvvvvvvvvvvvvvvvvvvvvvvvvvvvvvvvv",
"vvvvvvvvvvvvvvvvvvvvvvvvvvvvvvvvvvvvvvvvvvvvvvvvvvvvvvvvvvvvvvvvvvvvvvvvvvvvvvvvvv",
"vvvvvvvvvvvvvvvvvvvvvvvvvvvvvvvvvvvvvvvvvvvvvvvvvvvvvvvvvvvvvvvvvvvvvvvvvvvvvvvvvv",
"vvvvvvvvvvvvvvvvvvvvvvvvvvvvvvvvvvvvvvvvvvvvvvvvvvvvvvvvvvvvvvvvvvvvvvvvvvvvvvvvvv",
"vvvvvvvvvvvvvvvvvvvvvvvvvvvvvvvvvvvvvvvvvvvvvvvvvvvvvvvvvvvvvvvvvvvvvvvvvvvvvvvvvv",
"vvvvvvvvvvvvvvvvvvvvvvvvvvvvvvvvvvvvvvvvvvvvvvvvvvvvvvvvvvvvvvvvvvvvvvvvvvvvvvvvvv",
"vvvvvvvvvvvvvvvvvvvvvvvvvvvvvvvvvvvvvvvvvvvvvvvvvvvvvvvvvvvvvvvvvvvvvvvvvvvvvvvvvv",
"vvvvvvvvvvvvvvvvvvvvvvvvvvvvvvvvvvvvvvvvvvvvvvvvvvvvvvvvvvvvvvvvvvvvvvvvvvvvvvvvvv",
"vvvvvvvvvvvvvvvvvvvvvvvvvvvvvvvvvvvvvvvvvvvvvvvvvvvvvvvvvvvvvvvvvvvvvvvvvvvvvvvvvv",
"vvvvvvvvvvvvvvvvvvvvvvvvvvvvvvvvvvvvvvvvvvvvvvvvvvvvvvvvvvvvvvvvvvvvvvvvvvvvvvvvvv",
"vvvvvvvvvvvvvvvvvvvvvvvvvvvvvvvvvvvvvvv.-vvvvvvvvvvvvvvvvvvvvvvvvvvvvvvvvvvvvvvvvv",
"vvvvvvvvvvvvvvvvvvvvvvvvvvvvvvvvvvvvvvv+.vvvvvvvvvvvvvvvvvvvvvvvvvvvvvvvvvvvvvvvvv",
"vvvvvvvvvvvvvvvvvvvvvvvvvvvvvvvvvvvvvv@#.vvvvvvvvvvvvvvvvvvvvvvvvvvvvvvvvvvvvvvvvv",
"vvvvvvvvvvvvvvvvvvvvvvvvvvvvvvvvvvvvvv.$+vvvvvvvvvvvvvvvvvvvvvvvvvvvvvvvvvvvvvvvvv",
"vvvvvvvvvvvvvvvvvvvvvvvvvvvvvvvvvvvvvv+%+vvvvvvvvvvvvvvvvvvvvvvvvvvvvvvvvvvvvvvvvv",
"vvvvvvvvvvvvvvvvvvvvvvvvvvvvvvvvvvvvv@#%+-vvvvvvvvvvvvvvvvv&vvvvvvvvvvvvvvvvvvvvvv",
"vvvvvvvvvvvvvvvvvvvvvvvvvvvvvvvvvvvvv*=;=*vvvvvvvvvvvvvvv.+&vvvvvvvvvvvvvvvvvvvvvv",
"vvvvvvvvvvvvvvvvvvv&@vvvvvvvvvvvvvvv@#:>,%.vvvvvvvvvvvv&+#<vvvvvvvvvvvvvvvvvvvvvvv",
"vvvvvvvvvvvvvvvvvvv-@.*@vvvvvvvvvvv@*?;>!,~^|vv&^^/vvv^##.vvvvvvvvvvvvvvvvvvvvvvvv",
"vvvvvvvvvvvvvvvvvvvvv@#~0|vvvvvvvvv0?1%>2!3>^v&=$$.v/^?#.vvvvvvvvvvvvvvvvvvvvvvvvv",
"vvvvvvvvvvvvvvvvvvvvvv<$!%#*vvv^0|0%;1>3!23%$0$:~$~0=;#*vvvvvvvvvvvvvvvvvvvvvvvvvv",
"vvvvvvvvvvvvvvvvvvvvvvv.=13,~|/$!1>,223!!22!13,3!!1?%==|vvvvvvvvvvvvvvvvvvvvvvvvvv",
"vvvvvvvvvvvvvvvvvvvvvvvv*=>3!1~12!1,45!32545!2131,,,?##vvvvvvvvvvvvvvvvvvvvvvvvvvv",
"vvvvvvvvvvvvvvvvvvvvvvvvv$:%!3!35525422222544522!32%#?0/&@vvvvvvvvvvvvvvvvvvvvvvvv",
"vvvvvvvvvvvvvvvvvvvvvvvvv*:??>324444425525554455!!1#:?$+#.vvvvvvvvvvvvvvvvvvvvvvvv",
"vvvvvvvvvvvvvvvvvvvvvvvvv*:3$?%2454445555552~445!3?;;:##*vvvvvvvvvvvvvvvvvvvvvvvvv",
"vvvvvvvvvvvvvvvvvvvvv/@&|=?1!1:1!560~2225!|/78/~!1;>1%|/vvvvvvvvvvvvvvvvvvvvvvvvvv",
"vvvvvvvvvvvvvvvvvv-@.+$%%;:%%?$|9aba<$>!09cdeebf0323,>|vvvvvvvvvvvvvvvvvvvvvvvvvvv",
"vvvvvvvvvvvvvvv&+*$;;$%>;??:;?*aegghi<~0<6aiaabi9$,!,%;0||@vvvvvvvvvvvvvvvvvvvvvvv",
"vvvvvvvvvvvvvvv@.+*^=:;;;::>;+feghggij..|klcbimmn|$=%:;:??$**|&@vvvvvvvvvvvvvvvvvv",
"vvvvvvvvvvvvvvvvvvvv<+=$$#=,?-acbdeboj.06abphgcomn~?;;;;%%::??*&vvvvvvvvvvvvvvvvvv",
"vvvvvvvvvvvvvvvvvvvvv@&@.$%%^mkfmibbqj-0fibb6bbimm|?%>%;?#***&vvvvvvvvvvvvvvvvvvvv",
"vvvvvvvvvvvvvvvvvvvvvvv-|$##<oofagrgkj96ooacbdcomos??=$$*@vvvvvvvvvvvvvvvvvvvvvvvv",
"vvvvvvvvvvvvvvvvvvvvvvv&7..=<mflibebfjfc9jledrdfmos?#=^.^*.vvvvvvvvvvvvvvvvvvvvvvv",
"vvvvvvvvvvvvvvvvvvvvvvv@@@^+tooqcdrdijfc9nfbgrbfqou0%=#@v.*.vvvvvvvvvvvvvvvvvvvvvv",
"vvvvvvvvvvvvvvvvvvvvvvvv@&*<nomidhpbkj9ckkegphgkkfn&,?#.vvvvvvvvvvvvvvvvvvvvvvvvvv",
"vvvvvvvvvvvvvvvvvvvvvvvvv/|tjmoeghpgcuoifkdrhgdkiljs=:;+vvvvvvvvvvvvvvvvvvvvvvvvvv",
"vvvvvvvvvvvvvvvvvvvvvvvvvv&@sqlcghrbankiocedgrgalunn0=%#.vvvvvvvvvvvvvvvvvvvvvvvvv",
"vvvvvvvvvvvvvvvvvvvvvvvvvv.v/mmicbggcu6kocegrgcaaqjjv|*++@vvvvvvvvvvvvvvvvvvvvvvvv",
"vvvvvvvvvvvvvvvvvvvvvvvvvv.v/moaabdcd6f6cbcbbaiifujvvvvvvvvvvvvvvvvvvvvvvvvvvvvvvv",
"vvvvvvvvvvvvvvvvvvvvvvvvvvvvnoikofkicb6bbb6iiiiifqjnvvvvvvvvvvvvvvvvvvvvvvvvvvvvvv",
"vvvvvvvvvvvvvvvvvvvvvvvvvvvjnlfmmolkbdpppprcomoiilmj9vvvvvvvvvvvvvvvvvvvvvvvvvvvvv",
"vvvvvvvvvvvvvvvvvvvvvvvvvvvjufllkiadhhppprrgdafmmlljvvvvvvvvvvvvvvvvvvvvvvvvvvvvvv",
"vvvvvvvvvvvvvvvvvvvvvvvvvvjnfllokligpprpphrggbakfoojjnvvvvvvvvvvvvvvvvvvvvvvvvvvvv",
"vvvvvvvvvvvvvvvvvvvvvvvvvnnommumofcghhrpprdbikiiionujjvvvvvvvvvvvvvvvvvvvvvvvvvvvv"
};
