/* XPM */
static const char *plasma_discharge_unit_4[] = {
/* columns rows colors chars-per-pixel */
"82 84 51 1 ",
"t c None",
". c #16373F",
"- c #05555E",
"+ c #066A74",
"@ c #50CBCD",
"# c #90F4F2",
"$ c #B3FAF8",
"% c #509BA2",
"& c #5EE9E9",
"* c #B2FFFE",
"= c #229EA3",
"; c #0A8C93",
": c #064852",
"> c #043A43",
", c #03303A",
"< c #041A23",
"? c #012027",
"! c #022B34",
"~ c #05131A",
"^ c #C4FFFE",
"| c #02080C",
"/ c #010D13",
"0 c #0B0C0F",
"1 c #000305",
"2 c #03252E",
"3 c #02060A",
"4 c black",
"5 c #000103",
"6 c #010002",
"7 c #020103",
"8 c #050204",
"9 c #0F0206",
"a c #020001",
"b c #090606",
"c c #020305",
"d c #2B030C",
"e c #860E2D",
"f c #A7123A",
"g c #E82B65",
"h c #450514",
"i c #0D0709",
"j c #3F111F",
"k c #190A0E",
"l c #080205",
"m c #66081F",
"n c #080608",
"o c #DD184F",
"p c #F33B7A",
"q c #FC4E90",
"r c #1E1A1B",
"s c #161C22",
"tttttttttttttttttttttttttttttttttttttttttttttttttttttttttttttttttttttttttttttttttt",
"tttttttttttttttttttttttttttttttttttttttttttttttttttttttttttttttttttttttttttttttttt",
"tttttttttttttttttttttttttttttttttttttttttttttttttttttttttttttttttttttttttttttttttt",
"tttttttttttttttttttttttttttttttttttttttttttttttttttttttttttttttttttttttttttttttttt",
"tttttttttttttttttttttttttttttttttttttttttttttttttttttttttttttttttttttttttttttttttt",
"tttttttttttttttttttttttttttttttttttttttttttttttttttttttttttttttttttttttttttttttttt",
"tttttttttttttttttttttttttttttttttttttttttttttttttttttttttttttttttttttttttttttttttt",
"tttttttttttttttttttttttttttttttttttttttttttttttttttttttttttttttttttttttttttttttttt",
"tttttttttttttttttttttttttttttttttttttttttttttttttttttttttttttttttttttttttttttttttt",
"tttttttttttttttttttttttttttttttttttttttttttttttttttttttttttttttttttttttttttttttttt",
"tttttttttttttttttttttttttttttttttttttttttttttttttttttttttttttttttttttttttttttttttt",
"tttttttttttttttttttttttttttttttttttttttttttttttttttttttttttttttttttttttttttttttttt",
"tttttttttttttttttttttttttttttttttttttttttttttttttttttttttttttttttttttttttttttttttt",
"tttttttttttttttttttttttttttttttttttttttttttttttttttttttttttttttttttttttttttttttttt",
"tttttttttttttttttttttttttttttttttttttttttttttttttttttttttttttttttttttttttttttttttt",
"tttttttttttttttttttttttttttttttttttttttttttttttttttttttttttttttttttttttttttttttttt",
"tttttttttttttttttttttttttttttttttttttttttttttttttttttttttttttttttttttttttttttttttt",
"tttttttttttttttttttttttttttttttttttttttttttttttttttttttttttttttttttttttttttttttttt",
"tttttttttttttttttttttttttttttttttttttttttttttttttttttttttttttttttttttttttttttttttt",
"tttttttttttttttttttttttttttttttttttttttttttttttttttttttttttttttttttttttttttttttttt",
"tttttttttttttttttttttttttttttttttttttttttttttttttttttttttttttttttttttttttttttttttt",
"tttttttttttttttttttttttttttttttttttttttttttttttttttttttttttttttttttttttttttttttttt",
"tttttttttttttttttttttttttttttttttttttttttttttttttttttttttttttttttttttttttttttttttt",
"tttttttttttttttttttttttttttttttttttttttttttttttttttttttttttttttttttttttttttttttttt",
"tttttttttttttttttttttttttttttttttttttttttttttttttttttttttttttttttttttttttttttttttt",
"tttttttttttttttttttttttttttttttttttttttttttttttttttttttttttttttttttttttttttttttttt",
"tttttttttttttttttttttttttttttttttttttttttttttttttttttttttttttttttttttttttttttttttt",
"tttttttttttttttttttttttttttttttttttttttttttttttttttttttttttttttttttttttttttttttttt",
"tttttttttttttttttttttttttttttttttttttttttttttttttttttttttttttttttttttttttttttttttt",
"tttttttttttttttttttttttttttttttttttttttttttttttttttttttttttttttttttttttttttttttttt",
"tttttttttttttttttttttttttttttttttttttttttttttttttttttttttttttttttttttttttttttttttt",
"tttttttttttttttttttttttttttttttttttttttttttttttttttttttttttttttttttttttttttttttttt",
"tttttttttttttttttttttttttttttttttttttttttttttttttttttttttttttttttttttttttttttttttt",
"tttttttttttttttttttttttttttttttttttttttttttttttttttttttttttttttttttttttttttttttttt",
"tttttttttttttttttttttttttttttttttttttttttttttttttttttttttttttttttttttttttttttttttt",
"tttttttttttttttttttttttttttttttttttttttttttttttttttttttttttttttttttttttttttttttttt",
"tttttttttttttttttttttttttttttttttttttttttttttttttttttttttttttttttttttttttttttttttt",
"tttttttttttttttttttttttttttttttttttttttttttttttttttttttttttttttttttttttttttttttttt",
"tttttttttttttttttttttttttttttttttttttttttttttttttttttttttttttttttttttttttttttttttt",
"tttttttttttttttttttttttttttttttttttttttttttttttttttttttttttttttttttttttttttttttttt",
"tttttttttttttttttttttttttttttttttttttttttttttttttttttttttttttttttttttttttttttttttt",
"ttttttttttttttttttttttttttttttttttttt..-++.ttttttttttttttttttttttttttttttttttttttt",
"ttttttttttttttttttttttttttttttttttt-@@##$$$%-ttttttttttttttttttttttttttttttttttttt",
"tttttttttttttttttttttttttttttttttt%&&&#$$$$*#=-ttttttttttttttttttttttttttttttttttt",
"tttttttttttttttttttttttttttttttt.@&@=;+&*#==@@=;:ttttttttttttttttttttttttttttttttt",
"ttttttttttttttttttttttttttttttt:=@=++-+=*#;;++;;+-tttttttttttttttttttttttttttttttt",
"tttttttttttttttttttttttttttttt:----::-:+&@++++-;;;:ttttttttttttttttttttttttttttttt",
"ttttttttttttttttttttttttttttt->,<?!>!!:@#*%--->>>-!!tttttttttttttttttttttttttttttt",
"tttttttttttttttttttttttttttt:><~!,!,+@#*^**&=+-,>,-!:ttttttttttttttttttttttttttttt",
"tttttttttttttttttttttttttttt<|/?,,+&#*^^^^**##@;>/,::,tttttttttttttttttttttttttttt",
"ttttttttttttttttttttttttttt0|1/2+@##&@@#^$=+%&#&@;<~?>tttttttttttttttttttttttttttt",
"ttttttttttttttttttttttttttt|1/>;&&=:?|/%^#,/|~:=@&=2/?2ttttttttttttttttttttttttttt",
"tttttttttttttttttttttttttt0|3>;=;?44453%^#!3|361!+=;:/20tttttttttttttttttttttttttt",
"tttttttttttttttttttttttttt|1<+;,346761~%^#!33<,,~42-;:<~tttttttttttttttttttttttttt",
"ttttttttttttttttttttttttt813>+<746489a?@^^+|./?,:!1~+;,2bttttttttttttttttttttttttt",
"tttttttttttttttttttttttttc3~,!ac4deff9,&^^=3geh1<>2|?+->8ttttttttttttttttttttttttt",
"tttttttttttttttttttttttti7c2,|449hjjka,&^*;1dffe963/1<--|ttttttttttttttttttttttttt",
"ttttttttttttttttttttttttl63,<448hjmfma,&^^=5hemfm9n3||,+?btttttttttttttttttttttttt",
"tttttttttttttttttttttttt76/214aeoggge4>#^^@1hefmd9cc13!+2itttttttttttttttttttttttt",
"ttttttttttttttttttttttti65/3c4eogppod4:$^^#/ijfooe97|3|+>ttttttttttttttttttttttttt",
"tttttttttttttttttttttttbacn85hoooggma4+*^^#?bjgpppe4|/7::ttttttttttttttttttttttttt",
"tttttttttttttttttttttttb5cn69hemmefe93;*^^$,4hoepqoda~<<:ttttttttttttttttttttttttt",
"ttttttttttttttttttttttti17aa99hfooema~=**^#23rjhmeed8022!0tttttttttttttttttttttttt",
"tttttttttttttttttttttttic544amogoofh4|%*$*#,ckmgpfmk7~~!!ntttttttttttttttttttttttt",
"ttttttttttttttttttttttti8564mgppqqpj53@*$**-1jogpqqgh~<<!ltttttttttttttttttttttttt",
"ttttttttttttttttttttttt8|cc6mooofeha7/@*$^*+|9hmfoggek>?~ctttttttttttttttttttttttt",
"ttttttttttttttttttttttt1~cnl49hmmd987<&*^$*=:/4dmmhmdk>>23lttttttttttttttttttttttt",
"tttttttttttttttttttttti3~588hfpqqqfi<,&*^$*&-/4fpppgfm<!:<9ttttttttttttttttttttttt",
"tttttttttttttttttttttt8|/64hgqqppgmn2>&#*##&-/4jfgqqqgj.>2n8tttttttttttttttttttttt",
"tttttttttttttttttttttt|?34kfgggfhd8c2:@#*&##+!~99mffoof.:2<3tttttttttttttttttttttt",
"tttttttttttttttttttttk<:14hehdddhi3/!-@#*@&&;!,4kdd9l9mms~?/bttttttttttttttttttttt",
"tttttttttttttttttttttb~>c5l4deogpfk~>+@&#@&&;!!lfgggfm98nc|3attttttttttttttttttttt",
"ttttttttttttttttttttta~/a77hoqqqpfk~,+@@&@&&;<~kegpqqpgekc1|5itttttttttttttttttttt",
"tttttttttttttttttttti8~149eogppgoml|~+=@@=@&;</5bmmogfogf93cc8tttttttttttttttttttt",
"ttttttttttttttttttttl8354defffemmd5//+;;;;==+~37c6lhm99jdlc668tttttttttttttttttttt",
"tttttttttttttttttttinncc1dhdhddkkl80|>+;++;;:|38i99300|il7aa7aittttttttttttttttttt",
"tttttttttttttttttttbbinnbbbiiittibbnn0.:..<,~nbbnnbnnninibbbbblttttttttttttttttttt",
"tttttttttttttttttttttttttttttttttttttttttttttttttttttttttttttttttttttttttttttttttt",
"tttttttttttttttttttttttttttttttttttttttttttttttttttttttttttttttttttttttttttttttttt",
"tttttttttttttttttttttttttttttttttttttttttttttttttttttttttttttttttttttttttttttttttt",
"tttttttttttttttttttttttttttttttttttttttttttttttttttttttttttttttttttttttttttttttttt",
"tttttttttttttttttttttttttttttttttttttttttttttttttttttttttttttttttttttttttttttttttt",
"tttttttttttttttttttttttttttttttttttttttttttttttttttttttttttttttttttttttttttttttttt",
"tttttttttttttttttttttttttttttttttttttttttttttttttttttttttttttttttttttttttttttttttt"
};
