/* XPM */
static const char *rapid_assault_weapon_2[] = {
/* columns rows colors chars-per-pixel */
"82 70 50 1 ",
"s c None",
". c #588790",
"- c #6A979D",
"+ c #264245",
"@ c #A6FFFD",
"# c #7BD0CF",
"$ c #72B4B9",
"% c #123642",
"& c #305861",
"* c #022E47",
"= c #063A60",
"; c #095286",
": c #05283A",
"> c #011C2C",
", c #186481",
"< c #2B94B0",
"? c #3DAEC7",
"! c #1C7C9E",
"~ c #40CBD2",
"^ c #5AE5EC",
"| c #76EEEC",
"/ c #8DFCF6",
"0 c #9DFCF6",
"1 c #8BF0ED",
"2 c #9BFFFA",
"3 c #0D0C0F",
"4 c #053038",
"5 c #122A2F",
"6 c #010E13",
"7 c #9DF5F1",
"8 c #00202B",
"9 c #02191E",
"a c #0A0406",
"b c #071318",
"c c #010305",
"d c #1B0B0F",
"e c #201416",
"f c #2A0C11",
"g c #500814",
"h c #AF1633",
"i c #0E3037",
"j c #1B1B1C",
"k c #2C2027",
"l c black",
"m c #7C0F22",
"n c #94435B",
"o c #0E2E35",
"p c #000103",
"q c #080001",
"r c #000001",
"ssssssssssssssssssssssssssssssssssssssssssssssssssssssssssssssssssssssssssssssssss",
"ssssssssssssssssssssssssssssssssssssssssssssssssssssssssssssssssssssssssssssssssss",
"ssssssssssssssssssssssssssssssssssssssssssssssssssssssssssssssssssssssssssssssssss",
"ssssssssssssssssssssssssssssssssssssssssssssssssssssssssssssssssssssssssssssssssss",
"ssssssssssssssssssssssssssssssssssssssssssssssssssssssssssssssssssssssssssssssssss",
"ssssssssssssssssssssssssssssssssssssssssssssssssssssssssssssssssssssssssssssssssss",
"ssssssssssssssssssssssssssssssssssssssssssssssssssssssssssssssssssssssssssssssssss",
"ssssssssssssssssssssssssssssssssssssssssssssssssssssssssssssssssssssssssssssssssss",
"ssssssssssssssssssssssssssssssssssssssssssssssssssssssssssssssssssssssssssssssssss",
"ssssssssssssssssssssssssssssssssssssssssssssssssssssssssssssssssssssssssssssssssss",
"ssssssssssssssssssssssssssssssssssssssssssssssssssssssssssssssssssssssssssssssssss",
"ssssssssssssssssssssssssssssssssssssssssssssssssssssssssssssssssssssssssssssssssss",
"ssssssssssssssssssssssssssssssssssssssssssssssssssssssssssssssssssssssssssssssssss",
"ssssssssssssssssssssssssssssssssssssssssssssssssssssssssssssssssssssssssssssssssss",
"ssssssssssssssssssssssssssssssssssssssssssssssssssssssssssssssssssssssssssssssssss",
"ssssssssssssssssssssssssssssssssssssssssssssssssssssssssssssssssssssssssssssssssss",
"ssssssssssssssssssssssssssssssssssssssssssssssssssssssssssssssssssssssssssssssssss",
"ssssssssssssssssssssssssssssssssssssssssssssssssssssssssssssssssssssssssssssssssss",
"ssssssssssssssssssssssssssssssssssssssssssssssssssssssssssssssssssssssssssssssssss",
"ssssssssssssssssssssssssssssssssssssssssssssssssssssssssssssssssssssssssssssssssss",
"ssssssssssssssssssssssssssssssssssssssssssssssssssssssssssssssssssssssssssssssssss",
"ssssssssssssssssssssssssssssssssssssssssssssssssssssssssssssssssssssssssssssssssss",
"ssssssssssssssssssssssssssssssssssssssssssssssssssssssssssssssssssssssssssssssssss",
"ssssssssssssssssssssssssssssssssssssssssssssssssssssssssssssssssssssssssssssssssss",
"ssssssssssssssssssssssssssssssssssssssssssssssssssssssssssssssssssssssssssssssssss",
"ssssssssssssssssssssssssssssssssssssssssssssssssssssssssssssssssssssssssssssssssss",
"ssssssssssssssssssssssssssssssssssssssssssssssssssssssssssssssssssssssssssssssssss",
"ssssssssssssssssssssssssssssssssssssssssssssssssssssssssssssssssssssssssssssssssss",
"ssssssssssssssssssssssssssssssssssssssssssssssssssssssssssssssssssssssssssssssssss",
"ssssssssssssssssssssssssssssssssssssssssssssssssssssssssssssssssssssssssssssssssss",
"ssssssssssssssssssssssssssssssssssssssssssssssssssssssssssssssssssssssssssssssssss",
"ssssssssssssssssssssssssssssssssssssssssssssssssssssssssssssssssssssssssssssssssss",
"ssssssssssssssssssssssssssssssssssssssssssssssssssssssssssssssssssssssssssssssssss",
"ssssssssssssssssssssssssssssssssssssssssssssssssssssssssssssssssssssssssssssssssss",
"ssssssssssssssssssssssssssssssssssssssssssssssssssssssssssssssssssssssssssssssssss",
"ssssssssssssssssssssssssssssssssssssssssssssssssssssssssssssssssssssssssssssssssss",
"ssssssssssssssssssssssssssssssssssssssssssssssssssssssssssssssssssssssssssssssssss",
"ssssssssssssssssssssssssssssssssssssssssssssssssssssssssssssssssssssssssssssssssss",
"ssssssssssssssssssssssssssssssssssssssssssssssssssssssssssssssssssssssssssssssssss",
"ssssssssssssssssssssssssssssssssssssssssssssssssssssssssssssssssssssssssssssssssss",
"ssssssssssssssssssssssssssssssssssssssssssssssssssssssssssssssssssssssssssssssssss",
"ssssssssssssssssssssssssssssssssssssssssssssssssssssssssssssssssssssssssssssssssss",
"ssssssssssssssssssssssssssssssssssssssssssssssssssssssssssssssssssssssssssssssssss",
"ssssssssssssssssssssssssssssssssssssssss.--.--..-.ssssssssssssssssssssssssssssssss",
"ssssssssssssssssssssssssssssssssssssss+.@#-$$$$$#$%sssssssssssssssssssssssssssssss",
"ssssssssssssssssssssssssssssssssssssss&#.**=;;=:>%,sssssssssssssssssssssssssssssss",
"sssssssssssssssssssssssssssssssssssss+-#*=;<?<!;*,<sssssssssssssssssssssssssssssss",
"sssssssssssssssssssssssssssssssssssss+-.=;!???~;*$$sssssssssssssssssssssssssssssss",
"sssssssssssssssssssssssssssssssssssss+.&=;!^^|^<;&#++sssssssssssssssssssssssssssss",
"sssssssssssssssssssssssssssssssssssss+.&!;!^||??!=#&+sssssssssssssssssssssssssssss",
"sssssssssssssssssssssssssssssssssssss+$&<<;~@|~<!;-.+sssssssssssssssssssssssssssss",
"sssssssssssssssssssssssssssssssssssss+$&;!!!<<!;;;--+sssssssssssssssssssssssssssss",
"ssssssssssssssssssssssssssssssssssss%,<?~~^^^~~?<<<!+sssssssssssssssssssssssssssss",
"ssssssssssssssssssssssssssssssssssss,~^^||//0/1||^~?.sssssssssssssssssssssssssssss",
"ssssssssssssssssssssssssssssssssssss<|//2//000/11//||+ssssssssssssssssssssssssssss",
"sssssssssssssssssssssssssssssssssss,?<!,,,?1///~,,?#~,ssssssssssssssssssssssssssss",
"ssssssssssssssssssssssssssssssssss3456:4>*#@0@7,=8>88%ssssssssssssssssssssssssssss",
"sssssssssssssssssssssssssssssssssss969988%70707&896996ssssssssssssssssssssssssssss",
"ssssssssssssssssssssssssssssssssss3ab6698&0@00@.48966ccsssssssssssssssssssssssssss",
"ssssssssssssssssssssssssssssssssssaadeb66.@7$7@-896bbccsssssssssssssssssssssssssss",
"ssssssssssssssssssssssssssssssssssfghgb6%1@#4#@|i9bjk3lsssssssssssssssssssssssssss",
"sssssssssssssssssssssssssssssssssdmggf3l,@2$c-2@,lafhmfassssssssssssssssssssssssss",
"sssssssssssssssssssssssssssssssssdmnhhel.2@.lo12$plagmmqssssssssssssssssssssssssss",
"ssssssssssssssssssssssssssssssssafmmmgap$2@+l9#2|5lghhmfssssssssssssssssssssssssss",
"sssssssssssssssssssssssssssssssspfhnmdl6|27&i8$@2+lfmhmaasssssssssssssssssssssssss",
"sssssssssssssssssssssssssssssssslghhmali/21#1$#0@&lqmmgdqsssssssssssssssssssssssss",
"ssssssssssssssssssssssssssssssscqgmmfrl&/2^/@@/0@<llhhhfqassssssssssssssssssssssss",
"ssssssssssssssssssssssssssssssslghhhmll?/2&,&&7@2#6lghhgdcssssssssssssssssssssssss",
"sssssssssssssssssssssssssssssssrgghhflb^/1%846$@0|bldhmmgdssssssssssssssssssssssss",
"sssssssssssssssssssssssssssssscqghnndls|/$:*4l.@2|9llghhgqasssssssssssssssssssssss"
};
