/* XPM */
static const char *slow_fire_protector_2[] = {
/* columns rows colors chars-per-pixel */
"82 67 47 1 ",
"p c None",
". c #353D44",
"- c #412020",
"+ c #562B22",
"@ c #B33A2F",
"# c #C2846B",
"$ c #535C6B",
"% c #A75E41",
"& c #CEE0E3",
"* c #28616D",
"= c #578594",
"; c #CE612D",
": c #D90D24",
"> c #84C9D5",
", c #B10C1C",
"< c #890711",
"? c #34AFC1",
"! c #0C6C80",
"~ c #1C1A20",
"^ c #198194",
"| c #072633",
"/ c #0A2027",
"0 c #0E3F4C",
"1 c #105769",
"2 c #0B1325",
"3 c #4E0E12",
"4 c #16282E",
"5 c #290406",
"6 c #4D0205",
"7 c #0B060D",
"8 c #101013",
"9 c #122D33",
"a c #271114",
"b c #2F2A2B",
"c c #112E34",
"d c #32231F",
"e c #4F180A",
"f c #232224",
"g c #13181B",
"h c #78351A",
"i c #D26F2A",
"j c #A74C0F",
"k c #903916",
"l c #201D1E",
"m c #F4A96B",
"n c #EB8A39",
"o c #202021",
"pppppppppppppppppppppppppppppppppppppppppppppppppppppppppppppppppppppppppppppppppp",
"pppppppppppppppppppppppppppppppppppppppppppppppppppppppppppppppppppppppppppppppppp",
"pppppppppppppppppppppppppppppppppppppppppppppppppppppppppppppppppppppppppppppppppp",
"pppppppppppppppppppppppppppppppppppppppppppppppppppppppppppppppppppppppppppppppppp",
"pppppppppppppppppppppppppppppppppppppppppppppppppppppppppppppppppppppppppppppppppp",
"pppppppppppppppppppppppppppppppppppppppppppppppppppppppppppppppppppppppppppppppppp",
"pppppppppppppppppppppppppppppppppppppppppppppppppppppppppppppppppppppppppppppppppp",
"pppppppppppppppppppppppppppppppppppppppppppppppppppppppppppppppppppppppppppppppppp",
"pppppppppppppppppppppppppppppppppppppppppppppppppppppppppppppppppppppppppppppppppp",
"pppppppppppppppppppppppppppppppppppppppppppppppppppppppppppppppppppppppppppppppppp",
"pppppppppppppppppppppppppppppppppppppppppppppppppppppppppppppppppppppppppppppppppp",
"pppppppppppppppppppppppppppppppppppppppppppppppppppppppppppppppppppppppppppppppppp",
"pppppppppppppppppppppppppppppppppppppppppppppppppppppppppppppppppppppppppppppppppp",
"pppppppppppppppppppppppppppppppppppppppppppppppppppppppppppppppppppppppppppppppppp",
"pppppppppppppppppppppppppppppppppppppppppppppppppppppppppppppppppppppppppppppppppp",
"pppppppppppppppppppppppppppppppppppppppppppppppppppppppppppppppppppppppppppppppppp",
"pppppppppppppppppppppppppppppppppppppppppppppppppppppppppppppppppppppppppppppppppp",
"pppppppppppppppppppppppppppppppppppppppppppppppppppppppppppppppppppppppppppppppppp",
"pppppppppppppppppppppppppppppppppppppppppppppppppppppppppppppppppppppppppppppppppp",
"pppppppppppppppppppppppppppppppppppppppppppppppppppppppppppppppppppppppppppppppppp",
"pppppppppppppppppppppppppppppppppppppppppppppppppppppppppppppppppppppppppppppppppp",
"pppppppppppppppppppppppppppppppppppppppppppppppppppppppppppppppppppppppppppppppppp",
"pppppppppppppppppppppppppppppppppppppppppppppppppppppppppppppppppppppppppppppppppp",
"pppppppppppppppppppppppppppppppppppppppppppppppppppppppppppppppppppppppppppppppppp",
"pppppppppppppppppppppppppppppppppppppppppppppppppppppppppppppppppppppppppppppppppp",
"pppppppppppppppppppppppppppppppppppppppppppppppppppppppppppppppppppppppppppppppppp",
"pppppppppppppppppppppppppppppppppppppppppppppppppppppppppppppppppppppppppppppppppp",
"pppppppppppppppppppppppppppppppppppppppppppppppppppppppppppppppppppppppppppppppppp",
"pppppppppppppppppppppppppppppppppppppppppppppppppppppppppppppppppppppppppppppppppp",
"pppppppppppppppppppppppppppppppppppppppppppppppppppppppppppppppppppppppppppppppppp",
"pppppppppppppppppppppppppppppppppppppppppppppppppppppppppppppppppppppppppppppppppp",
"pppppppppppppppppppppppppppppppppppppppppppppppppppppppppppppppppppppppppppppppppp",
"pppppppppppppppppppppppppppppppppppppppppppppppppppppppppppppppppppppppppppppppppp",
"pppppppppppppppppppppppppppppppppppppppppppppppppppppppppppppppppppppppppppppppppp",
"pppppppppppppppppppppppppppppppppppppppppppppppppppppppppppppppppppppppppppppppppp",
"pppppppppppppppppppppppppppppppppppppppppppppppppppppppppppppppppppppppppppppppppp",
"pppppppppppppppppppppppppppppppppppppppppppppppppppppppppppppppppppppppppppppppppp",
"pppppppppppppppppppppppppppppppppppppppppppppppppppppppppppppppppppppppppppppppppp",
"pppppppppppppppppppppppppppppppppppppppppppppppppppppppppppppppppppppppppppppppppp",
"pppppppppppppppppppppppppppppppppppppppppppppppppppppppppppppppppppppppppppppppppp",
"pppppppppppppppppppppppppppppppppppppppppppppppppppppppppppppppppppppppppppppppppp",
"pppppppppppppppppppppppppppppppppppppppppppppppppppppppppppppppppppppppppppppppppp",
"pppppppppppppppppppppppppppppppppppppppppppppppppppppppppppppppppppppppppppppppppp",
"pppppppppppppppppppppppppppppppppppppppppppppp..pppppppppppppppppppppppppppppppppp",
"pppppppppppppppppppppppppppppppppppppppppppp-+@@##+ppppppppppppppppppppppppppppppp",
"pppppppppppppppppppppppppppppppppppppppppp$#%###&&#$$ppppppppppppppppppppppppppppp",
"ppppppppppppppppppppppppppppppppppppppppp*=@;:@@%&>>*.pppppppppppppppppppppppppppp",
"ppppppppppppppppppppppppppppppppppppppppp#@:::,,<+=&?!.ppppppppppppppppppppppppppp",
"pppppppppppppppppppppppppppppppppppppppp%@@#$$=$$<~*=?^ppppppppppppppppppppppppppp",
"pppppppppppppppppppppppppppppppppppppp.!.%=!!^???^*|/.^0pppppppppppppppppppppppppp",
"pppppppppppppppppppppppppppppppppppppp1^00!?&&&>>??0020^pppppppppppppppppppppppppp",
"ppppppppppppppppppppppppppppppppppppp0!!!?>?=.$$$.^!1!000ppppppppppppppppppppppppp",
"ppppppppppppppppppppppppppppppppppppp*01^?^3,,::,,-^0|?00ppppppppppppppppppppppppp",
"ppppppppppppppppppppppppppppppppppppp.4!^15,::::,6</|7?1pppppppppppppppppppppppppp",
"pppppppppppppppppppppppppppppppppppppp*?!6<:#&>$:,6587!!7ppppppppppppppppppppppppp",
"pppppppppppppppppppppppppppppppppppppp^13<:%>>&>,<<66|!1/ppppppppppppppppppppppppp",
"pppppppppppppppppppppppppppppppppppppp^9<<,=&&&&,6<66/102ppppppppppppppppppppppppp",
"pppppppppppppppppppppppppppppppppppppp?a<6b>&&&>,5666~=cpppppppppppppppppppppppppp",
"ppppppppppppppppppppppppppppppppppppp$?d<63=&&&=<5566.>.bppppppppppppppppppppppppp",
"ppppppppppppppppppppppppppppppppppppp$=4855~1^=$656630?*pppppppppppppppppppppppppp",
"ppppppppppppppppppppppppppppppppppppb=..377878/257572=?1*bpppppppppppppppppppppppp",
"pppppppppppppppppppppppppppppppppppp--eee3adf~g287772=^..ppppppppppppppppppppppppp",
"ppppppppppppppppppppppppppppppppppphijhjj;iiiijjjk55l11b-khdpppppppppppppppppppppp",
"pppppppppppppppppppppppppppppppppdk;ikimnnnnninnn;hhe/oeekjkpppppppppppppppppppppp",
"pppppppppppppppppppppppppppppppppkijjimmmmmmiiiiije5ee5kkkkjhppppppppppppppppppppp",
"ppppppppppppppppppppppppppppppppeiihjinmmmniiijjkeejjj+ejjjjkdpppppppppppppppppppp",
"ppppppppppppppppppppppppppppppppknnkh;innniiijke5hnmmmnkhjjjjepppppppppppppppppppp"
};
