/* XPM */
static const char *slow_fire_protector_3[] = {
/* columns rows colors chars-per-pixel */
"82 67 57 1 ",
"z c None",
". c #492E24",
"- c #42251B",
"+ c #57261A",
"@ c #4A1D17",
"# c #772B0D",
"$ c #A6400B",
"% c #771517",
"& c #D12E0A",
"* c #942A0F",
"= c #3A201E",
"; c #D63E0B",
": c #F24B05",
"> c #E14F09",
", c #F8710A",
"< c #FA790C",
"? c #FB810B",
"! c #F66209",
"~ c #FC8C0E",
"^ c #F45604",
"| c #FD9D20",
"/ c #FDB823",
"0 c #89401E",
"1 c #AA5018",
"2 c #FDA934",
"3 c #F08E35",
"4 c #C0530D",
"5 c #FDC740",
"6 c #FDD656",
"7 c #FCB857",
"8 c #A61112",
"9 c #D36C1D",
"a c #FDE471",
"b c #F7DF81",
"c c #FDF08F",
"d c #35221D",
"e c #97693E",
"f c #E07D29",
"g c #332420",
"h c #232528",
"i c #124B5C",
"j c #0E7085",
"k c #27ACBF",
"l c #97D7E1",
"m c #3E4641",
"n c #F8AF58",
"o c #121720",
"p c #12313A",
"q c #172023",
"r c #281A19",
"s c #480B0B",
"t c #09050C",
"u c #23080C",
"v c #242120",
"w c #222222",
"x c #DD8644",
"y c #F59D45",
"zzzzzzzzzzzzzzzzzzzzzzzzzzzzzzzzzzzzzzzzzzzzzzzzzzzzzzzzzzzzzzzzzzzzzzzzzzzzzzzzzz",
"zzzzzzzzzzzzzzzzzzzzzzzzzzzzzzzzzzzzzzzzzzzzzzzzzzzzzzzzzzzzzzzzzzzzzzzzzzzzzzzzzz",
"zzzzzzzzzzzzzzzzzzzzzzzzzzzzzzzzzzzzzzzzzzzzzzzzzzzzzzzzzzzzzzzzzzzzzzzzzzzzzzzzzz",
"zzzzzzzzzzzzzzzzzzzzzzzzzzzzzzzzzzzzzzzzzzzzzzzzzzzzzzzzzzzzzzzzzzzzzzzzzzzzzzzzzz",
"zzzzzzzzzzzzzzzzzzzzzzzzzzzzzzzzzzzzzzzzzzzzzzzzzzzzzzzzzzzzzzzzzzzzzzzzzzzzzzzzzz",
"zzzzzzzzzzzzzzzzzzzzzzzzzzzzzzzzzzzzzzzzzzzzzzzzzzzzzzzzzzzzzzzzzzzzzzzzzzzzzzzzzz",
"zzzzzzzzzzzzzzzzzzzzzzzzzzzzzzzzzzzzzzzzzzzzzzzzzzzzzzzzzzzzzzzzzzzzzzzzzzzzzzzzzz",
"zzzzzzzzzzzzzzzzzzzzzzzzzzzzzzzzzzzzzzzzzzzzzzzzzzzzzzzzzzzzzzzzzzzzzzzzzzzzzzzzzz",
"zzzzzzzzzzzzzzzzzzzzzzzzzzzzzzzzzzzzzzzzzzzzzzzzzzzzzzzzzzzzzzzzzzzzzzzzzzzzzzzzzz",
"zzzzzzzzzzzzzzzzzzzzzzzzzzzzzzzzzzzzzzzzzzzzzzzzzzzzzzzzzzzzzzzzzzzzzzzzzzzzzzzzzz",
"zzzzzzzzzzzzzzzzzzzzzzzzzzzzzzzzzzzzzzzzzzzzzzzzzzzzzzzzzzzzzzzzzzzzzzzzzzzzzzzzzz",
"zzzzzzzzzzzzzzzzzzzzzzzzzzzzzzzzzzzzzzzzzzzzzzzzzzzzzzzzzzzzzzzzzzzzzzzzzzzzzzzzzz",
"zzzzzzzzzzzzzzzzzzzzzzzzzzzzzzzzzzzzzzzzzzzzzzzzzzzzzzzzzzzzzzzzzzzzzzzzzzzzzzzzzz",
"zzzzzzzzzzzzzzzzzzzzzzzzzzzzzzzzzzzzzzz.-zzzzzzzzzzzzzzzzzzzzzzzzzzzzzzzzzzzzzzzzz",
"zzzzzzzzzzzzzzzzzzzzzzzzzzzzzzzzzzzzzzz++zzzzzzzzzzzzzzzzzzzzzzzzzzzzzzzzzzzzzzzzz",
"zzzzzzzzzzzzzzzzzzzzzzzzzzzzzzzzzzzzzzz+@zzzzzzzzzzzzzzzzzzzzzzzzzzzzzzzzzzzzzzzzz",
"zzzzzzzzzzzzzzzzzzzzzzzzzzzzzzzzzzzzzzz#@zzzzzzzzzzzzzzzzzzzzzzzzzzzzzzzzzzzzzzzzz",
"zzzzzzzzzzzzzzzzzzzzzzzzzzzzzzzzzzzzzzz$%zzzzzzzzzzzzzzzzzzzzzzzzzzzzzzzzzzzzzzzzz",
"zzzzzzzzzzzzzzzzzzzzzzzzzzzzzzzzzzzzzzz&*zzzzzzzzzzzzzzzzzzzzzzzzzzzzzzzzzzzzzzzzz",
"zzzzzzzzzzzzzzzzzzzzzzzzzzzzzzzzzzzzzz=&*zzzzzzzzzzzzzzzzzzzzzzzzzzzzzzzzzzzzzzzzz",
"zzzzzzzzzzzzzzzzzzzzzzzzzzzzzzzzzzzzzz@;$zzzzzzzzzzzzzzzzzzzzzzzzzzzzzzzzzzzzzzzzz",
"zzzzzzzzzzzzzzzzzzzzzzzzzzzzzzzzzzzzzz@:>=zzzzzzzzzzzzzzzzzzzzzzzzzzzzzzzzzzzzzzzz",
"zzzzzzzzzzzzzzzzzzzzzzzzzzzzzzzzzzzzzz#,,+zzzzzzzzzzzzzzzzzzzzzzzzzzzzzzzzzzzzzzzz",
"zzzzzzzzzzzzzzzzzzzzzzzzzzzzzzzzzzzzzz;<?$zzzzzzzzzz-zzzzzzzzzzzzzzzzzzzzzzzzzzzzz",
"zzzzzzzzzzzzzzzzzzzzzzzzzz-#zzzzzzzzz@!<~^+zzzzzzzz@*zzzzzzzzzzzzzzzzzzzzzzzzzzzzz",
"zzzzzzzzzzzzzzzzzzzzzzzzzzz&*zzzzzzzz#<?|!*zzzzzz-*:*zzzzzzzzzzzzzzzzzzzzzzzzzzzzz",
"zzzzzzzzzzzzzzzzzzzzzzzzzzz*;;*-zzzzz&<?/<;.zz--0&^;=zzzzzzzzzzzzzzzzzzzzzzzzzzzzz",
"zzzzzzzzzzzzzzzzzzzzzzzzzzz=&:^;#zzzz1??23:;+#0>!^&-zzzzzzzzzzzzzzzzzzzzzzzzzzzzzz",
"zzzzzzzzzzzzzzzzzzzzzzzzzzzz$::!!4.zz1~~52,^14<,!;#zzzzzzzzzzzzzzzzzzzzzzzzzzzzzzz",
"zzzzzzzzzzzzzzzzzzzzzzzzzzzz*^:,?>$+0<5|55?!,||??>-zzzzzzzzzzzzzzzzzzzzzzzzzzzzzzz",
"zzzzzzzzzzzzzzzzzzzzzzzzzzzz+;!!,,0#:|6/76||/|!</,81zzzzzzzzzzzzzzzzzzzzzzzzzzzzzz",
"zzzzzzzzzzzzzzzzzzzzzzzzzzzzz$!<?~9&!56/a6////7/~:<1zzzzzzzzzzzzzzzzzzzzzzzzzzzzzz",
"zzzzzzzzzzzzzzzzzzzzzzzzzzzzz#:?,<!!26a/b6///55|~<>&$.zzzzzzzzzzzzzzzzzzzzzzzzzzzz",
"zzzzzzzzzzzzzzzzzzzzzzzzzzzz+&:::!|26bcaca5/55/5/,^!+zzzzzzzzzzzzzzzzzzzzzzzzzzzzz",
"zzzzzzzzzzzzzzzzzzzzzzzzz=+#0>^^^?/6abaccc6a666/~~?,++++zzzzzzzzzzzzzzzzzzzzzzzzzz",
"zzzzzzzzzzzzzzzzzzzzz=#$>>!!<~~~/56acccccccaa65//5/|!::;&+dzzzzzzzzzzzzzzzzzzzzzzz",
"zzzzzzzzzzzzzzzzzz+@*>!,!,<|22/56cca6ab/6ccaa655/|~~,,,^^^;$#-++dzzzzzzzzzzzzzzzzz",
"zzzzzzzzzzzzzzzzz-#&!,,,,?~~~~/6cbbb67e1^fbccaa552/||~<,,^!~!*#-zzzzzzzzzzzzzzzzzz",
"zzzzzzzzzzzzzzzzzd-+#*>,<??~~?~5cca5f*ee8&!6cccaa5|~<!:!<^>$*@zzzzzzzzzzzzzzzzzzzz",
"zzzzzzzzzzzzzzzzzzzzzz#$>;:::,?~|/|&%ghijg*;fa65|?,<!:::&*+zzzzzzzzzzzzzzzzzzzzzzz",
"zzzzzzzzzzzzzzzzzzzzzzzz+8&:::,?~|;8iklllm%8&n55/~<^;;$#=zzzzzzzzzzzzzzzzzzzzzzzzz",
"zzzzzzzzzzzzzzzzzzzzzzzz-***;;^^:&8illlke**%%1,?,^,9#zzzzzzzzzzzzzzzzzzzzzzzzzzzzz",
"zzzzzzzzzzzzzzzzzzzzzzzzzzzz#&&&:;gllkjiiihopp1^^>0.zzzzzzzzzzzzzzzzzzzzzzzzzzzzzz",
"zzzzzzzzzzzzzzzzzzzzzzzzzzz#>::,4@lkkllllllkiqh0^>-zzzzzzzzzzzzzzzzzzzzzzzzzzzzzzz",
"zzzzzzzzzzzzzzzzzzzzzzzzzzz*&;,^-jkklllllllljijj0!#zzzzzzzzzzzzzzzzzzzzzzzzzzzzzzz",
"zzzzzzzzzzzzzzzzzzzzzzzzzzz*:!:8kkkklkijkkklkjjji4:$zzzzzzzzzzzzzzzzzzzzzzzzzzzzzz",
"zzzzzzzzzzzzzzzzzzzzzzzzzzd;!>&mkjkkk%%roopjkkjiis&:*zzzzzzzzzzzzzzzzzzzzzzzzzzzzz",
"zzzzzzzzzzzzzzzzzzzzzzzzzz#;&&8jjjkk.88%ttttpkkjpz*&8+zzzzzzzzzzzzzzzzzzzzzzzzzzzz",
"zzzzzzzzzzzzzzzzzzzzzzzzzz*888sijjiu88&%@suttpkkpz$&#-zzzzzzzzzzzzzzzzzzzzzzzzzzzz",
"zzzzzzzzzzzzzzzzzzzzzzzzzz%%@=+pjp88%ellle%tttpjiz+*@zzzzzzzzzzzzzzzzzzzzzzzzzzzzz",
"zzzzzzzzzzzzzzzzzzzzzzzzzzzzzz+hjv88@llclk0tottjizgzzzzzzzzzzzzzzzzzzzzzzzzzzzzzzz",
"zzzzzzzzzzzzzzzzzzzzzzzzzzzzzzzmiu8%8llllk%utoooizzzzzzzzzzzzzzzzzzzzzzzzzzzzzzzzz",
"zzzzzzzzzzzzzzzzzzzzzzzzzzzzzzzmio%%%enlle%soppoizzzzzzzzzzzzzzzzzzzzzzzzzzzzzzzzz",
"zzzzzzzzzzzzzzzzzzzzzzzzzzzzzzzikuusu8&&0+supipiizzzzzzzzzzzzzzzzzzzzzzzzzzzzzzzzz",
"zzzzzzzzzzzzzzzzzzzzzzzzzzzzzzzmiouuu.m+sutqijjkjmzzzzzzzzzzzzzzzzzzzzzzzzzzzzzzzz",
"zzzzzzzzzzzzzzzzzzzzzzzzzzzzzzghmmvruoortttijjkjjpzzzzzzzzzzzzzzzzzzzzzzzzzzzzzzzz",
"zzzzzzzzzzzzzzzzzzzzzzzzzzzzz0+-+wu@099910#gjjkimzzzzzzzzzzzzzzzzzzzzzzzzzzzzzzzzz",
"zzzzzzzzzzzzzzzzzzzzzzzzzzz-190141x3nn7nyf>*opiq0muzzzzzzzzzzzzzzzzzzzzzzzzzzzzzzz",
"zzzzzzzzzzzzzzzzzzzzzzzzzz-439$1f3yyynnny4$*utuu@0#zzzzzzzzzzzzzzzzzzzzzzzzzzzzzzz",
"zzzzzzzzzzzzzzzzzzzzzzzzzz*f3f10f33f333f4#uus#111$$#zzzzzzzzzzzzzzzzzzzzzzzzzzzzzz",
"zzzzzzzzzzzzzzzzzzzzzzzzz@49xx1#$999994$#s@0f3f94444+zzzzzzzzzzzzzzzzzzzzzzzzzzzzz",
"zzzzzzzzzzzzzzzzzzzzzzzzz#99fx1##$$$$*#s#13nnyy94444$dzzzzzzzzzzzzzzzzzzzzzzzzzzzz",
"zzzzzzzzzzzzzzzzzzzzzzzz=$99xx$#####ss@13ynb777x$ff94@zzzzzzzzzzzzzzzzzzzzzzzzzzzz",
"zzzzzzzzzzzzzzzzzzzzzzzz@$99xx1##sus#9nnynb7bbny91f94#zzzzzzzzzzzzzzzzzzzzzzzzzzzz",
"zzzzzzzzzzzzzzzzzzzzzzzz#$9ff99*##1fynnnnnnnnyfnx*f94#zzzzzzzzzzzzzzzzzzzzzzzzzzzz",
"zzzzzzzzzzzzzzzzzzzzzzz@#*9fyy33f3ynnnnnnyyf9fynx199$#zzzzzzzzzzzzzzzzzzzzzzzzzzzz",
"zzzzzzzzzzzzzzzzzzzzzzz@##4f3333nynnnnnnxx999fff1#44$#zzzzzzzzzzzzzzzzzzzzzzzzzzzz"
};
