/* XPM */
static char *enemy_floor1_death_sheet[] = {
"384 64 39 1",
"a	c None",
"b	c #6C6C6C",
"c	c #2C2C2C",
"d	c #005C00",
"e	c #004400",
"f	c #007400",
"g	c #000000",
"h	c #4C4C4C",
"i	c #C01010",
"j	c #008C00",
"k	c #00A400",
"l	c #98C010",
"m	c #002C00",
"n	c #6C8C00",
"o	c #7CA400",
"p	c #840404",
"q	c #5C0000",
"r	c #700404",
"s	c #684018",
"t	c #94602C",
"u	c #980808",
"v	c #480000",
"w	c #200000",
"x	c #3C3C00",
"y	c #502400",
"z	c #344400",
"A	c #C4C824",
"B	c #001400",
"C	c #587400",
"D	c #64A0D8",
"E	c #2474C4",
"F	c #5C340C",
"G	c #3884CC",
"H	c #085098",
"I	c #402810",
"J	c #003064",
"K	c #AC0C0C",
"L	c #3C3C3C",
"M	c #141414",
"aaaaaaaaaaaaaaaaaaaaaaaabcaaaaaaaaaaaaaaaaaaaaaaaaaaaaaaaaaaaaaaaaaaaaaaaaaaaaaaaaaaaaaaaaaaaaaaaaaaaaaaaaaaaaaaaaaaaaaaaaaaaaaaaaaaaaaaaaaaaaaaaaaaaaaaaaaaaaaaaaaaaaaaaaaaaaaaaaaaaaaaaaaaaaaaaaaaaaaaaaaaaaaaaaaaaaaaaaaaaaaaaaaaaaaaaaaaaaaaaaaaaaaaaaaaaaaaaaaaaaaaaaaaaaaaaaaaaaaaaaaaaaaaaaaaaaaaaaaaaaaaaaaaaaaaaaaaaaaaaaaaaaaaaaaaaaaaaaaaaaaaaaaaaaaaaaaaaaaaaaaaaaaaaaaaaaaaaaaaaaaa",
"aaaaaaaaaaaaaaaaaaaaaaaaaaccaaaaaaaaaaaaaaaaaaaaaaaaaaaaaaaaaaaaaaaaaaaaaaaaaaaaaaaaaaaaaaaaaaaaaaaaaaaaaaaaaaaaaaaaaaaaaaaaaaaaaaaaaaaaaaaaaaaaaaaaaaaaaaaaaaaaaaaaaaaaaaaaaaaaaaaaaaaaaaaaaaaaaaaaaaaaaaaaaaaaaaaaaaaaaaaaaaaaaaaaaaaaaaaaaaaaaaaaaaaaaaaaaaaaaaaaaaaaaaaaaaaaaaaaaaaaaaaaaaaaaaaaaaaaaaaaaaaaaaaaaaaaaaaaaaaaaaaaaaaaaaaaaaaaaaaaaaaaaaaaaaaaaaaaaaaaaaaaaaaaaaaaaaaaaaaaaaaa",
"aaaaaaaaaaaaaaaaaaaaaaaaadddccdaaaaaaaaaaaaaaaaaaaaaaaaaaaaaaaaaaaaaaaaaaaaaaaaaaaaaaaaaaaaaaaaaaaaaaaaaaaaaaaaaaaaaaaaaaaaaaaaaaaaaaaaaaaaaaaaaaaaaaaaaaaaaaaaaaaaaaaaaaaaaaaaaaaaaaaaaaaaaaaaaaaaaaaaaaaaaaaaaaaaaaaaaaaaaaaaaaaaaaaaaaaaaaaaaaaaaaaaaaaaaaaaaaaaaaaaaaaaaaaaaaaaaaaaaaaaaaaaaaaaaaaaaaaaaaaaaaaaaaaaaaaaaaaaaaaaaaaaaaaaaaaaaaaaaaaaaaaaaaaaaaaaaaaaaaaaaaaaaaaaaaaaaaaaaaaaa",
"aaaaaaaaaaaaaaaaaaaaaaeedddfffghidaaaaaaaaaaaaaaaaaaaaaaaaaaaaaaaaaaaaaaaaaaaaaaaaaaaaaaaaaaaaaaaaaaaaaaaaaaaaaaaaaaaaaaaaaaaaaaaaaaaaaaaaaaaaaaaaaaaaaaaaaaaaaaaaaaaaaaaaaaaaaaaaaaaaaaaaaaaaaaaaaaaaaaaaaaaaaaaaaaaaaaaaaaaaaaaaaaaaaaaaaaaaaaaaaaaaaaaaaaaaaaaaaaaaaaaaaaaaaaaaaaaaaaaaaaaaaaaaaaaaaaaaaaaaaaaaaaaaaaaaaaaaaaaaaaaaaaaaaaaaaaaaaaaaaaaaaaaaaaaaaaaaaaaaaaaaaaaaaaaaaaaaaaaaaa",
"aaaaaaaaaaaaaaaaaaaaaeedfjjkkffgbgkaaaaaaaaaaaaaaaaaaaaaaaaaaaaaaaaaaaaaaaaaaaaaaaaaaaaaaaaaaaaaaaaaaaaaaaaaaaaaaaaaaaaaaaaaaaaaaaaaaaaaaaaaaaaaaaaaaaaaaaaaaalaaaaaaaaaaaaaaaaaaaaaaaaaaaaaaaaaaaaaaaaaaaaaaaaaaaaaaaaaaaaaaaaaaaaaaaaaaaaaaaaaaaaaaaaaaaaaaaaaaaaaaaaaaaaaaaaaaaaaaaaaaaaaaaaaaaaaaaaaaaaaaaaaaaaaaaaaaaaaaaaaaaaaaaaaaaaaaaaaaaaaaaaaaaaaaaaaaaaaaaaaaaaaaaaaaaaaaaaaaaaaaaaa",
"aaaaaaaaaaaaaaaaaaaaeeddjfmmfjfddjedaaaaaaaaaaaaaaaaaaaaaaaaaaaaaaaaaaaaaaaaaaaaaaaaaaaaaammdfddaaaaaaaaaaaaaaaaaaaaaaaaaaaaaaaaaaaaaaaaaaaaaaaaaaaaaaaaaaaaaaaaaaaaaaaaaaaaaaaaaaaaaaaaaaaaaaaaaaaaaaaaaaaaaaaaaaaaaaaaaaaaaaaaaaaaaaaaaaaaaaaaaaaaaaaaaaaaaaaaaaaaaaaaaaaaaaaaaaaaaaaaaaaaaaaaaaaaaaaaaaaaaaaaaaaaaaaaaaaaaaaaaaaaaaaaaaaaaaaaaaaaaaaaaaaaaaaaaaaaaaaaaaaaaaaaaaaaaaaaaaaaaaaa",
"aaaaaaaaaaaaaaaaaaaaeedffmfeeefdjeddaaaaaaaaaaaaaaaaaaaaaaaaaaaaaaaaaaaaaaaaaaaaaaaaaaafdmdffffmmjfaaaaaaaaaaaaaaaaaaaaaaaaaaaaaaaaaaaaaaaaaaaaaaaaaaaaaaaaaaaaaaaaaaaaaaaaaaaaaaaaaaaaaaaaaaaaaaaaaaaaaaaaaaaaaaaaaaaaaaaaaaaaaaaaaaaaaaaaaaaaaaaaaaaaaaaaaaaaaaaaaaaaaaaaaaaaaaaaaaaaaaaaaaaaaaaaaaaaaaaaaaaaaaaaaaaaaaaaaaaaaaaaaaaaaaaaaaaaaaaaaaaaaaaaaaaaaaaaaaaaaaaaaaaaaaaaaaaaaaaaaaaaa",
"aaaaaaaaaaaaaaaaaaaaedjemmefffffjeeddaaaaaaaaaaaaaaaaaaaaaaaaaaaaaaaaaaaaaaaaaaaaaaaaaffffdedffffmjggiaaaaaaaaaaaaaaaaaaaaaaaaaaaaaaaaaaaaaaaaaaaaaaaaaaaaaaaaanaaaaaaaaaaaaaaaaaaaaaaaaaaaaaaaaaaaaaaaaaaaaaaaaaaaaaaaaaaaaaaaaaaaaaaaaaaaaaaaaaaaaaaaaaaaaaaaaaaaaaaaaaaaaaaaaaaaaaaaaaaaaaaaaaaaaaaaaaaaaaaaaaaaaaaaaaaaaaaaaaaaaaaaaaaaaaaaaaaaaaaaaaaaaaaaaaaaaaaaaaaaaaaaaaaaaaaaaaaaaaaaa",
"aaaaaaaaaaaaaaaaaaaedfeeemmedffffdjddaaaaaaaaaaaaaaaaaaaaaaaaaaaaaaaaaaaaaaaaaaaaaaaaffeeeeleedffffeggaaaaaaaaaaaaaaaaaaaaaaaaaaaaaaaaaaaaaaaaaaaaaaaaaaaabaaoaaaaaoaaaaaaaaaaaaaaaaaaaaaaaaaaaaaaaaaaaaaaaaaaaaaaaaaaaaaaaaaaaaaaaaaaaaaaaaaaaaaaaaaaaaaaaaaaaaaaaaaaaaaaaaaaaaaaaaaaaaaaaaaaaaaaaaaaaaaaaaaaaaaaaaaaaaaaaaaaaaaaaaaaaaaaaaaaaaaaaaaaaaaaaaaaaaaaaaaaaaaaaaaaaaaaaaaaaaaaaaaaaa",
"aaaaaaaaaaaaaaaaaaaemmefkjedeedfffefdaaaaaaaaaaaaaaaaaaaaaaaaaaaaaaaaaaaaaaaaaaaaaaaafdellenleedffeffjaaaaaaapppqqaaaaaaaaaaaaaaaaaaaaaaaaaaaaaaaaaaaaaaaaacaaaaalaaaaaaaaaaaaaaaaaaaaaaaaaaaaaaaaaaaaaaaaaaaaaaaaaaaaaaaaaaaaaaaaaaaaaaaaaaaaaaaaaaaaaaaaaaaaaaaaaaaaaaaaaaaaaaaaaaaaaaaaaaaaaaaaaaaaaaaaaaaaaaaaaaaaaaaaaaaaaaaaaaaaaaaaaaaaaaaaaaaaaaaaaaaaaaaaaaaaaaaaaaaaaaaaaaaaaaaaaaaaaa",
"aaaaaaaaaaaaaaaaaaaaeemfdmfffdedffdfeaaaaaaaaaaaaaaaaaaaaaaaaaaaaaaaaaaaaaaaaaaaaaaaafeeeloeoededfdedaaaaapqqrqrprqqaaaaaaaaaaaaaaaaaaaaaaaaaaaaaaaaaaaaaaalcgaaoaaaaaaaaaaaaaaaaaaaaaaaaaaaaaaaaaaaaaaaaaaaaaaaaaaaaaaaaaaaaaaaaaaaaaaaaaaaaaaaaaaaaaaaaaaaaaaaaaaaaaaaaaaaaaaaaaaaaaaaaaaaaaaaaaaaaaaaaaaaaaaaaaaaaaaaaaaaaaaaaaaaaaaaaaaaaaaaaaaaaaaaaaaaaaaaaaaaaaaaaaaaaaaaaaaaaaaaaaaaaaaa",
"aaaaaaaaaaaaaaaaaaaaademdfeggeffdfffeaaaaaaaaaaaaaaaaaaaaaaaaaaaaaaaaaaaaaaaaaaalaaaaaemenleeeddedfdfaaarrqrppprqpprqaaaaaaaaaaaaaaaaaaaaaaaaaaaaaaaoaaaaaajgigffjjfaaaaaaaaaaaaaaaaaaaaaaaaaaaaaaaaaaaaaaaaaaaaaaaaaaaaaaaaaaaaaaaaaaaaaaaaaaaaaaaaaaaaaaaaaaaaaaaaaaaaaaaaaaaaaaaaaaaaaaaaaaaaaaaaaaaaaaaaaaaaaaaaaaaaaaaaaaaaaaaaaaaaaaaaaaaaaaaaaaaaaaaaaaaaaaaaaaaaaaaaaaaaaaaaaaaaaaaaaaaa",
"aaaaaaaaaaaaaaaaaaaaadfeegstsgeffffdaaaaaaaaaaaaaaaaaaaaaaaaaaaaaaaaaaaaaaaaaaaaaaaaaadeemeledededdffarrrqrpuupprrpprqaaaaaaaaaaaaaaaaaaaaaaaaaaaaaaaaalaaajjgeddddfjfaaaaaaaaaaaaaaaaaaaaaaaaaaaaaaaaaaaaaaaaaaaaaaaaaaaaaaaaaaaaaaaaaaaaaaaaaaaaaaaaaaaaaaaaaaaaaaaaaaaaaaaaaaaaaaaaaaaaaaaaaaaaaaaaaaaaaaaaaaaaaaaaaaaaaaaaaaaaaaaaaaaaaaaaaaaaaaaaaaaaaaaaaaaaaaaaaaaaaaaaaaaaaaaaaaaaaaaaaa",
"aaaaaaaaaaaaaaaaaaaamdeegsvqvwgffdffdaaaaaaaaaaaaaaaaaaaaaaaaaaaaaaaaaaaaaaaaaaaaaaaaaoeeemeefdededferdffdrpuuppprrprqaaaaaaaaaaaaaaaaaaaaaaaaaaaaaaaaaaaalfjjldeqqqlrraaaaaaaaaaaaaaaaaaaaaaaaaaaaaaaaaaaaaaaaaaaaaaaaaaaaaaaaaaaaaaaaaaaaaaaaaaaaaaaaaaaaaaaaaaaaaaaaaaaaaaaaaaaaaaaaaaaaaaaaaaaaaaaaaaaaaaaaaaaaaaaaaaaaaaaaaaaaaaaaaaaaaaaaaaaaaaaaaaaaaaaaaaaaaaaaaaaaaaaaaaaaaaaaaaaaaaaaa",
"aaaaaaaaaaaaaaaaaaaaaadegwvefjkjffffdaaaaaaaaaaaaaaaaaaaaaaaaaaaaaaaaaaaaaaaaaaaaaaaaaadedmodfeeemmeerrdfeerppupprqpprqaaaaaaaaaaaaaaaaaaaaaaaaaaaaaaaaalafejjevoorpprppoaaaaaaaaaaaaaaaaaaaaaaaaaaaaaaaaaaaaaaaaaaaaaaaaaaaaaaaaaaaaaaaaaaaaaaaaaaaaaaaaaaaaaaaaaaaaaaaaaaaaaaaaaaaaaaaaaaaaaaaaaaaaaaaaaaaaaaaaaaaaaaaaaaaaaaaaaaaaaaaaaaaaaaaaaaaaaaaaaaaaaaaaaaaaaaaaaaaaaaaaaaaaaaaaaaaaaaa",
"aaaaaaaaaaaaaaaaqqqqqqqdgefjdfdffeffjdaaaaaaaaaaaaaaaaaaaaaaaaaaaaaaaaaaaaaaaaaaaaalaadeemeeeddmedmddfdrrfjerppppprrprqaaaaaaaaaaaaaaaaaaaaaaaaaalaaaaaaoafdojlqqrqqqrrqqraaaaaaaaaaaaaaaaaaaaaaaaaaaaaaaaaaaaaaaaaaaaaaaaaaaaaaaaaaaaaaaaaaaaaaaaaaaaaaaaaaaaaaaaaaaaaaaaaaaaaaaaaaaaaaaaaaaaaaaaaaaaaaaaaaaaaaaaaaaaaaaaaaaaaaaaaaaaaaaaaaaaaaaaaaaaaaaaaaaaaaaaaaaaaaaaaaaaaaaaaaaaaaaaaaaaaa",
"aaaaaaaaaaaaaqqqrrrpprrmedfdfefedmfffjeccqqqqqqqaaaaaaaaaaaaaaaaaaaaaaaaaaaaaaaaaaaoaaaalenedeeoffdrejfemdfjerpppprqprqaaaaaaaaaaaaaaaaaaaaaaaaaaaaalaaaalfoelqqlqqedddduuuuuuaaaaaaaaaaaaaaaaaaaaaaaaaaaaaaaaaaaaaaaaaaaaaaaaaaaaaaaaaaaaaaaaaaaaaaaaaaaaaaaaaaaaaaaaaaaaaaaaaaaaaaaaaaaaaaaaaaaaaaaaaaaaaaaaaaaaaaaaaaaaaaaaaaaaaaaaaaaaaaaaaaaaaaaaaaaaaaaaaaaaaaaaaaaaaaaaaaaaaaaaaaaaaaaaaa",
"aaaaaaaaaaaqqrpupprrrrremfefeeeffefjffjfxrrrrrrrqqqqaaaaaaaaaaaaaaaaaaaaaaaaaloaaaaaovvemmmmenefddfrreefjjffdrrpprqvrpqaaaaaaaaaaaaaaaaaaaaaaaaaoaaaaanaolonooneddddfdffduuuuuuaaaaaaaaaaaaaaaaaaaaaaaaaaaaaaaaaaaaaaaaaaaaaaaaaaaaaaalaaaaaaaaaaaaaaaaaaaaaaaaaaaaaaaaaaaaaaaaaaaaaaaaaaaaaaaaaaaaaaaaaaaaaaaaaaaaaaaaaaaaaaaaaaaaaaaaaaaaaaaaaaaaaaaaaaaaaaaaaaaaaaaaaaaaaaaaaaaaaaaaaaaaaaaaa",
"aaaaaaaaaaqrprrrqrppuuudemmedffffdffjffjppuuuprprrrqqaaaaaaaaaaaaaaaaaaaaaaaaaaonvvvwwmmedddnloddeddemedfffjdqvvqqvvqqqaaaaaaaaaaaaaaaaaaaaaaaaaaaaaaaaoaoneddddfdfflffffppppuuuaaaaaaaaaaaaaaaaaaaaaaaaaaaaaaaaaaaaaaaaaaaaaaaaaaaaaaaaaaaaaaaaaaaaaaaaaaaaaaaaaaaaaaaaaaaaaaaaaaaaaaaaaaaaaaaaaaaaaaaaaaaaaaaaaaaaaaaaaaaaaaaaaaaaaaaaaaaaaaaaaaaaaaaaaaaaaaaaaaaaaaaaaaaaaaaaaaaaaaaaaaaaaaaa",
"aaaaaaaaaqrrrrqrpuuppppfddemefdffdffjfdfrrppppprrpprrqqaaaaaaaaaaaaaaaaaaaaaaavvvwwnvenefjfdeoelemodfjffjdfdddqqqrrrrpqaaaaaaaaaaaaaaaaaaaaaaaaaaaaaaldddddfffffffffffffffrrppppuaaaaaaaaaaaaaaaaaaaaaaaaaaaaaaaaaaaaaaaaaaaaaaaaaaaaaaaaaaaaaaaaaaaaaaaaaaaaaaaaaaaaaaaaaaaaaaaaaaaaaaaaaaaaaaaaaaaaaaaaaaaaaaaaaaaaaaaaaaaaaaaaaaaaaaaaaaaaaaaaaaaaaaaaaaaaaaaaaaaaaaaaaaaaaaaaaaaaaaaaaaaaaaa",
"aaaaaaaaaqrrqrpprqqrrrrffjfdedffdffdfjffrrrrrrprqqrqrprqqaaaaaaaaaaaaaaaaaaavvvwvvqrveeeddfffeeeffppfffdfffffefdrppuprpqaaaaaaaaaaaaaaaaaaaaaaaaaaaadfjfffffffjfjfjjjjjkjkuuuuuuuaaaaaaaaaaaaaaaaaaaaaaaaaaaaaaaaaaaaaaaaaaaalaaaaaalaaaaaaaaaaaaaaaaaaaaaaaaaaaaaaaaaaaaaaaaaaaaaaaaaaaaaaaaaaaaaaaaaaaaaaaaaaaaaaaaaaaaaaaaaaaaaaaaaaaaaaaaaaaaaaaaaaaaaaaaaaaaaaaaaaaaaaaaaaaaaaaaaaaaaaaaaaa",
"aaaaaaaaqrqrrpuupprqqqqddddffeffdfffddddqqqqqqrqrppprqpprqaaaaaaaaaaaaaaaaavvvvqqrvvvddflfdnedddffeeemeddffffefffdppuprqaaaaaaaaaaaaaaaaaaaaaaaaaaadfffkfjkjjjjjjjfjfjffffppppppuaaaaaaaaaaaaaaaaaaaaaaaaaaaaaaaaaaaaaaaaaaaaaaalaalaaaaaaaaaaaaaaaaaaaaaaaaaaaaaaaaaaaaaaaaaaaaaaaaaaaaaaaaaaaaaaaaaaaaaaaaaaaaaaaaaaaaaaaaaaaaaaaaaaaaaaaaaaaaaaaaaaaaaaaaaaaaaaaaaaaaaaaaaaaaaaaaaaaaaaaaaaaa",
"aaaaaaaaqrrrppuurvrppuuxjffdddfffdddffjxuuuuppqrpuupprrpprqaaaaaaaaaaaaaaaavvvqqvvvqrfffjnleeddfffmedjfffddfdefjfffdprqqqaaaaaaaaaaaaaaaaaaaaaaaaadffffjffffffffffffffdfddrrrrrppaaaaaaaaaaaaaaaaaaaaaaaaaaaaaaaaaaaaalaaaaalaalaaaaaaalaaaaaaaaaaaaaaaaaaaaaaaaaaaaaaaaaaaaaaaaaaaaaaaaaaaaaaaaaaaaaaaaaaaaaaaaaaaaaaaaaaaaaaaaaaaaaaaaaaaaaaaaaaaaaaaaaaaaaaaaaaaaaaaaaaaaaaaaaaaaaaaaaaaaaaaa",
"aaaaaaaaqqrrpuppqrrrrrrrffffjfdddfjffffrrrrrrrqrpuuppprrprqaaaaaaaaaaaaaaavvvvvvvqlrrfffnlleedddfppppmedffffedfffjjffpurqaaaaaaaaaaaaaaaaaaaaaaladffdfffdddddddddfdfdffffdpuuprrqaaaaaaaaaaaaaaaaaaaaaaaaaaaaaaaaaaaaaaaaaaaaallalaaaaaaaaaaaaaaaaaaaaaaaaaaaaaaaaaaaaaaaaaaaaaaaaaaaaaaaaaaaaaaaaaaaaaaaaaaaaaaaaaaaaaaaaaaaaaaaaaaaaaaaaaaaaaaaaaaaaaaaaaaaaaaaaaaaaaaaaaaaaaaaaaaaaaaaaaaaaaa",
"aaaaaaaaqvrrrpprqrrpppppyffffdfffdffffppppppppqrrppupprqpprqaaaaaaaaaaaaaavvvvvvqrrrppffenefdldfrpnpedjfddfdeffffffjjfpurqaaaaaaaaaaaaaaaaaaaaaadfdffffdeeedededdddddddddrrrrrrqaaaaaaaaaaaaaaaaaaaaaaaaaaaaaaaaaaaaaaaaaaaaaaoloaaaaaaaaaaaaaaaaaaaaaaaaaaaaaaaaaaaaaaaaaaaaaaaaaaaaaaaaaaaaaaaaaaaaaaaaaaaaaaaaaaaaaaaaaaaaaaaaaaaaaaaaaaaaaaaaaaaaaaaaaaaaaaaaaaaaaaaaaaaaaaaaaaaaaaaaaaaaaaa",
"aaaaaaaaavqrrrrqrppppuuprqzfffdfdfffzqrpppppppqrrrppppprrprqaaaaaaaaaaaaaavvvvvvqrrplpolffdfdrnqrrwpppmmmeemeffffffffjjupqaaaaaaaaaaaaaaaaaaaaadddfdffnnanneeeeeeeeeededeqqqqvvpraaaaaaaaaaaaaaaaaaaaaaaaaaaaaaaaaaaaaalaoaaaaanoaaalaaaaaaaaaaaaaaaaaaaaaaaaaaaaaaaaaaaaaaaaaaaaaaaaaaaaaaaaaaaaaaaaaaaaaaaaaaaaaaaaaaaaaaaaaaaaaaaaaaaaaaaaaaaaaaaaaaaaaaaaaaaaaaaaaaaaaaaaaaaaaaaaaaaaaaaaaaa",
"aaaaaaaaawvqqvvvqrppuuuuupppqrrrrrqppppprAAAppqrrrrrppprqprqaaaaaaaaaaaaaavvvwvqowprpnwnlwprrrqqrrrrpppqqqqmedfdfffdffjppqaaaaaaaaaaaaaaaaaaaaaddfdffdoanaowvnovlvwoveeevvvvvvquraaaaaaaaaaaaaaaaaaaaaaaaaaaaaaaaaaaaaanaaaaalbnaallaaaaaaaaaaaaaaaaaaaaaaaaaaaaaaaaaaaaaaaaaaaaaaaaaaaaaaaaaaaaaaaaaaaaaaaaaaaaaaaaaaaaaaaaaaaaaaaaaaaaaaaaaaaaaaaaaaaaaaaaaaaaaaaaaaaaaaaaaaaaaaaaaaaaaaaaaaaa",
"aaaaaaaawwwwwwwvqqrpppuuppppprqrqrrpppppqAAApppqrrrrrrrrvrrqaaaaaaaaaaaaaaavvwvqrrrrpppwwlwqrrqqorrrrrrrqqqqmdfffdfjfddprqaaaaaaaaaaaaaaaaaaaadefdedfjfdoloonqqrrnoqlolwwwwvqqpupaaaaaaaaaaaaaaaaaaaaaaaaaaaaaaaaaaaaaaaaaoaaoppuuuppaaaaaaaaaaaaaaaaaaaaaaaaaaaaaaaaaaaaaaaaaaaaaaaaaaaaaaaaaaaaaaaaaaaaaaaaaaaaaaaaaaaaaaaaaaaaaaaaaaaaaaaaaaaaaaaaaaaaaaaaaaaaaaaaaaaaaaaaaaaaaaaaaaaaaaaaaaa",
"aaaaaaedmdfqvwwwvqqqrrpprqqrqrrrrrqrqqqrqqqrrqvvvqrpuprqvqqqaaaaaaaaaaaaaaawvvwqrrrprppppwrrrrrolowrqrqqqqqqmedfffddfjfrrqaaaaaaaaaaaaaaaaaaaaeedfaadfaaaolwvnnqqqnlqqllqqqqqrpppraaaaaaaaaaaaaaaaaaaaaaaaaaaaaaaaaaaaaaaaaorrrppppurppaaaaaaaaaaaaaaaaaaaaaaaaaaaaaaaaaaaaaaaaaaaaaaaaaaaaaaaaaaaaaaaaaaaaaaaaaaaaaaaaaaaaaaaaaaaaaaaaaaaaaaaaaaaaaaaaaaaaaaaaaaaaaaaaaaaaaaaaaaaaaaaaaaaaaaaaa",
"aaaaaaddfmdfjfvwvqrrpppppppprrqrqrrrppppppprrdffdrvvvqqvrrpqaaaaaaaaaaaaaaaawvwvqrrorrrrrlnrplrnwwrrrprpppqqqmedffffdddpqaaaaaaaaaaaaaaaaaaaaedadfjaaaaaaaawlnlorrqqorqqrqlqqppuprraaaaaaaaaaaaaaaaaaaaaaaaaaaaaaaaaalanaaoqrprrrpppurrppaaaaaaaaaaaaaaaaaaaaaaaaaaaaaaaaaaaaaaaaaaaaaaaaaaaaaaaaaaaaaaaaaaaaaaaaaaaaaaaaaaaaaaaaaaaaaaaaaaaaaaaaaaaaaaaaaaaaaaaaaaaaaaaaaaaaaaaaaaaaaaaaaaaaaaa",
"aaaaaemedfmeedfvwqvvqrrppprrqqrrrqqrrrpppdddprdfeevqqrppuprpqaaaaaaaaaaaaaaaawwwqqrrwrrqqwonrrrrrprppppppppqqqmeddfffdrrqaaaaaaaaaaaaaaaaaaaaefdadffaaaalolwolrlrrqqqqrrqqqqrpppprqraaaaaaaaaaaaaaaaaaaaaaaaaaaalaaaaooallqrrrrrrrrppprpupaaaaaaaaaaaaaaaaaaaaaaaaaaaaaaaaaaaaaaaaaaaaaaaaaaaaaaaaaaaaaaaaaaaaaaaaaaaaaaaaaaaaaaaaaaaaaaaaaaaaaaaaaaaaaaaaaaaaaaaaaaaaaaaaaaaaaaaaaaaaaaaaaaaaaa",
"aaaaaddmdffmeedjwqrrqvvqqqqqrrrprrrqqqqqqeddfdqqfjeqrrrppuprqaaaaaaaaaaaaaaaaawwvqqqqlnrrppprqrrrrrrrpppppppqqqmmedddrqqaaaaaaaaaaaaaaaaaaaaaaeddadfdaloaaaovorrplrqqqqqqqqrppppprqraaaaaaaaaaaaaaaaaaaaaaaalaaaaaaaaaaoqqrqrrrrrrqqqrrppupaaaaaaaaaaaaaaaaaaaaaaaaaaaaaaaaaaaaaaaaaaaaaaaaaaaaaaaaaaaaaaaaaaaaaaaaaaaaaaaaaaaaaaaaaaaaaaaaaaaaaaaaaaaaaaaaaaaaaaaaaaaaaaaaaaaaaaaaaaaaaaaaaaaaa",
"aaaaaedmmdjmdmdfwvqqrrrrrrppuuprrrpuuprrrrqejfemdfjerrrppprqqqaaaaaaaaaaaaaaaaawwwvqqrrnplrrlqqqrrrrrrrrppppppqqqvvvqqaaaaaaaaaaaaaaaaaaaaaaaaaedeaaalaaaalwwlqrrpprqqqqqrppppppprvpraaaaaaaaaaaaaaaaaaaaaaaaaaaaaaoarrqpuprqrrrqqrrrrrrpuppaaaaaaaaaaaaaaaaaaaaaaaaaaaaaaaaaaaaaaaaaaaaaaaaaaaaaaaaaaaaaaaaaaaaaaaaaaaaaaaaaaaaaaaaaaaaaaaaaaaaaaaaaaaaaaaaaaaaaaaaaaaaaaaaaaaaaaaaaaaaaaaaaaaa",
"aaaaemddmmmdmeBdwqrrrqrpuuuprrrrrrrrrpuuuprqeefjjffdqdfjfdpurqaaaaaaaaaaaaaaaawwwwvqrrprrqvvvvnvvvvqqqrrrrppppppprqaaaaaaaaaaaaaaaaaaaaaaaaaaaaaaaaaaaaaaaaawwvqrrrppppppppppppprvvqraaaaaaaaaaaaaaaaaaaaaaaaaaaapppprpppppprqqqqrpprrpprpurpaaaaaaaaaaaaaaaaaaaaaaaaaaaaaaaaaaaaaaaaaaaaaaaaaaaaaaaaaaaaaaaaaaaaaaaaaaaaaaaaaaaaaaaaaaaaaaaaaaaaaaaaaaaaaaaaaaaaaaaaaaaaaaaaaaaaaaaaaaaaaaaaaaa",
"aaaaddmfjmmmemBvwqqrrprrrqqqqqqvvvqqqrrreddemedfffjddddfjjjpurqaaaaaaaaaaaaaedmdfqwqqrnqolwvvnlnwvvvvvqqqrrrpppprrvaaaaaaaaaaaaaaaaaaaaaaaaaaaaaaaanaaaaaoaanwowvqrrrrrpppppppprrvqvraaaaaaaaaaaaaaaaaaaaaaaaaaarrrrrrrrrrpurrvqrrrrrrrpprurrpaaaaaaaaaaaaaaaaaaaaaaaaaaaaaaaaaaaaaaaaaaaaaaaaaaaaaaaaaaaaaaaaaaaaaaaaaaaaaaaaaaaaaaaaaaaaaaaaaaaaaaaaaaaaaaaaaaaaaaaaaaaaaaaaaaaaaaaaaaaaaaaaaa",
"aaaeefmmfmedmBwwwaqvqrqvvvvvvvwwwwwvvvvqeedfjffjdfddfjjjjjjjupqaaaaaaaaaaaaaddfmdfjfqqqolwvqqlowqqqqqqvvvqqrrrrrrqvaaaaaaaaaaaaaaaaaaaaaaaaaaaaaaaaaaaaaaaaaawvvvwwvqqrrrrrrrrrrevvraaaaaaaaaaaaaaaaaaaaaaaaaaaqrrpprrpprrpprvqrlpprrrrrrpuprpaaaaaaaaaaaaaaaaaaaaaaaaaaaaaaaaaaaaaaaaaaaaaaaaaaaaaaaaaaaaaaaaaaaaaaaaaaaaaaaaaaaaaaaaaaaaaaaaaaaaaaaaaaaaaaaaaaaaaaaaaaaaaaaaaaaaaaaaaaaaaaaaaa",
"aaaemfjmmmemBwvwaaagvvvvvvqqqrrqqvqqqqqqqqvfffdffffdfffjfjfjppqaaaaaaaaaaaaemedfmeedfvowwqqqowwnqrrrrrqqqvvqqrrrqvaaaaaaaaaaaaaaaaaaaaaaaaaaaaaaaaaaaaaaaaamewvlrqvvwvvqgccchvveeeaaaaaaaaaaaaaaaaaaaaaaaaaaaaaqrrpppprrrpprlvqrprrrpprrrrpprrpaaalaaaaaaaaaaaaaaaaaaaaaaaaaaaaaaaaaaaaaaaaaaaaalaaaaaaaaaaaaaaaaaaaaaaaaaaaaaaaaaaaaaaaaaaaaaaaaaaaaaaaaaaaaaaaaaaaaaaaaaaaaaaaaaaaaaaaaaaaaaaa",
"aaadjmfmmemBwwaaaaagggggvqqrrppprqrpprrqqeeemeddfffdffffffffprqaaaaaaaaaaaaddmdffmeedjwvvqqrrpprqrrppprrqqqvvvvvvvaaaaaaaaaaaaaaaaaaaaaaaaaaaaaaaoaaaaaalamdemwvqqqvggggggggcgcgaaaaaaaaaaaaaaaaaaaaaaaaaaaaaaaqrpppprrrrrrqvqlrrrrrrrprrrpprpuaaalaaaaaaaaaaaaaaaaaaaaaaaaaaaaaaaaaaaaaaaaaaCaaaaaalaaaaaaaaaaaaaaaaaaaaaaaaaaaaaaaaaaaaaaaaaaaaaaaaaaaaaaaaaaaaaaaaaaaaaaaaaaaaaaaaaaaaaaaaaaa",
"aaaafaaaaaaaaaaaaaggcgcgggggggDggcggDggggmedjfffddddfffffffdrrqaaaaaaaaaaaaedmmdjmdmdfgggggqrrrrrqrrrrrqqqvgchcggvaaaaaaaaaaaaaaaaaaaaaaaaaaaaaaaaaaaaaaaememmwwvEggggggcgFccgcguaaaaaaaaaaaaaaaaaaaaaaaaaaaaaaeqrprrrrqqqqnvlqqrrrrrrrrrrrprpuaolaaaaaaaaaaaaaaaaaaaaaaaaaaaaaaaaaaaaaaaalaaaaaappuupppaaaaaaaaaaaaaaaaaaaaaaaaaaaaaaaaaaaaaaaaaaaaaaaaaaaaaaaaaaaaaaaaaaaaaaaaaaaaaaaaaaaaaaaa",
"aaaaaaaaaaaaaaaaaaggghggggggggGggcggGgggggggmedffffefdfddddzpqaaaaaaaaaaaaemddmmmdmeBggcgcggggDggcggDggggggggcggggaaaaaaaaaaaaaaaaaaaaaaaaaaaaaaaaaaaaaaaeaeaaacgHggggggggggcpprpuaaaaaaaaaaaaaaaaaaaaaaaaaaaaemqrrrqqqqaonolvqlqqqggFchqrrprppaaaanaaaaaaaaaaaaaaaaaaaaaaaaaaaaaaaalaaaaaaooaappppprrrrpuaaaaaaaaaaaaaaaaaaaaaaaaaaaaaaaaaaaaaaaaaaaaaaaaaaaaaaaaaaaaaaaaaaaaaaaaaaaaaaaaaaaaaa",
"aaaaaaaaaaaaaaaaaagIgcgqggggggEgggggEggggggedjfddfdedddfdfdrrqaaaaaaaaaaaaddmfjmmmemBggghgggggGggcggGggggggggggIFgaaaaaaaaaaaaaaaaaaaaaaaaaaaaaaaaaaaaaaamaaaaacgJgvvqqvgggggpupruaaaaaaaaaaaaaaaaaaaaaaaaaaaamamqqqmeaaoannlqvvqqgggggcggqrrrpaaaaaaaaaaaaaaaaaaaaaaaaaaaaaaaaaaaaaalaalaaaarpppprqqrrrrpuaaaaaaaaaaaaaaaaaaaaaaaaaaaaaaaaaaaaaaaaaaaaaaaaaaaaaaaaaaaaaaaaaaaaaaaaaaaaaaaaaaaaa",
"aaaaaaaaaaaaaaaaaaaggggprrpprrqqrprqqrppppppgmmmeemeeeddeerqqaaaaaaaaaaaaeefmmfmedmBwgIgcgqgggEggcggEgqpqrppvgggggaaaaaaaaaaaaaaaaaaaaaaaaaaaaaaaaaaaaaaaaaaavvJggqqrrrrrrrrpppuruaaaaaaaaaaaaaaaaaaaaaaaaaaaaeamamaaaelloaovllgggvgggggvvggrppaaaaaaaaaaaaaaaaaaaaaaaaaaaaaaaaaaaaaaaaaCaaarpprrqrrrrrrrrpuaaaaaaaaaaaaaaaaaaaaaaaaaaaaaaaaaaaaaaaaaaaaaaaaaaaaaaaaaaaaaaaaaaaaaaaaaaaaaaaaaaaa",
"aaaaaaaaaaaaaaaaaaaqggprrrpuprrqvrvqrppppppppggqaaaaaavvvqqaaaaaaaaaaaaaaemfjmmmemBwvwggggprrpprrqqvqrpqrppuupvggqaaaaaaaaaaaaaaaaaaaaaaaaaaaaaalaaaaaaaaaaavvvwqqrrrrrppuuppppuruaaaaaaaaaaaaaaaaaaaaaaaaaaaaaaeaeaaaaalaonnggvvqrggggguurvgrplaoaaaaaaaaaaaaaaaaaaaaaaaaaaaaaaaalaaaCaaaaqrrrqvrrpprrpprppuaaaaaaaaaaaaaaaaaaaaaaaaaaaaaaaaaaaaaaaaaaaaaaaaaaappuupppaaaaaaaaaaaaaaaaaaaaaaaaa",
"aaaaaaaaaaaaaaaaaaaqrpprqrpupprrqvqrrpuupppuuprqaaaaaaaaaaaaaaaaaaaaaaaaadjmfmmemBwwaaaggprrrpuprrvqrpprppuuppprrqaaaaaaaaaaaaaaaaaaaaaaaaaaaaaaaaaaaaaaaaavvvwvqrqqrppuupuupppuruaaaaaaaaaaaaaaaaaaaaaaaaaaaaaaalaaaoaaanaovvqrrrqrrrrpppupvvaaaaaaaaaaaaaaaaaaaaaaaaaaaaaaaaaoaaaaaaaaoqqrqvvvorrrrrrrpprupuaaaaaaaaaaaaaaaaaaaaaaaaaaaaaaaaaaaaaaaaaaaaaaaappppprrrrpuaaaaaaaaaaaaaaaaaaaaaaa",
"aaaaaaaaaaaaaaaaaaaqrprrqrpppprrqaqrpuuuuprpuurqaaaaaaaaaaaaaaaaaaaaaaaaaafaaaaaaaaaaaaqrpprqrpupvqrrpqrppuppprrqqaaaaaaaaaaaaaaaaaaaaaaaaaaaaaaaaaaaaaaaavvvwvqqqrpppuppupupppurpaaaaaaaaaaaaaaaaaaaaaaaaaaaaaaaaaaoaaanaovqrqqrrrrppprrppupvaaaoaaaaaaaaaaaaaaaaaaaaaaaaaaaaaaaaaaoarrqpuprqvorpprrrrrrrppuppaaaaaaaaaaaaaaaaaaaaaaaaaaaaaaaaaaaaaaaaaaaaarpppprqqrrrrpuaaaaaaaaaaaaaaaaaaaaaa",
"aaaaaaaaaaaaaaaaaaaqrrrrrrrppprqaaaqppuuppppurrqaaaaaaaaaaaaaaaaaaaaaaaaaaaaaaaaaaaaaaaqrprrqrpppvqrrprrrppprrrqqaaaaaaaaaaaaaaaaaaaaaaaaaaaaaaaaaaaaaaaaavvwwvqqrrrrrppppppppppraaaaaaaaaaaaaaaaaaaaaaaaaaaaaaalaaalaaaaavqqqrrrrpppuuprrpprvqaaaaaaaaaaaaaaaaaaaaaaaaaaaaaaaaaaapppprpppppprqlporrrpuprrrpurpaalaaaaaaaaaaaaaaaaaaaaaaaaaaaaaaaaaaaaaaaaarpprrqrrrrrrrrpuaaaaaaaaaaaaaaaaaaaaa",
"aaaaaaaaaaaaaaaaaaaqrqrpprqrprrqaaaqrpppruKupqrqaaaaaaaaaaaaaaaaaaaaaaaaaaaaaaaaaaaaaaaqrrrrrrrppvqrrrrrrrrrrrqqaaaaaaaaaaaaaaaaaaaaaaaaaaaaaaaaaaaaaaaaavqvwvqqrrpuuprqqqpppprraaaaaaaaaaaaaaaaaaaaaaaaaaaaaaaaaaaaaaaaavqqrrrrpppuuppprrprrvraaaaaaaaaaaaaaaaaaaaaaaaaaaaaaaaaarrrrrrrrrrpurorrrrrrrrrprrrurppaaaaaaaaaaaaaaaaaaaaaaaaaaaaaaaaaaaaaaaaaaqrrrqvrrpprrpprppuaaaaaaaaaaaaaaaaaaaa",
"aaaaaaaaaaaaaaaaaaaqrvrpuprqrrqqaaaqqrpruuuuuvrqaaaaaaaaaaaaaaaaaaaaaaaaaaaaaaaaaaaaaaaqrqrpprqrpvqrrppppprrqqaaaaaaaaaaaaaaaaaaaaaaaaaaaaaaaaaaaaaaaaaaavqvwvqrpuupppuuuprrraaaaaaaaaaaaaaaaaaaaaaaaaaaaaaaaaaaaaaoaaaavvrrrrpppupppprrrrrrqqraaaaaaaaaaaaaaaaaaaaaaaaaaaaaaaaaqrrpprrpprrppqlorrrrgggggrrrprrpaaaaaaaaaaaaaaaaaaaaaaaaaaaaaaaaaaaaaaaaqqrqvvvlrrorgggggrupuaaaaaaaaaaaaaaaaaaa",
"aaaaaaaaaaaaaaaaaaaaqvrrpprqqqrqaaaqrqqqpuuprvqaaaaaaaaaaaaaaaaaaaaaaaaaaaaaaaaaaaaaaaaqrvrpuprqrrvqpupuupprqrqaaaaaaaaaaaaaaaaaaaaaaaaaaaaaaaaaaaaaaaaaavvvwvrrrrruppppuuupaaaaaaaaaaaaaaaaaaaaaaaaaaaaaaaaaaaaaaaaaaavrrrqvvqpppprrrrrrrqvvrqaaaaaaaaaaaaaaaaaaaaaaaaaaaaaaaaaqrrpppprrrpprqovvggggggggggvprrpCaaaaaaaaaaaaaaaaaaaaaaaaaaaaaaaaaaaarrqpuprqvorpggggggggggvppaaaaaaaaaaaaaaaaaa",
"aaaaaaaaaaaaaaaaaaaaqqvrrrqvrrrqaaaqrrrvqrrrvqqaaaaaaaaaaaaaaaaaaaaaaaaaaaaaaaaaaaaaaaaaqvrrpprqqqvqpppppupqqrredaaaaaaaaaaaaaaaaaaaaaaaaaaaaaaaaaaaaaaaawvvwvrrrrpppppppppuuaaaaaaaaaaaaaaaaaaaaaaaaaaaaaaaaaaaaaaaaaavrrrrrrffrrrrrrrrqvvqrraaaaaaaaaaaaaaaaaaaaaaaaaaaaaaaaaaqrpppprrrrrrqvgqppppggggguupgvrpaaaalaaaaaaaaaaaaaaaaaaaaaaaaaaaapppprpppppprCoqppppggggguupgvaaaaaaaaaaaaaaaaaa",
"aaaaaaaaaaaaaaaaaaaadrqvvqqpuprdaaaqrpprqqvvqrqaaaaaaaaaaaaaaaaaaaaaaaaaaaaaaaaaaaaaaaaaqqvrrrqvrrrvrppppprqqrqefaaaaaaaaaaaaaaaaaaaaaaaaaaaaaaaaaaaaaaaaawwwvrrrrpppppppppppfdaaaaaaaaaaaaaaaaaaaaaaaaaaaaaaaaaaaaaaavrrrrrrjjjffrrrdfffqqrrqaaaaaaaaaaaaaaaaaaaaaaaaaaaaaaaaaaeqrprrrrqqqqpppprrrrrrprppppuuvraaaaaaaaaaaaaaaaaaaaaaaaaaaaaaaarrrrrrrrrrpupppprrrrrrprppppuuvaaaaaaaaaaaaaaaaa",
"aaaaaaaaaaaaaaaaaaaaadfqprqrpffdaaaqrpuprqqrprqaaaaaaaaaaaaaaaaaaaaaaaaaaaaaaaaaaaaaaaaaerqvvqqpuprevrrrrrqvrqqejaaaaaaaaaaaaaaaaaaaaaaaaaaaaaaaaaaaaaaaaaaawvqrrprrrprprpppdjfffdaaaaaaaaaaaaaaaaaaaaaaaaaaaaaaaaaaaavrrqrrdfffjjffffffjfqqqaaaaaaaaaaaaaaaaaaaaaaaaaaaaaaaalaemqrrrqqqqopprrrrpppuuppppprrppuraalaaaaaaaaaaaaaaaaaaaaaaaaaaaaqrrpprrppropprrrrpppuuppppprrppuaaaaaaaaaaaaaaaaa",
"aaaaaaaaaaaaaaaaaaaaadfdffdfffddaaaadrpprqrprfdaaaaaaaaaaaaaaaaaaaaaaaaaaaaaaaaaaaaaaaaaaeeqprqrpeddavvqqvvqqqeejfaaaaaaaaaaaaaaaaaaaaaaaaaaaaaaaaaaaaaaaaaaaeevvqqrrrrrrrrrfffjjfdaaaaaaaaaaaaaaaaaaaaaaaaaaaaaaaaaoavqrrqqffffffffffjjfjqaaaaaaaaaaaaaaaaaaaaaaaaaaaaaaaaaaaamamqqqmeoCrrrrpppprrrrppprrrrrrpraoaaaaaaaaaaaaaaaaaaaaaaaaaaaaaqrrpppproCrrrrpppprrrrppprrrrrrpCaaaaaaaaaaaaaaaa",
"aaaaaaaaaaaaaaaaaaaaaeddfjfffffdaaaaddfffdjfdfdaaaaaaaaaaaaaaaaaaaaaaaaaaaaaaaaaaaaaaaaaaeddedddddfdaaavvqqveeedfjaaaaaaaaaaaaaaaaaaaaaaaaaaaaaaaaaaaaaaaaaaaeeeeqvvvqqqqqqdfffffjfaaaaaaaaaaaaaaaaaaaaaaaaaaaaaaaaaaavqqqrrddfdffdfdddffjaaoaaaaaaaaaaaaaaaaaaaaaaaaaaaaaaaaaaeamlmaaoerrrpupfffqqqrrrrrrrrrrrpaaaaaaaaaaaaaaaaaaaaaaaaaaaaaaaqrplpproerrrpupfffqqqrrrrrrrrrrrpaaaaaaaaaaaaaaaa",
"aaaaaaaaaaaaaaaaaaaaaedffjjfffddaaaadfffffjfdfdaaaaaaaaaaaaaaaaaaaaaaaaaaaaaaaaaaaaaaaaaaedfffffffddaaaaeeeeeedfdjaaaaaaaaaaaaaaaaaaaaaaaaaaaaaaaaaaaaaaaaaaaedeedeedeqvqeeeddffffffaaaaaaaaaaaaaaaaaaaaaaaaaaaaaoaaoovvqrqqdfffffffffdfffaaaaaaoloaaaaaaaaaaaaaaaaaaaaaaaaaaaaaaeaeoCoqrrprrdfjjffqqqqvqrrrrrrpaaaaaaaaaaaaaaaaaaaaaaaaaaaaaaaoqrproCoqrrprrdfjjffqqqqvqrrrrrrpollaaaaaaaaaaaaa",
"aaaaaaaaaaaaaaaaaaaaaddfjffffffdaaaaddffjjjfdddaaaaaaaaaaaaaaaaaaaaaaaaaaaaaaaaaaaaaaaaaaddfjffffffdaaaaedfdffdfffaaaaaaaaaaaaaaaaaaaaaaaaaaaaaaaaaaaaaaaaaaaddeddedfddaaaeeeeddffffaaaaaaaaaaaaaaaaaaaaaaaaaaanolllloavvqqvvddddddfffffffaaaaaaaaaaaaaaaaaaaaaaaaaaaaaaaaaaaaaallllCCCrrqrppffffjjjjfqqfjjfrrrraaaaaaaaaaaaaaaaaaaaaaaaaaaalaloooooCCCrrqrppffffjjjjfqqfjjfrrrrolllloaaaaaaaaaa",
"aaaaaaaaaaaaaaaaaaaaddffffffjffdaaaadfffjjjjfddaaaaaaaaaaaaaaaaaaaaaaaaaaaaaaaaaaaaaaaaaddffffffjffdaaaadffdffffjffaaaaaaaaaaaaaaaaaaaaaaaaaaaaaaaaaaaaaaaaaedfddfdfjfdaaaaaedfffffffaaaaaaaaaaaaaaaaaaaaaaaaaaaanoooaaavvvvmeeemmmddffdffjaaaaaaaaaaonaaaaaaaaaaaaaaaaaaaaaaaaaaaaooCqrprrrdffffffffjjjfffjfrrqaaaaaaaaaaaaaaaaaaaaaaaaaaaaaaaalloooCqrprrrdffffffffjjjfffjfrrqccLLaaaaaaaaaaaa",
"aaaaaaaaaaaaaaaaaaadfffdffdfffdaaaaadffffffffddaaaaaaaaaaaaaaaaaaaaaaaaaaaaaaaaaaaaaaaadfffdffdfffdaaaaadfjjffjfffjaaaaaaaaaaaaaaaaaaaaaaaaaaaaaaaaaaaaaaaadfffeffefffdaaaaaaefdffdfjaaaaaaaaaaaaaaaaaaaaaaaaaaaaaaaaaaaadeedfffdmeemdffdfjaaaaaaaaaaaaaaaaaaaaaaaaaaaaaaaaaaaaaaallolqrrqrrdfffffffffffjjfffrqaaaaaaaaaaaaaaaaaaaaaaaaaaaaaaaaaaallolqrrqrrdfffffffffffjjfffrqMcolaaaaaaaaaaaaa",
"aaaaaaaaaaaaaaaaaadjdjdjfdjffdeaaaaadffjfjffffdaaaaaaaaaaaaaaaaaaaaaaaaaaaaaaaaaaaaaaadjdjdjfdjffdeaaaaaddffdffdjdfaaaaaaaaaaaaaaaaaaaaaaaaaaaaaaaaaaaaaaadjdjdfjdfjfdeaaaaaadfdffffffaaaaaaaaaaaaaaaaaaaaaaaaaaaaaaaoladffeddfdedddeadddfdfaaaaaaaaaaaaaaaaaaaaaaaaaaaaaaaaaaaaaaaaaaqrrrqqeedddddfdfddddfffffaaaaaaaaaaaaaaaaaaaaaaaaaaaaaaaalllaaaoqrrrqqeedddddfdfddddfffffcLaaaaaaaaaaaaaaa",
"aaaaaaaaaaaaaaaaaadfefeffefffdaaaaaafffdffdjffdaaaaaaaaaaaaaaaaaaaaaaaaaaaaaaaaaaaaaaadfefeffefffdaaaaaaefjjedfefedaaaaaaaaaaaaaaaaaaaaaaaaaaaaaaaaaaaaaaadfefeffefffdaaaaaaadddfdfdfjaaaaaaaaaaaaaaaaaaaaaaaaaaaaaaaaaadddaeddddffdeaadedefjaaaaaaaaaaaaaaaaaaaaaaaaaaaaaaaaaaaaaaaaoaqqrrrdfdfdfffffffffdffffjafjdaaaaaaaaaaaaaaaaaaaaaaaaaaaaaaaalooaaaaadfdfdfffffffffdffffjafjdaaaaaaaaaaaa",
"aaaaaaaaaaaaaaaaaaadadaddadddaaaaaaadfjfdfjdjdjdaaaaaaaaaaaaaaaaaaaaaaaaaaaaaaaaaaaaaaadadaddadddaaaaaaaafffefjeeeeaaaaaaaaaaaaaaaaaaaaaaaaaaaaaaaaaaaaaaaadadaddadddaaaaaaaafeffefffjaaaaaaaaaaaaaaaaaaaaaaaaaaaaaaaaaaaaadfeeddddeaaaadefdaaaaaaaaaaaaaaaaaaaaaaaaaaaaaaaaaaaaaaaaaaaaqqqqedddddddedeedffffjfddedfaaaaaaaaaaaaaaaaaaaaaaaaaaaaaaaaaaloaaaaedddddddedeedffffjfddedfaaaaaaaaaaaa",
"aaaaaaaaaaaaaaaaaaaaaaaaaaaaaaaaaaaadfffeffefefdaaaaaaaaaaaaaaaaaaaaaaaaaaaaaaaaaaaaaaaaaaaaaaaaaaaaaaaaaddfaeeaeaeaaaaaaaaaaaaaaaaaaaaaaaaaaaaaaaaaaaaaaaaaaaaaaaaaaaaaaaadfeffedfejdaaaaaaaaaaaaaaaaaaaaaaaaaaaaaaaaaaaaaddadmemaaaaaaafdfaaaaaaaaaaaaaaaaaaaaaaaaaaaaaaaaaaaaaaaaaaaaaavvveeeeaaaaaaaaddfffjjfdfaaaaaaaaaaaaaaaaaaaaaaaaaaaaaaaaaaaaaaaaaaeeeeaaaaaaaaddfffjjfdfaaaaaaaaaaaaa",
"aaaaaaaaaaaaaaaaaaaaaaaaaaaaaaaaaaaaadddaddadadaaaaaaaaaaaaaaaaaaaaaaaaaaaaaaaaaaaaaaaaaaaaaaaaaaaaaaaaaaeeeaeeaaaaaaaaaaaaaaaaaaaaaaaaaaaaaaaaaaaaaaaaaaaaaaaaaaaaaaaaaaaaedededfedfaaaaaaaaaaaaaaaaaaaaaaaaaaaaaaaaaaaaaaaaafafaaaaaaaaffaaaaaaaaaaaaaaaaaaaaaaaaaaaaaaaaaaaaaaaaaaaaaaaaaaaaaadfafaaaaaaeddffdfaaaaaaaaaaaaaaaaaaaaaaaaaaaaaaaaaaaaaaaaaaaaaaadfafaaaaaaeddffdfaaaaaaaaaaaaaa",
"aaaaaaaaaaaaaaaaaaaaaaaaaaaaaaaaaaaaaaaaaaaaaaaaaaaaaaaaaaaaaaaaaaaaaaaaaaaaaaaaaaaaaaaaaaaaaaaaaaaaaaaaaaaaaaaaaaaaaaaaaaaaaaaaaaaaaaaaaaaaaaaaaaaaaaaaaaaaaaaaaaaaaaaaaaaaaaaaaaaaaaaaaaaaaaaaaaaaaaaaaaaaaaaaaaaaaaaaaaaaaaaaaaaaaaaaaaaaaaaaaaaaaaaaaaaaaaaaaaaaaaaaaaaaaaaaaaaaaaaaaaaaaaaaaaaaaaaaaaaaaeddaaaaaaaaaaaaaaaaaaaaaaaaaaaaaaaaaaaaaaaaaaaaaaaaaaaaaaaaaaaaaeddaaaaaaaaaaaaaaaa"
};
