/* XPM */
static char *enemy_floor1_death_f01[] = {
"64 64 25 1",
"a	c None",
"b	c #002C00",
"c	c #005C00",
"d	c #007400",
"e	c #008C00",
"f	c #004400",
"g	c #000000",
"h	c #C01010",
"i	c #98C010",
"j	c #6C8C00",
"k	c #840404",
"l	c #5C0000",
"m	c #7CA400",
"n	c #700404",
"o	c #980808",
"p	c #480000",
"q	c #200000",
"r	c #2C2C2C",
"s	c #4C4C4C",
"t	c #001400",
"u	c #64A0D8",
"v	c #3884CC",
"w	c #402810",
"x	c #5C340C",
"y	c #2474C4",
"aaaaaaaaaaaaaaaaaaaaaaaaaaaaaaaaaaaaaaaaaaaaaaaaaaaaaaaaaaaaaaaa",
"aaaaaaaaaaaaaaaaaaaaaaaaaaaaaaaaaaaaaaaaaaaaaaaaaaaaaaaaaaaaaaaa",
"aaaaaaaaaaaaaaaaaaaaaaaaaaaaaaaaaaaaaaaaaaaaaaaaaaaaaaaaaaaaaaaa",
"aaaaaaaaaaaaaaaaaaaaaaaaaaaaaaaaaaaaaaaaaaaaaaaaaaaaaaaaaaaaaaaa",
"aaaaaaaaaaaaaaaaaaaaaaaaaaaaaaaaaaaaaaaaaaaaaaaaaaaaaaaaaaaaaaaa",
"aaaaaaaaaaaaaaaaaaaaaaaaaabbcdccaaaaaaaaaaaaaaaaaaaaaaaaaaaaaaaa",
"aaaaaaaaaaaaaaaaaaaaaaadcbcddddbbedaaaaaaaaaaaaaaaaaaaaaaaaaaaaa",
"aaaaaaaaaaaaaaaaaaaaaaddddcfcddddbegghaaaaaaaaaaaaaaaaaaaaaaaaaa",
"aaaaaaaaaaaaaaaaaaaaaddffffiffcddddfggaaaaaaaaaaaaaaaaaaaaaaaaaa",
"aaaaaaaaaaaaaaaaaaaaadcfiifjiffcddfddeaaaaaaakkkllaaaaaaaaaaaaaa",
"aaaaaaaaaaaaaaaaaaaaadfffimfmfcfcdcfcaaaaakllnlnknllaaaaaaaaaaaa",
"aaaaaaaaaaaaaaaaiaaaaafbfjifffccfcdcdaaannlnkkknlkknlaaaaaaaaaaa",
"aaaaaaaaaaaaaaaaaaaaaacffbfifcfcfccddannnlnkookknnkknlaaaaaaaaaa",
"aaaaaaaaaaaaaaaaaaaaaamfffbffdcfcfcdfncddcnkookkknnknlaaaaaaaaaa",
"aaaaaaaaaaaaaaaaaaaaaaacfcbmcdfffbbffnncdffnkkokknlkknlaaaaaaaaa",
"aaaaaaaaaaaaaaaaaaaiaacffbfffccbfcbccdcnndefnkkkkknnknlaaaaaaaaa",
"aaaaaaaaaaaaaaaaaaamaaaaifjfcffmddcnfedfbcdefnkkkknlknlaaaaaaaaa",
"aaaaaaaaaaaaaimaaaaamppfbbbbfjfdccdnnffdeeddcnnkknlpnklaaaaaaaaa",
"aaaaaaaaaaaaaaamjpppqqbbfcccjimccfccfbfcdddeclppllpplllaaaaaaaaa",
"aaaaaaaaaaaaaapppqqjpfjfdedcfmfifbmcdeddecdccclllnnnnklaaaaaaaaa",
"aaaaaaaaaaaapppqpplnpfffccdddfffddkkdddcdddddfdcnkkoknklaaaaaaaa",
"aaaaaaaaaaappppllnpppccdidcjfcccddfffbfccddddfdddckkoknlaaaaaaaa",
"aaaaaaaaaaapppllppplndddejiffccdddbfcedddccdcfdedddcknlllaaaaaaa",
"aaaaaaaaaappppppplinndddjiiffcccdkkkkbfcddddfcdddeeddkonlaaaaaaa",
"aaaaaaaaaapppppplnnnkkddfjfdcicdnkjkfcedccdcfddddddeedkonlaaaaaa",
"aaaaaaaaaapppppplnnkikmiddcdcnjlnnqkkkbbbffbfddddddddeeoklaaaaaa",
"aaaaaaaaaapppqplmqknkjqjiqknnnllnnnnkkkllllbfcdcdddcddekklaaaaaa",
"aaaaaaaaaaappqplnnnnkkkqqiqlnnllmnnnnnnnllllbcdddcdedccknlaaaaaa",
"aaaaaaaaaaaqppqlnnnknkkkkqnnnnnmimqnlnllllllbfcdddccdednnlaaaaaa",
"aaaaaaaaaaaaqpqplnnmnnnnnijnkinjqqnnnknkkklllbfcddddcccklaaaaaaa",
"aaaaaaaaaaaaaqqqllnnqnnllqmjnnnnnknkkkkkkkklllbfccdddcnnlaaaaaaa",
"aaaaaaaaaaaaaaqqpllllijnnkkknlnnnnnnnkkkkkkklllbbfcccnllaaaaaaaa",
"aaaaaaaaaaaaaaaqqqpllnnjkinnilllnnnnnnnnkkkkkklllpppllaaaaaaaaaa",
"aaaaaaaaaaaaaaqqqqplnnknnlppppjpppplllnnnnkkkkkkknlaaaaaaaaaaaaa",
"aaaaaaaaaaaafcbcdlqllnjlmiqppjijqppppplllnnnkkkknnpaaaaaaaaaaaaa",
"aaaaaaaaaaaaccdbcdedlllmiqpllimqllllllpppllnnnnnnlpaaaaaaaaaaaaa",
"aaaaaaaaaaafbfcdbffcdpmqqlllmqqjlnnnnnlllppllnnnlpaaaaaaaaaaaaaa",
"aaaaaaaaaaaccbcddbffceqppllnnkknlnnkkknnlllpppppppaaaaaaaaaaaaaa",
"aaaaaaaaaaafcbbcebcbcdggggglnnnnnlnnnnnlllpgrsrggpaaaaaaaaaaaaaa",
"aaaaaaaaaafbccbbbcbftggrgrgggguggrgguggggggggrggggaaaaaaaaaaaaaa",
"aaaaaaaaaaccbdebbbfbtgggsgggggvggrggvggggggggggwxgaaaaaaaaaaaaaa",
"aaaaaaaaaffdbbdbfcbtqgwgrglgggyggrggyglklnkkpgggggaaaaaaaaaaaaaa",
"aaaaaaaaafbdebbbfbtqpqggggknnkknnllplnklnkkookpgglaaaaaaaaaaaaaa",
"aaaaaaaaacebdbbfbtqqaaaggknnnkoknnplnkknkkookkknnlaaaaaaaaaaaaaa",
"aaaaaaaaaadaaaaaaaaaaaalnkknlnkokplnnklnkkokkknnllaaaaaaaaaaaaaa",
"aaaaaaaaaaaaaaaaaaaaaaalnknnlnkkkplnnknnnkkknnnllaaaaaaaaaaaaaaa",
"aaaaaaaaaaaaaaaaaaaaaaalnnnnnnnkkplnnnnnnnnnnnllaaaaaaaaaaaaaaaa",
"aaaaaaaaaaaaaaaaaaaaaaalnlnkknlnkplnnkkkkknnllaaaaaaaaaaaaaaaaaa",
"aaaaaaaaaaaaaaaaaaaaaaalnpnkoknlnnplkokookknlnlaaaaaaaaaaaaaaaaa",
"aaaaaaaaaaaaaaaaaaaaaaaalpnnkknlllplkkkkkokllnnfcaaaaaaaaaaaaaaa",
"aaaaaaaaaaaaaaaaaaaaaaaallpnnnlpnnnpnkkkkknllnlfdaaaaaaaaaaaaaaa",
"aaaaaaaaaaaaaaaaaaaaaaaafnlppllkoknfpnnnnnlpnllfeaaaaaaaaaaaaaaa",
"aaaaaaaaaaaaaaaaaaaaaaaaafflknlnkfccappllpplllffedaaaaaaaaaaaaaa",
"aaaaaaaaaaaaaaaaaaaaaaaaafccfcccccdcaaappllpfffcdeaaaaaaaaaaaaaa",
"aaaaaaaaaaaaaaaaaaaaaaaaafcdddddddccaaaaffffffcdceaaaaaaaaaaaaaa",
"aaaaaaaaaaaaaaaaaaaaaaaaaccdeddddddcaaaafcdcddcdddaaaaaaaaaaaaaa",
"aaaaaaaaaaaaaaaaaaaaaaaaccddddddeddcaaaacddcddddeddaaaaaaaaaaaaa",
"aaaaaaaaaaaaaaaaaaaaaaacdddcddcdddcaaaaacdeeddedddeaaaaaaaaaaaaa",
"aaaaaaaaaaaaaaaaaaaaaacececedceddcfaaaaaccddcddcecdaaaaaaaaaaaaa",
"aaaaaaaaaaaaaaaaaaaaaacdfdfddfdddcaaaaaafdeefcdfdfcaaaaaaaaaaaaa",
"aaaaaaaaaaaaaaaaaaaaaaacacaccacccaaaaaaaadddfdeffffaaaaaaaaaaaaa",
"aaaaaaaaaaaaaaaaaaaaaaaaaaaaaaaaaaaaaaaaaccdaffafafaaaaaaaaaaaaa",
"aaaaaaaaaaaaaaaaaaaaaaaaaaaaaaaaaaaaaaaaafffaffaaaaaaaaaaaaaaaaa",
"aaaaaaaaaaaaaaaaaaaaaaaaaaaaaaaaaaaaaaaaaaaaaaaaaaaaaaaaaaaaaaaa"
};
