/* XPM */
static char *enemy_floor1_death_f00[] = {
"64 64 30 1",
"a	c None",
"b	c #6C6C6C",
"c	c #2C2C2C",
"d	c #005C00",
"e	c #004400",
"f	c #007400",
"g	c #000000",
"h	c #4C4C4C",
"i	c #C01010",
"j	c #008C00",
"k	c #00A400",
"l	c #002C00",
"m	c #684018",
"n	c #94602C",
"o	c #480000",
"p	c #5C0000",
"q	c #200000",
"r	c #700404",
"s	c #840404",
"t	c #980808",
"u	c #3C3C00",
"v	c #502400",
"w	c #344400",
"x	c #C4C824",
"y	c #001400",
"z	c #64A0D8",
"A	c #3884CC",
"B	c #402810",
"C	c #2474C4",
"D	c #AC0C0C",
"aaaaaaaaaaaaaaaaaaaaaaaabcaaaaaaaaaaaaaaaaaaaaaaaaaaaaaaaaaaaaaa",
"aaaaaaaaaaaaaaaaaaaaaaaaaaccaaaaaaaaaaaaaaaaaaaaaaaaaaaaaaaaaaaa",
"aaaaaaaaaaaaaaaaaaaaaaaaadddccdaaaaaaaaaaaaaaaaaaaaaaaaaaaaaaaaa",
"aaaaaaaaaaaaaaaaaaaaaaeedddfffghidaaaaaaaaaaaaaaaaaaaaaaaaaaaaaa",
"aaaaaaaaaaaaaaaaaaaaaeedfjjkkffgbgkaaaaaaaaaaaaaaaaaaaaaaaaaaaaa",
"aaaaaaaaaaaaaaaaaaaaeeddjfllfjfddjedaaaaaaaaaaaaaaaaaaaaaaaaaaaa",
"aaaaaaaaaaaaaaaaaaaaeedfflfeeefdjeddaaaaaaaaaaaaaaaaaaaaaaaaaaaa",
"aaaaaaaaaaaaaaaaaaaaedjellefffffjeeddaaaaaaaaaaaaaaaaaaaaaaaaaaa",
"aaaaaaaaaaaaaaaaaaaedfeeelledffffdjddaaaaaaaaaaaaaaaaaaaaaaaaaaa",
"aaaaaaaaaaaaaaaaaaaellefkjedeedfffefdaaaaaaaaaaaaaaaaaaaaaaaaaaa",
"aaaaaaaaaaaaaaaaaaaaeelfdlfffdedffdfeaaaaaaaaaaaaaaaaaaaaaaaaaaa",
"aaaaaaaaaaaaaaaaaaaaadeldfeggeffdfffeaaaaaaaaaaaaaaaaaaaaaaaaaaa",
"aaaaaaaaaaaaaaaaaaaaadfeegmnmgeffffdaaaaaaaaaaaaaaaaaaaaaaaaaaaa",
"aaaaaaaaaaaaaaaaaaaaldeegmopoqgffdffdaaaaaaaaaaaaaaaaaaaaaaaaaaa",
"aaaaaaaaaaaaaaaaaaaaaadegqoefjkjffffdaaaaaaaaaaaaaaaaaaaaaaaaaaa",
"aaaaaaaaaaaaaaaapppppppdgefjdfdffeffjdaaaaaaaaaaaaaaaaaaaaaaaaaa",
"aaaaaaaaaaaaappprrrssrrledfdfefedlfffjeccpppppppaaaaaaaaaaaaaaaa",
"aaaaaaaaaaapprstssrrrrrelfefeeeffefjffjfurrrrrrrppppaaaaaaaaaaaa",
"aaaaaaaaaaprsrrrprsstttdelledffffdffjffjsstttsrsrrrppaaaaaaaaaaa",
"aaaaaaaaaprrrrprsttssssfddelefdffdffjfdfrrsssssrrssrrppaaaaaaaaa",
"aaaaaaaaaprrprssrpprrrrffjfdedffdffdfjffrrrrrrsrpprprsrppaaaaaaa",
"aaaaaaaaprprrsttssrppppddddffeffdfffddddpppppprprsssrpssrpaaaaaa",
"aaaaaaaaprrrssttrorssttujffdddfffdddffjuttttssprsttssrrssrpaaaaa",
"aaaaaaaapprrstssprrrrrrrffffjfdddfjffffrrrrrrrprsttsssrrsrpaaaaa",
"aaaaaaaaporrrssrprrsssssvffffdfffdffffssssssssprrsstssrpssrpaaaa",
"aaaaaaaaaoprrrrprssssttsrpwfffdfdfffwprsssssssprrrsssssrrsrpaaaa",
"aaaaaaaaaqoppoooprsstttttsssprrrrrpsssssrxxxssprrrrrsssrpsrpaaaa",
"aaaaaaaaqqqqqqqopprsssttsssssrprprrssssspxxxsssprrrrrrrrorrpaaaa",
"aaaaaaedldfpoqqqoppprrssrpprprrrrrprppprppprrpoooprstsrpopppaaaa",
"aaaaaaddfldfjfoqoprrssssssssrrprprrrsssssssrrdffdrooopporrspaaaa",
"aaaaaeledfleedfoqpooprrsssrrpprrrpprrrsssdddsrdfeeopprsstsrspaaa",
"aaaaaddldffleedjqprrpooppppprrrsrrrppppppeddfdppfjeprrrsstsrpaaa",
"aaaaaedlldjldldfqopprrrrrrssttsrrrsttsrrrrpejfeldfjerrrsssrpppaa",
"aaaaelddllldleydqprrrprstttsrrrrrrrrrstttsrpeefjjffdpdfjfdstrpaa",
"aaaaddlfjlllelyoqpprrsrrrppppppoooppprrreddeledfffjddddfjjjstrpa",
"aaaeefllfledlyqqqapoprpoooooooqqqqqoooopeedfjffjdfddfjjjjjjjtspa",
"aaaelfjlllelyqoqaaagooooooppprrppoppppppppofffdffffdfffjfjfjsspa",
"aaadjlfllelyqqaaaaagggggopprrsssrprssrrppeeeleddfffdffffffffsrpa",
"aaaafaaaaaaaaaaaaaggcgcgggggggzggcggzggggledjfffddddfffffffdrrpa",
"aaaaaaaaaaaaaaaaaaggghggggggggAggcggAgggggggledffffefdfddddwspaa",
"aaaaaaaaaaaaaaaaaagBgcgpggggggCgggggCggggggedjfddfdedddfdfdrrpaa",
"aaaaaaaaaaaaaaaaaaaggggsrrssrrpprsrpprssssssgllleeleeeddeerppaaa",
"aaaaaaaaaaaaaaaaaaapggsrrrstsrrporoprssssssssggpaaaaaaoooppaaaaa",
"aaaaaaaaaaaaaaaaaaaprssrprstssrrpoprrsttsssttsrpaaaaaaaaaaaaaaaa",
"aaaaaaaaaaaaaaaaaaaprsrrprssssrrpaprsttttsrsttrpaaaaaaaaaaaaaaaa",
"aaaaaaaaaaaaaaaaaaaprrrrrrrsssrpaaapssttsssstrrpaaaaaaaaaaaaaaaa",
"aaaaaaaaaaaaaaaaaaaprprssrprsrrpaaaprsssrtDtsprpaaaaaaaaaaaaaaaa",
"aaaaaaaaaaaaaaaaaaaprorstsrprrppaaapprsrtttttorpaaaaaaaaaaaaaaaa",
"aaaaaaaaaaaaaaaaaaaaporrssrppprpaaaprpppsttsropaaaaaaaaaaaaaaaaa",
"aaaaaaaaaaaaaaaaaaaapporrrporrrpaaaprrroprrroppaaaaaaaaaaaaaaaaa",
"aaaaaaaaaaaaaaaaaaaadrpooppstsrdaaaprssrppooprpaaaaaaaaaaaaaaaaa",
"aaaaaaaaaaaaaaaaaaaaadfpsrprsffdaaaprstsrpprsrpaaaaaaaaaaaaaaaaa",
"aaaaaaaaaaaaaaaaaaaaadfdffdfffddaaaadrssrprsrfdaaaaaaaaaaaaaaaaa",
"aaaaaaaaaaaaaaaaaaaaaeddfjfffffdaaaaddfffdjfdfdaaaaaaaaaaaaaaaaa",
"aaaaaaaaaaaaaaaaaaaaaedffjjfffddaaaadfffffjfdfdaaaaaaaaaaaaaaaaa",
"aaaaaaaaaaaaaaaaaaaaaddfjffffffdaaaaddffjjjfdddaaaaaaaaaaaaaaaaa",
"aaaaaaaaaaaaaaaaaaaaddffffffjffdaaaadfffjjjjfddaaaaaaaaaaaaaaaaa",
"aaaaaaaaaaaaaaaaaaadfffdffdfffdaaaaadffffffffddaaaaaaaaaaaaaaaaa",
"aaaaaaaaaaaaaaaaaadjdjdjfdjffdeaaaaadffjfjffffdaaaaaaaaaaaaaaaaa",
"aaaaaaaaaaaaaaaaaadfefeffefffdaaaaaafffdffdjffdaaaaaaaaaaaaaaaaa",
"aaaaaaaaaaaaaaaaaaadadaddadddaaaaaaadfjfdfjdjdjdaaaaaaaaaaaaaaaa",
"aaaaaaaaaaaaaaaaaaaaaaaaaaaaaaaaaaaadfffeffefefdaaaaaaaaaaaaaaaa",
"aaaaaaaaaaaaaaaaaaaaaaaaaaaaaaaaaaaaadddaddadadaaaaaaaaaaaaaaaaa",
"aaaaaaaaaaaaaaaaaaaaaaaaaaaaaaaaaaaaaaaaaaaaaaaaaaaaaaaaaaaaaaaa"
};
