/* XPM */
static char *enemy_floor1_death_f04[] = {
"64 64 15 1",
"a	c None",
"b	c #98C010",
"c	c #587400",
"d	c #840404",
"e	c #980808",
"f	c #7CA400",
"g	c #700404",
"h	c #5C0000",
"i	c #480000",
"j	c #000000",
"k	c #004400",
"l	c #002C00",
"m	c #007400",
"n	c #005C00",
"o	c #008C00",
"aaaaaaaaaaaaaaaaaaaaaaaaaaaaaaaaaaaaaaaaaaaaaaaaaaaaaaaaaaaaaaaa",
"aaaaaaaaaaaaaaaaaaaaaaaaaaaaaaaaaaaaaaaaaaaaaaaaaaaaaaaaaaaaaaaa",
"aaaaaaaaaaaaaaaaaaaaaaaaaaaaaaaaaaaaaaaaaaaaaaaaaaaaaaaaaaaaaaaa",
"aaaaaaaaaaaaaaaaaaaaaaaaaaaaaaaaaaaaaaaaaaaaaaaaaaaaaaaaaaaaaaaa",
"aaaaaaaaaaaaaaaaaaaaaaaaaaaaaaaaaaaaaaaaaaaaaaaaaaaaaaaaaaaaaaaa",
"aaaaaaaaaaaaaaaaaaaaaaaaaaaaaaaaaaaaaaaaaaaaaaaaaaaaaaaaaaaaaaaa",
"aaaaaaaaaaaaaaaaaaaaaaaaaaaaaaaaaaaaaaaaaaaaaaaaaaaaaaaaaaaaaaaa",
"aaaaaaaaaaaaaaaaaaaaaaaaaaaaaaaaaaaaaaaaaaaaaaaaaaaaaaaaaaaaaaaa",
"aaaaaaaaaaaaaaaaaaaaaaaaaaaaaaaaaaaaaaaaaaaaaaaaaaaaaaaaaaaaaaaa",
"aaaaaaaaaaaaaaaaaaaaaaaaaaaaaaaaaaaaaaaaaaaaaaaaaaaaaaaaaaaaaaaa",
"aaaaaaaaaaaaaaaaaaaaaaaaaaaaaaaaaaaaaaaaaaaaaaaaaaaaaaaaaaaaaaaa",
"aaaaaaaaaaaaaaaaaaaaaaaaaaaaaaaaaaaaaaaaaaaaaaaaaaaaaaaaaaaaaaaa",
"aaaaaaaaaaaaaaaaaaaaaaaaaaaaaaaaaaaaaaaaaaaaaaaaaaaaaaaaaaaaaaaa",
"aaaaaaaaaaaaaaaaaaaaaaaaaaaaaaaaaaaaaaaaaaaaaaaaaaaaaaaaaaaaaaaa",
"aaaaaaaaaaaaaaaaaaaaaaaaaaaaaaaaaaaaaaaaaaaaaaaaaaaaaaaaaaaaaaaa",
"aaaaaaaaaaaaaaaaaaaaaaaaaaaaaaaaaaaaaaaaaaaaaaaaaaaaaaaaaaaaaaaa",
"aaaaaaaaaaaaaaaaaaaaaaaaaaaaaaaaaaaaaaaaaaaaaaaaaaaaaaaaaaaaaaaa",
"aaaaaaaaaaaaaaaaaaaaaaaaaaaaaaaaaaaaaaaaaaaaaaaaaaaaaaaaaaaaaaaa",
"aaaaaaaaaaaaaaaaaaaaaaaaaaaaaaaaaaaaaaaaaaaaaaaaaaaaaaaaaaaaaaaa",
"aaaaaaaaaaaaaaaaaaaaaaaaaaaaaaaaaaaaaaaaaaaaaaaaaaaaaaaaaaaaaaaa",
"aaaaaaaaaaaaaaaaaaaaaaaaaaaaaaaaaaaaaaaaaaaaaaaaaaaaaaaaaaaaaaaa",
"aaaaaaaaaaaaaaaaaaaaaaaaaaaaaaaaaaaaaaaaaaaaaaaaaaaaaaaaaaaaaaaa",
"aaaaaaaaaaaaaaaaaaaaaaaaaaaaaaaaaaaaaaaaaaaaaaaaaaaaaaaaaaaaaaaa",
"aaaaaaaaaaaaaaaaaaaaaaaaaaaaaaaaaaaaaaaaaaaaaaaaaaaaaaaaaaaaaaaa",
"aaaaaaaaaaaaaaaaaaaaaaaaaaaaaaaaaaaaaaaaaaaaaaaaaaaaaaaaaaaaaaaa",
"aaaaaaaaaaaaaaaaaaaaaaaaaaaaaaaaaaaaaaaaaaaaaaaaaaaaaaaaaaaaaaaa",
"aaaaaaaaaaaaaaaaaaaaaaaaaaaaaaaaaaaaaaaaaaaaaaaaaaaaaaaaaaaaaaaa",
"aaaaaaaaaaaaaaaaaaaaaaaaaaaaaaaaaaaaaaaaaaaaaaaaaaaaaaaaaaaaaaaa",
"aaaaaaaaaaaaaaaaaaaaaaaaaaaaaaaaaaaaaaaaaaaaaaaaaaaaaaaaaaaaaaaa",
"aaaaaaaaaaaaaaaaaaaaaaaaaaaaaaaaaaaaaaaaaaaaaaaaaaaaaaaaaaaaaaaa",
"aaaaaaaaaaaaaaaaaaaaaaaaaaaaaaaaaaaaaaaaaaaaaaaaaaaaaaaaaaaaaaaa",
"aaaaaaaaaaaaaaaaaaaaaaaaaaaaaaaaaaaaaaaaaaaaaaaaaaaaaaaaaaaaaaaa",
"aaaaaaaaaaaaaaaaaaaaaaaaaaaaaaaaaaaaaaaaaaaaaaaaaaaaaaaaaaaaaaaa",
"aaaaaaaaaaaaaaaaaaaaaaaaaaaaaaaaaaaaaaaaaaaaaaaaaaaaaaaaaaaaaaaa",
"aaaaaaaaaaaaaaaaaaaaaaaaaaaaaaaaaaaaaaaaaaaaaaaaaaaaaaaaaaaaaaaa",
"aaaaaaaaaaaaaaaaaaaaaaaaaaaaaaaaaaaaaaaaaaaaaaaaaaaaaaaaaaaaaaaa",
"aaaaaaaaaaaaaaaaaaaaaaaaaaaaaaaabaaaaaaaaaaaaaaaaaaaaaaaaaaaaaaa",
"aaaaaaaaaaaaaaaaaaaaaaaaaaaaacaaaaaabaaaaaaaaaaaaaaaaaaaaaaaaaaa",
"aaaaaaaaaaaaaaaaaaaaaaaaaabaaaaaaddeedddaaaaaaaaaaaaaaaaaaaaaaaa",
"aaaaaaaaaaaaaaaaaaaabaaaaaaffaadddddggggdeaaaaaaaaaaaaaaaaaaaaaa",
"aaaaaaaaaaaaaaaaaaaaabaabaaaagddddghhggggdeaaaaaaaaaaaaaaaaaaaaa",
"aaaaaaaaaaaaaaaaaaaaaaaacaaagddgghggggggggdeaaaaaaaaaaaaaaaaaaaa",
"aaaaaaaaaaaaaaaaaabaaacaaaahggghiggddggddgddeaaaaaaaaaaaaaaaaaaa",
"aaaaaaaaaaaaaaafaaaaaaaafhhghiiifgggggggddgedeaaaaaaaaaaaaaaaaaa",
"aaaaaaaaaaaaaaaaaaaafagghdedghifgddgggggggddeddaaaaaaaaaaaaaaaaa",
"aaaaaaaaaaaaaaaaaaddddgddddddghbdfgggdedgggdegdaabaaaaaaaaaaaaaa",
"aaaaaaaaaaaaaaaaaggggggggggdegfgggggggggdgggegddaaaaaaaaaaaaaaaa",
"aaaaaaaaaaaaaaaahggddggddggddhbfggggjjjjjgggdggdaaaaaaaaaaaaaaaa",
"aaaaaaaaaaaaaaaahggddddgggddghfiijjjjjjjjjjidggdcaaaaaaaaaaaaaaa",
"aaaaaaaaaaaaaaaahgddddgggggghijhddddjjjjjeedjigdaaaabaaaaaaaaaaa",
"aaaaaaaaaaaaaaaakhgdgggghhhhddddggggggdgddddeeigaaaaaaaaaaaaaaaa",
"aaaaaaaaaaaaabaklhggghhhhfddggggdddeedddddggddegaabaaaaaaaaaaaaa",
"aaaaaaaaaaaaaaalalhhhlkfcggggddddggggdddggggggdgafaaaaaaaaaaaaaa",
"aaaaaaaaaaaaaaakalblaafkgggdedmmmhhhgggggggggggdaaaaaaaaaaaaaaaa",
"aaaaaaaaaaaaaaaaakakfcfhggdggnmoommhhhhihggggggdaaaaaaaaaaaaaaaa",
"aaaaaaaaaaaaaaaabbbbcccgghgddmmmmoooomhhmoomggggaaaaaaaaaaaaaaaa",
"aaaaaaaaaaaaaaaaaaaffchgdgggnmmmmmmmmooommmomgghaaaaaaaaaaaaaaaa",
"aaaaaaaaaaaaaaaaaabbfbhgghggnmmmmmmmmmmmoommmghaaaaaaaaaaaaaaaaa",
"aaaaaaaaaaaaaaaaaaaaaahggghhkknnnnnmnmnnnnmmmmmaaaaaaaaaaaaaaaaa",
"aaaaaaaaaaaaaaaaaaaaafahhgggnmnmnmmmmmmmmmnmmmmoamonaaaaaaaaaaaa",
"aaaaaaaaaaaaaaaaaaaaaaaahhhhknnnnnnnknkknmmmmomnnknmaaaaaaaaaaaa",
"aaaaaaaaaaaaaaaaaaaaaaaaaaiiikkkkaaaaaaaannmmmoomnmaaaaaaaaaaaaa",
"aaaaaaaaaaaaaaaaaaaaaaaaaaaaaaaaanmamaaaaaaknnmmnmaaaaaaaaaaaaaa",
"aaaaaaaaaaaaaaaaaaaaaaaaaaaaaaaaaaaaaaaaaaaaaknnaaaaaaaaaaaaaaaa"
};
