/* XPM */
static char *enemy_floor1_death_f03[] = {
"64 64 19 1",
"a	c None",
"b	c #98C010",
"c	c #7CA400",
"d	c #6C8C00",
"e	c #6C6C6C",
"f	c #840404",
"g	c #980808",
"h	c #700404",
"i	c #5C0000",
"j	c #480000",
"k	c #004400",
"l	c #002C00",
"m	c #000000",
"n	c #5C340C",
"o	c #2C2C2C",
"p	c #4C4C4C",
"q	c #007400",
"r	c #008C00",
"s	c #005C00",
"aaaaaaaaaaaaaaaaaaaaaaaaaaaaaaaaaaaaaaaaaaaaaaaaaaaaaaaaaaaaaaaa",
"aaaaaaaaaaaaaaaaaaaaaaaaaaaaaaaaaaaaaaaaaaaaaaaaaaaaaaaaaaaaaaaa",
"aaaaaaaaaaaaaaaaaaaaaaaaaaaaaaaaaaaaaaaaaaaaaaaaaaaaaaaaaaaaaaaa",
"aaaaaaaaaaaaaaaaaaaaaaaaaaaaaaaaaaaaaaaaaaaaaaaaaaaaaaaaaaaaaaaa",
"aaaaaaaaaaaaaaaaaaaaaaaaaaaaaaaaaaaaaaaaaaaaaaaaaaaaaaaaaaaaaaaa",
"aaaaaaaaaaaaaaaaaaaaaaaaaaaaaaaaaaaaaaaaaaaaaaaaaaaaaaaaaaaaaaaa",
"aaaaaaaaaaaaaaaaaaaaaaaaaaaaaaaaaaaaaaaaaaaaaaaaaaaaaaaaaaaaaaaa",
"aaaaaaaaaaaaaaaaaaaaaaaaaaaaaaaaaaaaaaaaaaaaaaaaaaaaaaaaaaaaaaaa",
"aaaaaaaaaaaaaaaaaaaaaaaaaaaaaaaaaaaaaaaaaaaaaaaaaaaaaaaaaaaaaaaa",
"aaaaaaaaaaaaaaaaaaaaaaaaaaaaaaaaaaaaaaaaaaaaaaaaaaaaaaaaaaaaaaaa",
"aaaaaaaaaaaaaaaaaaaaaaaaaaaaaaaaaaaaaaaaaaaaaaaaaaaaaaaaaaaaaaaa",
"aaaaaaaaaaaaaaaaaaaaaaaaaaaaaaaaaaaaaaaaaaaaaaaaaaaaaaaaaaaaaaaa",
"aaaaaaaaaaaaaaaaaaaaaaaaaaaaaaaaaaaaaaaaaaaaaaaaaaaaaaaaaaaaaaaa",
"aaaaaaaaaaaaaaaaaaaaaaaaaaaaaaaaaaaaaaaaaaaaaaaaaaaaaaaaaaaaaaaa",
"aaaaaaaaaaaaaaaaaaaaaaaaaaaaaaaaaaaaaaaaaaaaaaaaaaaaaaaaaaaaaaaa",
"aaaaaaaaaaaaaaaaaaaaaaaaaaaaaaaaaaaaaaaaaaaaaaaaaaaaaaaaaaaaaaaa",
"aaaaaaaaaaaaaaaaaaaaaaaaaaaaaaaaaaaaaaaaaaaaaaaaaaaaaaaaaaaaaaaa",
"aaaaaaaaaaaaaaaaaaaaaaaaaaaaaaaaaaaaaabaaaaaaaaaaaaaaaaaaaaaaaaa",
"aaaaaaaaaaaaaaaaaaaaaaaaaaaaaaaaaaaaaaaaaaaaaaaaaaaaaaaaaaaaaaaa",
"aaaaaaaaaaaaaaaaaaaaaaaaaaaaaaaaaaaaaaaaaaaaaaaaaaaaaaaaaaaaaaaa",
"aaaaaaaaaaaaaaaaaaaaaaaaaaaaabaaaaaabaaaaaaaaaaaaaaaaaaaaaaaaaaa",
"aaaaaaaaaaaaaaaaaaaaaaaaaaaaaaaabaabaaaaaaaaaaaaaaaaaaaaaaaaaaaa",
"aaaaaaaaaaaaaaaaaaaaaabaaaaabaabaaaaaaabaaaaaaaaaaaaaaaaaaaaaaaa",
"aaaaaaaaaaaaaaaaaaaaaaaaaaaaaabbabaaaaaaaaaaaaaaaaaaaaaaaaaaaaaa",
"aaaaaaaaaaaaaaaaaaaaaaaaaaaaaacbcaaaaaaaaaaaaaaaaaaaaaaaaaaaaaaa",
"aaaaaaaaaaaaaaaaaaaaaaabacaaaaadcaaabaaaaaaaaaaaaaaaaaaaaaaaaaaa",
"aaaaaaaaaaaaaaaaaaaaaaadaaaaabedaabbaaaaaaaaaaaaaaaaaaaaaaaaaaaa",
"aaaaaaaaaaaaaaaaaaaaaaaaaacaacffgggffaaaaaaaaaaaaaaaaaaaaaaaaaaa",
"aaaaaaaaaaaaaaaaaaaaaaaaaaachhhffffghffaaaaaaaaaaaaaaaaaaaaaaaaa",
"aaaaaaaaaaaaaaaaaaaaabadaacihfhhhfffghhffaaaaaaaaaaaaaaaaaaaaaaa",
"aaaaaaaaaaaaaaaabaaaaccabbihhhhhhhhfffhfgfaaaaaaaaaaaaaaaaaaaaaa",
"aaaaaaaaaaaabaaaaaaaaaaciihihhhhhhiiihhffgfaaaaaaaaaaaaaaaaaaaaa",
"aaaaaaaaaaaaaaaaaaacahhifgfhihhhiihhhhhhfgffaaaaaaaaaaaaaaaaaaaa",
"aaaaaaaaaaaaaaaaaffffhffffffhiiiihffhhffhfghfaaaaaaaaaaaaaaaaaaa",
"aaaaaaaaaaaaaaaahhhhhhhhhhfghhjihhhhhhhffhghhfaaaaaaaaaaaaaaaaaa",
"aaaaaaaaaaaaaaaihhffhhffhhffhjihbffhhhhhhfgfhfaaaaaaaaaaaaaaaaaa",
"aaaaaaaaaaaaaaaihhffffhhhffhbjihfhhhffhhhhffhhfaaabaaaaaaaaaaaaa",
"aaaaaaaaaaaaaaaihffffhhhhhhijibhhhhhhhfhhhffhfgaaabaaaaaaaaaaaaa",
"aaaaaaaaaaaaaaakihfhhhhiiiidjbiihhhhhhhhhhhfhfgacbaaaaaaaaaaaaaa",
"aaaaaaaaaaaaaaklihhhiiiiacdcbjibiiimmnopihhfhffaaaadaaaaaaaaaaaa",
"aaaaaaaaaaaaaalaliiilkaacaddbijjiimmmmmommihhhfaaaaaaaaaaaaaaaaa",
"aaaaaaaaaaaaaakalalaaakbbcacjbbmmmjmmmmmjjmmhffaaaaaaaaaaaaaaaaa",
"aaaaaaaaaaaaaaaakakaaaaabacddmmjjihmmmmmgghjmhfbacaaaaaaaaaaaaaa",
"aaaaaaaaaaaaaaaaabaaacaaadacjjihhhihhhhfffgfjjaaaaaaaaaaaaaaaaaa",
"aaaaaaaaaaaaaaaaaaaacaaadacjihiihhhhfffhhffgfjaaacaaaaaaaaaaaaaa",
"aaaaaaaaaaaaaaaabaaabaaaaajiiihhhhfffggfhhffhjiaaaaaaaaaaaaaaaaa",
"aaaaaaaaaaaaaaaaaaaaaaaaajiihhhhfffggfffhhfhhjhaaaaaaaaaaaaaaaaa",
"aaaaaaaaaaaaaaaaaaacaaaajjhhhhfffgffffhhhhhhiihaaaaaaaaaaaaaaaaa",
"aaaaaaaaaaaaaaaaaaaaaaajhhhijjiffffhhhhhhhijjhiaaaaaaaaaaaaaaaaa",
"aaaaaaaaaaaaaaaaaaaaaaajhhhhhhqqhhhhhhhhijjihhaaaaaaaaaaaaaaaaaa",
"aaaaaaaaaaaaaaaaaaaaaajhhhhhhrrrqqhhhsqqqiihhiaaaaaaaaaaaaaaaaaa",
"aaaaaaaaaaaaaaaaaaaaaajhhihhsqqqrrqqqqqqrqiiiaaaaaaaaaaaaaaaaaaa",
"aaaaaaaaaaaaaaaaaaaacajihhiiqqqqqqqqqqrrqriaaaaaaaaaaaaaaaaaaaaa",
"aaaaaaaaaaaaaaaaaaaaaajiiihhssqsqqsqsssqqraacaaaaaaaaaaaaaaaaaaa",
"aaaaaaaaaaaaaaaaacaaccjjihiisqqqqqqqqqsqqqaaaaaacbcaaaaaaaaaaaaa",
"aaaaaaaaaaaaaaadcbbbbcajjiijjssssssqqqqqqqaaaaaaaaaaaaaaaaaaaaaa",
"aaaaaaaaaaaaaaaaadcccaaajjjjlkkklllssqqsqqraaaaaaaaaacdaaaaaaaaa",
"aaaaaaaaaaaaaaaaaaaaaaaaaskksqqqslkklsqqsqraaaaaaaaaaaaaaaaaaaaa",
"aaaaaaaaaaaaaaaaaaaaacbasqqkssqskssskasssqsqaaaaaaaaaaaaaaaaaaaa",
"aaaaaaaaaaaaaaaaaaaaaaaasssakssssqqskaaskskqraaaaaaaaaaaaaaaaaaa",
"aaaaaaaaaaaaaaaaaaaaaaaaaaasqkksssskaaaaskqsaaaaaaaaaaaaaaaaaaaa",
"aaaaaaaaaaaaaaaaaaaaaaaaaaassaslklaaaaaaaqsqaaaaaaaaaaaaaaaaaaaa",
"aaaaaaaaaaaaaaaaaaaaaaaaaaaaaaqaqaaaaaaaaqqaaaaaaaaaaaaaaaaaaaaa",
"aaaaaaaaaaaaaaaaaaaaaaaaaaaaaaaaaaaaaaaaaaaaaaaaaaaaaaaaaaaaaaaa"
};
