/* XPM */
static char *boss_floor1_walking_f01[] = {
"64 64 32 1",
"a	c None",
"b	c #004428",
"c	c #002C1C",
"d	c #005C38",
"e	c #007448",
"f	c #048C58",
"g	c #04A468",
"h	c #04BC78",
"i	c #18C084",
"j	c #48D09C",
"k	c #30C890",
"l	c #B8ECB8",
"m	c #00A400",
"n	c #44D444",
"o	c #7CE0BC",
"p	c #60D8AC",
"q	c #00140C",
"r	c #004444",
"s	c #78E0E0",
"t	c #28C8C8",
"u	c #008C8C",
"v	c #00A4A4",
"w	c #001414",
"x	c #007474",
"y	c #700404",
"z	c #980808",
"A	c #5C0000",
"B	c #340000",
"C	c #840404",
"D	c #480000",
"E	c #200000",
"F	c #000000",
"aaaaaaaaaaaaaaaaaaaaaaaaaaaaaaaaabbbbcaaaaaaaaaaaaaaaaaaaaaaaaaa",
"aaaaaaaaaaaaaaaaaaaaaaaaaaaaaaaabbdddbcaaaaaaaaaaaaaaaaaaaaaaaaa",
"aaaaaaaaaaaaaaaaaaaaaaaaaaaaaaabddeedbcaaaaaaaaaaaaaaaaaaaaaaaaa",
"aaaaaaaaaaaaaaaaaaaaaaaaaaaaaaabeedeedccaaaaaaaaaaaaaaaaaaaaaaaa",
"aaaaaaaaaaaaaaaaaaaaaaaaaaaaaabdedefedccaaaaaaaaaaaaaaaaaaaaaaaa",
"aaaaaaaaaaaaaaaaaaaaaaaaaaaaabbdefdegebccaaaaaaaaaaaaaaaaaaaaaaa",
"aaaaaaaaaaaaaaaaaaaaaaaaaaaabbbbefedefdccaaaaaaaaaaaaaaaaaaaaaaa",
"aaaaaaaaaaaaaaaaaaaaaaaaaaaabedffgfdegebccaaaaaaaaaaaaaaaaaaaaaa",
"aaaaaaaaaaaaaaaaaaaaaaaaaaabbebdefdbefedbcaaaaaaaaaaaaaaaaaaaaaa",
"aaaaaaaaaaaaaaaaaaaaaaaaaaabdedbddbdegfdbcaaaaaaaaaaaaaaaaaaaaaa",
"aaaaaaaaaaaaaaaaaaaaaaaaaaabeedbbbbdehgebcaaaaaaaaaaaaaaaaaaaaaa",
"aaaaaaaaaaaaaaaaaaaaaaaaccbdhfedbbdefhgfbcaaaaaaaaaaaaaaaaaaaaaa",
"aaaaaaaaaaaaaaaaabbbbbbbbbbdhifdbddfihffbccccaaaaaaaaaaaaaaaaaaa",
"aaaaaaaaaaaaaaaabddddddbeebdegifddfigeddbcbbcccbbbbbaaaaaaaaaaaa",
"aaaaaaaaaaaaaaabdfjigeeedbbbddegedgeddbdbcdeddbbddddbaaaaaaaaaaa",
"aaaaaaaaaaaaaabdfkhfggedfdddbldeededlbddbcbbbbdehgjgdbaaaaaaaaaa",
"aaaaaaaaaaaaaabdfhggigeeegbfdmnddfdnmdfbbcbbbdefgopjgdbaaaaaaaaa",
"aaaaaaaaaaaaaabdfgfggfddefbefdbbegbbdfebcccdbbdefohgjdbaaaaaaaaa",
"aaaaaaaaaaaaaabbdddfeebdedbdefedfgdefedccqbebcddeifegdbaaaaaaaaa",
"aaaaaaaaaaaaabbbbbdbbbcbfdcccbdegifeedbqqcdebcbddfefedbaaaaaaaaa",
"aaaaaaaaaaaabbfecdbdcqqbgdbccbbdfpfebbcqcbeebqcbbdddbbcaaaaaaaaa",
"aaaaaaaaaaaabdfdcegdcqqcfebbccbdedbbcqqcbdedbqqqqbbcebaaaaaaaaaa",
"aaaaaaaaaaabdehbbehdcqqcdedbcqbefhedbcqcbedbccqqccccfdcaaaaaaaaa",
"aaaaaaaaaaabdhjbbegbcaqqcbbbcqcbefbbcqccbdbcqqqqcbbbfdcaaaaaaaaa",
"aaaaaaaaaaabdgibbddbcaqqqrcccqccbbdbcqcqbbcqqqqcbedbgdcaaaaaaaaa",
"aaaaaaaaaaacbefcbbccaaqqcsturqcbfedbcqqqccqqqqqcdgdbgdcaaaaaaaaa",
"aaaaaaaaaaaacbbbbdedcaqqqvsssturddbbbcqqqqqqqqcbehddddcaaaaaaaaa",
"aaaaaaaaaaacbbdddeefdbqqvurutsssturbbcqqqqqqqqcdhfqebcaaaaaaaaaa",
"aaaaaaaaaaaaccbbddeefeqqvssturutssstuucqqqqqqcqccqbbbcaaaaaaaaaa",
"aaaaaaaaaaaaacccbbddegebrutsssturutstwxqqqqqcbdeeebbcaaaaaaaaaaa",
"aaaaaaaaaaaaaaacccbbdegedcqrutsssturuucqqqqbbdgffdbccaaaaaaaaaaa",
"aaaaaaaaaaaaaaaaaaccccefeebqqqrutsssturqqcbdegeedbcaaaaaaaaaaaaa",
"aaaaaaaaaaaaaaaaaaaaaaccbddeyzyqqrutsssturdhfeddbcaaaaaaaaaaaaaa",
"aaaaaaaaaaaaaaaaaaaaaaacbbbdcyzAqqqqrutsssturccaaaaaaaaaaaaaaaaa",
"aaaaaaaaaaaaaaaaaaaaaaccccccbczyBBBqqqqrutssstusaaaaaaaaaaaaaaaa",
"aaaaaaaaaaaaaaaaaaaaacbdefdbddzCDDDBBBBqqqrutstwsaaaaaaaaaaaaaaa",
"aaaaaaaaaaaaaaaaaaaaacdefedbfeyyADDDDDDDqqbderusbaaaaaaaaaaaaaaa",
"aaaaaaaaaaaaaaaaaaabbbbdedbdegcCyADAADDqqqcbbbbbbaaaaaaaaaaaaaaa",
"aaaaaaaaaaaaaaaabbbeefdbbbbbbebACyBDDEqccccbefgebaaaaaaaaaaaaaaa",
"aaaaaaaaaaaaaaabbbbbbdfghhgedbbDyyDBBqcbcccdfopgdbaaaaaaaaaaaaaa",
"aaaaaaaaaaaaaaaaaaaaabbdefhjhfdcAyDBBqcdbbcbdefedbaaaaaaaaaaaaaa",
"aaaaaaaaaaaaaaaaaaaaaccbbbbefgidAyDBqcbedbccbbbdbbaaaaaaaaaaaaaa",
"aaaaaaaaaaaaaaaaaaaaacbccccccefiDyDcqcbfdcbbdddbbaaaaaaaaaaaaaaa",
"aaaaaaaaaaaaaaaaaaaabcccdbefbcefbABaqcbdbcbdfogbbaaaaaaaaaaaaaaa",
"aaaaaaaaaaaaaaaaaaaabbbbcbddcccedbDaqqcbcbbbegfebaaaaaaaaaaaaaaa",
"aaaaaaaaaaaaaaaaaaaabegdcbfdcqcbebDaacbbdefedeedbaaaaaaaaaaaaaaa",
"aaaaaaaaaaaaaaaaaaaabdebbcccqcbddcaacbbdegjgebbbaaaaaaaaaaaaaaaa",
"aaaaaaaaaaaaaaaaaaaaabbdbbbbccccccabddgedegffbcaaaaaaaaaaaaaaaaa",
"aaaaaaaaaaaaaaaaaaaaaabbegedcbbcbEadegogebdedbaaaaaaaaaaaaaaaaaa",
"aaaaaaaaaaaaaaaaaaaaaaccdfedbbbbbcccccigdbcbbcaaaaaaaaaaaaaaaaaa",
"aaaaaaaaaaaaaaaaaaaaaacbbbdbfgedbcbbbbcccccccccaaaaaaaaaaaaaaaaa",
"aaaaaaaaaaaaaaaaaaaaaaacbdbcdjebbcfgedccbbbbbbbcaaaaaaaaaaaaaaaa",
"aaaaaaaaaaaaaaaaaaaaaacbdddbbbbbbcfjgbcdgeddedbcaaaaaaaaaaaaaaaa",
"aaaaaaaaaaaaaaaaaaaaaabbedecaaaabbbbdbcfjgbfjgbcaaaaaaaaaaaaaaaa",
"aaaaaaaaaaaaaaaaaaaaaadbfbfcaaaaaaabccbbdbbdfebaaaaaaaaaaaaaaaaa",
"aaaaaaaaaaaaaaaaaaaaaaebbbbcaaaaaaaaaadbdbbbbbaaaaaaaaaaaaaaaaaa",
"aaaaaaaaaaaaaaaaaaaaaabcdcdcaaaaaaaaaadbbbaaaaaaaaaaaaaaaaaaaaaa",
"aaaaaaaaaaaaaaaaaaaaaaacccbcaaaaaaaaaaabebaaaaaaaaaaaaaaaaaaaaaa",
"aaaaaaaaaaaaaaaaaaaaaaaaacccaaaaaaaaaacfebaaaaaaaaaaaaaaaaaaaaaa",
"aaaaaaaaaaaaaaaaaaaaaaaaaaaaaaaaaaaaaqcbecaaaaaaaaaaaaaaaaaaaaaa",
"aaaaaaaaaaaaaaaaaaaaaaaaaaaaaaaaaaaaaqccdccaaaaaaaaaaaaaaaaaaaaa",
"aaaaaaaaaaaaaaaaaaaaaaaaaaaaaaaaaaaaaFccddcbaaaaaaaaaaaaaaaaaaaa",
"aaaaaaaaaaaaaaaaaaaaaaaaaaaaaaaaaaaaaccdbebecaaaaaaaaaaaaaaaaaaa",
"aaaaaaaaaaaaaaaaaaaaaaaaaaaaaaaaaaaaacccccccaaaaaaaaaaaaaaaaaaaa"
};
