/* XPM */
static const char *boss_floor3_walking_f00[] = {
/* columns rows colors chars-per-pixel */
"64 64 36 1",
"! c None",
"# c #A06C3C",
"$ c #B08458",
"% c #C4A080",
"& c #D0B094",
"' c #E4D0C0",
"( c #BCBCBC",
") c #D8D8D8",
"* c #7C7C7C",
"+ c #A8784C",
", c #94602C",
"- c #5C340C",
". c #805424",
"/ c #684018",
"0 c #E4C098",
"1 c #980088",
"2 c #8C8C8C",
"3 c #502400",
"4 c #643000",
"5 c #4C78A8",
"6 c #3C6CA0",
"7 c #6C90BC",
"8 c #346090",
"9 c #98C0E4",
": c #2C5480",
"; c #FCFCFC",
"< c #700404",
"= c #C01010",
"> c #244870",
"? c #183450",
"@ c #142840",
"A c #980808",
"B c #2C2C2C",
"C c #000000",
"D c #3C3C3C",
"E c #4C4C4C",
"!!!!!!!!!!!!!!!!!!!!!!!!!!!!!!!!!!!!!!!!!!!!!!!!!!!!!!!!!!!!!!!!",
"!!!!!!!!!!!!!!!!!!!!!!!!!!!!!!!!!!!!!!!!!!!!!!!!!!!!!!!!!!!!!!!!",
"!!!!!!!!!!!!!!!!!!!!!!!!!!!!!!!!!!!!!!!!!!!!!!!!!!!!!!!!!!!!!!!!",
"!!!!!!!!!!!!!!!!!!!!!!!!!!!!!!!!!!!!!!!!!!!!!!!!!!!!!!!!!!!!!!!!",
"!!!!!!!!!!!!!!!!!!!!!!!!!!!!!!!!!!!!!!!!!!!!!!!!!!!!!!!!!!!!!!!!",
"!!!!!!!!!!!!!!!!!!!!!!!!!!!!!!!!!!!!!!!!!!!!!!!!!!!!!!!!!!!!!!!!",
"!!!!!!!!!!!!!!!!!!!!!!!!!!!!!!!!!!!!!!!!!!!!!!!!!!!!!!!!!!!!!!!!",
"!!!!!!!!!!!!!!!!!!!!!!!!!!!!!!!!!!!!!!!!!!!!!!!!!!!!!!!!!!!!!!!!",
"!!!!!!!!!!!!!!!!!!!!!!!!!!!!!!!!!!!!!!!!!!!!!!!!!!!!!!!!!!!!!!!!",
"!!!!!!!!!!!!!!!!!!!!!!!!!!!!!!!!!!!!!!!!!!!!!!!!!!!!!!!!!!!!!!!!",
"!!!!!!!!!!!!!!!!!!!!!!!!!!!!!!!!!!!!!!!!!!!!!!!!!!!!!!!!!!!!!!!!",
"!!!!!!!!!!!!!!!!!!!!!!!!!!!!!!!!!!!!!!!!!!!!!!!!!!!!!!!!!!!!!!!!",
"!!!!!!!!!!!!!!!!!!!!!!!!!!!!!!!!!!!!!!!!!!!!!!!!!!!!!!!!!!!!!!!!",
"!!!!!!!!!!!!!!!!!!!!!!!!!!!!!!!!!!!!!!!!!!!!!!!!!!!!!!!!!!!!!!!!",
"!!!!!!!!!!!!!!!!!!!!!!!!!!!!#$%%%%%$#!!!!!!!!!!!!!!!!!!!!!!!!!!!",
"!!!!!!!!!!!!!!!!!!!!!!!!!!!#$%&&'&&%$#!!!!!!!!!!!!!!!!!!!!!!!!!!",
"!!!!!!!!!!!!!!!!!!!!!!!!!!!($$%%%%%$$(!!!!!!!!!!!!!!!!!!!!!!!!!!",
"!!!!!!!!!!!!!!!!!!!!!!!!!!!)*($$$$$(*)!!!!!!!!!!!!!!!!!!!!!!!!!!",
"!!!!!!!!!!!!!!!!!!!!!!!!!!!($*))+))*$(!!!!!!!!!!!!!!!!!!!!!!!!!!",
"!!!!!!!!!!!!!!!!!!!!!!!!!!!*,--.,.--,*!!!!!!!!!!!!!!!!!!!!!!!!!!",
"!!!!!!!!!!!!!!!!!!!!!!!!!!!#$%++%++%$#!!!!!!!!!!!!!!!!!!!!!!!!!!",
"!!!!!!!!!!!!!!!!!!!!!!!!!!!/,+#,0,#+,/!!!!!!!!!!!!!!!!!!!!!!!!!!",
"!!!!!!!!!!!!!!!!!!!!!!!!!()1,#,+.+,#,!!!!!!!!!!!!!!!!!!!!!!!!!!!",
"!!!!!!!!!!!!!!!!!!!!!!!!(!*2.#33433#.!!!!!!!!!!!!!!!!!!!!!!!!!!!",
"!!!!!!!!!!!!!!!!!!!!!!!!!!!5#/$$&$$/#5566656!!!!!!!!!!!!!!!!!!!!",
"!!!!!!!!!!!!!!!!!!!!!65666567,/////,768888886!!!!!!!!!!!!!!!!!!!",
"!!!!!!!!!!!!!!!!!!!!6888888897+%+%+79::::8::6!!!!!!!!!!!!!!!!!!!",
"!!!!!!!!!!!!!!!!!!!!6::8::::7;;<=<;;7:::8::86!!!!!!!!!!!!!!!!!!!",
"!!!!!!!!!!!!!!!!!!!!68:>8::::;77<77;:::::>8:6!!!!!!!!!!!!!!!!!!!",
"!!!!!!!!!!!!!!!!!!!!6:8:>::>:7;;=;;7:>::>:::5!!!!!!!!!!!!!!!!!!!",
"!!!!!!!!!!!!!!!!!!!68:::?>::>:7;=;7:>::>?>:86!!!!!!!!!!!!!!!!!!!",
"!!!!!!!!!!!!!!!!!!!5::>?@?>::>:7=7:>::>?@?>:6!!!!!!!!!!!!!!!!!!!",
"!!!!!!!!!!!!!!!!!!!668::>@?>>>>:A:>>>>?@?::86!!!!!!!!!!!!!!!!!!!",
"!!!!!!!!!!!!!!!!!!!5::??@>@@??>><>>??@@@>??>5!!!!!!!!!!!!!!!!!!!",
"!!!!!!!!!!!!!!!!!!!688::>?:::::::>>:::>?@>::6!!!!!!!!!!!!!!!!!!!",
"!!!!!!!!!!!!!!!!!!!!6:;(:@>:::?8>>?:::?@>:885!!!!!!!!!!!!!!!!!!!",
"!!!!!!!!!!!!!!!!!!!!5;.%%$:>::8>>::::>>@:(;(6!!!!!!!!!!!!!!!!!!!",
"!!!!!!!!!!!!!!!!!!!!6(/%$%$::8>>::::>:?@:$%$:!!!!!!!!!!!!!!!!!!!",
"!!!!!!!!!!!!!!!!!!!!!=/..//>8>?:::?::>>@$#.%$!!!!!!!!!!!!!!!!!!!",
"!!!!!!!!!!!!!!!!!!!!!!/...,>8>:>::::::>?#$%%%!!!!!!!!!!!!!!!!!!!",
"!!!!!!!!!!!!!!!!!!!!!!!///>:8>::>>>:::>?!###$!!!!!!!!!!!!!!!!!!!",
"!!!!!!!!!!!!!!!!!!!!!!!!58??8>>:::::>??6!...#!!!!!!!!!!!!!!!!!!!",
"!!!!!!!!!!!!!!!!!!!!!!!!58:::?@@@@@??>85!!!!!!!!!!!!!!!!!!!!!!!!",
"!!!!!!!!!!!!!!!!!!!!!!!!688:>:>?@?>:8:85!!!!!!!!!!!!!!!!!!!!!!!!",
"!!!!!!!!!!!!!!!!!!!!!!!!6:8::::?@?::8:86!!!!!!!!!!!!!!!!!!!!!!!!",
"!!!!!!!!!!!!!!!!!!!!!!!!6:8::>:>@>>::886!!!!!!!!!!!!!!!!!!!!!!!!",
"!!!!!!!!!!!!!!!!!!!!!!!!68::::>>@>::::85!!!!!!!!!!!!!!!!!!!!!!!!",
"!!!!!!!!!!!!!!!!!!!!!!!!!6::::>>@::>>::6!!!!!!!!!!!!!!!!!!!!!!!!",
"!!!!!!!!!!!!!!!!!!!!!!!!!58:::>?>?>:88885!!!!!!!!!!!!!!!!!!!!!!!",
"!!!!!!!!!!!!!!!!!!!!!!!!!688:>??@>:::8:86!!!!!!!!!!!!!!!!!!!!!!!",
"!!!!!!!!!!!!!!!!!!!!!!!!688:::>?@?>:::>6!!!!!!!!!!!!!!!!!!!!!!!!",
"!!!!!!!!!!!!!!!!!!!!!!!!68:::>?>@@@??>:6!!!!!!!!!!!!!!!!!!!!!!!!",
"!!!!!!!!!!!!!!!!!!!!!!!!!6:>?>:>!@@@>>:6!!!!!!!!!!!!!!!!!!!!!!!!",
"!!!!!!!!!!!!!!!!!!!!!!!!!6::>::>!?@@>>:6!!!!!!!!!!!!!!!!!!!!!!!!",
"!!!!!!!!!!!!!!!!!!!!!!!!!68:>::>!??@>>::!!!!!!!!!!!!!!!!!!!!!!!!",
"!!!!!!!!!!!!!!!!!!!!!!!!!!6::>:>!!?@>:>!!!!!!!!!!!!!!!!!!!!!!!!!",
"!!!!!!!!!!!!!!!!!!!!!!!!!!8::::BC!CBBBC!!!!!!!!!!!!!!!!!!!!!!!!!",
"!!!!!!!!!!!!!!!!!!!!!!!!!!!CBBBBC!CDDBC!!!!!!!!!!!!!!!!!!!!!!!!!",
"!!!!!!!!!!!!!!!!!!!!!!!!!!!CCDEBC!CBDEC!!!!!!!!!!!!!!!!!!!!!!!!!",
"!!!!!!!!!!!!!!!!!!!!!!!!!!!CBDEC!!!CCC!!!!!!!!!!!!!!!!!!!!!!!!!!",
"!!!!!!!!!!!!!!!!!!!!!!!!!!CBBBDC!!!!!!!!!!!!!!!!!!!!!!!!!!!!!!!!",
"!!!!!!!!!!!!!!!!!!!!!!!!!!CDEDBC!!!!!!!!!!!!!!!!!!!!!!!!!!!!!!!!",
"!!!!!!!!!!!!!!!!!!!!!!!!!!CCCCC!!!!!!!!!!!!!!!!!!!!!!!!!!!!!!!!!",
"!!!!!!!!!!!!!!!!!!!!!!!!!!!!!!!!!!!!!!!!!!!!!!!!!!!!!!!!!!!!!!!!"
};