/* XPM */
static const char *boss_floor3_walking_f02[] = {
/* columns rows colors chars-per-pixel */
"64 64 36 1",
"! c None",
"# c #A06C3C",
"$ c #B08458",
"% c #C4A080",
"& c #D0B094",
"' c #E4D0C0",
"( c #BCBCBC",
") c #D8D8D8",
"* c #7C7C7C",
"+ c #A8784C",
", c #94602C",
"- c #5C340C",
". c #805424",
"/ c #684018",
"0 c #E4C098",
"1 c #980088",
"2 c #8C8C8C",
"3 c #502400",
"4 c #643000",
"5 c #4C78A8",
"6 c #3C6CA0",
"7 c #6C90BC",
"8 c #346090",
"9 c #98C0E4",
": c #2C5480",
"; c #FCFCFC",
"< c #700404",
"= c #C01010",
"> c #244870",
"? c #183450",
"@ c #142840",
"A c #980808",
"B c #000000",
"C c #2C2C2C",
"D c #3C3C3C",
"E c #4C4C4C",
"!!!!!!!!!!!!!!!!!!!!!!!!!!!!!!!!!!!!!!!!!!!!!!!!!!!!!!!!!!!!!!!!",
"!!!!!!!!!!!!!!!!!!!!!!!!!!!!!!!!!!!!!!!!!!!!!!!!!!!!!!!!!!!!!!!!",
"!!!!!!!!!!!!!!!!!!!!!!!!!!!!!!!!!!!!!!!!!!!!!!!!!!!!!!!!!!!!!!!!",
"!!!!!!!!!!!!!!!!!!!!!!!!!!!!!!!!!!!!!!!!!!!!!!!!!!!!!!!!!!!!!!!!",
"!!!!!!!!!!!!!!!!!!!!!!!!!!!!!!!!!!!!!!!!!!!!!!!!!!!!!!!!!!!!!!!!",
"!!!!!!!!!!!!!!!!!!!!!!!!!!!!!!!!!!!!!!!!!!!!!!!!!!!!!!!!!!!!!!!!",
"!!!!!!!!!!!!!!!!!!!!!!!!!!!!!!!!!!!!!!!!!!!!!!!!!!!!!!!!!!!!!!!!",
"!!!!!!!!!!!!!!!!!!!!!!!!!!!!!!!!!!!!!!!!!!!!!!!!!!!!!!!!!!!!!!!!",
"!!!!!!!!!!!!!!!!!!!!!!!!!!!!!!!!!!!!!!!!!!!!!!!!!!!!!!!!!!!!!!!!",
"!!!!!!!!!!!!!!!!!!!!!!!!!!!!!!!!!!!!!!!!!!!!!!!!!!!!!!!!!!!!!!!!",
"!!!!!!!!!!!!!!!!!!!!!!!!!!!!!!!!!!!!!!!!!!!!!!!!!!!!!!!!!!!!!!!!",
"!!!!!!!!!!!!!!!!!!!!!!!!!!!!!!!!!!!!!!!!!!!!!!!!!!!!!!!!!!!!!!!!",
"!!!!!!!!!!!!!!!!!!!!!!!!!!!!!!!!!!!!!!!!!!!!!!!!!!!!!!!!!!!!!!!!",
"!!!!!!!!!!!!!!!!!!!!!!!!!!!!!!!!!!!!!!!!!!!!!!!!!!!!!!!!!!!!!!!!",
"!!!!!!!!!!!!!!!!!!!!!!!!!!!!#$%%%%%$#!!!!!!!!!!!!!!!!!!!!!!!!!!!",
"!!!!!!!!!!!!!!!!!!!!!!!!!!!#$%&&'&&%$#!!!!!!!!!!!!!!!!!!!!!!!!!!",
"!!!!!!!!!!!!!!!!!!!!!!!!!!!($$%%%%%$$(!!!!!!!!!!!!!!!!!!!!!!!!!!",
"!!!!!!!!!!!!!!!!!!!!!!!!!!!)*($$$$$(*)!!!!!!!!!!!!!!!!!!!!!!!!!!",
"!!!!!!!!!!!!!!!!!!!!!!!!!!!($*))+))*$(!!!!!!!!!!!!!!!!!!!!!!!!!!",
"!!!!!!!!!!!!!!!!!!!!!!!!!!!*,--.,.--,*!!!!!!!!!!!!!!!!!!!!!!!!!!",
"!!!!!!!!!!!!!!!!!!!!!!!!!!!#$%++%++%$#!!!!!!!!!!!!!!!!!!!!!!!!!!",
"!!!!!!!!!!!!!!!!!!!!!!!!!!!/,+#,0,#+,/!!!!!!!!!!!!!!!!!!!!!!!!!!",
"!!!!!!!!!!!!!!!!!!!!!!!!!()1,#,+.+,#,!!!!!!!!!!!!!!!!!!!!!!!!!!!",
"!!!!!!!!!!!!!!!!!!!!!!!!(!*2.#33433#.!!!!!!!!!!!!!!!!!!!!!!!!!!!",
"!!!!!!!!!!!!!!!!!!!!!!!!!!!5#/$$&$$/#5566656!!!!!!!!!!!!!!!!!!!!",
"!!!!!!!!!!!!!!!!!!!!!65666567,/////,768888886!!!!!!!!!!!!!!!!!!!",
"!!!!!!!!!!!!!!!!!!!!6888888897+%+%+79::::8::6!!!!!!!!!!!!!!!!!!!",
"!!!!!!!!!!!!!!!!!!!!6::8::::7;;<=<;;7:::8::86!!!!!!!!!!!!!!!!!!!",
"!!!!!!!!!!!!!!!!!!!!68:>8::::;77<77;:::::>8:6!!!!!!!!!!!!!!!!!!!",
"!!!!!!!!!!!!!!!!!!!!6:8:>::>:7;;=;;7:>::>:::5!!!!!!!!!!!!!!!!!!!",
"!!!!!!!!!!!!!!!!!!!68:::?>::>:7;=;7:>::>?>:86!!!!!!!!!!!!!!!!!!!",
"!!!!!!!!!!!!!!!!!!!5::>?@?>::>:7=7:>::>?@?>:6!!!!!!!!!!!!!!!!!!!",
"!!!!!!!!!!!!!!!!!!!668::>@?>>>>:A:>>>>?@?::86!!!!!!!!!!!!!!!!!!!",
"!!!!!!!!!!!!!!!!!!!5::??@>@@??>><>>??@@@>??>5!!!!!!!!!!!!!!!!!!!",
"!!!!!!!!!!!!!!!!!!!688::>?:::::::>>:::>?@>::6!!!!!!!!!!!!!!!!!!!",
"!!!!!!!!!!!!!!!!!!!!6:;(:@>:::?8>>?:::?@>:885!!!!!!!!!!!!!!!!!!!",
"!!!!!!!!!!!!!!!!!!!!5;.%%$:>::8>>::::>>@:(;(6!!!!!!!!!!!!!!!!!!!",
"!!!!!!!!!!!!!!!!!!!!6(/%$%$::8>>::::>:?@:$%$:!!!!!!!!!!!!!!!!!!!",
"!!!!!!!!!!!!!!!!!!!!!=/..//>8>?:::?::>>@$#.%$!!!!!!!!!!!!!!!!!!!",
"!!!!!!!!!!!!!!!!!!!!!!/...,>8>:>::::::>?#$%%%!!!!!!!!!!!!!!!!!!!",
"!!!!!!!!!!!!!!!!!!!!!!!///>:8>::>>>:::>?6###$!!!!!!!!!!!!!!!!!!!",
"!!!!!!!!!!!!!!!!!!!!!!!!58??8>>:::::>??65...#!!!!!!!!!!!!!!!!!!!",
"!!!!!!!!!!!!!!!!!!!!!!!!558::?@@@@@??>885!!!!!!!!!!!!!!!!!!!!!!!",
"!!!!!!!!!!!!!!!!!!!!!!!!!5888:>?@?>:>:886!!!!!!!!!!!!!!!!!!!!!!!",
"!!!!!!!!!!!!!!!!!!!!!!!!!68:8::?@?::::8:6!!!!!!!!!!!!!!!!!!!!!!!",
"!!!!!!!!!!!!!!!!!!!!!!!!688:::>>@>:>::8:6!!!!!!!!!!!!!!!!!!!!!!!",
"!!!!!!!!!!!!!!!!!!!!!!!!58:::::>@>>::::86!!!!!!!!!!!!!!!!!!!!!!!",
"!!!!!!!!!!!!!!!!!!!!!!!!5:::>>::@>>::::6!!!!!!!!!!!!!!!!!!!!!!!!",
"!!!!!!!!!!!!!!!!!!!!!!!!58888:>?>?>:::85!!!!!!!!!!!!!!!!!!!!!!!!",
"!!!!!!!!!!!!!!!!!!!!!!!!68:8:::>@??>:886!!!!!!!!!!!!!!!!!!!!!!!!",
"!!!!!!!!!!!!!!!!!!!!!!!!68>:::>?@?>:::886!!!!!!!!!!!!!!!!!!!!!!!",
"!!!!!!!!!!!!!!!!!!!!!!!!68:>??@@@>?>:::86!!!!!!!!!!!!!!!!!!!!!!!",
"!!!!!!!!!!!!!!!!!!!!!!!!!6:>>@@@!>:>?>:6!!!!!!!!!!!!!!!!!!!!!!!!",
"!!!!!!!!!!!!!!!!!!!!!!!!!6:>>@@?!>::>::6!!!!!!!!!!!!!!!!!!!!!!!!",
"!!!!!!!!!!!!!!!!!!!!!!!!!::>>@??!>::>:86!!!!!!!!!!!!!!!!!!!!!!!!",
"!!!!!!!!!!!!!!!!!!!!!!!!!!>:>@?!!>:>::6!!!!!!!!!!!!!!!!!!!!!!!!!",
"!!!!!!!!!!!!!!!!!!!!!!!!!!BCCCB!BC::::8!!!!!!!!!!!!!!!!!!!!!!!!!",
"!!!!!!!!!!!!!!!!!!!!!!!!!!BCDDB!BCCCCB!!!!!!!!!!!!!!!!!!!!!!!!!!",
"!!!!!!!!!!!!!!!!!!!!!!!!!!BEDCB!BCEDBB!!!!!!!!!!!!!!!!!!!!!!!!!!",
"!!!!!!!!!!!!!!!!!!!!!!!!!!!BBB!!!BEDCB!!!!!!!!!!!!!!!!!!!!!!!!!!",
"!!!!!!!!!!!!!!!!!!!!!!!!!!!!!!!!!BDCCCB!!!!!!!!!!!!!!!!!!!!!!!!!",
"!!!!!!!!!!!!!!!!!!!!!!!!!!!!!!!!!BCDEDB!!!!!!!!!!!!!!!!!!!!!!!!!",
"!!!!!!!!!!!!!!!!!!!!!!!!!!!!!!!!!!BBBBB!!!!!!!!!!!!!!!!!!!!!!!!!",
"!!!!!!!!!!!!!!!!!!!!!!!!!!!!!!!!!!!!!!!!!!!!!!!!!!!!!!!!!!!!!!!!"
};