/* XPM */
static const char *boss_floor3_walking_f11[] = {
/* columns rows colors chars-per-pixel */
"64 64 35 1",
"! c None",
"# c #A06C3C",
"$ c #B08458",
"% c #C4A080",
"& c #D0B094",
"' c #E4D0C0",
"( c #BCBCBC",
") c #7C7C7C",
"* c #A8784C",
"+ c #D8D8D8",
", c #A0A0A0",
"- c #94602C",
". c #5C340C",
"/ c #805424",
"0 c #502400",
"1 c #643000",
"2 c #684018",
"3 c #2C5480",
"4 c #3C6CA0",
"5 c #346090",
"6 c #6C90BC",
"7 c #98C0E4",
"8 c #4C78A8",
"9 c #FCFCFC",
": c #C01010",
"; c #244870",
"< c #700404",
"= c #183450",
"> c #142840",
"? c #980808",
"@ c #980088",
"A c #2C2C2C",
"B c #000000",
"C c #3C3C3C",
"D c #4C4C4C",
"!!!!!!!!!!!!!!!!!!!!!!!!!!!!!!!!!!!!!!!!!!!!!!!!!!!!!!!!!!!!!!!!",
"!!!!!!!!!!!!!!!!!!!!!!!!!!!!!!!!!!!!!!!!!!!!!!!!!!!!!!!!!!!!!!!!",
"!!!!!!!!!!!!!!!!!!!!!!!!!!!!!!!!!!!!!!!!!!!!!!!!!!!!!!!!!!!!!!!!",
"!!!!!!!!!!!!!!!!!!!!!!!!!!!!!!!!!!!!!!!!!!!!!!!!!!!!!!!!!!!!!!!!",
"!!!!!!!!!!!!!!!!!!!!!!!!!!!!!!!!!!!!!!!!!!!!!!!!!!!!!!!!!!!!!!!!",
"!!!!!!!!!!!!!!!!!!!!!!!!!!!!!!!!!!!!!!!!!!!!!!!!!!!!!!!!!!!!!!!!",
"!!!!!!!!!!!!!!!!!!!!!!!!!!!!!!!!!!!!!!!!!!!!!!!!!!!!!!!!!!!!!!!!",
"!!!!!!!!!!!!!!!!!!!!!!!!!!!!!!!!!!!!!!!!!!!!!!!!!!!!!!!!!!!!!!!!",
"!!!!!!!!!!!!!!!!!!!!!!!!!!!!!!!!!!!!!!!!!!!!!!!!!!!!!!!!!!!!!!!!",
"!!!!!!!!!!!!!!!!!!!!!!!!!!!!!!!!!!!!!!!!!!!!!!!!!!!!!!!!!!!!!!!!",
"!!!!!!!!!!!!!!!!!!!!!!!!!!!!!!!!!!!!!!!!!!!!!!!!!!!!!!!!!!!!!!!!",
"!!!!!!!!!!!!!!!!!!!!!!!!!!!!!!!!!!!!!!!!!!!!!!!!!!!!!!!!!!!!!!!!",
"!!!!!!!!!!!!!!!!!!!!!!!!!!!!!!!!!!!!!!!!!!!!!!!!!!!!!!!!!!!!!!!!",
"!!!!!!!!!!!!!!!!!!!!!!!!!!!!!!!!!!!!!!!!!!!!!!!!!!!!!!!!!!!!!!!!",
"!!!!!!!!!!!!!!!!!!!!!!!!!!!!!!!!!!!!!!!!!!!!!!!!!!!!!!!!!!!!!!!!",
"!!!!!!!!!!!!!!!!!!!!!!#$%%%%%$#!!!!!!!!!!!!!!!!!!!!!!!!!!!!!!!!!",
"!!!!!!!!!!!!!!!!!!!!!#$%&&'&&%$#!!!!!!!!!!!!!!!!!!!!!!!!!!!!!!!!",
"!!!!!!!!!!!!!!!!!!!!!#$$%%%%%(()!!!!!!!!!!!!!!!!!!!!!!!!!!!!!!!!",
"!!!!!!!!!!!!!!!!!!!!!)*$$$()(++(!!!!!!!!!!!!!!!!!!!!!!!!!!!!!!!!",
"!!!!!!!!!!!!!!!!!!!!!)($(+)$,(((!!!!!!!!!!!!!!!!!!!!!!!!!!!!!!!!",
"!!!!!!!!!!!!!!!!!!!!!-.--..-*)$(!!!!!!!!!!!!!!!!!!!!!!!!!!!!!!!!",
"!!!!!!!!!!!!!!!!!!!!!#*%*$%&$#$,!!!!!!!!!!!!!!!!!!!!!!!!!!!!!!!!",
"!!!!!!!!!!!!!!!!!!!!!*&$&#*$%*/)!!!!!!!!!!!!!!!!!!!!!!!!!!!!!!!!",
"!!!!!!!!!!!!!!!!!!!!!-*/*-#$*#*#!!!!!!!!!!!!!!!!!!!!!!!!!!!!!!!!",
"!!!!!!!!!!!!!!!!!!!!!#0100#*-/$*!!!!!!!!!!!!!!!!!!!!!!!!!!!!!!!!",
"!!!!!!!!!!!!!!!!!!!!!!#$%&$#2345444!!!!!!!!!!!!!!!!!!!!!!!!!!!!!",
"!!!!!!!!!!!!!!!!!!!!!!!22222366535444!!!!!!!!!!!!!!!!!!!!!!!!!!!",
"!!!!!!!!!!!!!!!!!!!!!!47633367335555484!!!!!!!!!!!!!!!!!!!!!!!!!",
"!!!!!!!!!!!!!!!!!!!!!!569::993;335533334!!!!!!!!!!!!!!!!!!!!!!!!",
"!!!!!!!!!!!!!!!!!!!!!4376<673;3353335544!!!!!!!!!!!!!!!!!!!!!!!!",
"!!!!!!!!!!!!!!!!!!!!45;39:963;333;333335!!!!!!!!!!!!!!!!!!!!!!!!",
"!!!!!!!!!!!!!!!!!!!533=36:93;3333=333555!!!!!!!!!!!!!!!!!!!!!!!!",
"!!!!!!!!!!!!!!!!!!;3#&3=3:63;333;>;33354!!!!!!!!!!!!!!!!!!!!!!!!",
"!!!!!!!!!!!!!!!!!!;#$#$==?4;;33;=3553335!!!!!!!!!!!!!!!!!!!!!!!!",
"!!!!!!!!!!!!!!!!!!/$#$/@=<3=;445>=;35333!!!!!!!!!!!!!!!!!!!!!!!!",
"!!!!!!!!!!!!!!!!!!/#$/#&$54445535=3;33;!!!!!!!!!!!!!!!!!!!!!!!!!",
"!!!!!!!!!!!!!!!!!!!//!/$$(33333535=3;=3!!!!!!!!!!!!!!!!!!!!!!!!!",
"!!!!!!!!!!!!!!!!!!!!!!/$$9333333;3;;=35!!!!!!!!!!!!!!!!!!!!!!!!!",
"!!!!!!!!!!!!!!!!!!!!!!///(;;;;;;;;;=334!!!!!!!!!!!!!!!!!!!!!!!!!",
"!!!!!!!!!!!!!!!!!!!!!!!!!3=========33;3!!!!!!!!!!!!!!!!!!!!!!!!!",
"!!!!!!!!!!!!!!!!!!!!!!!!!43;=;33333;>355!!!!!!!!!!!!!!!!!!!!!!!!",
"!!!!!!!!!!!!!!!!!!!!!!!!43;3;333;>>=3554!!!!!!!!!!!!!!!!!!!!!!!!",
"!!!!!!!!!!!!!!!!!!!!!!!!455=>>>>>=335554!!!!!!!!!!!!!!!!!!!!!!!!",
"!!!!!!!!!!!!!!!!!!!!!!!!4533=;=;;33355554!!!!!!!!!!!!!!!!!!!!!!!",
"!!!!!!!!!!!!!!!!!!!!!!!4533;;=>;333335538!!!!!!!!!!!!!!!!!!!!!!!",
"!!!!!!!!!!!!!!!!!!!!!!!45333;==>333335334!!!!!!!!!!!!!!!!!!!!!!!",
"!!!!!!!!!!!!!!!!!!!!!!!43333;=;=;333353354!!!!!!!!!!!!!!!!!!!!!!",
"!!!!!!!!!!!!!!!!!!!!!!453333;;;!=;33333534!!!!!!!!!!!!!!!!!!!!!!",
"!!!!!!!!!!!!!!!!!!!!!!455333;=;!!=;;353334!!!!!!!!!!!!!!!!!!!!!!",
"!!!!!!!!!!!!!!!!!!!!!!4353333;;!!!=333;3554!!!!!!!!!!!!!!!!!!!!!",
"!!!!!!!!!!!!!!!!!!!!!45335333;!!!!=;;;333354!!!!!!!!!!!!!!!!!!!!",
"!!!!!!!!!!!!!!!!!!!!!853;3333=!!!!!=;3355448!!!!!!!!!!!!!!!!!!!!",
"!!!!!!!!!!!!!!!!!!!!!855;33;3=!!!!!!=;;335544!!!!!!!!!!!!!!!!!!!",
"!!!!!!!!!!!!!!!!!!!!!4553;33;=!!!!!!=;3;;3354!!!!!!!!!!!!!!!!!!!",
"!!!!!!!!!!!!!!!!!!!!!4553=33=;!!!!!!!=;33;;3ABB!!!!!!!!!!!!!!!!!",
"!!!!!!!!!!!!!!!!!!!!!4553;;3;!!!!!!!!!=;333;CCB!!!!!!!!!!!!!!!!!",
"!!!!!!!!!!!!!!!!!!!!!4535;=3=!!!!!!!!!!=;35ACAB!!!!!!!!!!!!!!!!!",
"!!!!!!!!!!!!!!!!!!!!!45353=;=!!!!!!!!!!!=;AACB!!!!!!!!!!!!!!!!!!",
"!!!!!!!!!!!!!!!!!!!!!45;53;==!!!!!!!!!!!!BAADB!!!!!!!!!!!!!!!!!!",
"!!!!!!!!!!!!!!!!!!!!!!BAAAB!!!!!!!!!!!!!BACDAB!!!!!!!!!!!!!!!!!!",
"!!!!!!!!!!!!!!!!!!!!!BACCDAB!!!!!!!!!!!!BBBBB!!!!!!!!!!!!!!!!!!!",
"!!!!!!!!!!!!!!!!!!!BBACCACAB!!!!!!!!!!!!!!!!!!!!!!!!!!!!!!!!!!!!",
"!!!!!!!!!!!!!!!!!!BACDDCABBB!!!!!!!!!!!!!!!!!!!!!!!!!!!!!!!!!!!!",
"!!!!!!!!!!!!!!!!!!BBBBBBBB!!!!!!!!!!!!!!!!!!!!!!!!!!!!!!!!!!!!!!"
};