/* XPM */
static const char *boss_floor3_walking_f31[] = {
/* columns rows colors chars-per-pixel */
"64 64 36 1",
"! c None",
"# c #A06C3C",
"$ c #B08458",
"% c #C4A080",
"& c #D0B094",
"' c #E4D0C0",
"( c #7C7C7C",
") c #BCBCBC",
"* c #D8D8D8",
"+ c #A8784C",
", c #A0A0A0",
"- c #94602C",
". c #5C340C",
"/ c #805424",
"0 c #980088",
"1 c #8C8C8C",
"2 c #502400",
"3 c #643000",
"4 c #3C6CA0",
"5 c #346090",
"6 c #2C5480",
"7 c #684018",
"8 c #6C90BC",
"9 c #4C78A8",
": c #98C0E4",
"; c #244870",
"< c #FCFCFC",
"= c #C01010",
"> c #700404",
"? c #183450",
"@ c #142840",
"A c #980808",
"B c #000000",
"C c #2C2C2C",
"D c #3C3C3C",
"E c #4C4C4C",
"!!!!!!!!!!!!!!!!!!!!!!!!!!!!!!!!!!!!!!!!!!!!!!!!!!!!!!!!!!!!!!!!",
"!!!!!!!!!!!!!!!!!!!!!!!!!!!!!!!!!!!!!!!!!!!!!!!!!!!!!!!!!!!!!!!!",
"!!!!!!!!!!!!!!!!!!!!!!!!!!!!!!!!!!!!!!!!!!!!!!!!!!!!!!!!!!!!!!!!",
"!!!!!!!!!!!!!!!!!!!!!!!!!!!!!!!!!!!!!!!!!!!!!!!!!!!!!!!!!!!!!!!!",
"!!!!!!!!!!!!!!!!!!!!!!!!!!!!!!!!!!!!!!!!!!!!!!!!!!!!!!!!!!!!!!!!",
"!!!!!!!!!!!!!!!!!!!!!!!!!!!!!!!!!!!!!!!!!!!!!!!!!!!!!!!!!!!!!!!!",
"!!!!!!!!!!!!!!!!!!!!!!!!!!!!!!!!!!!!!!!!!!!!!!!!!!!!!!!!!!!!!!!!",
"!!!!!!!!!!!!!!!!!!!!!!!!!!!!!!!!!!!!!!!!!!!!!!!!!!!!!!!!!!!!!!!!",
"!!!!!!!!!!!!!!!!!!!!!!!!!!!!!!!!!!!!!!!!!!!!!!!!!!!!!!!!!!!!!!!!",
"!!!!!!!!!!!!!!!!!!!!!!!!!!!!!!!!!!!!!!!!!!!!!!!!!!!!!!!!!!!!!!!!",
"!!!!!!!!!!!!!!!!!!!!!!!!!!!!!!!!!!!!!!!!!!!!!!!!!!!!!!!!!!!!!!!!",
"!!!!!!!!!!!!!!!!!!!!!!!!!!!!!!!!!!!!!!!!!!!!!!!!!!!!!!!!!!!!!!!!",
"!!!!!!!!!!!!!!!!!!!!!!!!!!!!!!!!!!!!!!!!!!!!!!!!!!!!!!!!!!!!!!!!",
"!!!!!!!!!!!!!!!!!!!!!!!!!!!!!!!!!!!!!!!!!!!!!!!!!!!!!!!!!!!!!!!!",
"!!!!!!!!!!!!!!!!!!!!!!!!!!!!!!!!!!!!!!!!!!!!!!!!!!!!!!!!!!!!!!!!",
"!!!!!!!!!!!!!!!!!!!!!!!!!!!!!!!!!!#$%%%%%$#!!!!!!!!!!!!!!!!!!!!!",
"!!!!!!!!!!!!!!!!!!!!!!!!!!!!!!!!!#$%&&'&&%$#!!!!!!!!!!!!!!!!!!!!",
"!!!!!!!!!!!!!!!!!!!!!!!!!!!!!!!!!())%%%%%$$#!!!!!!!!!!!!!!!!!!!!",
"!!!!!!!!!!!!!!!!!!!!!!!!!!!!!!!!!)**)()$$$+(!!!!!!!!!!!!!!!!!!!!",
"!!!!!!!!!!!!!!!!!!!!!!!!!!!!!!!!!))),$(*)$)(!!!!!!!!!!!!!!!!!!!!",
"!!!!!!!!!!!!!!!!!!!!!!!!!!!!!!!!!)$(+-..--.-!!!!!!!!!!!!!!!!!!!!",
"!!!!!!!!!!!!!!!!!!!!!!!!!!!!!!!!!,$#$&%$+%+#!!!!!!!!!!!!!!!!!!!!",
"!!!!!!!!!!!!!!!!!!!!!!!!!!!!!!!!!(/+%$+#&$&+!!!!!!!!!!!!!!!!!!!!",
"!!!!!!!!!!!!!!!!!!!!!!!!!!!!!!)*!#+#+$#-+/+-!!!!!!!!!!!!!!!!!!!!",
"!!!!!!!!!!!!!!!!!!!!!!!!!!!!!)0(1+$/-+#2232#!!!!!!!!!!!!!!!!!!!!",
"!!!!!!!!!!!!!!!!!!!!!!!!!!!!!!4445467#$&%$#!!!!!!!!!!!!!!!!!!!!!",
"!!!!!!!!!!!!!!!!!!!!!!!!!!!!44456588677777!!!!!!!!!!!!!!!!!!!!!!",
"!!!!!!!!!!!!!!!!!!!!!!!!!!494555566:86668:4!!!!!!!!!!!!!!!!!!!!!",
"!!!!!!!!!!!!!!!!!!!!!!!!!466665566;6<<==<85!!!!!!!!!!!!!!!!!!!!!",
"!!!!!!!!!!!!!!!!!!!!!!!!!4455666566;6:8>8:64!!!!!!!!!!!!!!!!!!!!",
"!!!!!!!!!!!!!!!!!!!!!!!!!566666;666;68<=<6;54!!!!!!!!!!!!!!!!!!!",
"!!!!!!!!!!!!!!!!!!!!!!!!!555666?6666;6<=86?665!!!!!!!!!!!!!!!!!!",
"!!!!!!!!!!!!!!!!!!!!!!!!!45666;@;666;68=6?6&#6;!!!!!!!!!!!!!!!!!",
"!!!!!!!!!!!!!!!!!!!!!!!!!5666556?;66;;4A??$#$#;!!!!!!!!!!!!!!!!!",
"!!!!!!!!!!!!!!!!!!!!!!!!!66656;?@544;?6>?0/$#$/!!!!!!!!!!!!!!!!!",
"!!!!!!!!!!!!!!!!!!!!!!!!!!;66;6?56554445$&#/$#/!!!!!!!!!!!!!!!!!",
"!!!!!!!!!!!!!!!!!!!!!!!!!!6?;6?56566666)$$/!//!!!!!!!!!!!!!!!!!!",
"!!!!!!!!!!!!!!!!!!!!!!!!!!56?;;6;666666<$$/!!!!!!!!!!!!!!!!!!!!!",
"!!!!!!!!!!!!!!!!!!!!!!!!!!466?;;;;;;;;;=///!!!!!!!!!!!!!!!!!!!!!",
"!!!!!!!!!!!!!!!!!!!!!!!!!!6;66?????????6!!!!!!!!!!!!!!!!!!!!!!!!",
"!!!!!!!!!!!!!!!!!!!!!!!!!556@;6665;;;664!!!!!!!!!!!!!!!!!!!!!!!!",
"!!!!!!!!!!!!!!!!!!!!!!!!!4556?@@;65;66;64!!!!!!!!!!!!!!!!!!!!!!!",
"!!!!!!!!!!!!!!!!!!!!!!!!!455566?@@@@@?554!!!!!!!!!!!!!!!!!!!!!!!",
"!!!!!!!!!!!!!!!!!!!!!!!!45555666;;?;?6654!!!!!!!!!!!!!!!!!!!!!!!",
"!!!!!!!!!!!!!!!!!!!!!!!!965566666;@?;;6654!!!!!!!!!!!!!!!!!!!!!!",
"!!!!!!!!!!!!!!!!!!!!!!!!466566666@??;66654!!!!!!!!!!!!!!!!!!!!!!",
"!!!!!!!!!!!!!!!!!!!!!!!456656666;?;?;66664!!!!!!!!!!!!!!!!!!!!!!",
"!!!!!!!!!!!!!!!!!!!!!!!46566666;?!;;;666654!!!!!!!!!!!!!!!!!!!!!",
"!!!!!!!!!!!!!!!!!!!!!!!466656;;?!!;?;666554!!!!!!!!!!!!!!!!!!!!!",
"!!!!!!!!!!!!!!!!!!!!!!4556;666?!!!;;6666564!!!!!!!!!!!!!!!!!!!!!",
"!!!!!!!!!!!!!!!!!!!!!456666;;;?!!!!;66656654!!!!!!!!!!!!!!!!!!!!",
"!!!!!!!!!!!!!!!!!!!!!9445566;?!!!!!?6666;659!!!!!!!!!!!!!!!!!!!!",
"!!!!!!!!!!!!!!!!!!!!445566;;?!!!!!!?6;66;559!!!!!!!!!!!!!!!!!!!!",
"!!!!!!!!!!!!!!!!!!!!4566;;6;?!!!!!!?;66;6554!!!!!!!!!!!!!!!!!!!!",
"!!!!!!!!!!!!!!!!!!BBC6;;66;?!!!!!!!;?66?6554!!!!!!!!!!!!!!!!!!!!",
"!!!!!!!!!!!!!!!!!!BDD;666;?!!!!!!!!!;6;;6554!!!!!!!!!!!!!!!!!!!!",
"!!!!!!!!!!!!!!!!!!BCDC56;?!!!!!!!!!!?6?;5654!!!!!!!!!!!!!!!!!!!!",
"!!!!!!!!!!!!!!!!!!!BDCC;?!!!!!!!!!!!?;?65654!!!!!!!!!!!!!!!!!!!!",
"!!!!!!!!!!!!!!!!!!!BECCB!!!!!!!!!!!!??;65;54!!!!!!!!!!!!!!!!!!!!",
"!!!!!!!!!!!!!!!!!!!BCEDCB!!!!!!!!!!!!!BCCCB!!!!!!!!!!!!!!!!!!!!!",
"!!!!!!!!!!!!!!!!!!!!BBBBB!!!!!!!!!!!!BCEDDCB!!!!!!!!!!!!!!!!!!!!",
"!!!!!!!!!!!!!!!!!!!!!!!!!!!!!!!!!!!!!BCDCDDCBB!!!!!!!!!!!!!!!!!!",
"!!!!!!!!!!!!!!!!!!!!!!!!!!!!!!!!!!!!!BBBCDEEDCB!!!!!!!!!!!!!!!!!",
"!!!!!!!!!!!!!!!!!!!!!!!!!!!!!!!!!!!!!!!BBBBBBBB!!!!!!!!!!!!!!!!!"
};