/* XPM */
static char *end_floor2_062[] = {
/* columns rows colors chars-per-pixel */
"320 200 256 2 ",
"   c black",
".  c #040404",
"X  c #0C0C0C",
"o  c gray8",
"O  c gray11",
"+  c gray14",
"@  c #2C2C2C",
"#  c #343434",
"$  c #3C3C3C",
"%  c #444444",
"&  c #4C4C4C",
"*  c gray33",
"=  c gray36",
"-  c #646464",
";  c #6C6C6C",
":  c #747474",
">  c #200000",
",  c #340000",
"<  c #480000",
"1  c #5C0000",
"2  c #700404",
"3  c #840404",
"4  c #980808",
"5  c #AC0C0C",
"6  c #C01010",
"7  c #C42424",
"8  c #CC3838",
"9  c #D05050",
"0  c #D86464",
"q  c #DC7C7C",
"w  c #E49898",
"e  c #ECB4B4",
"r  c #2C1400",
"t  c #3C1C00",
"y  c #502400",
"u  c #643000",
"i  c #743804",
"p  c #884404",
"a  c #984C08",
"s  c #AC580C",
"d  c #C06410",
"f  c #C47024",
"g  c #CC8038",
"h  c #D09050",
"j  c #D89C64",
"k  c #DCAC7C",
"l  c #E4C098",
"z  c #ECD0B4",
"x  c #2C2C00",
"c  c #3C3C00",
"v  c #505000",
"b  c #646400",
"n  c #747804",
"m  c #848808",
"M  c #94980C",
"N  c #A4A814",
"B  c #B4B81C",
"V  c #C4C824",
"C  c #CCCC38",
"Z  c #D0D450",
"A  c #D8D868",
"S  c #E0E080",
"D  c #E4E49C",
"F  c #ECECB8",
"G  c #0C1400",
"H  c #202C00",
"J  c #344400",
"K  c #445C00",
"L  c #587400",
"P  c #6C8C00",
"I  c #7CA400",
"U  c #90BC00",
"Y  c #98C010",
"T  c #A4C828",
"R  c #B0D040",
"E  c #BCD85C",
"W  c #C8E078",
"Q  c #D4E498",
"!  c #E0ECB4",
"~  c #ECF4D8",
"^  c #001400",
"/  c #002C00",
"(  c #004400",
")  c #005C00",
"_  c #007400",
"`  c #008C00",
"'  c #00A400",
"]  c #00C000",
"[  c #10C410",
"{  c #28CC28",
"}  c #44D444",
"|  c #5CD85C",
" . c #78E078",
".. c #98E898",
"X. c #B8ECB8",
"o. c #D8F4D8",
"O. c #00140C",
"+. c #002C1C",
"@. c #004428",
"#. c #005C38",
"$. c #007448",
"%. c #048C58",
"&. c #04A468",
"*. c #04BC78",
"=. c #18C084",
"-. c #30C890",
";. c #48D09C",
":. c #60D8AC",
">. c #7CE0BC",
",. c #9CE4C8",
"<. c #B8ECD8",
"1. c #D8F4E8",
"2. c #001414",
"3. c #002C2C",
"4. c #004444",
"5. c #005C5C",
"6. c #007474",
"7. c #008C8C",
"8. c #00A4A4",
"9. c #00BCBC",
"0. c #10C0C0",
"q. c #28C8C8",
"w. c #40D0D0",
"e. c #5CD8D8",
"r. c #78E0E0",
"t. c #98E4E4",
"y. c #B4ECEC",
"u. c #D8F4F4",
"i. c #00142C",
"p. c #001C3C",
"a. c #002850",
"s. c #003064",
"d. c #043C74",
"f. c #044488",
"g. c #085098",
"h. c #0C5CAC",
"j. c #1068C0",
"k. c #2474C4",
"l. c #3884CC",
"z. c #5090D0",
"x. c #64A0D8",
"c. c #7CACDC",
"v. c #98C0E4",
"b. c #B4D0EC",
"n. c #00002C",
"m. c #00003C",
"M. c #000050",
"N. c #000064",
"B. c #040474",
"V. c #040488",
"C. c #080898",
"Z. c #0C0CAC",
"A. c #1010C0",
"S. c #2828C8",
"D. c #4040D0",
"F. c #5C5CD8",
"G. c #7878E0",
"H. c #9898E4",
"J. c #B4B4EC",
"K. c #D8D8F4",
"L. c #747474",
"P. c #7C7C7C",
"I. c #848484",
"U. c gray55",
"Y. c #989898",
"T. c #A0A0A0",
"R. c gray66",
"E. c gray69",
"W. c #BCBCBC",
"Q. c gray77",
"!. c gray80",
"~. c #D8D8D8",
"^. c gray88",
"/. c gray91",
"(. c gray94",
"). c gray99",
"_. c #3C1800",
"`. c #401C00",
"'. c #482004",
"]. c #502804",
"[. c #542C08",
"{. c #5C340C",
"}. c #603814",
"|. c #684018",
" X c #704820",
".X c #C8CC28",
"XX c #C8B024",
"oX c #C89020",
"OX c #C4701C",
"+X c #C45018",
"@X c #C03014",
"#X c #C01010",
"$X c #2C0014",
"%X c #3C001C",
"&X c #500024",
"*X c #640030",
"=X c #740438",
"-X c #880444",
";X c #98084C",
":X c #AC0C58",
">X c #C01064",
",X c #C42470",
"<X c #CC3880",
"1X c #D05090",
"2X c #D8649C",
"3X c #DC7CAC",
"4X c #E498C0",
"5X c #ECB4D0",
"6X c #201408",
"7X c #301C0C",
"8X c #402810",
"9X c #503418",
"0X c #60401C",
"qX c #704820",
"wX c #805424",
"eX c #94602C",
"rX c #A06C3C",
"tX c #A8784C",
"yX c #B08458",
"uX c #BC906C",
"iX c #C4A080",
"pX c #D0B094",
"aX c #D8BCA8",
"sX c #E4D0C0",
"dX c #081420",
"fX c #0C1C30",
"gX c #142840",
"hX c #183450",
"jX c #204060",
"kX c #244870",
"lX c #2C5480",
"zX c #346090",
"xX c #3C6CA0",
"cX c #4C78A8",
"vX c #5884B0",
"bX c #6C90BC",
"nX c #80A0C4",
"mX c #94B0D0",
"MX c #A8BCD8",
"NX c #C0D0E4",
"BX c #1C1C20",
"VX c #F8F8FC",
"CX c #600000",
"ZX c #F80000",
"AX c #003000",
"SX c #00F800",
"DX c #1C201C",
"FX c #747874",
"GX c #F8FCF8",
"HX c #747874",
"JX c #2828CC",
"KX c #7878E4",
"LX c #D8E4F8",
"PX c #7878E4",
"IX c #2828CC",
"UX c #980088",
/* pixels */
"+ + + + + + + + + + + + + + + + + + + + + + + + + + + + + + + + + + + + + + + + + + + + + + + + + + + + + + + + + + + + + + + + + + + + + + + + + + + + + + + + + + + + + + + + + + + + + + + + + + + + + + + + + + + + + + + + + + + + + + + + + + + + + + + + + + + + + + + + + + + + + + + + + + + + + + + + + + + + + + + + + + + + + + + + + + + + + + + + + + + + + + + + + + + + + + + + + + + + + + + + + + + + + + + + + + + + + + + + + + + + + + + + + + + + + + + + + + + + + + + + + + + + + + + + + + + + + + + + + + + + + + + + + + + + + + + + + + + + + + + + + + + + + + + + + + + + + + + + + + + + + + + + + + + + + + + + + + + + + + + + ",
"+ + + + + + + + + + + + + + + + + + + + + + + + + + + + + + + + + + + + + + + + + + + + + + + + + + + + + + + + + + + + + + + + + + + + + + + + + + + + + + + + + + + + + + + + + + + + + + + + + + + + + + + + + + + + + + + + + + + + + + + + + + + + + + + + + + + + + + + + + + + + + + + + + + + + + + + + + + + + + + + + + + + + + + + + + + + + + + + + + + + + + + + + + + + + + + + + + + + + + + + + + + + + + + + + + + + + + + + + + + + + + + + + + + + + + + + + + + + + + + + + + + + + + + + + + + + + + + + + + + + + + + + + + + + + + + + + + + + + + + + + + + + + + + + + + + + + + + + + + + + + + + + + + + + + + + + + + + + + + + + + ",
"+ + + + + + + + + + + + + + + + + + + + + + + + + + + + + + + + + + + + + + + + + + + + + + + + + + + + + + + + + + + + + + + + + + + + + + + + + + + + + + + + + + + + + + + + + + + + + + + + + + + + + + + + + + + + + + + + + + + + + + + + + + + + + + + + + + + + + + + + + + + + + + + + + + + + + + + + + + + + + + + + + + + + + + + + + + + + + + + + + + + + + + + + + + + + + + + + + + + + + + + + + + + + + + + + + + + + + + + + + + + + + + + + + + + + + + + + + + + + + + + + + + + + + + + + + + + + + + + + + + + + + + + + + + + + + + + + + + + + + + + + + + + + + + + + + + + + + + + + + + + + + + + + + + + + + + + + + + + + + + + + ",
"+ + + + + + + + + + + + + + + + + + + + + + + + + + + + + + + + + + + + + + + + + + + + + + + + + + + + + + + + + + + + + + + + + + + + + + + + + + + + + + + + + + + + + + + + + + + + + + + + + + + + + + + + + + + + + + + + + + + + + + + + + + + + + + + + + + + + + + + + + + + + + + + + + + + + + + + + + + + + + + + + + + + + + + + + + + + + + + + + + + + + + + + + + + + + + + + + + + + + + + + + + + + + + + + + + + + + + + + + + + + + + + + + + + + + + + + + + + + + + + + + + + + + + + + + + + + + + + + + + + + + + + + + + + + + + + + + + + + + + + + + + + + + + + + + + + + + + + + + + + + + + + + + + + + + + + + + + + + + + + + + ",
"+ + + + + + + + + + + + + + + + + + + + + + + + + + + + + + + + + + + + + + + + + + + + + + + + + + + + + + + + + + + + + + + + + + + + + + + + + + + + + + + + + + + + + + + + + + + + + + + + + + + + + + + + + + + + + + + + + + + + + + + + + + + + + + + + + + + + + + + + + + + + + + + + + + + + + + + + + + + + + + + + + + + + + + + + + + + + + + + + + + + + + + + + + + + + + + + + + + + + + + + + + + + + + + + + + + + + + + + + + + + + + + + + + + + + + + + + + + + + + + + + + + + + + + + + + + + + + + + + + + + + + + + + + + + + + + + + + + + + + + + + + + + + + + + + + + + + + + + + + + + + + + + + + + + + + + + + + + + + + + + + ",
"+ + + + + + + + + + + + + + + + + + + + + + + + + + + + + + + + + + + + + + + + + + + + + + + + + + + + + + + + + + + + + + + + + + + + + + + + + + + + + + + + + + + + + + + + + + + + + + + + + + + + + + + + + + + + + + + + + + + + + + + + + + + + + + + + + + + + + + + + + + + + + + + + + + + + + + + + + + + + + + + + + + + + + + + + + + + + + + + + + + + + + + + + + + + + + + + + + + + + + + + + + + + + + + + + + + + + + + + + + + + + + + + + + + + + + + + + + + + + + + + + + + + + + + + + + + + + + + + + + + + + + + + + + + + + + + + + + + + + + + + + + + + + + + + + + + + + + + + + + + + + + + + + + + + + + + + + + + + + + + + + ",
"+ + + + + + + + + + + + + + + + + + + + + + + + + + + + + + + + + + + + + + + + + + + + + + + + + + + + + + + + + + + + + + + + + + + + + + + + + + + + + + + + + + + + + + + + + + + + + + + + + + + + + + + + + + + + + + + + + + + + + + + + + + + + + + + + + + + + + + + + + + + + + + + + + + + + + + + + + + + + + + + + + + + + + + + + + + + + + + + + + + + + + + + + + + + + + + + + + + + + + + + + + + + + + + + + + + + + + + + + + + + + + + + + + + + + + + + + + + + + + + + + + + + + + + + + + + + + + + + + + + + + + + + + + + + + + + + + + + + + + + + + + + + + + + + + + + + + + + + + + + + + + + + + + + + + + + + + + + + + + + + + ",
"+ + + + + + + + + + + + + + + + + + + + + + + + + + + + + + + + + + + + + + + + + + + + + + + + + + + + + + + + + + + + + + + + + + + + + + + + + + + + + + + + + + + + + + + + + + + + + + + + + + + + + + + + + + + + + + + + + + + + + + + + + + + + + + + + + + + + + + + + + + + + + + + + + + + + + + + + + + + + + + + + + + + + + + + + + + + + + + + + + + + + + + + + + + + + + + + + + + + + + + + + + + + + + + + + + + + + + + + + + + + + + + + + + + + + + + + + + + + + + + + + + + + + + + + + + + + + + + + + + + + + + + + + + + + + + + + + + + + + + + + + + + + + + + + + + + + + + + + + + + + + + + + + + + + + + + + + + + + + + + + + ",
"+ + + + + + + + + + + + + + + + + + + + + + + + + + + + + + + + + + + + + + + + + + + + + + + + + + + + + + + + + + + + + + + + + + + + + + + + + + + + + + + + + + + + + + + + + + + + + + + + + + + + + + + + + + + + + + + + + + + + + + + + + + + + + + + + + + + + + + + + + + + + + + + + + + + + + + + + + + + + + + + + + + + + + + + + + + + + + + + + + + + + + + + + + + + + + + + + + + + + + + + + + + + + + + + + + + + + + + + + + + + + + + + + + + + + + + + + + + + + + + + + + + + + + + + + + + + + + + + + + + + + + + + + + + + + + + + + + + + + + + + + + + + + + + + + + + + + + + + + + + + + + + + + + + + + + + + + + + + + + + + + ",
"+ + + + + + + + + + + + + + + + + + + + + + + + + + + + + + + + + + + + + + + + + + + + + + + + + + + + + + + + + + + + + + + + + + + + + + + + + + + + + + + + + + + + + + + + + + + + + + + + + + + + + + + + + + + + + + + + + + + + + + + + + + + + + + + + + + + + + + + + + + + + + + + + + + + + + + + + + + + + + + + + + + + + + + + + + + + + + + + + + + + + + + + + + + + + + + + + + + + + + + + + + + + + + + + + + + + + + + + + + + + + + + + + + + + + + + + + + + + + + + + + + + + + + + + + + + + + + + + + + + + + + + + + + + + + + + + + + + + + + + + + + + + + + + + + + + + + + + + + + + + + + + + + + + + + + + + + + + + + + + + + ",
"+ + + + + + + + + + + + + + + + + + + + + + + + + + + + + + + + + + + + + + + + + + + + + + + + + + + + + + + + + + + + + + + + + + + + + + + + + + + + + + + + + + + + + + + + + + + + + + + + + + + + + + + + + + + + + + + + + + + + + + + + + + + + + + + + + + + + + + + + + + + + + + + + + + + + + + + + + + + + + + + + + + + + + + + + + + + + + + + + + + + + + + + + + + + + + + + + + + + + + + + + + + + + + + + + + + + + + + + + + + + + + + + + + + + + + + + + + + + + + + + + + + + + + + + + + + + + + + + + + + + + + + + + + + + + + + + + + + + + + + + + + + + + + + + + + + + + + + + + + + + + + + + + + + + + + + + + + + + + + + + + ",
"+ + + + + + + + + + + + + + + + + + + + + + + + + + + + + + + + + + + + + + + + + + + + + + + + + + + + + + + + + + + + + + + + + + + + + + + + + + + + + + + + + + + + + + + + + + + + + + + + + + + + + + + + + + + + + + + + + + + + + + + + + + + + + + + + + + + + + + + + + + + + + + + + + + + + + + + + + + + + + + + + + + + + + + + + + + + + + + + + + + + + + + + + + + + + + + + + + + + + + + + + + + + + + + + + + + + + + + + + + + + + + + + + + + + + + + + + + + + + + + + + + + + + + + + + + + + + + + + + + + + + + + + + + + + + + + + + + + + + + + + + + + + + + + + + + + + + + + + + + + + + + + + + + + + + + + + + + + + + + + + + ",
"+ + + + + + + + + + + + + + + + + + + + + + + + + + + + + + + + + + + + + + + + + + + + + + + + + + + + + + + + + + + + + + + + + + + + + + + + + + + + + + + + + + + + + + + + + + + + + + + + + + + + + + + + + + + + + + + + + + + + + + + + + + + + + + + + + + + + + + + + + + + + + + + + + + + + + + + + + + + + + + + + + + + + + + + + + + + + + + + + + + + + + + + + + + + + + + + + + + + + + + + + + + + + + + + + + + + + + + + + + + + + + + + + + + + + + + + + + + + + + + + + + + + + + + + + + + + + + + + + + + + + + + + + + + + + + + + + + + + + + + + + + + + + + + + + + + + + + + + + + + + + + + + + + + + + + + + + + + + + + + + + ",
"+ + + + + + + + + + + + + + + + + + + + + + + + + + + + + + + + + + + + + + + + + + + + + + + + + + + + + + + + + + + + + + + + + + + + + + + + + + + + + + + + + + + + + + + + + + + + + + + + + + + + + + + + + + + + + + + + + + + + + + + + + + + + + + + + + + + + + + + + + + + + + + + + + + + + + + + + + + + + + + + + + + + + + + + + + + + + + + + + + + + + + + + + + + + + + + + + + + + + + + + + + + + + + + + + + + + + + + + + + + + + + + + + + + + + + + + + + + + + + + + + + + + + + + + + + + + + + + + + + + + + + + + + + + + + + + + + + + + + + + + + + + + + + + + + + + + + + + + + + + + + + + + + + + + + + + + + + + + + + + + + ",
"+ + + + + + + + + + + + + + + + + + + + + + + + + + + + + + + + + + + + + + + + + + + + + + + + + + + + + + + + + + + + + + + + + + + + + + + + + + + + + + + + + + + + + + + + + + + + + + + + + + + + + + + + + + + + + + + + + + + + + + + + + + + + + + + + + + + + + + + + + + + + + + + + + + + + + + + + + + + + + + + + + + + + + + + + + + + + + + + + + + + + + + + + + + + + + + + + + + + + + + + + + + + + + + + + + + + + + + + + + + + + + + + + + + + + + + + + + + + + + + + + + + + + + + + + + + + + + + + + + + + + + + + + + + + + + + + + + + + + + + + + + + + + + + + + + + + + + + + + + + + + + + + + + + + + + + + + + + + + + + + + ",
"+ + + + + + + + + + + + + + + + + + + + + + + + + + + + + + + + + + + + + + + + + + + + + + + + + + + + + + + + + + + + + + + + + + + + + + + + + + + + + + + + + + + + + + + + + + + + + + + + + + + + + + + + + + + + + + + + + + + + + + + + + + + + + + + + + + + + + + + + + + + + + + + + + + + + + + + + + + + + + + + + + + + + + + + + + + + + + + + + + + + + + + + + + + + + + + + + + + + + + + + + + + + + + + + + + + + + + + + + + + + + + + + + + + + + + + + + + + + + + + + + + + + + + + + + + + + + + + + + + + + + + + + + + + + + + + + + + + + + + + + + + + + + + + + + + + + + + + + + + + + + + + + + + + + + + + + + + + + + + + + + ",
"+ + + + + + + + + + + + + + + + + + + + + + + + + + + + + + + + + + + + + + + + + + + + + + + + + + + + + + + + + + + + + + + + + + + + + + + + + + + + + + + + + + + + + + + + + + + + + + + + + + + + + + + + + + + + + + + + + + + + + + + + + + + + + + + + + + + + + + + + + + + + + + + + + + + + + + + + + + + + + + + + + + + + + + + + + + + + + + + + + + + + + + + + + + + + + + + + + + + + + + + + + + + + + + + + + + + + + + + + + + + + + + + + + + + + + + + + + + + + + + + + + + + + + + + + + + + + + + + + + + + + + + + + + + + + + + + + + + + + + + + + + + + + + + + + + + + + + + + + + + + + + + + + + + + + + + + + + + + + + + + + ",
"+ + + + + + + + + + + + + + + + + + + + + + + + + + + + + + + + + + + + + + + + + + + + + + + + + + + + + + + + + + + + + + + + + + + + + + + + + + + + + + + + + + + + + + + + + + + + + + + + + + + + + + + + + + + + + + + + + + + + + + + + + + + + + + + + + + + + + + + + + + + + + + + + + + + + + + + + + + + + + + + + + + + + + + + + + + + + + + + + + + + + + + + + + + + + + + + + + + + + + + + + + + + + + + + + + + + + + + + + + + + + + + + + + + + + + + + + + + + + + + + + + + + + + + + + + + + + + + + + + + + + + + + + + + + + + + + + + + + + + + + + + + + + + + + + + + + + + + + + + + + + + + + + + + + + + + + + + + + + + + + + ",
"+ + + + + + + + + + + + + + + + + + + + + + + + + + + + + + + + + + + + + + + + + + + + + + + + + + + + + + + + + + + + + + + + + + + + + + + + + + + + + + + + + + + + + + + + + + + + + + + + + + + + + + + + + + + + + + + + + + + + + + + + + + + + + + + + + + + + + + + + + + + + + + + + + + + + + + + + + + + + + + + + + + + + + + + + + + + + + + + + + + + + + + + + + + + + + + + + + + + + + + + + + + + + + + + + + + + + + + + + + + + + + + + + + + + + + + + + + + + + + + + + + + + + + + + + + + + + + + + + + + + + + + + + + + + + + + + + + + + + + + + + + + + + + + + + + + + + + + + + + + + + + + + + + + + + + + + + + + + + + + + + ",
"+ + + + + + + + + + + + + + + + + + + + + + + + + + + + + + + + + + + + + + + + + + + + + + + + + + + + + + + + + + + + + + + + + + + + + + + + + + + + + + + + + + + + + + + + + + + + + + + + + + + + + + + + + + + + + + + + + + + + + + + + + + + + + + + + + + + + + + + + + + + + + + + + + + + + + + + + + + + + + + + + + + + + + + + + + + + + + + + + + + + + + + + + + + + + + + + + + + + + + + + + + + + + + + + + + + + + + + + + + + + + + + + + + + + + + + + + + + + + + + + + + + + + + + + + + + + + + + + + + + + + + + + + + + + + + + + + + + + + + + + + + + + + + + + + + + + + + + + + + + + + + + + + + + + + + + + + + + + + + + + + ",
"+ + + + + + + + + + + + + + + + + + + + + + + + + + + + + + + + + + + + + + + + + + + + + + + + + + + + + + + + + + + + + + + + + + + + + + + + + + + + + + + + + + + + + + + + + + + + + + + + + + + + + + + + + + + + + + + + + + + + + + + + + + + + + + + + + + + + + + + + + + + + + + + + + + + + + + + + + + + + + + + + + + + + + + + + + + + + + + + + + + + + + + + + + + + + + + + + + + + + + + + + + + + + + + + + + + + + + + + + + + + + + + + + + + + + + + + + + + + + + + + + + + + + + + + + + + + + + + + + + + + + + + + + + + + + + + + + + + + + + + + + + + + + + + + + + + + + + + + + + + + + + + + + + + + + + + + + + + + + + + + + ",
"+ + + + + + + + + + + + + + + + + + + + + + + + + + + + + + + + + + + + + + + + + + + + + + + + + + + + + + + + + + + + + + + + + + + + + + + + + + + + + + + + + + + + + + + + + + + + + + + + + + + + + + + + + + + + + + + + + + + + + + + + + + + + + + + + + + + + + + + + + + + + + + + + + + + + + + + + + + + + + + + + + + + + + + + + + + + + + + + + + + + + + + + + + + + + + + + + + + + + + + + + + + + + + + + + + + + + + + + + + + + + + + + + + + + + + + + + + + + + + + + + + + + + + + + + + + + + + + + + + + + + + + + + + + + + + + + + + + + + + + + + + + + + + + + + + + + + + + + + + + + + + + + + + + + + + + + + + + + + + + + + ",
"+ + + + + + + + + + + + + + + + + + + + + + + + + + + + + + + + + + + + + + + + + + + + + + + + + + + + + + + + + + + + + + + + + + + + + + + + + + + + + + + + + + + + + + + + + + + + + + + + + + + + + + + + + + + + + + + + + + + + + + + + + + + + + + + + + + + + + + + + + + + + + + + + + + + + + + + + + + + + + + + + + + + + + + + + + + + + + + + + + + + + + + + + + + + + + + + + + + + + + + + + + + + + + + + + + + + + + + + + + + + + + + + + + + + + + + + + + + + + + + + + + + + + + + + + + + + + + + + + + + + + + + + + + + + + + + + + + + + + + + + + + + + + + + + + + + + + + + + + + + + + + + + + + + + + + + + + + + + + + + + + ",
"+ + + + + + + + + + + + + + + + + + + + + + + + + + + + + + + + + + + + + + + + + + + + + + + + + + + + + + + + + + + + + + + + + + + + + + + + + + + + + + + + + + + + + + + + + + + + + + + + + + + + + + + + + + + + + + + + + + + + + + + + + + + + + + + + + + + + + + + + + + + + + + + + + + + + + + + + + + + + + + + + + + + + + + + + + + + + + + + + + + + + + + + + + + + + + + + + + + + + + + + + + + + + + + + + + + + + + + + + + + + + + + + + + + + + + + + + + + + + + + + + + + + + + + + + + + + + + + + + + + + + + + + + + + + + + + + + + + + + + + + + + + + + + + + + + + + + + + + + + + + + + + + + + + + + + + + + + + + + + + + + ",
"+ + + + + + + + + + + + + + + + + + + + + + + + + + + + + + + + + + + + + + + + + + + + + + + + + + + + + + + + + + + + + + + + + + + + + + + + + + + + + + + + + + + + + + + + + + + + + + + + + + + + + + + + + + + + + + + + + + + + + + + + + + + + + + + + + + + + + + + + + + + + + + + + + + + + + + + + + + + + + + + + + + + + + + + + + + + + + + + + + + + + + + + + + + + + + + + + + + + + + + + + + + + + + + + + + + + + + + + + + + + + + + + + + + + + + + + + + + + + + + + + + + + + + + + + + + + + + + + + + + + + + + + + + + + + + + + + + + + + + + + + + + + + + + + + + + + + + + + + + + + + + + + + + + + + + + + + + + + + + + + + ",
"+ + + + + + + + + + + + + + + + + + + + + + + + + + + + + + + + + + + + + + + + + + + + + + + + + + + + + + + + + + + + + + + + + + + + + + + + + + + + + + + + + + + + + + + + + + + + + + + + + + + + + + + + + + + + + + + + + + + + + + + + + + + + + + + + + + + + + + + + + + + + + + + + + + + + + + + + + + + + + + + + + + + + + + + + + + + + + + + + + + + + + + + + + + + + + + + + + + + + + + + + + + + + + + + + + + + + + + + + + + + + + + + + + + + + + + + + + + + + + + + + + + + + + + + + + + + + + + + + + + + + + + + + + + + + + + + + + + + + + + + + + + + + + + + + + + + + + + + + + + + + + + + + + + + + + + + + + + + + + + + + ",
"+ + + + + + + + + + + + + + + + + + + + + + + + + + + + + + + + + + + + + + + + + + + + + + + + + + + + + + + + + + + + + + + + + + + + + + + + + + + + + + + + + + + + + + + + + + + + + + + + + + + + + + + + + + + + + + + + + + + + + + + + + + + + + + + + + + + + + + + + + + + + + + + + + + + + + + + + + + + + + + + + + + + + + + + + + + + + + + + + + + + + + + + + + + + + + + + + + + + + + + + + + + + + + + + + + + + + + + + + + + + + + + + + + + + + + + + + + + + + + + + + + + + + + + + + + + + + + + + + + + + + + + + + + + + + + + + + + + + + + + + + + + + + + + + + + + + + + + + + + + + + + + + + + + + + + + + + + + + + + + + + ",
"+ + + + + + + + + + + + + + + + + + + + + + + + + + + + + + + + + + + + + + + + + + + + + + + + + + + + + + + + + + + + + + + + + + + + + + + + + + + + + + + + + + + + + + + + + + + + + + + + + + + + + + + + + + + + + + + + + + + + + + + + + + + + + + + + + + + + + + + + + + + + + + + + + + + + + + + + + + + + + + + + + + + + + + + + + + + + + + + + + + + + + + + + + + + + + + + + + + + + + + + + + + + + + + + + + + + + + + + + + + + + + + + + + + + + + + + + + + + + + + + + + + + + + + + + + + + + + + + + + + + + + + + + + + + + + + + + + + + + + + + + + + + + + + + + + + + + + + + + + + + + + + + + + + + + + + + + + + + + + + + + ",
"+ + + + + + + + + + + + + + + + + + + + + + + + + + + + + + + + + + + + + + + + + + + + + + + + + + + + + + + + + + + + + + + + + + + + + + + + + + + + + + + + + + + + + + + + + + + + + + + + + + + + + + + + + + + + + + + + + + + + + + + + + + + + + + + + + + + + + + + + + + + + + + + + + + + + + + + + + + + + + + + + + + + + + + + + + + + + + + + + + + + + + + + + + + + + + + + + + + + + + + + + + + + + + + + + + + + + + + + + + + + + + + + + + + + + + + + + + + + + + + + + + + + + + + + + + + + + + + + + + + + + + + + + + + + + + + + + + + + + + + + + + + + + + + + + + + + + + + + + + + + + + + + + + + + + + + + + + + + + + + + + ",
"+ + + + + + + + + + + + + + + + + + + + + + + + + + + + + + + + + + + + + + + + + + + + + + + + + + + + + + + + + + + + + + + + + + + + + + + + + + + + + + + + + + + + + + + + + + + + + + + + + + + + + + + + + + + + + + + + + + + + + + + + + + + + + + + + + + + + + + + + + + + + + + + + + + + + + + + + + + + + + + + + + + + + + + + + + + + + + + + + + + + + + + + + + + + + + + + + + + + + + + + + + + + + + + + + + + + + + + + + + + + + + + + + + + + + + + + + + + + + + + + + + + + + + + + + + + + + + + + + + + + + + + + + + + + + + + + + + + + + + + + + + + + + + + + + + + + + + + + + + + + + + + + + + + + + + + + + + + + + + + + + ",
"+ + + + + + + + + + + + + + + + + + + + + + + + + + + + + + + + + + + + + + + + + + + + + + + + + + + + + + + + + + + + + + + + + + + + + + + + + + + + + + + + + + + + + + + + + + + + + + + + + + + + + + + + + + + + + + + + + + + + + + + + + + + + + + + + + + + + + + + + + + + + + + + + + + + + + + + + + + + + + + + + + + + + + + + + + + + + + + + + + + + + + + + + + + + + + + + + + + + + + + + + + + + + + + + + + + + + + + + + + + + + + + + + + + + + + + + + + + + + + + + + + + + + + + + + + + + + + + + + + + + + + + + + + + + + + + + + + + + + + + + + + + + + + + + + + + + + + + + + + + + + + + + + + + + + + + + + + + + + + + + + ",
"+ + + + + + + + + + + + + + + + + + + + + + + + + + + + + + + + + + + + + + + + + + + + + + + + + + + + + + + + + + + + + + + + + + + + + + + + + + + + + + + + + + + + + + + + + + + + + + + + + + + + + + + + + + + + + + + + + + + + + + + + + + + + + + + + + + + + + + + + + + + + + + + + + + + + + + + + + + + + + + + + + + + + + + + + + + + + + + + + + + + + + + + + + + + + + + + + + + + + + + + + + + + + + + + + + + + + + + + + + + + + + + + + + + + + + + + + + + + + + + + + + + + + + + + + + + + + + + + + + + + + + + + + + + + + + + + + + + + + + + + + + + + + + + + + + + + + + + + + + + + + + + + + + + + + + + + + + + + + + + + + ",
"+ + + + + + + + + + + + + + + + + + + + + + + + + + + + + + + + + + + + + + + + + + + + + + + + + + + + + + + + + + + + + + + + + + + + + + + + + + + + + + + + + + + + + + + + + + + + + + + + + + + + + + + + + + + + + + + + + + + + + + + + + + + + + + + + + + + + + + + + + + + + + + + + + + + + + + + + + + + + + + + + + + + + + + + + + + + + + + + + + + + + + + + + + + + + + + + + + + + + + + + + + + + + + + + + + + + + + + + + + + + + + + + + + + + + + + + + + + + + + + + + + + + + + + + + + + + + + + + + + + + + + + + + + + + + + + + + + + + + + + + + + + + + + + + + + + + + + + + + + + + + + + + + + + + + + + + + + + + + + + + + ",
"+ + + + + + + + + + + + + + + + + + + + + + + + + + + + + + + + + + + + + + + + + + + + + + + + + + + + + + + + + + + + + + + + + + + + + + + + + + + + + + + + + + + + + + + + + + + + + + + + + + + + + + + + + + + + + + + + + + + + + + + + + + + + + + + + + + + + + + + + + + + + + + + + + + + + + + + + + + + + + + + + + + + + + + + + + + + + + + + + + + + + + + + + + + + + + + + + + + + + + + + + + + + + + + + + + + + + + + + + + + + + + + + + + + + + + + + + + + + + + + + + + + + + + + + + + + + + + + + + + + + + + + + + + + + + + + + + + + + + + + + + + + + + + + + + + + + + + + + + + + + + + + + + + + + + + + + + + + + + + + + + ",
"+ + + + + + + + + + + + + + + + + + + + + + + + + + + + + + + + + + + + + + + + + + + + + + + + + + + + + + + + + + + + + + + + + + + + + + + + + + + + + + + + + + + + + + + + + + + + + + + + + + + + + + + + + + + + + + + + + + + + + + + + + + + + + + + + + + + + + + + + + + + + + + + + + + + + + + + + + + + + + + + + + + + + + + + + + + + + + + + + + + + + + + + + + + + + + + + + + + + + + + + + + + + + + + + + + + + + + + + + + + + + + + + + + + + + + + + + + + + + + + + + + + + + + + + + + + + + + + + + + + + + + + + + + + + + + + + + + + + + + + + + + + + + + + + + + + + + + + + + + + + + + + + + + + + + + + + + + + + + + + + + ",
"+ + + + + + + + + + + + + + + + + + + + + + + + + + + + + + + + + + + + + + + + + + + + + + + + + + + + + + + + + + + + + + + + + + + + + + + + + + + + + + + + + + + + + + + + + + + + + + + + + + + + + + + + + + + + + + + + + + + + + + + + + + + + + + + + + + + + + + + + + + + + + + + + + + + + + + + + + + + + + + + + + + + + + + + + + + + + + + + + + + + + + + + + + + + + + + + + + + + + + + + + + + + + + + + + + + + + + + + + + + + + + + + + + + + + + + + + + + + + + + + + + + + + + + + + + + + + + + + + + + + + + + + + + + + + + + + + + + + + + + + + + + + + + + + + + + + + + + + + + + + + + + + + + + + + + + + + + + + + + + + + ",
"+ + + + + + + + + + + + + + + + + + + + + + + + + + + + + + + + gX+ + + + + + + + + + + + + + + + + + + + + + + + + + + + + + + + + + + + + + + + + + + + + + + + + + + + + + + + + + + + + + + + + + + + + + + + + + + + + + + + + + + + + + + + + + + + + + + + + + + + + + + + + + + + + + + + + + + + + + + + + + + + + + + + + + + + + + + + + + + + + + + + + + + + + + + + + + + + + + + + + + + + + + + + + + + + + + + + + + + + + + + + + + + + + + + + + + + + + + + + + + + + + + + + + + + + + + + + + + + + + + + + + + + + + + + + + + + + + + + + + + + + + + + + + + + + + + + + + + + + + + + + + + + + + + + + + + + + + + + + + + + + + + + ",
"kXkXkXkXkXkXkXkXkXkXkXkXkXkXkXkXkXkXkXkXkXkXkXkXkXkXkXkXkXgXdXfXgXkXkXgXfXdXdXdXfXgXkXkXkXgXfXdXdXdXdXdXdXdXdXdXdXdXdXdXdXfXgXkXkXkXkXkXkXdXdXdXkXkXp.hXkXkXkXlXzXhXkXlXkXp.hXhXkXkXlXlXkXkXhXkXlXzXkXkXkXkXkXkXkXkXkXkXkXp.hXkXkXkXlXzXkXkXkXkXkXkXkXkXkXkXkXkXkXkXkXkXkXkXkXkXkXkXkXkXkXkXkXkXkXkXkXkXkXkXkXkXkXkXkXkXkXkXkXkXkXkXkXkXkXkXkXkXkXkXkXkXkXkXkXkXkXkXkXkXkXkXkXkXkXkXkXkXkXkXkXkXkXkXkXkXkXkXkXkXkXkXkXkXkXp.hXkXlXzXp.hXkXlXkXp.hXfXdXfXlXzXhXkXkXkXlXzXkXkXkXdXdXdXkXkXkXkXp.hXkXkXkXlXzXkXkXkXkXkXkXkXkXkXkXkXkXkXkXkXkXkXkXkXkXkXkXkXkXkXkXkXkXgXfXdXdXfXgXkXkXkXgXfXdXdXdXdXdXdXdXdXdXdXdXdXdXdXdXdXdXdXdXdXdXdXdXfXgXkXkXkXkXkXkXkXkXkXkXkX",
"kXkXkXkXkXkXkXkXkXkXkXkXkXkXkXkXkXkXkXkXkXkXkXkXkXkXkXkXkXgXdXfXgXkXkXgXfXdXdXdXfXgXkXkXkXgXfXdXdXdXdXdXdXdXdXdXdXdXdXdXdXfXgXkXkXkXkXkXkXdXdXdXkXkXp.hXkXkXkXlXzXhXkXlXkXp.hXhXkXkXlXlXkXkXhXkXlXzXkXkXkXkXkXkXkXkXkXkXkXp.hXkXkXkXlXzXkXkXkXkXkXkXkXkXkXkXkXkXkXkXkXkXkXkXkXkXkXkXkXkXkXkXkXkXkXkXkXkXkXkXkXkXkXkXkXkXkXkXkXkXkXkXkXkXkXkXkXkXkXkXkXkXkXkXkXkXkXkXkXkXkXkXkXkXkXkXkXkXkXkXkXkXkXkXkXkXkXkXkXkXkXkXkXkXkXp.hXkXlXzXp.kXkXkXlXp.hXfXdXfXlXzXhXkXkXkXlXzXkXkXkXdXdXdXkXkXkXkXp.hXkXkXkXlXzXkXkXkXkXkXkXkXkXkXkXkXkXkXkXkXkXkXkXkXkXkXkXkXkXkXkXkXkXgXfXdXdXfXgXkXkXkXgXfXdXdXdXdXdXdXdXdXdXdXdXdXdXdXdXdXdXdXdXdXdXdXdXfXgXkXkXkXkXkXkXkXkXkXkXkX",
"kXkXkXkXkXkXkXkXkXkXkXkXkXkXkXkXkXkXkXkXkXkXkXkXkXkXkXkXkXgXdXfXgXkXkXgXfXdXdXdXfXgXkXkXkXgXfXdXdXdXdXdXdXdXdXdXdXdXdXdXdXfXgXkXkXkXkXkXdXdXdXkXkXkXp.hXkXkXkXlXzXhXkXlXkXhXhXkXkXkXkXlXkXkXhXkXlXzXkXkXkXkXkXkXkXkXkXkXkXp.hXkXkXkXlXzXkXkXkXkXkXkXkXkXkXkXkXkXkXkXkXkXkXkXkXkXkXkXkXkXkXkXkXkXkXkXkXkXkXkXkXkXkXkXkXkXkXkXkXkXkXkXkXkXkXkXkXkXkXkXkXkXkXkXkXkXkXkXkXkXkXkXkXkXkXkXkXkXkXkXkXkXkXkXkXkXkXkXkXkXkXkXkXkXp.hXkXkXkXlXzXhXkXlXkXp.hXkXdXdXfXzXhXkXkXkXlXzXkXkXkXdXdXdXkXkXkXkXp.hXkXkXkXlXzXkXkXkXkXkXkXkXkXkXkXkXkXkXkXkXkXkXkXkXkXkXkXkXkXkXkXkXkXgXfXdXdXfXgXkXkXkXgXfXdXdXdXdXdXdXdXdXdXdXdXdXdXdXdXdXdXdXdXdXdXdXdXfXgXkXkXkXkXkXkXkXkXkXkXkX",
"lXhXkXlXhXkXlXhXkXlXhXkXlXhXkXlXhXkXlXhXkXlXhXkXlXhXkXlXhXgXdXfXgXlXhXgXfXdXdXdXfXgXlXhXkXgXfXdXdXdXdXdXdXdXdXdXdXdXdXdXdXfXgXlXhXkXlXhXdXdXdXkXlXhXp.hXkXkXkXlXzXhXkXlXhXp.hXhXkXkXlXlXhXjXjXkXlXlXzXhXkXlXhXkXlXhXkXlXhXp.hXkXkXkXlXzXhXkXlXhXkXlXhXkXlXhXkXlXhXkXlXhXkXlXhXkXlXhXkXlXhXkXlXhXkXlXhXkXlXhXkXlXhXkXlXhXkXlXhXkXlXhXkXlXhXkXlXhXkXlXhXkXlXhXkXlXhXkXlXhXkXlXhXkXlXhXkXlXhXkXlXhXkXlXhXkXlXhXkXlXhXkXlXhXp.hXkXkXkXlXzXkXkXkXlXp.hXkXfXdXfXzXhXkXkXkXlXzXlXhXkXdXdXdXlXhXkXlXp.hXkXkXkXlXzXhXkXlXhXkXlXhXkXlXhXkXlXhXkXlXhXkXlXhXkXlXhXkXlXhXkXlXhXgXfXdXdXfXgXkXlXhXgXfXdXdXdXdXdXdXdXdXdXdXdXdXdXdXdXdXdXdXdXdXdXdXdXfXgXkXlXhXkXlXhXkXlXhXkXlX",
"lXhXkXlXhXkXlXhXkXlXhXkXlXhXkXlXhXkXlXhXkXlXhXkXlXhXkXlXhXgXdXfXgXlXhXgXfXdXdXdXfXgXlXhXkXgXfXdXdXdXdXdXdXdXdXdXdXdXdXdXdXfXgXlXhXkXlXhXdXdXdXkXlXhXp.hXkXkXkXlXzXhXkXlXhXp.hXkXkXkXkXlXhXhXhXkXlXzXkXhXkXlXhXkXlXhXkXlXhXp.hXkXkXkXlXzXhXkXlXhXkXlXhXkXlXhXkXlXhXkXlXhXkXlXhXkXlXhXkXlXhXkXlXhXkXlXhXkXlXhXkXlXhXkXlXhXkXlXhXkXlXhXkXlXhXkXlXhXkXlXhXkXlXhXkXlXhXkXlXhXkXlXhXkXlXhXkXlXhXkXlXhXkXlXhXkXlXhXkXlXhXkXlXhXhXp.hXkXlXzXp.hXkXlXkXp.hXhXfXdXfXzXhXkXkXkXlXzXlXhXkXdXdXdXlXhXkXlXp.hXkXkXkXlXzXhXkXlXhXkXlXhXkXlXhXkXlXhXkXlXhXkXlXhXkXlXhXkXlXhXkXlXhXgXfXdXdXfXgXkXlXhXgXfXdXdXdXdXdXdXdXdXdXdXdXdXdXdXdXdXdXdXdXdXdXdXdXfXgXkXlXhXkXlXhXkXlXhXkXlX",
"lXhXkXlXhXkXlXhXkXlXhXkXlXhXkXlXhXkXlXhXkXlXhXkXlXhXkXlXhXgXdXfXgXlXhXgXfXdXdXdXfXgXlXhXkXgXfXdXdXdXdXdXdXdXdXdXdXdXdXdXdXfXgXlXhXkXlXdXdXdXhXkXlXhXhXp.hXkXlXzXp.hXkXlXhXp.hXkXkXkXkXlXhXhXhXkXlXzXkXhXkXlXhXkXlXhXkXlXhXp.hXkXkXkXlXzXhXkXlXhXkXlXhXkXlXhXkXlXhXkXlXhXkXlXhXkXlXhXkXlXhXkXlXhXkXlXhXkXlXhXkXlXhXkXlXhXkXlXhXkXlXhXkXlXhXkXlXhXkXlXhXkXlXhXkXlXhXkXlXhXkXlXhXkXlXhXkXlXhXkXlXhXkXlXhXkXlXhXkXlXhXkXlXhXhXp.hXkXlXzXp.kXkXkXlXp.hXkXkXdXfXfXhXhXkXlXlXzXlXhXdXdXdXdXlXhXkXlXp.hXkXkXkXlXzXhXkXlXhXkXlXhXkXlXhXkXlXhXkXlXhXkXlXhXkXlXhXkXlXfXfXfXfXfXfXfXfXfXfXfXfXdXgXfXdXdXdXdXdXdXdXdXdXdXdXdXdXdXdXdXdXdXdXdXdXdXdXfXgXkXlXhXkXlXhXkXlXhXkXlX",
"lXhXkXlXhXkXlXhXkXlXhXkXlXhXkXlXhXkXlXhXkXlXhXkXlXhXkXlXhXgXdXfXgXlXhXgXfXdXdXdXfXgXlXhXkXgXfXdXdXdXdXdXdXdXfXfXfXfXfXdXdXfXgXlXhXkXlXdXdXdXhXkXlXhXp.hXkXkXkXlXzXhXkXlXhXp.hXkXkXkXkXlXhXhXhXkXlXzXkXhXkXlXhXkXlXhXkXlXhXp.hXkXkXkXlXzXhXkXlXhXkXlXhXkXlXhXkXlXhXkXlXhXkXlXhXkXlXhXkXlXhXkXlXhXkXlXhXkXlXhXkXlXhXkXlXhXkXlXhXkXlXhXkXlXhXkXlXhXkXlXhXkXlXhXkXlXhXkXlXhXkXlXhXkXlXhXkXlXhXkXlXhXkXlXhXkXlXhXkXlXhXkXlXhXhXp.hXkXlXzXp.hXkXlXkXp.hXhXkXdXdXfXhXkXkXkXlXzXlXhXdXdXdXdXlXhXkXlXp.hXkXkXkXlXzXhXkXlXhXkXlXhXkXlXhXkXlXhXkXlXhXkXlXhXkXlXhXkXlXdXfXdXdXdXdXdXdXdXdXdXdXdXgXfXdXdXdXdXdXdXdXdXdXdXdXdXdXdXdXdXdXdXdXdXdXdXdXfXgXkXlXhXkXlXhXkXlXhXkXlX",
"lXhXkXlXhXkXlXhXkXlXhXkXlXhXkXlXhXkXlXhXkXlXhXkXlXhXkXlXhXgXdXfXgXlXhXgXfXdXdXdXfXgXlXhXkXgXfXdXdXdXdXdXdXdXlXhXkXlXhXdXdXfXgXlXhXkXdXdXdXlXhXkXlXhXp.hXkXkXkXlXzXhXkXlXhXp.hXkXkXkXkXlXhXhXhXkXlXzXkXhXkXlXhXkXlXhXkXlXhXp.hXkXkXkXlXzXhXkXlXhXkXlXhXkXlXhXkXlXhXkXlXhXkXlXhXkXlXhXkXlXhXkXlXhXkXlXhXkXlXhXkXlXhXkXlXhXkXlXhXkXlXhXkXlXhXkXlXhXkXlXhXkXlXhXkXlXhXkXlXhXkXlXhXkXlXhXkXlXhXkXlXhXkXlXhXkXlXhXkXlXhXkXlXhXhXp.hXkXlXzXp.kXkXkXlXp.hXkXkXkXdXdXfXhXkXlXlXzXlXhXdXdXdXkXlXhXkXlXp.hXkXkXkXlXzXhXkXlXhXkXlXhXkXlXhXkXlXhXkXlXhXkXlXhXkXlXhXkXlXdXfXdXdXdXdXdXdXdXdXdXdXdXgXfXdXdXdXdXdXdXdXdXdXdXdXdXdXdXdXdXdXdXdXdXdXdXdXfXgXkXlXhXkXlXhXkXlXhXkXlX",
"lXhXkXlXhXkXlXhXkXlXhXkXlXhXkXlXhXkXlXhXkXlXhXkXlXhXkXlXhXgXdXfXgXlXhXgXfXdXdXdXfXgXlXhXkXgXfXdXdXdXdXdXdXkXlXhXkXlXhXdXdXfXgXlXhXkXdXdXdXlXhXkXlXhXhXp.hXkXlXzXp.hXkXlXhXp.hXkXkXkXkXlXhXhXhXkXlXzXkXhXkXlXhXkXlXhXkXlXhXp.hXkXkXkXlXzXhXkXlXhXkXlXhXkXlXhXkXlXhXkXlXhXkXlXhXkXlXhXkXlXhXkXlXhXkXlXhXkXlXhXkXlXhXkXlXhXkXlXhXkXlXhXkXlXhXkXlXhXkXlXhXkXlXhXkXlXhXkXlXhXkXlXhXkXlXhXkXlXhXkXlXhXkXlXhXkXlXhXkXlXhXkXlXhXhXp.hXkXlXzXp.hXkXlXkXp.hXkXkXkXfXdXdXfXkXkXlXzXlXhXdXdXdXkXlXhXkXlXp.hXkXkXkXlXzXhXkXlXhXkXlXhXkXlXhXkXlXhXkXlXhXkXlXhXkXlXhXkXlXdXfXdXdXdXdXdXdXdXdXdXdXdXgXfXdXdXdXdXdXdXdXdXdXdXdXdXdXdXdXdXdXdXdXdXdXdXdXfXgXkXlXhXkXlXhXkXlXhXkXlX",
"lXhXkXlXhXkXlXhXkXlXhXkXlXhXkXlXhXkXlXhXkXlXhXkXlXhXkXlXhXgXdXfXgXlXhXgXfXdXdXdXfXgXlXhXkXgXfXdXdXdXdXdXdXkXlXhXkXlXhXdXdXfXgXlXhXdXdXdXkXlXhXkXlXhXhXp.hXkXlXzXp.hXkXlXhXp.hXkXkXkXkXlXhXhXhXkXlXzXkXhXkXlXhXkXlXhXkXlXhXp.hXkXkXkXlXzXhXkXlXhXkXlXhXkXlXhXkXlXhXkXlXhXkXlXhXkXlXhXkXlXhXkXlXhXkXlXhXkXlXhXkXlXhXkXlXhXkXlXhXkXlXhXkXlXhXkXlXhXkXlXhXkXlXhXkXlXhXkXlXhXkXlXhXkXlXhXkXlXhXkXlXhXkXlXhXkXlXhXkXlXhXkXlXhXhXp.hXkXlXzXp.kXkXkXlXp.hXkXkXkXlXfXdXdXfXkXlXzXlXhXdXdXdXkXlXhXkXlXp.hXkXkXkXlXzXhXkXlXhXkXlXhXkXlXhXkXlXhXkXlXhXkXlXhXkXlXhXkXlXdXfXdXdXdXdXdXdXdXdXdXdXdXgXfXdXdXdXdXdXdXdXdXdXdXdXdXdXdXdXdXdXdXdXdXdXdXdXfXgXkXlXhXkXlXhXkXlXhXkXlX",
"lXhXkXlXhXkXlXhXkXlXhXkXlXhXkXlXhXkXlXhXkXlXhXkXlXhXkXlXhXgXdXfXgXlXhXgXfXdXdXdXfXgXlXhXkXgXfXdXdXdXdXdXdXkXlXhXkXlXhXdXdXfXgXlXhXdXdXdXkXlXhXkXlXhXp.hXkXkXkXlXzXhXkXlXhXp.hXkXkXkXkXlXhXhXhXkXlXzXkXhXkXlXhXkXlXhXkXlXhXp.hXkXkXkXlXzXhXkXlXhXkXlXhXkXlXhXkXlXhXkXlXhXkXlXhXkXlXhXkXlXhXkXlXhXkXlXhXkXlXhXkXlXhXkXlXhXkXlXhXkXlXhXkXlXhXkXlXhXkXlXhXkXlXhXkXlXhXkXlXhXkXlXhXkXlXhXkXlXhXkXlXhXkXlXhXkXlXhXkXlXhXkXlXhXhXp.hXkXlXzXp.hXkXlXkXp.hXkXkXkXlXzXdXdXfXkXlXzXlXhXdXdXdXkXlXhXkXlXp.hXkXkXkXlXzXhXkXlXhXkXlXhXkXlXhXkXlXhXkXlXhXkXlXhXkXlXhXkXlXhXdXdXdXgXfXdXdXfXgXkXlXhXgXfXdXdXdXdXdXdXdXdXdXdXdXdXdXdXdXdXdXdXdXdXdXdXdXfXgXkXlXhXkXlXhXkXlXhXkXlX",
"lXhXkXlXhXkXlXhXkXlXhXkXlXhXkXlXhXkXlXhXkXlXhXkXlXhXkXlXhXgXdXfXgXlXhXgXfXdXdXdXfXgXlXhXkXgXfXdXdXdXdXdXdXkXlXhXkXlXhXdXdXfXgXlXdXdXdXhXkXlXhXkXlXhXp.hXkXkXkXlXzXhXkXlXhXp.hXkXkXkXkXlXhXhXhXkXlXzXkXhXkXlXhXkXlXhXkXlXhXp.hXkXkXkXlXzXhXkXlXhXkXlXhXkXlXhXkXlXhXkXlXhXkXlXhXkXlXhXkXlXhXkXlXhXkXlXhXkXlXhXkXlXhXkXlXhXkXlXhXkXlXhXkXlXhXkXlXhXkXlXhXkXlXhXkXlXhXkXlXhXkXlXhXkXlXhXkXlXhXkXlXhXkXlXhXkXlXhXkXlXhXkXlXhXhXp.hXkXlXzXp.kXkXkXlXp.hXkXkXkXlXzXfXdXdXfXlXzXlXhXdXdXdXkXlXhXkXlXp.hXkXkXkXlXzXhXkXlXhXkXlXhXkXlXhXkXlXhXkXlXhXkXlXhXkXlXhXkXlXdXfXdXdXgXfXdXdXfXgXkXlXhXgXfXdXdXdXdXdXdXdXdXdXdXdXdXdXdXdXdXdXdXdXdXdXdXdXfXgXkXlXhXkXlXhXkXlXhXkXlX",
"lXhXkXlXhXkXlXhXkXlXhXkXlXhXkXlXhXkXlXhXkXlXhXkXlXhXkXlXhXgXdXfXgXlXhXgXfXdXdXdXfXgXlXhXkXgXfXdXdXdXdXdXdXkXlXhXkXlXhXdXdXfXgXfXdXdXfXhXkXlXhXkXlXhXhXp.hXkXlXzXp.hXkXlXhXp.hXkXkXkXkXlXhXjXjXkXlXlXzXhXkXlXhXkXlXhXkXlXhXp.hXkXkXkXlXzXhXkXlXhXkXlXhXkXlXhXkXlXhXkXlXhXkXlXhXkXlXhXkXlXhXkXlXhXkXlXhXkXlXhXkXlXhXkXlXhXkXlXhXkXlXhXkXlXhXkXlXhXkXlXhXkXlXhXkXlXhXkXlXhXkXlXhXkXlXhXkXlXhXkXlXhXkXlXhXkXlXhXkXlXhXkXlXhXp.hXkXkXkXlXzXhXkXlXkXp.hXhXkXlXlXzXhXfXdXdXfXzXlXhXkXdXdXdXlXhXkXlXp.hXkXkXkXlXzXhXkXlXhXkXlXhXkXlXhXkXlXhXkXlXhXkXlXhXkXlXhXkXdXfXdXdXhXgXfXdXdXfXgXkXlXhXgXfXdXdXdXdXdXdXdXdXdXdXdXdXdXdXdXdXdXdXdXdXdXdXdXfXgXkXlXhXkXlXhXkXlXhXkXlX",
"lXhXkXlXhXkXlXhXkXlXhXkXlXhXkXlXhXkXlXhXkXlXhXkXlXhXkXlXhXgXdXfXgXlXhXgXfXdXdXdXfXgXlXhXkXgXfXdXdXdXdXdXhXkXlXhXkXlXhXdXdXfXgXdXdXdXlXhXkXlXhXkXlXhXp.hXkXkXkXlXzXhXkXlXhXp.hXkXkXkXkXlXhXhXhXkXlXzXkXhXkXlXhXkXlXhXkXlXhXhXp.hXkXlXzXkXhXkXlXhXkXlXhXkXlXhXkXlXhXkXlXhXkXlXhXkXlXhXkXlXhXkXlXhXkXlXhXkXlXhXkXlXhXkXlXhXkXlXhXkXlXhXkXlXhXkXlXhXkXlXhXkXlXhXkXlXhXkXlXhXkXlXhXkXlXhXkXlXhXkXlXhXkXlXhXkXlXhXkXlXhXkXlXhXp.hXkXkXkXlXzXkXkXkXlXp.hXkXkXkXlXzXhXhXfXdXdXfXlXhXkXdXdXdXlXhXkXlXp.hXkXkXkXlXzXhXkXlXhXkXlXhXkXlXhXkXlXhXkXlXhXkXlXhXkXlXhXfXdXdXdXlXhXgXfXdXdXfXgXkXlXhXgXfXdXdXdXdXdXdXdXdXdXdXdXdXdXdXdXdXdXdXdXdXdXdXdXfXgXkXlXhXkXlXhXkXlXhXkXlX",
"lXhXkXlXhXkXlXhXkXlXhXkXlXhXkXlXhXkXlXhXkXlXhXkXlXhXkXlXhXgXdXfXgXlXhXgXfXdXdXdXfXgXlXhXkXgXdXdXdXdXdXdXhXkXlXhXkXlXhXdXdXfXdXdXdXkXlXhXkXlXhXkXlXhXp.hXkXkXkXlXzXhXkXlXhXp.hXhXkXkXlXlXhXjXjXkXlXlXzXhXkXlXhXkXlXhXkXlXhXp.hXkXkXkXlXzXhXkXlXhXkXlXhXkXlXhXkXlXhXkXlXhXkXlXhXkXlXhXkXlXhXkXlXhXkXlXhXkXlXhXkXlXhXkXlXhXkXlXhXkXlXhXkXlXhXkXlXhXkXlXhXkXlXhXkXlXhXkXlXhXkXlXhXkXlXhXkXlXhXkXlXhXkXlXhXkXlXhXkXlXhXkXlXhXhXp.hXkXlXzXp.hXkXlXkXp.hXkXkXkXlXzXhXkXkXfXdXdXfXhXkXdXdXdXdXhXkXlXp.hXkXkXkXlXzXhXkXlXhXkXlXhXkXlXhXkXlXhXkXlXhXkXlXhXkXfXfXdXdXdXfXfXfXfXfXfXfXfXfXfXfXdXgXfXdXdXdXdXdXdXdXdXdXdXdXdXdXdXdXdXdXdXdXdXdXdXdXfXgXkXlXhXkXlXhXkXlXhXkXlX",
"lXhXkXlXhXkXlXhXkXlXhXkXlXhXkXlXhXkXlXhXkXlXhXkXlXhXkXlXhXgXdXfXgXlXhXgXfXdXdXdXfXgXlXhXkXgXdXdXdXdXdXdXhXkXlXhXkXlXhXdXdXdXdXdXhXkXlXhXkXlXhXkXlXhXhXp.hXkXlXzXp.hXkXlXhXp.hXhXkXkXlXlXhXhXhXkXlXzXkXhXkXlXhXkXlXhXkXlXhXp.hXkXkXkXlXzXhXkXlXhXkXlXhXkXlXhXkXlXhXkXlXhXkXlXhXkXlXhXkXlXhXkXlXhXkXlXhXkXlXhXkXlXhXkXlXhXkXlXhXkXlXhXkXlXhXkXlXhXkXlXhXkXlXhXkXlXhXkXlXhXkXlXhXkXlXhXkXlXhXkXlXhXkXlXhXkXlXhXkXlXhXkXlXhXp.hXkXkXkXlXzXkXkXkXlXp.hXkXkXkXlXzXhXkXkXkXfXdXdXfXkXlXdXdXdXhXkXlXp.hXkXkXkXlXzXhXkXlXhXkXlXhXkXlXhXkXlXhXkXlXhXkXlXhXfXdXdXdXfXdXfXdXdXdXdXdXdXdXdXdXdXdXgXfXdXdXdXdXdXdXdXdXdXdXdXdXdXdXdXdXdXdXdXdXdXdXdXfXgXkXlXhXkXlXhXkXlXhXkXlX",
"lXhXkXlXhXkXlXhXkXlXhXkXlXhXkXlXhXkXlXhXkXlXhXkXlXhXkXlXhXgXdXfXgXlXhXgXfXdXdXdXfXgXlXhXkXgXdXdXdXdXdXlXhXkXlXhXkXlXhXdXdXdXdXlXhXkXlXhXkXlXhXkXlXhXhXp.hXkXlXzXp.hXkXlXhXhXhXkXkXkXkXlXhXhXhXkXlXzXkXhXkXlXhXkXlXhXkXlXhXhXp.hXkXlXzXkXhXkXlXhXkXlXhXkXlXhXkXlXhXkXlXhXkXlXhXkXlXhXkXlXhXkXlXhXkXlXhXkXlXhXkXlXhXkXlXhXkXlXhXkXlXhXkXlXhXkXlXhXkXlXhXkXlXhXkXlXhXkXlXhXkXlXhXkXlXhXkXlXhXkXlXhXkXlXhXkXlXhXkXlXhXkXlXhXp.hXkXkXkXlXzXhXkXlXkXp.hXkXkXkXlXzXhXkXkXkXlXfXdXdXfXlXdXdXdXhXkXlXhXp.hXkXlXzXkXhXkXlXhXkXlXhXkXlXhXkXlXhXkXlXhXkXlXfXdXdXdXfXlXdXfXdXdXdXdXdXdXdXdXdXdXdXgXfXdXdXdXdXdXdXdXdXdXdXdXdXdXdXdXdXdXdXdXdXdXdXdXfXgXkXlXhXkXlXhXkXlXhXkXlX",
"lXhXkXlXhXkXlXhXkXlXhXkXlXhXkXlXhXkXlXhXkXlXhXkXlXhXkXlXhXgXdXfXgXlXhXgXfXdXdXdXfXgXlXhXkXdXdXdXdXdXdXlXhXkXlXhXkXlXdXdXdXdXgXlXhXkXlXhXkXlXhXkXlXhXhXp.hXkXlXzXp.hXkXlXhXp.hXhXkXkXlXlXhXhXhXkXlXzXkXhXkXlXhXkXlXhXkXlXhXhXp.hXkXlXzXkXhXkXlXhXkXlXhXkXlXhXkXlXhXkXlXhXkXlXhXkXlXhXkXlXhXkXlXhXkXlXhXkXlXhXkXlXhXkXlXhXkXlXhXkXlXhXkXlXhXkXlXhXkXlXhXkXlXhXkXlXhXkXlXhXkXlXhXkXlXhXkXlXhXkXlXhXkXlXhXkXlXhXkXlXhXkXlXhXhXp.hXkXlXzXp.kXkXkXlXp.hXkXkXkXlXzXhXkXkXkXlXzXdXfXdXfXdXdXdXhXkXlXp.hXkXkXkXlXzXhXkXlXhXkXlXhXkXlXhXkXlXhXkXlXhXfXfXdXdXdXfXkXlXdXfXdXdXdXdXdXdXdXdXdXdXdXgXfXdXdXdXdXdXdXdXdXdXdXdXdXdXdXdXdXdXdXdXdXdXdXdXfXgXkXlXhXkXlXhXkXlXhXkXlX",
"dXhXkXlXhXkXlXhXkXlXhXkXlXhXkXlXhXkXlXhXkXlXhXkXlXhXkXlXhXgXdXfXgXlXhXgXfXdXdXdXfXgXlXhXkXdXdXdXdXdXdXlXhXkXlXhXkXdXdXdXdXfXgXlXhXkXlXhXkXlXhXkXlXhXhXp.hXkXlXzXp.hXkXlXhXp.hXkXkXkXkXlXhXhXhXkXlXlXzXhXkXlXhXkXlXhXkXlXhXp.hXkXkXkXlXzXhXkXlXhXkXlXhXkXlXhXkXlXhXkXlXhXkXlXhXkXlXhXkXlXhXkXlXhXkXlXhXkXlXhXkXlXhXkXlXhXkXlXhXkXlXhXkXlXhXkXlXhXkXlXhXkXlXhXkXlXhXkXlXhXkXlXhXkXlXhXkXlXhXkXlXhXkXlXhXkXlXhXkXlXhXkXlXhXhXp.hXkXlXzXp.hXkXlXkXp.hXhXkXlXlXzXhXkXkXkXlXzXlXhXfXdXdXdXdXhXkXlXp.hXkXkXkXlXzXhXkXlXhXkXlXhXkXlXhXkXlXhXkXfXfXdXdXdXdXfXhXkXlXhXkXlXhXgXfXdXdXfXgXkXlXhXgXfXdXdXdXdXdXdXdXdXdXdXdXdXdXdXdXdXdXdXdXdXdXdXdXfXgXkXlXhXkXlXhXkXlXhXkXlX",
"dXdXkXlXhXkXlXhXkXlXhXkXlXhXkXlXhXkXlXhXkXlXhXkXlXhXkXlXhXgXdXfXgXlXhXgXfXdXdXdXfXgXlXhXkXdXdXdXdXdXkXlXhXkXlXhXdXdXdXdXdXfXgXlXhXkXlXhXkXlXhXkXlXhXp.hXkXkXkXlXzXhXkXlXhXp.hXkXkXkXkXlXhXhXkXkXkXlXzXhXkXlXhXkXlXhXkXlXhXp.hXkXkXkXlXzXhXkXlXhXkXlXhXkXlXhXkXlXhXkXlXhXkXlXhXkXlXhXkXlXhXkXlXhXkXlXhXkXlXhXkXlXhXkXlXhXkXlXhXkXlXhXkXlXhXkXlXhXkXlXhXkXlXhXkXlXhXkXlXhXkXlXhXkXlXhXkXlXhXkXlXhXkXlXhXkXlXhXkXlXhXkXlXhXhXp.hXkXlXzXp.kXkXkXlXp.hXkXkXkXlXzXhXhXkXlXlXzXlXhXkXfXdXdXdXfXdXlXhXp.hXkXlXzXkXhXkXlXhXkXlXhXkXlXhXkXlXfXfXfXdXdXdXfXkXlXhXkXlXhXkXlXhXgXfXdXdXfXgXkXlXhXgXfXdXdXdXdXdXdXdXdXdXdXdXdXdXdXdXdXdXdXdXdXdXdXdXfXgXkXlXhXkXlXhXkXlXhXkXlX",
"dXdXdXlXhXkXlXhXkXlXhXkXlXhXkXlXhXkXlXhXkXlXhXkXlXhXkXlXhXgXdXfXgXlXhXgXfXdXdXdXfXgXlXhXdXdXdXdXdXdXkXlXhXkXlXdXdXdXdXdXdXfXgXlXhXkXlXhXkXlXhXkXlXhXp.hXkXkXkXlXzXhXkXlXhXp.hXkXkXkXkXlXhXhXkXkXkXlXzXhXkXlXhXkXlXhXkXlXhXhXp.hXkXlXzXkXhXkXlXhXkXlXhXkXlXhXkXlXhXkXlXhXkXlXhXkXlXhXkXlXhXkXlXhXkXlXhXkXlXhXkXlXhXkXlXhXkXlXhXkXlXhXkXlXhXkXlXhXkXlXhXkXlXhXkXlXhXkXlXhXkXlXhXkXlXhXkXlXhXkXlXhXkXlXhXkXlXhXkXlXhXkXlXhXhXp.hXkXlXzXp.hXkXlXkXp.hXkXkXkXlXzXhXkXkXkXlXzXlXhXkXlXdXdXdXdXfXfXfXfXhXkXlXzXkXhXkXlXhXkXlXhXkXfXfXfXfXdXdXdXdXfXlXhXkXlXhXkXlXhXkXlXhXgXfXdXdXfXgXkXlXhXgXfXdXdXdXdXdXdXdXdXdXdXdXdXdXdXdXdXdXdXdXdXdXdXdXfXgXkXlXhXkXlXhXkXlXhXkXlX",
"dXdXdXdXhXkXlXhXkXlXhXkXlXhXkXlXhXkXlXhXkXlXhXkXlXhXkXlXhXgXdXfXgXlXhXgXfXdXdXdXfXgXlXhXdXdXdXdXdXdXkXlXhXkXdXdXdXdXhXdXdXfXgXlXhXkXlXhXkXlXhXkXlXhXhXp.hXkXlXzXp.hXkXlXhXp.hXkXkXkXkXlXhXhXkXkXkXlXzXhXkXlXhXkXlXhXkXlXhXp.hXkXkXkXlXzXhXkXlXhXkXlXhXkXlXhXkXlXhXkXlXhXkXlXhXkXlXhXkXlXhXkXlXhXkXlXhXkXlXhXkXlXhXkXlXhXkXlXhXkXlXhXkXlXhXkXlXhXkXlXhXkXlXhXkXlXhXkXlXhXkXlXhXkXlXhXkXlXhXkXlXhXkXlXhXkXlXhXkXlXhXkXlXhXhXp.hXkXlXzXp.kXkXkXlXp.hXkXkXkXlXzXhXkXkXkXlXzXlXhXkXlXdXdXdXdXdXdXdXdXfXfXfXfXfXfXfXfXfXfXfXfXfXdXdXdXdXdXdXfXhXkXlXhXkXlXhXkXlXhXkXlXhXgXfXdXdXfXgXkXlXhXgXfXdXdXdXdXdXdXdXdXdXdXdXdXdXdXdXdXdXdXdXdXdXdXdXfXgXkXlXhXkXlXhXkXlXhXkXlX",
"lXdXdXdXdXkXlXhXkXlXhXkXlXhXkXlXhXkXlXhXkXlXhXkXlXhXkXlXhXgXdXfXgXlXhXgXfXdXdXdXfXgXlXdXdXdXdXdXdXhXkXlXdXdXdXdXdXlXhXdXdXfXgXlXhXkXlXhXkXlXhXkXlXhXp.hXkXkXkXlXzXhXkXlXhXp.hXhXkXkXlXlXhXhXkXkXkXlXzXhXkXlXhXkXlXhXkXlXhXp.hXkXkXkXlXzXhXkXlXhXkXlXhXkXlXhXkXlXhXkXlXhXkXlXhXkXlXhXkXlXhXkXlXhXkXlXhXkXlXhXkXlXhXkXlXhXkXlXhXkXlXhXkXlXhXkXlXhXkXlXhXkXlXhXkXlXhXkXlXhXkXlXhXkXlXhXkXlXhXkXlXhXkXlXhXkXlXhXkXlXhXkXlXhXhXp.hXkXlXzXp.hXkXlXkXp.hXkXkXkXlXzXhXkXkXkXlXzXlXhXkXlXdXdXdXhXfXfXfXdXdXdXdXdXdXdXdXdXdXdXdXdXdXdXdXdXfXhXkXlXhXkXlXhXkXlXhXkXlXhXkXlXhXgXfXdXdXfXgXkXlXhXgXfXdXdXdXdXdXdXdXdXdXdXdXdXdXdXdXdXdXdXdXdXdXdXdXfXgXkXlXhXkXlXhXkXlXhXkXlX",
"kXkXdXdXdXdXdXkXkXkXkXkXkXkXkXkXkXkXkXkXkXkXkXkXkXkXkXkXkXgXdXfXgXkXkXgXfXdXdXdXfXgXkXdXdXdXdXdXdXkXfXdXdXdXdXdXkXkXkXdXdXfXgXkXkXkXkXkXkXkXkXkXkXkXp.hXkXkXkXlXzXhXkXlXkXp.hXhXkXkXlXlXkXhXhXkXlXlXzXkXkXkXkXkXkXkXkXkXkXp.hXkXkXkXlXzXkXkXkXkXkXkXkXkXkXkXkXkXkXkXkXkXkXkXkXkXkXkXkXkXkXkXkXkXkXkXkXkXkXkXkXkXkXkXkXkXkXkXkXkXkXkXkXkXkXkXkXkXkXkXkXkXkXkXkXkXkXkXkXkXkXkXkXkXkXkXkXkXkXkXkXkXkXkXkXkXkXkXkXkXkXkXkXkXkXp.hXkXlXzXp.kXkXkXlXp.hXkXkXkXlXzXhXkXkXkXlXzXkXkXkXdXdXdXkXkXkXkXkXfXfXfXfXfXfXfXfXfXfXfXfXfXfXfXkXkXkXkXkXkXkXkXkXkXkXkXkXkXkXkXkXkXkXgXfXdXdXfXgXkXkXkXgXfXdXdXdXdXdXdXdXdXdXdXdXdXdXdXdXdXdXdXdXdXdXdXdXfXgXkXkXkXkXkXkXkXkXkXkXkX",
"lXlXlXdXdXdXdXdXdXlXlXlXlXlXlXlXlXlXlXlXlXlXlXlXlXlXlXlXlXgXdXfXgXlXlXgXfXdXdXdXfXgXdXdXdXdXdXdXdXdXdXdXdXfXlXlXlXlXlXdXdXfXgXlXlXlXlXlXlXlXlXlXlXlXlXp.hXkXlXzXlXhXkXlXlXhXhXkXkXkXkXlXlXlXhXkXlXzXkXlXlXlXlXlXlXlXlXlXlXp.hXkXkXkXlXzXlXlXlXlXlXlXlXlXlXlXlXlXlXlXlXlXlXlXlXlXlXlXlXlXlXlXlXlXlXlXlXlXlXlXlXlXlXlXlXlXlXlXlXlXlXlXlXlXlXlXlXlXlXlXlXlXlXlXlXlXlXlXlXlXlXlXlXlXlXlXlXlXlXlXlXlXlXlXlXlXlXlXlXlXlXlXlXlXlXp.hXkXlXzXp.hXkXlXkXp.hXhXkXlXlXzXhXkXkXkXlXzXlXlXlXdXdXdXlXlXlXlXp.hXkXkXkXlXzXlXlXlXlXlXlXlXlXlXlXlXlXlXlXlXlXlXlXlXlXlXlXlXlXlXlXlXlXgXfXdXdXfXgXlXlXlXgXfXdXdXdXdXdXdXdXdXdXdXdXdXdXdXdXdXdXdXdXdXdXdXdXfXgXlXlXlXlXlXlXlXlXlXlXlX",
"dXkXkXkXkXdXdXdXdXdXdXkXkXkXkXkXkXkXkXkXkXkXkXkXkXkXkXkXkXgXdXfXgXkXkXgXfXdXdXdXfXdXdXdXdXdXdXdXdXdXdXfXkXkXkXkXkXkXkXdXdXfXgXkXkXkXkXkXkXkXkXkXkXkXkXp.hXkXlXzXkXhXkXlXkXp.hXhXkXkXlXlXkXkXhXkXlXzXkXkXkXkXkXkXkXkXkXkXkXp.hXkXkXkXlXzXkXkXkXkXkXkXkXkXkXkXkXkXkXkXkXkXkXkXkXkXkXkXkXkXkXkXkXkXkXkXkXkXkXkXkXkXkXkXkXkXkXkXkXkXkXkXkXkXkXkXkXkXkXkXkXkXkXkXkXkXkXkXkXkXkXkXkXkXkXkXkXkXkXkXkXkXkXkXkXkXkXkXkXkXkXkXkXkXkXp.hXkXlXzXp.hXkXlXkXp.hXkXkXkXlXzXhXkXkXkXlXzXkXkXkXdXdXdXkXkXkXkXp.hXkXkXkXlXzXkXkXkXkXkXkXkXkXkXkXkXkXkXkXkXkXkXkXkXkXkXkXkXkXkXkXkXkXgXfXdXdXfXgXkXkXkXgXfXdXdXdXdXdXdXdXdXdXdXdXdXdXdXdXdXdXdXdXdXdXdXdXfXgXkXkXkXkXkXkXkXkXkXkXkX",
"dXhXhXhXhXhXhXdXdXdXdXdXdXdXhXhXhXhXhXhXhXhXhXhXhXhXhXhXhXgXdXfXgXhXhXgXfXdXdXdXfXdXdXdXdXdXdXdXdXdXhXhXhXhXhXhXhXhXhXdXdXfXgXhXhXhXhXhXhXhXhXhXhXhXhXp.hXkXlXzXhXhXkXlXhXp.hXkXkXkXkXlXhXhXhXkXlXzXkXhXhXhXhXhXhXhXhXhXhXp.hXkXkXkXlXzXhXhXhXhXhXhXhXhXhXhXhXhXhXhXhXhXhXhXhXhXhXhXhXhXhXhXhXhXhXhXhXhXhXhXhXhXhXhXhXhXhXhXhXhXhXhXhXhXhXhXhXhXhXhXhXhXhXhXhXhXhXhXhXhXhXhXhXhXhXhXhXhXhXhXhXhXhXhXhXhXhXhXhXhXhXhXhXhXhXp.hXkXlXzXp.kXkXkXlXp.hXkXkXkXlXzXhXkXkXkXlXzXhXhXhXdXdXdXhXhXhXhXp.hXkXkXkXlXzXhXhXhXhXhXhXhXhXhXhXhXhXhXhXhXhXhXhXhXhXhXhXhXhXhXhXhXhXgXfXdXdXfXgXhXhXhXgXfXdXdXdXdXdXdXdXdXdXdXdXdXdXdXdXdXdXdXdXdXdXdXdXfXgXhXhXhXhXhXhXhXhXhXhXhX",
"dXdXjXkXlXjXkXlXjXdXdXdXdXdXdXdXdXdXlXjXkXlXjXkXlXjXkXlXjXgXdXfXgXlXjXgXfXdXdXdXdXdXdXdXdXdXdXdXdXjXkXlXjXkXlXjXkXlXjXdXdXfXgXlXjXkXlXjXkXlXjXkXlXkXhXp.hXkXlXzXp.hXkXlXkXp.hXkXkXkXkXlXkXhXhXkXlXlXzXjXkXkXkXkXkXkXkXlXhXp.hXkXkXkXlXzXjXkXlXjXkXlXjXkXlXjXkXlXjXkXlXjXkXlXjXkXlXjXkXlXjXkXlXjXkXlXjXkXlXjXkXlXjXkXlXjXkXlXjXkXlXjXkXlXjXkXlXjXkXlXjXkXlXjXkXlXjXkXlXjXkXlXjXkXlXjXkXlXjXkXlXjXkXlXjXkXlXjXkXlXjXkXlXkXhXp.hXkXlXzXp.hXkXlXkXp.hXkXkXkXlXzXhXkXkXkXlXzXkXjXkXdXdXdXlXjXkXlXp.hXkXkXkXlXzXjXkXlXjXkXlXjXkXlXjXkXlXjXkXlXjXkXlXjXkXlXjXkXlXjXkXlXjXgXfXdXdXfXgXkXlXjXgXfXdXdXdXdXdXdXdXdXdXdXdXdXdXdXdXdXdXdXdXdXdXdXdXfXgXkXlXjXkXlXjXkXlXjXkXlX",
"dXdXdXkXlXjXkXlXjXkXlXdXdXdXdXdXdXdXdXdXdXdXdXkXlXjXkXlXjXgXdXfXgXlXdXdXdXdXdXdXdXdXdXdXdXdXfXdXdXjXkXlXjXkXlXjXkXlXjXdXdXfXgXlXjXkXlXjXkXlXjXkXlXhXp.hXkXkXkXlXzXhXkXlXkXp.hXkXkXkXkXlXkXhXkXkXkXlXzXjXkXkXkXkXkXkXkXlXhXp.hXkXkXkXlXzXjXkXlXjXkXlXjXkXlXjXkXlXjXkXlXjXkXlXjXkXlXjXkXlXjXkXlXjXkXlXjXkXlXjXkXlXjXkXlXjXkXlXjXkXlXjXkXlXjXkXlXjXkXlXjXkXlXjXkXlXjXkXlXjXkXlXjXkXlXjXkXlXjXkXlXjXkXlXjXkXlXjXkXlXjXkXlXkXhXp.hXkXlXzXp.kXkXkXlXp.hXkXkXkXlXzXhXkXkXkXlXzXkXjXkXdXdXdXlXjXkXlXp.hXkXkXkXlXzXjXkXlXjXkXlXjXkXlXjXkXlXjXkXlXjXkXlXjXkXlXjXkXlXjXkXlXjXgXfXdXdXfXgXkXlXjXgXfXdXdXdXdXdXdXdXdXdXdXdXdXdXdXdXdXdXdXdXdXdXdXdXfXgXkXlXjXkXlXjXkXlXjXkXlX",
"dXdXdXdXlXjXkXlXjXkXlXjXkXlXfXfXfXdXdXdXdXdXdXdXdXdXdXdXdXdXdXdXdXdXdXdXdXdXdXdXdXdXdXdXdXgXfXdXdXjXkXlXjXkXlXjXkXlXjXdXdXfXgXlXjXkXlXjXkXlXjXkXlXhXp.hXkXkXkXlXzXhXkXlXkXp.hXhXkXkXlXlXkXhXkXkXkXlXzXjXkXkXkXkXkXkXkXlXhXp.hXkXkXkXlXzXjXkXlXjXkXlXjXkXlXjXkXlXjXkXlXjXkXlXjXkXlXjXkXlXjXkXlXjXkXlXjXkXlXjXkXlXjXkXlXjXkXlXjXkXlXjXkXlXjXkXlXjXkXlXjXkXlXjXkXlXjXkXlXjXkXlXjXkXlXjXkXlXjXkXlXjXkXlXjXkXlXjXkXlXjXkXlXkXhXp.hXkXlXzXp.hXkXlXkXp.hXhXkXlXlXzXhXkXkXkXlXzXkXjXkXdXdXdXdXjXkXlXp.hXkXkXkXlXzXjXkXlXjXkXlXjXkXlXjXkXlXjXkXlXjXkXlXjXkXlXjXkXlXjXkXlXjXgXfXdXdXfXgXkXlXjXgXfXdXdXdXdXdXdXdXdXdXdXdXdXdXdXdXdXdXdXdXdXdXdXdXfXgXkXlXjXkXlXjXkXlXjXkXlX",
"dXdXdXdXdXjXkXxXxXxXxXxXxXxXxXxXxXxXfXfXfXfXdXdXdXdXdXdXdXdXdXdXdXdXdXdXdXdXdXdXdXdXdXdXkXgXfXdXdXjXkXlXjXkXlXjXkXlXjXdXdXfXgXlXjXkXlXjXkXlXjXkXlXhXhXp.hXkXlXzXp.hXkXlXkXhXhXkXkXkXkXlXkXhXhXkXlXlXzXjXkXkXkXkXkXkXkXlXhXp.hXkXkXkXlXzXjXkXlXjXkXlXjXkXlXjXkXlXjXkXlXjXkXlXjXkXlXxXxXxXxXxXxXxXxXxXxXxXxXxXxXxXxXxXxXxXxXxXxXxXxXxXxXxXxXxXxXxXxXxXxXkXlXjXkXlXjXkXlXjXkXlXjXkXlXjXkXlXjXkXlXjXkXlXjXkXlX6 6 lXjXkXlXkXhXp.hXkXlXzXp.hXkXlXkXp.hXkXkXkXlXzXhXkXkXkXlXzXkXjXkXdXdXdXdXjXkXlXp.hXkXkXkXlXzXjXkXlXjXkXlXjXkXlXjXkXlXjXkXlXjXkXlXjXkXlXxXxXxXxXxXxXxXgXfXdXdXfXgXxXxXxXgXfXdXdXdXdXdXdXdXdXdXdXdXdXdXdXdXdXdXdXdXdXdXdXdXfXgXdXdXdXdXdXdXdXdXdXdXdX",
"dXdXdXdXdXdXxXzXzXzXzXzXzXzXzXzXzXzXzXzXzXzXzXfXfXfXfXfXfXfXfXfXfXfXzXgXfXdXdXdXdXdXdXfXkXgXfXdXdXjXkXlXjXkXlXjXkXlXjXdXdXfXgXlXjXkXlXjXkXlXjXkXlXhXp.hXkXkXkXlXzXhXkXlXkXp.hXhXkXkXlXlXkXkXhXkXlXzXkXjXkXkXkXkXkXkXkXlXhXhXp.hXkXlXzXkXjXkXlXjXkXlXjXkXlXjXkXlXjXkXlXjXkXlXjXkXxXzXzXzXzXzXzXzXzXzXzXzXzXzXzXzXzXzXzXzXzXzXzXzXzXzXzXzXzXzXzXzXzXzXzXxXlXjXkXlXjXkXlXjXkXlXjXkXlXjXkXlXjXkXlXjXkXlXjXkXlX6 6 lXjXkXlXkXhXp.hXkXlXzXp.kXkXkXlXp.hXkXkXkXlXzXhXkXkXkXlXzXkXjXkXlXdXdXdXjXkXlXp.hXkXkXkXlXzXjXkXlXjXkXlXjXkXlXjXkXlXjXkXlXjXkXlXjXkXxXzXzXzXzXzXzXzXgXfXdXdXfXgXzXzXzXgXfXdXdXdXdXdXdXdXdXdXdXdXdXdXdXdXdXdXdXdXdXdXdXdXfXgXdXdXdXdXdXdXdXdXdXdXdX",
"dXdXdXdXdXdXdXkXkXkXkXkXkXkXkXkXkXkXkXkXkXkXkXkXkXkXkXkXkXgXdXfXgXkXkXgXdXdXdXdXdXdXfXjXkXgXfXdXdXjXkXlXjXkXlXjXkXlXjXdXdXfXgXlXjXkXlXjXkXlXjXkXlXhXp.hXkXkXkXlXzXhXkXlXkXp.hXhXkXkXlXlXkXkXhXkXlXzXkXjXkXkXkXkXkXkXkXlXhXp.hXkXkXkXlXzXjXkXlXjXkXlXjXkXlXjXkXlXjXkXlXjXkXlXjXxXzXkXkXkXkXkXkXkXkXkXkXkXkXkXkXkXkXkXkXkXkXkXkXkXkXkXkXkXkXkXkXkXkXkXkXzXxXjXkXlXjXkXlXjXkXlXjXkXlXjXkXlXjXkXlXjXkXlXjXkXlXjXkXlXjXkXlXkXhXp.hXkXlXzXp.hXkXlXkXp.hXkXkXkXlXzXhXkXkXkXlXzXkXjXkXfXfXdXdXfXkXlXp.hXkXkXkXlXzXjXkXlXjXkXlXjXkXlXjXkXlXjXkXlXjXkXlXjXxXzXkXkXkXkXkXkXkXgXfXdXdXfXgXkXkXkXgXfXdXdXdXdXdXdXdXdXdXdXdXdXdXdXdXdXdXdXdXdXdXdXdXfXgXdXdXdXdXdXdXdXdXdXdXdX",
"kXdXdXdXdXdXdXdXjXjXjXjXjXjXjXjXjXjXjXjXjXjXjXjXjXjXjXjXjXgXdXfXgXjXdXdXdXdXdXdXdXfXzXxXkXgXfXdXdXjXkXlXjXkXlXjXkXlXjXdXdXfXgXlXjXkXlXjXkXlXjXkXlXhXhXp.hXkXlXzXp.hXkXlXkXp.hXkXkXkXkXlXkXkXhXkXlXzXkXjXkXkXkXkXkXkXkXlXhXp.hXkXkXkXlXzXjXkXlXjXkXlXjXkXlXjXkXlXjXkXlXjXkXlXxXzXkXjXjXjXjXjXjXjXjXjXjXjXjXjXjXjXjXjXjXjXjXjXjXjXjXjXjXjXjXjXjXjXjXjXjXkXzXxXkXlXjXkXlXjXkXlXjXkXlXjXkXlXjXkXlXjXkXlXjXkXlX6 6 lXjXkXlXkXhXp.hXkXlXzXp.kXkXkXlXp.hXkXkXkXlXzXhXkXkXkXlXzXkXjXkXfXdXdXdXfXkXlXp.hXkXkXkXlXzXjXkXlXjXkXlXjXkXlXjXkXlXjXkXlXjXkXlXxXzXkXjXjXjXjXjXjXjXgXfXdXdXfXgXjXjXjXgXfXdXdXdXdXdXdXdXdXdXdXdXdXdXdXdXdXdXdXdXdXdXdXdXfXgXdXdXdXdXdXdXdXdXdXdXdX",
"kXlXdXdXdXdXdXdXdXdXhXhXhXhXhXhXhXhXhXhXhXhXhXhXhXhXhXhXhXgXdXfXgXdXdXdXdXdXdXfXfXgXkXzXxXgXfXdXdXjXkXlXjXkXlXjXkXlXjXdXdXfXgXlXjXkXlXjXkXlXjXkXlXkXhXp.hXkXlXzXp.hXkXlXkXp.hXkXkXkXkXlXkXhXhXkXlXlXzXjXkXkXkXkXkXkXkXlXhXhXp.hXkXlXzXkXjXkXlXjXkXlXjXkXlXjXkXlXjXkXlXjXkXxXzXkXjXhXhXhXhXhXhXhXhXhXhXhXhXhXhXhXhXhXhXhXhXhXhXhXhXhXhXhXhXhXhXhXhXhXhXjXkXzXxXlXjXkXlXjXkXlXjXkXlXjXkXlXjXkXlXjXkXlXjXkXlXjXkXlXjXkXlXkXhXp.hXkXlXzXp.hXkXlXkXp.hXhXkXlXlXzXhXkXkXkXlXzXkXjXkXfXfXfXfXfXkXlXp.hXkXkXkXlXzXjXkXlXjXkXlXjXkXlXjXkXlXjXkXlXjXkXxXzXkXjXhXhXhXhXhXhXhXgXfXdXdXfXgXhXhXhXgXfXdXdXdXdXdXdXdXdXdXdXdXdXdXdXdXdXdXdXdXdXdXdXdXfXgXdXdXdXdXdXdXdXdXdXdXdX",
"kXlXxXdXdXdXdXdXdXdXdXlXlXlXlXlXlXlXlXlXlXlXlXlXlXlXlXlXlXgXdXdXdXdXdXdXdXdXdXfXfXgXjXkXzXgXfXdXdXjXkXlXjXkXlXjXkXlXjXdXdXfXgXlXjXkXlXjXkXlXjXkXlXkXhXp.hXkXlXzXp.hXkXlXkXp.hXkXkXkXkXlXzXhXkXkXkXlXzXjXkXkXkXkXkXkXkXlXhXp.hXkXkXkXlXzXjXkXlXjXkXlXjXkXlXjXkXlXjXkXlXjXxXzXkXjXhXlXlXlXlXlXlXlXlXlXlXlXlXlXlXlXlXlXlXlXlXlXlXlXlXlXlXlXlXlXlXlXlXlXlXhXjXkXzXxXjXkXlXjXkXlXjXkXlXjXkXlXjXkXlXjXkXlXjXkXlX6 6 lXjXkXlXkXhXp.hXkXlXzXp.hXkXlXkXp.hXkXkXkXlXzXhXkXkXkXlXzXkXjXkXfXdXdXdXfXkXlXp.hXkXkXkXlXzXjXkXlXjXkXlXjXkXlXjXkXlXjXkXlXjXxXzXkXjXhXlXlXlXlXlXlXlXgXfXdXdXfXgXlXlXlXgXfXdXdXdXdXdXdXdXdXdXdXdXdXdXdXdXdXdXdXdXdXdXdXdXfXgXfXfXfXfXfXfXfXfXfXfXfX",
"kXxXzXkXdXdXdXdXdXdXdXdXdXlXlXlXlXlXlXlXlXlXlXlXlXlXlXlXlXdXdXdXdXdXdXdXdXfXfXdXfXgXhXjXkXgXfXdXdXjXkXlXjXkXlXjXkXlXjXdXdXfXgXlXjXkXlXjXkXlXjXkXlXkXhXp.hXkXlXzXp.hXkXlXlXp.hXkXkXkXkXlXzXhXkXkXkXlXzXjXkXkXkXkXkXkXkXlXhXp.hXkXkXkXlXzXjXkXlXjXkXlXjXkXlXjXkXlXjXkXlXxXzXkXjXhXlXlXlXN lXlXN lXN N N N N N N N N N N N N N N N N N N N lXN lXlXN lXlXlXhXjXkXzXxXkXlXjXkXlXjXkXlXjXkXlXjXkXlXjXkXlXjXkXlX6 6 lXjXkXlXkXhXp.hXkXlXzXp.hXkXlXlXp.hXkXkXkXlXzXhXkXkXkXlXzXkXjXkXfXfXfXfXfXkXlXp.hXkXkXkXlXzXjXkXlXjXkXlXjXkXlXjXkXlXjXkXlXxXzXkXjXhXlXlXlXlXlXlXlXlXgXfXdXdXfXgXlXlXlXgXfXdXdXdXdXdXdXdXdXdXdXdXdXdXdXdXdXdXdXdXdXdXdXdXfXgXkXlXjXkXlXjXkXlXjXkXlX",
"xXzXkXjXhXdXdXdXdXdXdXdXdXdXdXdXlXlXlXlXlXlXlXlXlXlXlXdXdXdXdXdXdXdXdXdXdXdXdXdXfXgXlXhXjXgXfXdXdXgXgXgXgXgXgXgXgXgXgXdXdXfXgXlXjXkXlXjXkXlXjXkXlXhXp.hXkXkXkXlXzXhXkXlXkXp.hXhXkXkXlXlXzXhXkXkXkXlXzXjXkXkXkXkXkXkXkXlXhXp.hXkXkXkXlXzXjXkXlXjXkXlXjXkXlXjXkXlXjXkXxXzXkXjXhXlXlXlXlXN lXlXN lXN N N N N N N N N N N N N N N N N N N N lXN lXlXN lXlXlXlXhXjXkXzXxXlXjXkXlXjXkXlXjXkXlXjXkXlXjXkXlXjXkXlX6 6 lXjXkXlXhXp.hXkXkXkXlXzXhXkXlXkXp.hXhXkXlXlXzXhXkXkXkXlXzXkXjXkXfXdXdXdXfXkXlXp.hXkXkXkXlXzXjXkXlXjXkXlXjXkXlXjXkXlXjXkXxXzXkXjXhXlXlXlXlXlXlXlXlXlXgXfXdXdXfXgXlXlXlXgXfXdXdXdXdXdXdXdXdXdXdXdXdXdXdXdXdXdXdXdXdXdXdXdXfXgXkXlXjXkXlXjXkXlXjXkXlX",
"zXkXjXhXlXlXdXdXdXdXdXdXdXdXdXdXdXdXdXdXdXdXdXdXdXdXdXdXdXdXdXdXdXdXfXfXfXdXdXdXfXgXlXlXhXgXfXdXdXfXfXfXfXfXfXfXfXfXfXdXdXfXgXlXjXkXlXjXkXlXjXkXlXhXp.hXkXkXkXlXzXhXkXlXp.hXhXkXkXkXkXlXzXhXkXkXkXlXzXjXkXkXkXkXkXkXkXlXhXp.hXkXkXkXlXzXjXkXlXjXkXlXjXkXlXjXkXlXjXxXzXkXjXhXlXlXlXlXlXlXlXlXlXlXlXlXlXlXlXlXlXlXlXlXlXlXlXlXlXlXlXlXlXlXlXlXlXlXlXlXlXlXlXlXhXjXkXzXxXjXkXlXjXkXlXjXkXlXjXkXlXjXkXlXjXkXlXjXkXlXjXkXlXhXp.hXkXkXkXlXzXhXkXlXp.hXhXkXkXkXlXzXhXkXkXkXlXzXkXjXkXfXdXdXdXfXkXlXp.hXkXkXkXlXzXjXkXlXjXkXlXjXkXlXjXkXlXjXxXzXkXjXhXlXlXlXlXlXlXlXlXlXlXgXfXdXdXfXgXlXlXlXgXfXdXdXdXdXdXdXdXdXdXdXdXdXdXdXdXdXdXdXdXdXdXdXdXfXgXkXlXjXkXlXjXkXlXjXkXlX",
"kXjXhXlXlXhXhXhXdXdXdXdXdXdXdXdXdXdXdXdXdXdXdXdXdXdXdXdXdXdXdXdXdXdXfXgXfXdXdXdXfXgXhXlXlXgXfXdXdXdXdXdXdXdXdXdXdXdXdXdXdXfXgXlXjXkXlXjXkXlXjXkXlXhXhXp.hXkXlXzXp.hXkXlXkXp.hXhXkXkXlXlXzXhXkXkXkXlXzXjXkXkXkXkXkXkXkXlXhXp.hXkXkXkXlXzXjXkXlXjXkXlXjXkXlXjXkXlXxXzXkXjXhXlXlXhXhXhXhXhXhXhXhXhXhXhXhXhXhXhXhXhXhXhXhXhXhXhXhXhXhXhXhXhXhXhXhXhXhXhXhXhXhXlXlXhXjXkXzXxXkXlXjXkXlXjXkXlXjXkXlXjXkXlXjXkXlX6 6 lXjXkXlXhXhXp.hXkXlXzXp.hXkXlXkXp.hXhXkXlXlXzXhXkXkXkXlXzXkXjXkXlXfXdXfXjXkXlXp.hXkXkXkXlXzXjXkXlXjXkXlXjXkXlXjXkXlXxXzXkXjXhXlXlXhXhXhXhXhXhXhXhXhXgXfXdXdXfXgXhXhXhXgXfXdXdXdXdXdXdXdXdXdXdXdXdXdXdXdXdXdXdXdXdXdXdXdXfXgXkXlXjXkXlXjXkXlXjXkXlX",
"jXhXlXlXhXbXbXbXbXdXdXdXdXdXdXdXdXdXdXdXdXdXdXdXdXdXdXdXdXdXdXfXfXbXbXgXfXdXdXdXfXgXbXhXlXgXfXdXdXdXdXdXdXdXdXdXdXdXdXdXdXfXgXlXjXkXlXjXkXlXjXkXlXhXp.hXkXkXkXlXzXhXkXlXkXp.hXhXkXkXlXlXzXhXkXkXkXlXzXjXkXkXkXkXkXkXkXlXhXp.hXkXkXkXlXzXjXkXlXjXkXlXjXkXlXjXkXxXzXkXjXhXlXlXhXbXbXbXbXbXbXbXbXbXbXbXbXbXbXbXbXbXbXbXbXbXbXbXbXbXbXbXbXbXbXbXbXbXbXbXbXbXbXhXlXlXhXjXkXzXxXlXjXkXlXjXkXlXjXkXlXjXkXlXjXkXlX6 6 lXjXkXlXhXp.hXkXkXkXlXzXhXkXlXkXp.hXhXkXlXlXzXhXkXkXkXlXzXkXjXkXlXjXkXlXjXkXlXp.hXkXkXkXlXzXjXkXlXjXkXlXjXkXlXjXkXxXzXkXjXhXlXlXhXbXbXbXbXbXbXbXbXbXgXfXdXdXfXgXbXbXbXgXfXdXdXdXdXdXdXdXdXdXdXdXdXdXdXdXdXdXdXdXdXdXdXdXfXgXxXlXjXkXlXjXkXlXjXkXlX",
"hXlXlXhXbXvXvXvXvXvXvXfXfXdXdXdXdXdXdXdXdXdXdXdXdXdXdXdXdXfXfXfXgXvXvXgXfXdXdXdXfXgXvXbXhXgXfXdXdXdXdXdXdXdXdXdXdXdXdXdXdXfXgXlXjXkXlXjXkXlXjXkXlXhXp.hXkXkXkXlXzXhXkXlXlXp.hXkXkXkXkXlXzXhXkXkXkXlXzXjXkXkXkXkXkXkXkXlXhXp.hXkXkXkXlXzXjXkXlXjXkXlXjXkXlXjXxXzXkXjXhXlXlXhXbXvXvXvXvXvXvXvXvXvXvXvXvXvXvXvXvXvXvXvXvXvXvXvXvXvXvXvXvXvXvXvXvXvXvXvXvXvXvXbXhXlXlXhXjXkXzXxXjXkXlXjXkXlXjXkXlXjXkXlXjXkXlX6 6 lXjXkXlXhXp.hXkXkXkXlXzXhXkXlXlXp.hXkXkXkXlXzXhXkXkXkXlXzXkXjXkXlXjXkXlXjXkXlXp.hXkXkXkXlXzXjXkXlXjXkXlXjXkXlXjXxXzXkXjXhXlXlXhXbXvXvXvXvXvXvXvXvXvXgXfXdXdXfXgXvXvXvXgXfXdXdXdXdXdXdXdXdXdXdXdXdXdXdXdXdXdXdXdXdXdXdXdXfXgXzXxXjXkXlXjXkXlXjXkXlX",
"lXlXhXbXvXcXcXcXcXcXcXcXcXcXfXfXfXfXfXfXfXfXfXfXfXfXfXfXfXgXdXfXgXcXcXgXfXdXdXdXfXgXcXvXbXgXfXdXdXdXdXdXdXdXdXdXdXdXdXdXdXfXgXlXjXkXlXjXkXlXjXkXlXhXhXp.hXkXlXzXp.hXkXlXkXp.hXkXkXkXkXlXzXhXkXkXkXlXzXjXkXkXkXkXkXkXkXlXhXp.hXkXkXkXlXzXjXkXlXjXkXlXjXkXlXxXzXkXjXhXlXlXhXbXvXcXcXcXcXcXcXcXcXcXcXcXcXcXcXcXcXcXcXcXcXcXcXcXcXcXcXcXcXcXcXcXcXcXcXcXcXcXcXvXbXhXlXlXhXjXkXzXxXkXlXjXkXlXjXkXlXjXkXlXjXkXlX6 6 lXjXkXlXhXhXp.hXkXlXzXp.hXkXlXkXp.hXkXkXkXlXzXhXkXkXkXlXzXkXjXkXlXjXkXlXjXkXlXp.hXkXkXkXlXzXjXkXlXjXkXlXjXkXlXxXzXkXjXhXlXlXhXbXvXcXcXcXcXcXcXcXcXcXgXfXdXdXfXgXcXcXcXgXfXdXdXdXdXdXdXdXdXdXdXdXdXdXdXdXdXdXdXdXdXdXdXdXfXgXkXzXxXkXlXjXkXlXjXkXlX",
"lXhXbXvXcXxXxXxXxXxXxXxXxXxXxXxXxXxXxXxXxXxXxXxXxXxXxXxXxXgXdXfXgXxXxXgXfXdXdXdXfXgXxXcXvXgXfXdXdXdXdXdXdXdXdXdXdXdXdXdXdXfXgXlXjXkXlXjXkXlXjXkXlXkXhXp.hXkXlXzXp.hXkXlXp.hXhXkXkXkXkXlXzXhXkXkXkXlXzXjXm m m m m m m lXhXp.hXkXkXkXlXzXjXkXlXjXkXlXjXkXxXzXkXjXhXlXlXhXbXvXcXxXxXxXxXxXxXxXxXxXxXxXxXxXxXxXxXxXxXxXxXxXxXxXxXxXxXxXxXxXxXxXxXxXxXxXxXxXxXcXvXbXhXlXlXhXjXkXzXxXlXjXkXlXjXkXlXjXkXlXjXkXlX6 6 lXjXkXlXkXhXp.hXkXlXzXp.hXkXlXkXp.hXkXkXkXlXzXhXkXkXkXlXzXkXjXkXlXjXkXlXjXkXlXp.hXkXkXkXlXzXjXkXlXjXkXlXjXkXxXzXkXjXhXlXlXhXbXvXcXxXxXxXxXxXxXxXxXxXgXfXdXdXfXgXxXxXxXgXfXdXdXdXdXdXdXdXdXdXdXdXdXdXdXdXdXdXdXdXdXdXdXdXfXgXjXkXzXxXlXjXkXlXjXkXlX",
"hXbXvXcXxXzXlXhXhXhXhXhXhXhXhXhXhXhXhXhXhXhXhXhXhXhXhXhXhXgXdXfXgXhXhXgXfXdXdXdXfXgXzXxXcXgXfXdXdXfXfXfXfXfXfXfXfXfXfXdXdXfXgXlXjXkXlXjXkXlXjXkXlXkXhXp.hXkXlXzXp.hXkXlXp.hXhXkXkXkXkXlXzXhXkXkXkXlXzXjXkXkXkXkXkXkXkXlXhXp.hXkXkXkXlXzXjXkXlXjXkXlXjXxXzXkXjXhXlXlXhXbXvXcXxXzXlXhXhXhXhXhXhXhXhXhXhXhXhXhXhXhXhXhXhXhXhXhXhXhXhXhXhXhXhXhXhXhXhXhXhXlXzXxXcXvXbXhXlXlXhXjXkXzXxXjXkXlXjXkXlXjXkXlXjXkXlX6 6 lXjXkXlXkXhXp.hXkXlXzXp.hXkXlXkXp.: CXCX: lXzXhXkXkXkXlXzXkXjXkXlXjXkXlXjXkXlXp.hXkXkXkXlXzXjXkXlXjXkXlXjXxXzXkXjXhXlXlXhXbXvXcXxXzXlXhXhXhXhXhXhXhXgXfXdXdXfXgXhXhXhXgXfXdXdXdXdXdXdXdXdXdXdXdXdXdXdXdXdXdXdXdXdXdXdXdXfXgXhXjXkXzXxXjXkXlXjXkXlX",
"bXvXcXxXzXlXhXhXhXhXhXhXhXhXhXhXhXhXhXhXhXhXhXhXhXhXhXhXhXgXdXfXgXhXhXgXfXdXdXdXfXgXlXzXxXgXfXdXdXlXlXhXjXkXzXxXkXlXjXdXdXfXgXlXjXkXlXjXkXlXjXkXlXkXhXp.hXkXlXzXp.hXkXlXp.hXhXkXkXkXkXlXzXhXkXkXkXlXzXjXkXkXkXkXkXkXkXlXhXp.hXkXkXkXlXzXjXkXlXjXkXlXxXzXkXjXhXlXlXhXbXvXcXxXzXlXhXhXhXhXhXhXhXhXhXhXhXhXhXhXhXhXhXhXhXhXhXhXhXhXhXhXhXhXhXhXhXhXhXhXhXhXh.k.k.z.c.c.c.c.c.c.c.c.!.!.!.O !.!.!.!.!.!.!.!.!.!.!.!.% O % !.!.!.!.!.!.!.!.!.!.!.!.!.!.!.!.!.!.!.!.!.!.!.!.!.!.!.!.!.!.!.!.!.!.lXp.hXkXkXkXlXzXjXkXlXjXkXlXxXzXkXjXhXlXlXhXbXvXcXxXzXlXhXhXhXhXhXhXhXhXgXfXdXdXfXgXhXhXhXgXfXdXdXdXdXdXdXdXdXdXdXdXdXdXdXdXdXdXdXdXdXdXdXdXfXgXlXhXjXkXzXxXkXlXjXkXlX",
"vXcXxXzXlXhXhXhXhXhXhXhXhXhXhXhXhXhXhXhXhXhXhXhXhXhXhXhXhXgXdXfXgXhXhXgXfXdXdXdXfXgXhXlXzXgXfXdXdXhXlXlXhXjXkXzXxXlXjXdXdXfXgXlXjXkXlXjXkXlXjXkXlXkXhXp.hXkXlXzXp.hXkXlXp.hXhXkXkXkXkXlXzXhXkXkXkXlXzXjXkXkXkXkXkXkXkXlXhXhXp.hXkXlXzXkXjXkXlXjXkXxXzXkXjXhXlXlXhXbXvXcXxXzXlXhXhXhXhXhXhXhXhXhXhXhXhXhXhXhXhXhXhXhXhXhXhXhXhXhXhXhXhXhXhXhXhXhXh.k.z.c.v.v.b.c.z.k.k.k.k.k.k.R.U.U.& O R.U.U.U.U.U.U.U.U.U.U.U.U.% O % U.U.U.U.U.U.U.U.U.U.U.U.U.U.U.U.U.U.U.U.U.U.U.U.U.U.U.U.U.U.U.U.!.lXkXp.hXkXlXzXkXjXkXlXjXkXxXzXkXjXhXlXlXhXbXvXcXxXzXlXhXhXhXhXhXhXhXhXhXgXfXdXdXfXgXhXhXhXgXfXdXdXdXdXdXdXdXdXdXdXdXdXdXdXdXdXdXdXdXdXdXdXdXfXgXlXlXhXjXkXzXxXlXjXkXlX",
"cXxXzXlXhXhXhXhXhXhXhXhXhXhXhXhXhXhXhXhXhXhXhXhXhXhXhXhXhXgXdXfXgXhXhXgXfXdXdXdXfXgXhXhXlXgXfXdXdXbXhXlXlXhXjXkXzXxXjXdXdXfXgXlXjXkXlXjXkXlXjXkXlXkXhXp.hXkXlXzXp.hXkXlXp.hXhXhXkXkXlXlXzXhXkXkXkXlXzXjXkXkXkXkXkXkXkXlXhXp.hXkXkXkXlXzXjXkXlXjXxXzXkXjXhXlXlXhXbXvXcXxXzXlXhXhXhXhXhXhXhXhXhXhXhXhXhXhXhXhXhXhXhXhXhXhXhXhXhXhXhXhXhXhXh.k.z.b.b.v.b.z.k.k.h.h.h.h.h.h.h.h.R.U.: & O R.U.: I.I.I.I.P.I.: : I.I.P.U.% O % U.P.: = O Y.O O O O O Y.O Y.I.I.I.: : : : : : : : I.I.: : U.Q.P.lXp.hXkXkXkXlXzXjXkXlXjXxXzXkXjXhXlXlXhXbXvXcXxXzXlXhXhXhXhXhXhXhXhXhXhXgXfXdXdXfXgXhXhXhXgXfXdXdXdXdXdXdXdXdXdXdXdXdXdXdXdXdXdXdXdXdXdXdXdXfXgXhXlXlXhXjXkXzXxXjXkXlX",
"xXzXlXhXhXhXhXhXhXhXhXhXhXhXhXhXhXhXhXhXhXhXhXhXhXhXhXhXhXgXdXfXgXhXhXgXfXdXdXdXfXgXhXhXhXgXfXdXdXdXdXdXdXdXdXdXdXdXdXdXdXfXgXlXjXkXlXjXkXlXjXkXlXkXhXp.hXkXlXzXp.hXkXlXp.hXhXkXkXkXkXlXzXhXkXkXkXlXzXjX' ' ' ' ' ' ' lXhXp.hXkXkXkXlXzXjXkXlXxXzXkXjXhXlXlXhXbXvXcXxXzXlXhXhXhXhXhXhXhXhXhXhXhXhXhXhXhXhXhXhXhXhXhXhXhXhXhXhXhXh.k.z.v.b.b.v.z.k.h.h.h.h.h.hXh.zXh.h.h.h.R.U.: & O R.U.I.: : : : I.P.I.: : I.I.: P.U.% O % U.P.I.I.I.P.I.P.I.: : I.: I.1 1 1 : 1 1 : 1 1 1 I.I.: U.R.P.kXlXp.hXkXkXkXlXzXjXkXlXxXzXkXjXhXlXlXhXbXvXcXxXzXlXhXhXhXhXhXhXhXhXhXhXhXgXfXdXdXfXgXhXhXhXgXfXdXdXdXdXdXdXdXdXdXdXdXdXdXdXdXdXdXdXdXdXdXdXdXfXgXbXhXlXlXhXjXkXzXxXkXlX",
"zXlXhXhXhXhXhXhXhXhXhXhXhXhXhXhXhXhXhXhXhXhXhXhXhXhXhXhXhXgXdXfXgXhXhXgXfXdXdXdXfXgXhXhXhXgXfXdXdXdXdXdXdXdXdXdXdXdXdXdXdXfXgXlXjXkXlXjXkXlXjXkXlXkXhXp.hXkXlXzXp.hXkXlXp.hXhXkXkXkXkXlXzXhXkXkXkXlXzXjX' ' ' ' ' ' ' lXhXhXp.hXkXlXzXkXjXkXxXzXkXjXhXlXlXhXbXvXcXxXzXlXhXhXhXhXhXhXhXhXhXhXhXhXhXhXhXhXhXhXhXhXhXhXhXhXhXh.k.z.c.b.v.z.k.h.h.h.h.h.hXh.hXhXhXhXlXzXxXcXR.U.: & O R.U.I.I.: I.I.I.I.P.P.P.: I.I.: : P.U.% O % U.= O Y.O O O O O Y.O Y.I.1 1 : 1 1 1 1 : 1 1 I.I.U.R.P.jXkXlXkXp.hXkXlXzXkXjXkXxXzXkXjXhXlXlXhXbXvXcXxXzXlXhXhXhXhXhXhXhXhXhXhXhXhXgXfXdXdXfXgXhXhXhXgXfXdXdXdXdXdXdXdXdXdXdXdXdXdXdXdXdXdXdXdXdXdXdXdXfXgXvXbXhXlXlXhXjXkXzXxXlX",
"lXhXhXhXhXhXhXhXhXhXhXhXhXhXhXhXhXhXhXhXhXhXhXhXhXhXhXhXhXgXdXfXgXhXhXgXfXdXdXdXfXgXhXhXhXgXfXdXdXfXfXfXfXfXfXfXfXfXfXdXdXfXgXlXjXkXlXjXkXlXjXkXlXhXp.hXkXkXkXlXzXhXkXlXp.p.hXkXkXkXkXlXzXhXhXkXlXlXzXjXkXkXkXkXkXkXkXlXkXhXp.hXkXlXzXkXjXxXzXkXjXhXlXlXhXbXvXcXxXzXlXhXhXhXhXhXhXhXhXhXhXhXhXhXhXhXhXhXhXhXhXhXhXhXh.k.z.c.c.v.z.k.h.hXhXh.hXh.hXhXhXhXhXhXhXhXhXlXzXR.U.: & O R.U.: I.I.: I.I.I.I.I.I.: : I.P.P.P.P.P.U.% O % U.P.: P.I.I.I.: : I.: I.1 I.1 1 1 1 1 1 : 1 I.U.R.P.lXjXkXlXkXp.hXkXlXzXkXjXxXzXkXjXhXlXlXhXbXvXcXxXzXlXhXhXhXhXhXhXhXhXhXhXhXhXhXgXfXdXdXfXgXhXhXhXgXfXdXdXdXdXdXdXdXdXdXdXdXdXdXdXdXdXdXdXdXdXdXdXdXfXgXcXvXbXhXlXlXhXjXkXzXxX",
"hXhXhXhXhXhXhXhXhXhXhXhXhXhXhXhXhXhXhXhXhXhXhXhXhXhXhXhXhXgXdXfXgXhXhXgXfXdXdXdXfXgXhXhXhXgXfXdXdXzXxXcXvXbXhXlXlXhXjXdXdXfXgXlXjXkXlXjXkXlXjXkXlXhXp.hXkXkXkXlXzXhXkXlXkXp.hXkXkXkXkXlXzXkXhXkXlXzXkXjX6 6 6 6 6 6 6 lXkXhXp.hXkXlXzXkXxXzXkXjXhXlXlXhXbXvXcXxXzXlXhXhXhXhXhXhXhXhXhXhXhXhXhXhXhXhXhXhXhXhXhXh.k.z.c.c.b.z.k.h.hXhXhXhXh.: - T.- hXhXhXhXhXhXhXhXhXR.U.: & O R.U.P.P.: ; & & & & & & & & & ; : : : I.I.P.U.% O % U.P.: : I.I.I.I.I.P.I.I.1 1 1 1 1 1 1 1 : I.U.R.; lXjXkXlXkXp.hXkXlXzXkXxXzXkXjXhXlXlXhXbXvXcXxXzXlXhXhXhXhXhXhXhXhXhXhXhXhXhXhXgXfXdXdXfXgXhXhXhXgXfXdXdXdXdXdXdXdXdXdXdXdXdXdXdXdXdXdXdXdXdXdXdXdXfXgXxXcXvXbXhXlXlXhXjXkXzX",
"hXhXhXhXhXhXhXhXhXhXhXhXhXhXhXhXhXhXhXhXhXhXhXhXhXhXhXhXhXgXdXfXgXhXhXgXfXdXdXdXfXgXhXhXhXgXfXdXdXlXzXxXcXvXbXhXlXlXhXdXdXfXgXlXjXkXlXjXkXlXjXkXlXhXhXp.hXkXlXzXp.hXkXlXkXp.kXkXkXkXkXkXzXkXhXkXlXzXkXjXkXkXkXkXkXkXkXlXkXhXp.hXkXlXzXxXzXkXjXhXlXlXhXbXvXcXxXzXlXhXhXhXhXhXhXhXhXhXhXhXhXhXhXhXhXhXhXhXh.k.z.c.c.v.z.k.h.hXhXhXhXhXhXhX@ . . - U.- g g i hXhXhXhXR.U.: & O R.U.P.P.P.; & $ $ $ $ $ $ $ $ $ & ; : : I.I.: P.U.% O % U.P.: I.P.P.I.I.P.I.I.1 1 1 1 1 1 1 1 : : U.R.; lXjXkXlXkXp.hXkXlXzXxXzXkXjXhXlXlXhXbXvXcXxXzXlXhXhXhXhXhXhXhXhXhXhXhXhXhXhXhXgXfXdXdXfXgXhXhXhXgXfXdXdXdXdXdXdXdXdXdXdXdXdXdXdXdXdXdXdXdXdXdXdXdXfXgXzXxXcXvXbXhXlXlXhXjXkX",
"hXhXhXhXhXhXhXhXhXhXhXhXhXhXhXhXhXhXhXhXhXhXhXhXhXhXhXhXhXgXdXfXgXhXhXgXfXdXdXdXfXgXhXhXhXgXfXdXdXhXlXzXxXcXvXbXhXlXlXdXdXfXgXxXjXkXlXjXkXlXjXkXlXkXhXp.hXkXlXzXp.hXkXlXkXp.hXhXkXkXlXlXzXkXhXkXlXzXkXjXkXkXkXkXkXkXkXlXkXhXp.hXkXlXxXzXkXjXhXlXlXhXbXvXcXxXzXlXhXhXhXhXhXhXhXhXhXhXhXhXhXhXhXhXhXh.k.z.c.c.c.z.k.h.hXhXhXhXhXhXhXhXhXhXI.: : : - s a s d hXhXhXR.U.: & O R.U.I.I.I.; & O @ = = = = = = = @ O & ; P.I.I.: : P.U.% O % U.P.I.P.P.I.I.I.I.1 : 1 1 1 1 1 1 : 1 : U.R.; lXjXkXlXkXp.hXkXlXxXzXkXjXhXlXlXhXbXvXcXxXzXlXhXhXhXhXhXhXhXhXhXhXhXhXhXhXhXhXgXfXdXdXfXgXhXhXhXgXfXdXdXdXdXdXdXdXdXdXdXdXdXdXdXdXdXdXdXdXdXdXdXdXfXgXlXzXxXcXvXbXhXlXlXhXjX",
"hXhXhXhXhXhXhXhXhXhXhXhXhXhXhXhXhXhXhXhXhXhXhXhXhXhXhXhXhXgXdXfXgXhXhXgXfXdXdXdXfXgXhXhXhXgXfXdXdXhXhXlXzXxXcXvXbXhXlXdXdXfXgXzXxXlXlXlXlXlXlXlXlXlXlXp.hXkXlXzXkXkXkXkXlXp.hXkXkXkXkXlXzXhXhXkXlXlXzXjXkXkXkXkXkXkXkXlXkXhXp.hXkXxXzXkXjXhXlXlXhXbXvXcXxXzXlXhXhXhXhXhXhXhXhXhXhXhXhXhXhXhXhXh.z.z.c.c.z.k.h.hXhXhXhXhXhXhXhXhXhXhXhXhXhXhXO # O 1 t t hXhXhXR.U.: & O R.U.P.I.I.; & O R.@ I.: : : : : = @ R.O & ; I.I.P.I.I.P.U.% O % U.P.I.I.I.I.I.I.1 1 : 1 1 1 1 : 1 1 : P.U.R.; jXkXlXkXp.hXkXxXzXkXjXhXlXlXhXbXvXcXxXzXlXhXhXhXhXhXhXhXhXhXhXhXhXhXhXhXhXhXgXfXdXdXfXgXhXhXhXgXfXdXdXdXdXdXdXdXdXdXdXdXdXdXdXdXdXdXdXdXdXdXdXdXfXgXhXlXzXxXcXvXbXhXlXlXhX",
"hXhXhXhXhXhXhXhXhXhXhXhXhXhXhXhXhXhXhXhXhXhXhXhXhXhXhXhXhXgXdXfXgXhXhXgXfXdXdXdXfXgXhXhXhXgXfXdXdXgXgXgXgXgXgXgXgXgXgXdXdXfXgXkXzXxXkXkXkXkXkXkXkXkXkXp.hXkXlXzXkXkXkXkXlXp.hXhXkXkXlXlXzXhXkXkXkXlXzXlXlXlXlXlXlXlXlXlXlXlXp.hXxXzXkXjXhXlXlXhXbXvXcXxXzXlXhXhXhXhXhXhXhXhXhXhXhXhXhXhXhXh.z.c.c.c.z.k.hXhXhXhXhXhXhXhXhXhXhXhXhXhXhXhXhXO : U.# g g g d hXR.U.: & O R.U.P.P.I.; & O R.U.@ I.: : : : : = @ Y.R.O & ; I.P.I.I.I.P.U.% O % U.P.: I.: : I.: 1 1 : 1 1 : 1 1 : : P.: U.R.; lXlXlXp.hXxXzXkXjXhXlXlXhXbXvXcXxXzXlXhXhXhXhXhXhXhXhXhXhXhXhXhXhXhXhXhXhXgXfXdXdXfXgXhXhXhXgXfXdXdXdXdXdXdXdXdXdXdXdXdXdXdXdXdXdXdXdXdXdXdXdXfXgXhXhXlXzXxXcXvXbXhXlXlX",
"hXhXhXhXhXhXhXhXhXhXhXhXhXhXhXhXhXhXhXhXhXhXhXhXhXhXhXhXhXgXdXfXgXhXhXgXfXdXdXdXfXgXhXhXhXgXfXdXdXdXdXdXdXdXdXdXdXdXdXdXdXfXgXjXkXzXxXhXhXhXhXhXhXhXhXp.hXkXlXzXp.hXkXlXkXp.hXhXkXkXlXlXzXhXhXkXlXlXzXkXkXkXkXkXkXkXkXkXkXkXp.xXzXlXjXhXlXlXhXbXvXcXxXzXlXhXhXhXhXhXhXhXhXhXhXhXhXhXhXh.z.c.c.z.k.h.# hXhXhXhXhXhXhXhXhXhXhXhXhXhXhXhXhXhXO U.* g d s i i R.U.: & O R.U.I.I.I.; & O R.I.U.@ I.I.I.I.I.I.= @ Y.I.R.O & ; I.I.P.P.I.P.U.% O % U.P.P.P.P.P.P.2 2 2 : : 2 2 2 P.P.P.: : U.R.; kXkXp.xXzXlXjXhXlXlXhXbXvXcXxXzXlXhXhXhXhXhXhXhXhXhXhXhXhXhXhXhXhXhXhXhXgXfXdXdXfXgXhXhXhXgXfXdXdXdXdXdXdXdXdXdXdXdXdXdXdXdXdXdXdXdXdXdXdXdXfXgXhXhXhXlXzXxXcXvXbXhXlX",
"hXhXhXhXhXhXhXhXhXhXhXhXhXhXhXhXhXhXhXhXhXhXhXhXhXhXhXhXhXgXdXfXgXhXhXgXfXdXdXdXfXgXhXhXhXgXfXdXdXdXdXdXdXdXdXdXdXdXdXdXdXfXgXhXjXkXzXxXp.p.p.p.p.p.p.p.hXkXlXzXkXkXkXkXlXp.hXkXkXkXkXlXzXhXhXkXlXlXzXhXhXhXhXhXhXhXhXhXhXhXxXzXkXjXhXlXlXhXbXvXcXxXzXlXhXhXhXhXhXhXhXhXhXhXhXhXhXh.z.c.c.z.k.I.I.: : : - hXhXhXhXhXhXhXhXhXhXhXhXhXhX@ O % : * d s a i R.U.: & O R.U.P.I.: ; & O R.I.I.U.@ I.: : : : : = @ Y.I.I.R.O & ; I.P.P.I.I.P.U.% O % & & & & & & & < < < < < < & & & & = : : U.R.; hXxXzXkXjXhXlXlXhXbXvXcXxXzXlXhXhXhXhXhXhXhXhXhXhXhXhXhXhXhXhXhXhXhXhXgXfXdXdXfXgXhXhXhXgXfXdXdXdXdXdXdXdXdXdXdXdXdXdXdXdXdXdXdXdXdXdXdXdXfXgXhXhXhXhXlXzXxXcXvXbXhX",
"hXhXhXhXhXhXhXhXhXhXhXhXhXhXhXhXhXhXhXhXhXhXhXhXhXhXhXhXhXgXdXfXgXhXhXgXfXdXdXdXfXgXhXhXhXgXfXdXdXdXdXdXdXdXdXdXdXdXdXdXdXfXgXlXhXjXkXzXxXkXjXkXlXkXhXp.hXkXlXzXkXkXkXkXlXp.hXkXkXkXkXlXzXhXkXkXkXlXzXp.p.p.p.p.p.p.p.p.p.xXzXkXjXhXlXlXhXbXvXcXxXzXlXhXhXhXhXhXhXhXhXhXhXhXhXh.z.c.c.z.k.I.I.R.: : # hXhXhXhXhXhXhXhXhXhXhXhXhXO # i * - : * o s a a R.U.: & O R.U.P.P.I.; & O R.I.: I.U.@ I.: : : : : = @ Y.I.: I.R.O & ; P.P.: : : P.U.% O O O O O O O O O O O O O O O O O O O U.P.P.U.R.; zXkXjXhXlXlXhXbXvXcXxXzXlXhXhXhXhXhXhXhXhXhXhXhXhXhXhXhXhXhXhXhXhXhXgXfXdXdXfXgXhXhXhXgXfXdXdXdXdXdXdXdXdXdXdXdXdXdXdXdXdXdXdXdXdXdXdXdXfXgXhXhXhXhXhXlXzXxXcXvXbX",
"jXp.hXjXp.hXjXhXhXhXhXhXp.hXjXhXp.hXjXhXp.hXjXhXp.hXjXhXhXgXdXfXgXhXjXgXfXdXdXdXfXgXjXhXp.gXfXdXdXfXfXfXfXfXfXfXfXfXfXdXdXfXgXlXlXhXjXkXzXxXjXkXlXkXhXp.hXkXlXzXp.hXkXlXkXp.hXkXkXkXkXlXzXhXkXkXkXlXzXjXkXlXjXkXlXjXkXlXxXzXkXjXhXlXlXhXbXvXcXxXzXlXp.hXjXhXp.hXjXhXp.hXjXh.z.c.c.z.k.: - - # R.=.=.# # jXhXp.hXjXhXp.hXjXhXhXhX- O O O O O o u d a R.U.: & O R.U.P.: I.; & O R.I.: : I.U.@ I.I.I.I.I.I.= @ Y.I.: : I.R.O & ; P.I.I.I.I.P.U.% O % U.U.U.U.U.U.4 4 4 4 U.U.U.U.U.% O U.P.P.U.R.; jXhXlXlXhXbXvXcXxXzXlXhXhXhXhXhXhXhXhXp.hXjXhXp.hXjXhXp.hXjXhXp.hXgXfXdXdXfXgXhXp.hXgXfXdXdXdXdXdXdXdXdXdXdXdXdXdXdXdXdXdXdXdXdXdXdXdXfXgXhXjXhXp.hXjXlXzXxXcXvX",
"jXp.hXjXp.hXjXhXhXhXhXhXp.hXjXhXp.hXjXhXp.hXjXhXp.hXjXhXhXgXdXfXgXhXjXgXfXdXdXdXfXgXjXhXp.gXfXdXdXhXhXhXhXhXhXhXhXlXzXdXdXfXgXhXlXlXhXjXkXzXxXkXlXkXhXp.hXkXlXzXp.kXkXkXlXp.hXkXkXkXkXlXzXhXkXkXkXlXzXjXkXlXjXkXlXjXkXxXzXkXjXhXlXlXhXbXvXcXxXzXlXhXp.hXjXhXp.hXjXhXp.hXz.c.c.z.k.I.I.I.= R.- I.=.=.: # # = = = = = = = = = = : = % @ a d d d s u R.U.: & O R.U.P.: : ; & O R.I.: : : I.U.@ I.: : : : : = @ Y.I.: : : I.R.O & ; I.I.I.I.I.P.U.% O % U.I.I.I.I.2 2 2 2 I.I.I.I.I.I.% O U.P.P.U.R.; lXlXhXbXvXcXxXzXlXhXhXhXhXhXhXhXhXhXp.hXjXhXp.hXjXhXp.hXjXhXp.hXgXfXdXdXfXgXhXp.hXgXfXdXdXdXdXdXdXdXdXdXdXdXdXdXdXdXdXdXdXdXdXdXdXdXfXgXhXjXhXp.hXjXhXlXzXxXcX",
"jXp.hXjXp.hXjXhXhXhXhXhXp.hXjXhXp.hXjXhXp.hXjXhXp.hXjXhXhXgXdXfXgXhXjXgXfXdXdXdXfXgXjXhXp.gXfXdXdXhXhXhXhXhXhXhXhXhXlXdXdXfXgXbXhXlXlXhXjXkXzXxXlXkXhXp.hXkXlXzXp.hXkXlXkXp.hXkXkXkXkXlXzXhXkXkXkXlXzXjXkXlXjXkXlXjXxXzXkXjXhXlXlXhXbXvXcXxXzXlXhXhXp.hXjXhXp.hXjXhXU.!.c.z.k.- - - - - - # - = : : : : : & & & & & & & & & & : % @ a s s s s s R.U.: & O R.U.: P.: ; & O R.I.: : : : I.U.@ I.: : : : : = @ Y.I.: : : : I.R.O & ; I.I.I.I.I.P.U.% O % U.P.I.: : 1 1 : I.I.: : : P.I.% O U.P.: U.!.!.!.!.!.!.!.!.!.U.= hXhXhXhXhXhXhXhXp.hXjXhXp.hXjXhXp.hXjXhXp.hXgXfXdXdXfXgXhXp.hXgXfXdXdXdXdXdXdXdXdXdXdXdXdXdXdXdXdXdXdXdXdXdXdXdXfXgXhXjXhXp.hXjXhXhXlXzXxX",
"jXp.hXjXp.hXjXhXhXhXhXhXp.hXjXhXp.hXjXhXp.hXjXhXp.hXjXhXhXgXdXfXgXhXjXgXfXdXdXdXfXgXjXhXp.gXfXdXdXhXhXhXhXhXhXhXhXhXhXdXdXfXgXvXbXhXlXlXhXjXkXzXxXkXhXp.hXkXlXzXp.kXkXkXlXp.hXkXkXkXkXlXzXhXkXkXkXlXzXjXkXlXjXkXlXxXzXkXjXhXlXlXhXbXvXcXxXzXlXhXhXhXp.hXjXhXp.hXjXU.R.R.!.!.!.!.!.!.!.!.!.!.!.!.!.!.!.!.!.!.!.!.!.!.!.!.!.!.!.!.!.!.!.!.!.!.!.!.R.U.: & O R.U.I.I.I.; & O U.I.: : : : I.U.@ I.: : : : : = @ Y.I.: : : : I.U.O & ; : : I.I.I.: P.U.% O % U.P.: : : : : I.I.I.I.: : P.I.% O U.P.: U.U.U.U.U.U.U.U.U.Q.U.= hXhXhXhXhXhXhXp.hXjXhXp.hXjXhXp.hXjXhXp.hXgXfXdXdXfXgXhXp.hXgXfXdXdXdXdXdXdXdXdXdXdXdXdXdXdXdXdXdXdXdXdXdXdXdXfXgXhXjXhXp.hXjXhXhXhXlXzX",
"jXp.hXjXp.hXjXhXhXhXhXhXp.hXjXhXp.hXjXhXp.hXjXhXp.hXjXhXhXgXdXfXgXhXjXgXfXdXdXdXfXgXjXhXp.gXfXdXdXhXhXhXhXhXhXhXhXhXhXdXdXfXgXcXvXbXhXlXlXhXjXkXzXxXhXp.hXkXlXzXp.hXkXlXkXp.hXhXkXkXlXlXzXhXkXkXkXlXzXjXkXlXjXkXxXzXkXjXhXlXlXhXbXvXcXxXzXlXhXhXhXhXp.hXjXhXp.hXU.R.T.Y.U.U.U.U.U.U.U.U.U.U.U.U.U.U.U.U.U.U.U.U.U.U.U.U.U.U.O U.O U.O U.U.U.U.U.R.U.: & O R.U.P.I.I.; & O ; = = = = = = ; @ = = = = = = = @ ; = = = = = = ; O & ; : P.P.I.I.: : P.U.% O % U.P.I.I.I.: P.Y.R.R.R.R.R.R.Y.% O U.P.P.P.I.I.I.P.: I.I.U.R.U.= hXhXhXhXhXhXp.hXjXhXp.hXjXhXp.hXjXhXp.hXgXfXdXdXfXgXhXp.hXgXfXdXdXdXdXdXdXdXdXdXdXdXdXdXdXdXdXdXdXdXdXdXdXdXfXgXhXjXhXp.hXjXhXhXhXhXlX",
"hXhXhXhXhXhXhXhXhXhXhXhXhXhXhXhXhXhXhXhXhXhXhXhXhXhXhXhXhXgXdXfXgXhXhXgXfXdXdXdXfXgXhXhXhXgXfXdXdXhXhXhXhXhXhXhXhXhXhXdXdXfXgXxXcXvXbXhXlXlXhXjXkXzXxXp.hXkXlXzXp.kXkXkXlXp.hXkXkXkXkXlXzXhXhXkXlXlXzXjXkXlXjXxXzXkXjXhXlXlXhXbXvXcXxXzXlXhXhXhXhXhXhXhXhXhXhXU.R.T.Y.U.I.P.: : I.I.I.I.I.: I.I.P.P.P.P.: I.P.P.: : I.I.I.I.O P.O : O : I.: : U.R.U.: & O R.U.P.I.I.; & O O O O O O O O O @ O O X X X X O @ O O O O O O O O O & ; : : I.P.P.P.: I.P.U.% O % U.P.I.I.: I.- & * & & & * - I.% O U.P.I.I.: I.: : P.P.: U.R.U.= hXhXhXhXhXhXhXhXhXhXhXhXhXhXhXhXhXhXhXgXfXdXdXfXgXhXhXhXgXfXdXdXdXdXdXdXdXdXdXdXdXdXdXdXdXdXdXdXdXdXdXdXdXfXgXhXhXhXhXhXhXhXhXhXhXhX",
"hXhXhXhXhXhXhXhXhXhXhXhXhXhXhXhXhXhXhXhXhXhXhXhXhXhXhXhXhXgXdXfXgXhXhXgXfXdXdXdXfXgXhXhXhXgXfXdXdXhXhXhXhXhXhXhXhXhXhXdXdXfXgXzXxXcXvXbXhXlXlXhXjXkXzXxXhXkXlXlXlXhXkXlXkXp.hXkXkXkXkXlXzXkXhXkXlXzXkXjXkXlXxXzXkXjXhXlXlXhXbXvXcXxXzXlXhXhXhXhXhXhXjXjXjXhXU.R.T.Y.U.I.P.: : : : : : : : : I.I.I.I.: : : I.P.P.: : : : : I.O P.O : O : I.: : U.R.U.: & O R.U.P.I.I.I.Y.Y.Y.Y.Y.Y.Y.Y.Y.Y.Y.Y.Y.Y.Y.Y.Y.Y.Y.Y.Y.Y.Y.Y.Y.Y.Y.Y.Y.: : : I.P.P.P.: I.: P.U.% O % U.P.I.: I.I.: : : : I.I.: P.I.% O U.P.I.I.I.: : I.I.: : U.R.U.= hXhXhXhXhXhXhXhXhXhXhXhXhXhXhXhXhXhXgXfXdXdXfXgXhXhXhXgXfXdXdXdXdXdXdXdXdXdXdXdXdXdXdXdXdXdXdXdXdXdXdXdXfXgXhXhXhXhXhXhXhXhXhXhXhX",
"hXhXhXhXhXhXhXhXhXhXhXhXhXhXhXhXhXhXhXhXhXhXhXhXhXhXhXhXhXgXdXfXgXhXhXgXfXdXdXdXfXgXhXhXhXgXfXdXdXhXhXhXhXhXhXhXhXhXhXdXdXfXgXlXzXxXcXvXbXhXlXlXhXjXkXzXxXkXlXkXkXkXkXkXlXp.hXkXkXkXkXlXzXhXhXkXlXlXzXjXkXxXzXkXjXhXlXlXhXbXvXcXxXzXlXhXhXhXhXhXhXp.hXhXjXU.R.T.Y.U.U.U.U.U.U.U.U.U.U.U.U.U.U.U.U.U.U.U.U.U.U.U.U.U.U.U.U.U.R.U.R.U.R.U.U.U.U.U.R.U.: & O R.U.U.U.U.U.U.U.U.U.U.U.U.U.U.U.U.U.U.U.U.U.U.U.U.U.U.U.U.U.U.U.U.U.U.U.U.U.U.U.U.U.U.U.U.U.U.U.% O % U.U.U.U.U.U.U.U.U.U.U.U.U.U.U.% O U.U.U.U.U.U.U.U.U.U.U.U.R.U.hXhXhXhXhXhXhXhXhXhXhXhXhXhXhXhXhXhXgXfXdXdXfXgXhXhXhXgXfXdXdXdXdXdXdXdXdXdXdXdXdXdXdXdXdXdXdXdXdXdXdXdXfXgXhXhXhXhXhXhXhXhXhXhXhX",
"hXhXhXhXhXhXhXhXhXhXhXhXhXhXhXhXhXhXhXhXhXhXhXhXhXhXhXhXhXgXdXfXgXhXhXgXfXdXdXdXfXgXhXhXhXgXfXdXdXhXhXhXhXhXhXhXhXhXhXdXdXfXgXhXlXzXxXcXvXbXhXlXlXhXjXkXzXxXlXhXhXhXkXlXkXp.hXkXkXkXkXlXzXhXkXkXkXlXzXjXxXzXkXjXhXlXlXhXbXvXcXxXzXlXhXhXhXhXhXhXhXp.hXhXjXU.R.R.R.R.R.R.R.R.R.R.R.R.R.R.R.R.R.R.R.R.R.R.R.R.R.R.R.R.R.R.R.R.R.R.R.R.R.R.R.R.R.R.R.R.R.R.R.R.R.R.R.R.R.R.R.R.R.R.R.R.R.R.R.R.R.R.R.R.R.R.R.R.R.R.R.R.R.R.R.R.R.R.R.R.R.R.R.R.R.R.R.R.R.R.R.R.% O % R.R.R.R.R.R.R.R.R.R.R.R.R.R.R.% O R.R.R.R.R.R.R.R.R.R.R.R.U.hXhXhXhXhXhXhXhXhXhXhXhXhXhXhXhXhXhXgXfXdXdXfXgXhXhXhXgXfXdXdXdXdXdXdXdXdXdXdXdXdXdXdXdXdXdXdXdXdXdXdXdXfXgXhXhXhXhXhXhXhXhXhXhXhX",
"hXhXhXhXhXhXhXhXhXhXhXhXhXhXhXhXhXhXhXhXhXhXhXhXhXhXhXhXhXgXdXfXgXhXhXgXfXdXdXdXfXgXhXhXhXgXfXdXdXhXhXhXhXhXhXhXhXhXhXdXdXfXgXhXhXlXzXxXcXvXbXhXlXlXhXjXkXzXxXzXp.kXkXkXlXp.kXkXkXkXkXkXzXhXhXkXlXlXzXxXzXkXjXhXlXlXhXbXvXcXxXzXlXjXjXjXjXjXjXjXjXp.hXhXjXhXp.hXhXhX: ZXZX: p.p.p.p.p.p.p.p.p.p.p.p.p.p.p.hXhXhXhXjXhXhXhXhXhXhXhXhXhXhXY.: - P.O O % * * * * * * * , , , , , * * , , , , , , , , , , , * * * * * * * * * * * * * * * U.: @ O O % * * * * * * * * * * * * * kXjXhXlXlXhXbXvXcXxXzXlXhXhXhXhXhXhXhXhXhXhXhXhXhXhXhXhXhXhXhXhXhXhXhXhXhXhXhXhXhXhXhXgXfXdXdXfXgXhXhXhXgXfXdXdXdXdXdXdXdXdXdXdXdXdXdXdXdXdXdXdXdXdXdXdXdXfXgXhXhXhXhXhXhXhXhXhXhXhX",
"hXhXhXhXhXhXhXhXhXhXhXhXhXhXhXhXhXhXhXhXhXhXhXhXhXhXhXhXhXgXdXfXgXhXhXgXfXdXdXdXfXgXhXhXhXgXfXdXdXhXhXhXhXhXhXhXhXhXhXdXdXfXgXhXhXhXlXzXxXcXvXbXhXlXlXhXjXkXzXxXp.hXkXlXkXp.kXkXkXkXkXkXzXhXhXkXlXlXxXzXkXjXhXlXlXhXbXvXcXxXzXlXhXhXhXhXhXhXhXhXhXp.hXhXjXhXp.hXhXhXhXjXhXhXhXhXhXhXhXhXT.Y.U.I.P.P.P.P.P.P.P.P.P.P.P.P.P.P.P.P.P.P.P.P.P.P.P.U.hXO O % : U.I.P.: ; ; < < < < < ; ; < < < < < < < < < < < ; ; ; ; ; ; ; ; ; ; ; ; ; ; - U.: # O O % : U.I.P.: ; ; ; ; ; - U.: hXlXlXhXbXvXcXxXzXlXhXhXhXhXhXhXhXhXhXhXhXhXhXhXhXhXhXhXhXhXhXhXhXhXhXhXhXhXhXhXhXhXgXfXdXdXfXgXhXhXhXgXfXdXdXdXdXdXdXdXdXdXdXdXdXdXdXdXdXdXdXdXdXdXdXdXfXgXhXhXhXhXhXhXhXhXhXhXhX",
"p p p u 1 1 1 1 1 1 1 u p p p p p u 1 1 1 1 1 1 1 u p p p gXdXfXgX1 1 gXfXdXdXdXfXgX1 1 1 gXfXdXdX1 1 1 1 1 1 1 1 1 1 dXdXfXgX1 1 1 hXlXzXxXcXvXbXhXlXlXhXjXkXzXxXkXkXkXlXhXkXkXkXkXkXkXlXhXkXkXkXxXzXkXjXhXlXlXhXbXvXcXxXzXlXhX1 1 1 1 u p p p p p u 1 1 1 1 1 1 1 u p p p p p u 1 1 1 1 1 1 1 u p p p p p u 1 1 1 1 1 1 1 u p p p p p u 1 1 1 1 1 O O % : R.T.Y.U.I.P.2 1 1 1 2 P.P.2 1 1 1 1 1 1 1 1 1 2 P.P.P.P.P.P.P.P.P.P.P.P.: ; - U.: # O O % : R.T.Y.U.I.P.P.: ; - U.: lXhXbXvXcXxXzXlXhX1 1 1 1 1 1 1 1 1 1 1 1 1 1 1 1 1 1 1 1 1 1 1 1 1 1 1 1 1 1 1 1 gXfXdXdXfXgX1 1 1 gXfXdXdXdXdXdXdXdXdXdXdXdXdXdXdXdXdXdXdXdXdXdXdXdXfXgXp p u 1 1 1 1 1 1 1 u ",
"p p u 1 1 1 1 1 1 1 u p p p p p u 1 1 1 1 1 1 1 u p p p p gXdXfXgX1 1 gXfXdXdXdXfXgX1 1 1 gXfXdXdX1 1 1 1 1 1 1 1 1 1 dXdXfXgX1 1 1 1 hXlXzXxXcXvXbXhXlXlXhXjXkXzXxXkXlXkXkXkXkXkXkXkXkXkXhXkXkXxXzXkXjXhXlXlXhXbXvXcXxXzXlXhX1 1 1 1 u p p p p p u 1 1 1 1 1 1 1 u p p p p p u 1 1 1 1 1 1 1 u p p p p p u 1 1 1 1 1 1 1 u p p p p p u 1 1 1 1 1 1 1 O O % : R.T.Y.U.I.P.2 1 1 1 2 P.P.2 1 1 1 1 1 1 1 1 1 2 P.P.P.P.P.P.P.P.P.P.P.P.: ; - U.: $ O O % : R.T.Y.U.I.P.P.: ; - U.: bXvXcXxXzXlXhX1 1 1 1 1 1 1 1 1 1 1 1 1 1 1 1 1 1 1 1 1 1 1 1 1 1 1 1 1 1 1 1 1 gXfXdXdXfXgX1 1 1 gXfXdXdXdXdXdXdXdXdXdXdXdXdXdXdXdXdXdXdXdXdXdXdXdXfXgXp u 1 1 1 1 1 1 1 u p ",
"p u 1 1 1 1 1 1 1 u p p p p p u 1 1 1 1 1 1 1 u p p p p p gXdXfXgX1 1 gXfXdXdXdXfXgX1 1 1 gXfXdXdX1 1 1 1 1 1 1 1 1 1 dXdXfXgX1 1 1 1 1 hXlXzXxXcXvXbXhXlXlXhXjXkXzXxXkXlXkXkXkXkXkXkXkXkXhXkXxXzXkXjXhXlXlXhXbXvXcXxXzXlXhX1 1 1 1 u p p p p p u 1 1 1 1 1 1 1 u p p p p p u 1 1 1 1 1 1 1 u p p p p p u 1 1 1 1 1 1 1 u p p p p p u 1 1 1 1 1 1 1 u p O O % : R.T.Y.U.I.P.2 1 1 1 2 P.P.2 1 1 1 1 1 1 1 1 1 2 P.P.P.P.P.P.P.P.P.P.P.P.: ; - U.: $ O O % : R.T.Y.U.I.P.P.: ; - U.: cXxXzXlXhX1 1 1 1 1 1 1 1 1 1 1 1 1 1 1 1 1 1 1 1 1 1 1 1 1 1 1 1 1 1 1 1 1 1 gXfXdXdXfXgX1 1 1 gXfXdXdXdXdXdXdXdXdXdXdXdXdXdXdXdXdXdXdXdXdXdXdXdXfXgXu 1 1 1 1 1 1 1 u p p ",
"u 1 1 1 1 1 1 1 u p p p p p u 1 1 1 1 1 1 1 u p p p p p u gXdXfXgX1 1 gXfXdXdXdXfXgX1 1 1 gXfXdXdX1 1 1 1 1 1 1 1 1 1 dXdXfXgX1 1 1 1 1 1 hXlXzXxXcXvXbXhXlXlXhXjXkXzXxXkXkXkXkXkXkXkXkXkXhXxXzXkXjXhXlXlXhXbXvXcXxXzXlXhX1 1 1 1 u p p p p p u 1 1 1 1 1 1 1 u p p p p p u 1 1 1 1 1 1 1 u p p p p p u 1 1 1 1 1 1 1 u p p p p p u 1 1 1 1 1 1 1 u p p p O O % : R.T.Y.U.I.P.2 1 1 1 2 P.P.2 1 1 1 1 1 1 1 1 1 2 P.P.P.P.P.P.P.P.P.P.P.P.: ; - U.: & O O % : R.T.Y.U.I.P.P.: ; - U.: zXlXhX1 1 1 1 1 1 1 1 1 1 1 1 1 1 1 1 1 1 1 1 1 1 1 1 1 1 1 1 1 1 1 1 1 1 1 gXfXdXdXfXgX1 1 1 gXfXdXdXdXdXdXdXdXdXdXdXdXdXdXdXdXdXdXdXdXdXdXdXdXfXgX1 1 1 1 1 1 1 u p p p ",
"1 1 1 1 1 1 1 u p p p p p u 1 1 1 1 1 1 1 u p p p p p u 1 gXdXfXgX1 1 gXfXdXdXdXfXgX1 1 1 gXfXdXdX1 1 1 1 1 1 1 1 1 1 dXdXfXgX1 1 1 1 1 1 1 hXlXzXxXcXvXbXhXlXlXhXjXkXzXxXkXkXkXkXkXkXkXkXxXzXkXjXhXlXlXhXbXvXcXxXzXlXhX1 1 1 1 u p p p p p u 1 1 1 1 1 1 1 u p p p p p u 1 1 1 1 1 1 1 u p p p p p u 1 1 1 1 1 1 1 u p p p p p u 1 1 1 1 1 1 1 u p p p p p O O % : R.T.Y.U.I.P.2 1 1 1 2 P.P.2 1 1 1 1 1 1 1 1 1 2 P.P.P.P.P.P.P.P.P.P.P.P.: ; - U.: & O O % : R.T.Y.U.I.P.P.: ; - U.: hX1 1 1 1 1 1 1 1 1 1 1 1 1 1 1 1 1 1 1 1 1 1 1 1 1 1 1 1 1 1 1 1 1 1 1 1 gXfXdXdXfXgX1 1 1 gXfXdXdXdXdXdXdXdXdXdXdXdXdXdXdXdXdXdXdXdXdXdXdXdXfXgX1 1 1 1 1 1 u p p p p ",
"1 1 1 1 1 1 u p p p p p u 1 1 1 1 1 1 1 u p p p p p u 1 1 gXdXfXgX1 1 gXfXdXdXdXfXgX1 1 1 gXfXdXdX1 1 1 1 1 1 1 1 1 1 dXdXfXgX1 1 1 1 1 1 1 1 hXlXzXxXcXvXbXhXlXlXhXjXkXzXxXkXkXkXkXkXkXxXzXkXjXhXlXlXhXbXvXcXxXzXlXhX1 1 1 1 u p p p p p u 1 1 1 1 1 1 1 u p p p p p u 1 1 1 1 1 1 1 u p p p p p u 1 1 1 1 1 1 1 u p p p p p u 1 1 1 1 1 1 1 u p p p p p u 1 O O % : R.T.Y.U.I.P.2 1 1 1 2 P.P.2 1 1 1 1 1 1 1 1 1 2 P.P.P.P.P.P.P.P.P.P.P.P.: ; - U.: & O O % : R.T.Y.U.I.P.P.: ; - U.: 1 1 1 1 1 1 1 1 1 1 1 1 1 1 1 1 1 1 1 1 1 1 1 1 1 1 1 1 1 1 1 1 1 1 1 1 gXfXdXdXfXgX1 1 1 gXfXdXdXdXdXdXdXdXdXdXdXdXdXdXdXdXdXdXdXdXdXdXdXdXfXgX1 1 1 1 1 u p p p p p ",
"hXhXhXhXhXhXhXhXhXhXhXhXhXhXhXhXhXhXhXhXhXhXhXhXhXhXhXhXhXgXdXfXgXhXhXgXfXdXdXdXfXgXhXhXhXgXfXdXdXhXhXhXhXhXhXhXhXhXhXdXdXfXgXhXhXhXhXhXhXhXhXhXhXlXzXxXcXvXbXhXlXlXhXjXkXzXxXkXkXkXkXxXzXkXjXhXlXlXhXbXvXcXxXzXlXhXhXhXhXhXhXhXhXhXhXhXhXhXhXhXhXhXhXhXhXhXhXp.hXjXhXhXhXhXhXhXhXhXhXhXhXhXhXhXhXhXhXhXhXp.hXjXU.!.4 4 !.!.!.!.E.4 4 !.!.!.!.!.!.!.!.!.!.!.!.!.!.!.!.!.!.!.!.!.!.!.!.!.!.!.!.!.!.!.!.!.!.!.!.!.!.!.!.!.!.!.!.!.!.!.!.!.!.!.!.!.!.!.!.!.!.!.!.!.!.!.!.!.!.!.!.!.!.!.!.!.!.!.!.!.!.!.!.!.U.hXhXhXhXhXhXhXhXhXhXhXhXhXhXhXhXhXhXhXhXhXhXhXhXhXhXhXhXgXfXdXdXfXgXhXhXhXgXfXdXdXdXdXdXdXdXdXdXdXdXdXdXdXdXdXdXdXdXdXdXdXdXfXgXhXhXhXhXhXhXhXhXhXhXhX",
"hXhXhXhXhXhXhXhXhXhXhXhXhXhXhXhXhXhXhXhXhXhXhXhXhXhXhXhXhXgXdXfXgXhXhXgXfXdXdXdXfXgXhXhXhXgXfXdXdXhXhXhXhXhXhXhXhXhXhXdXdXfXgXhXhXhXhXhXhXhXhXhXhXhXlXzXxXcXvXbXhXlXlXhXjXkXzXxXkXkXxXzXkXjXhXlXlXhXbXvXcXxXzXlXhXhXhXhXhXhXhXhXhXhXhXhXhXhXhXhXhXhXhXhXhXhXhXp.hXjXhXhXhXhXhXhXhXhXhXhXhXhXhXhXhXhXhXhXhXp.hXjXU.!.3 3 3 !.W.T.T.E.3 3 !.W.T.T.T.T.T.T.T.T.T.T.T.T.T.T.T.T.T.T.T.T.T.T.T.T.T.T.T.T.T.T.T.T.T.T.T.T.T.T.T.T.T.T.T.T.T.T.T.T.T.T.T.T.T.T.T.T.T.T.T.T.T.T.T.T.T.T.T.T.T.T.T.T.T.T.T.T.T.T.Q.U.hXhXhXhXhXhXhXhXhXhXhXhXhXhXhXhXhXhXhXhXhXhXhXhXhXhXhXgXfXdXdXfXgXhXhXhXgXfXdXdXdXdXdXdXdXdXdXdXdXdXdXdXdXdXdXdXdXdXdXdXdXfXgXhXhXhXhXhXhXhXhXhXhXhX",
"hXhXhXhXhXhXhXhXhXhXhXhXhXhXhXhXhXhXhXhXhXhXhXhXhXhXhXhXhXgXdXfXgXhXhXgXfXdXdXdXfXgXhXhXhXgXfXdXdXhXhXhXhXhXhXhXhXhXhXdXdXfXgXhXhXhXhXhXhXhXhXhXhXhXhXlXzXxXcXvXbXhXlXlXhXjXkXzXxXxXzXkXjXhXlXlXhXbXvXcXxXzXlXhXhXhXhXhXhXhXhXhXhXhXhXhXhXhXhXhXhXhXhXhXhXhXhXp.hXjXhXhXhXhXhXhXhXhXhXhXhXhXhXhXhXhXhXhXhXp.hXjXhXU.W.3 3 3 !.W.E.E.E.3 3 !.W.E.E.E.E.E.E.E.E.E.E.E.E.E.E.E.E.E.E.E.E.E.E.E.E.E.E.E.E.E.E.E.E.E.E.E.E.E.E.E.E.E.E.E.E.E.E.E.E.E.E.E.E.E.E.E.E.E.E.E.E.E.E.E.E.E.E.E.E.E.E.E.E.E.E.E.E.E.E.E.!.!.U.hXhXhXhXhXhXhXhXhXhXhXhXhXhXhXhXhXhXhXhXhXhXhXhXgXfXdXdXfXgXhXhXhXgXfXdXdXdXdXdXdXdXdXdXdXdXdXdXdXdXdXdXdXdXdXdXdXdXfXgXhXhXhXhXhXhXhXhXhXhXhX",
"hXhXhXhXhXhXhXhXhXhXhXhXhXhXhXhXhXhXhXhXhXhXhXhXhXhXhXhXhXgXdXfXgXhXhXgXfXdXdXdXfXgXhXhXhXgXfXdXdXhXhXhXhXhXhXhXhXhXhXdXdXfXgXhXhXhXhXhXhXhXhXhXhXhXhXhXlXzXxXcXvXbXhXlXlXhXjXkXzXzXkXjXhXlXlXhXbXvXcXxXzXlXhXhXhXhXhXhXhXhXhXhXhXhXhXhXhXhXhXhXhXhXhXhXhXhXhXp.hXjXhXhXhXhXhXhXhXhXhXhXhXhXhXhXhXhXhXhXhXp.hXjXhXhXU.W.3 3 3 3 3 3 3 3 3 3 3 3 3 3 3 3 3 3 3 3 3 3 3 3 3 3 3 3 3 3 3 3 3 3 3 3 3 3 3 3 3 3 3 3 3 3 3 3 3 3 3 3 3 3 3 3 3 3 3 3 3 3 3 3 3 3 3 3 3 3 3 3 3 3 3 3 3 3 3 3 3 3 3 3 3 3 3 3 3 3 3 3 Q.U.hXhXhXhXhXhXhXhXhXhXhXhXhXhXhXhXhXhXhXhXhXhXhXgXfXdXdXfXgXhXhXhXgXfXdXdXdXdXdXdXdXdXdXdXdXdXdXdXdXdXdXdXdXdXdXdXdXfXgXhXhXhXhXhXhXhXhXhXhXhX",
"O O O O O O O O O O O O O O O O O O O O O O O O O O O O O gXdXfXgXO O gXfXdXdXdXfXgXO O O gXfXdXdXO O O O O O O O O O dXdXfXgXO O O O O O O O O O O bXvXcXxXxXxXxXxXxXxXxXxXxXxXxXxXxXxXxXxXxXxXxXxXxXxXxXcXvXbXO O O O O O O O O O O O O O O O O O O O O O O O O O O O O O O O O O O O O O O O O O O O O O O O O O O U.W.R.R.R.R.R.R.R.R.R.R.R.R.R.R.R.R.R.R.R.R.R.R.R.R.R.R.R.R.R.R.R.R.R.R.R.R.R.R.R.R.R.R.R.R.R.R.R.R.R.R.R.R.R.R.R.R.R.R.R.R.R.R.R.R.R.R.R.R.R.R.R.R.R.R.R.R.R.R.R.R.R.R.R.R.R.R.R.R.R.R.R.R.R.U.O O O O O O O O O O O O O O O O O O O O O O gXfXdXdXfXgXO O O gXfXdXdXdXdXdXdXdXdXdXdXdXdXdXdXdXdXdXdXdXdXdXdXdXfXgXO O O O O O O O O O O ",
"@ + + + + + + + + + + + + + + @ + + + + + + + @ @ @ + + + gXdXfXgX+ + gXfXdXdXdXfXgX+ + @ gXfXdXdX+ + + + + + + + @ + dXdXfXgX+ + + + + @ + + @ @ + + fXgXhXhXhXhXhXhXhXhXhXhXhXhXhXhXhXhXhXhXhXhXhXhXhXhXgXfXO O O O O O O O + + + + + + + + + + + + + + + + + + @ + + + @ + + + + @ + @ + @ + + + + + @ + + + + @ + + + + + + + @ + + + + + + + + + + + + + @ + @ + + + + + + @ + + @ + + + + + + + + + + + + + + + + @ fXgXhXhXhXhXhXhXhXhXhXhXhXhXhXhXhXhXhXhXhXhXhXhXhXgXfXO O O O O O O O O O + O O + O + + + + + + + + + + + + + + + + + @ + + @ @ @ + + @ gXfXdXdXfXgX+ + + gXfXdXdXdXdXdXdXdXdXdXdXdXdXdXdXdXdXdXdXdXdXdXdXdXfXgX+ + + + + @ + + @ + + ",
"+ @ + + + + + @ @ + + @ + @ + + + + + + @ + + + + + @ + + gXdXfXgX@ + gXfXdXdXdXfXgX+ + + gXfXdXdX+ + + + @ + @ + + @ dXdXfXgX@ @ + + @ + @ @ + + @ + gXhXjXkXkXkXkXkXkXkXkXkXkXkXkXkXkXkXkXkXkXkXkXkXkXjXhXgXO O O O + O + + + + + + + @ + + @ + @ + + @ + + @ + + + + + @ + + + + + + + + + + + + + @ + + + + + + + + + @ + + + + + @ + + @ + + + + + + @ @ + @ @ + @ + @ @ + @ + + + + + + + + + @ + + + + + + @ + + + gXhXjXkXkXkXkXkXkXkXkXkXkXkXkXkXkXkXkXkXkXkXkXkXjXhXgXO O O O O + O O + + + + + + + + + + + + + + + + + + + @ + + + @ @ + + + + @ + @ + gXfXdXdXfXgX+ + + gXfXdXdXdXdXdXdXdXdXdXdXdXdXdXdXdXdXdXdXdXdXdXdXdXfXgX+ @ + @ @ + + @ + + + ",
"@ @ + + + + + @ + @ + + @ @ + @ @ + + + @ + @ + + + @ + + gXdXfXgX@ @ gXfXdXdXdXfXgX+ @ + gXfXdXdX+ + + @ + + + + + @ dXdXfXgX+ + + + @ @ + + @ + + @ gXhXjXkXkXkXkXkXkXkXkXkXkXkXkXkXkXkXkXkXkXkXkXkXkXjXhXgXO + O + + + + + + + @ + + + @ + @ + + @ + + + @ + @ + + + + + + @ @ + + + + + @ @ @ @ @ + + @ @ @ + @ @ + + @ + + + @ @ @ + + + @ + + @ @ + + + + + @ + + @ @ @ + @ + @ + + + + + @ + + @ + @ @ + + + + @ + gXhXjXkXkXkXkXkXkXkXkXkXkXkXkXkXkXkXkXkXkXkXkXkXjXhXgXO O O + + + + + + + + + + + + + @ + + + + @ @ + @ @ @ @ + @ + + + + + + @ @ @ + + gXfXdXdXfXgX+ @ + gXfXdXdXdXdXdXdXdXdXdXdXdXdXdXdXdXdXdXdXdXdXdXdXdXfXgX+ + + + @ + + + + + + ",
"@ + + + + + @ @ + + + @ @ + @ @ + + + + + + @ @ @ # + + @ gXdXfXgX@ + gXfXdXdXdXfXgX# + @ gXfXdXdX+ @ @ + + @ + + # + dXdXfXgX+ + @ + @ + + + + + @ + gXhXjXkXkXkXkXkXkXkXkXkXkXkXkXkXkXkXkXkXkXkXkXkXkXjXhXgX+ + + + + + + @ + + + + @ + @ @ + @ @ + @ + + @ @ # + + @ + @ @ + + @ + + + @ + @ + + @ + @ + @ @ @ + + + + @ @ @ + @ + @ @ @ @ # + # + + @ + + + # + @ + + @ # + + + + + + @ + @ @ @ + @ # @ # @ + + + + @ gXhXjXkXkXkXkXkXkXkXkXkXkXkXkXkXkXkXkXkXkXkXkXkXjXhXgX+ + + + + + + + + + + + + @ + @ + @ + + @ + + + + @ @ @ + + + + + @ + @ + @ @ + @ gXfXdXdXfXgX+ + + gXfXdXdXdXdXdXdXdXdXdXdXdXdXdXdXdXdXdXdXdXdXdXdXdXfXgX+ # # + @ + + + + # + ",
"@ # # @ + # @ + @ @ + @ + @ # + + # # @ # # @ + @ + + @ @ gXdXfXgX# + gXfXdXdXdXfXgX+ + + gXfXdXdX+ + @ + @ # + + + @ dXdXfXgX@ + + + # @ + @ + + + @ gXhXjXjXjXjXjXjXjXjXjXjXjXjXjXjXjXjXjXjXjXjXjXjXjXjXhXgX+ + @ + + + @ # @ + + + + @ + @ @ # + + + @ @ + + @ + + + + # + + @ + @ + + + + + @ + + + + # + @ + # + + # @ + @ + # + + # + # @ # + + + + # @ @ + + # @ + @ @ + + + + + + @ @ # + @ @ # + @ + @ # + + + + gXhXjXjXjXjXjXjXjXjXjXjXjXjXjXjXjXjXjXjXjXjXjXjXjXhXgX@ + + + + + @ + @ + + @ # + @ # # + # @ # # @ + @ @ + # @ + + @ # @ @ # # @ # + @ gXfXdXdXfXgX@ + # gXfXdXdXdXdXdXdXdXdXdXdXdXdXdXdXdXdXdXdXdXdXdXdXdXfXgX@ @ # + # @ + # # + + ",
"# @ # @ @ @ @ @ + + + # # + + @ @ + # @ @ @ @ + + + @ @ + gXdXfXgX@ @ gXfXdXdXdXfXgX# + + gXfXdXdX+ @ + @ + + + # + @ dXdXfXgX+ # + @ @ @ + + @ @ + + + + + + + + + + + + + + + + + + + + + + + + + + + + + + @ + # + + # # @ + @ @ @ @ @ # # + + # + @ @ # # @ + @ # # + + + @ @ @ + + @ + + + + + @ @ # @ + # + @ + @ + + + @ @ + # # + + @ @ + @ @ + @ + + # @ # + # @ @ # # + @ @ # + + # @ @ + # + @ @ # # # @ # + @ + + + + + + + + + + + + + + + + + + + + + + + + + + + + + + @ # + # + @ # + @ + @ + @ # @ @ @ + + @ @ @ + + + + @ # + # @ @ + # # @ + @ gXfXdXdXfXgX+ # + gXfXdXdXdXdXdXdXdXdXdXdXdXdXdXdXdXdXdXdXdXdXdXdXdXfXgX@ + + @ # @ # @ + + @ ",
"+ # # # @ # @ # # + @ @ + @ @ @ # @ + # + + @ + + @ @ # @ gXdXfXgX+ + gXfXdXdXdXfXgX# # # gXfXdXdX# + @ # # + + + # @ dXdXfXgX# + # @ @ # + # # # + @ + + + @ + @ @ @ @ # @ + # @ # + # + + + @ @ + # # + # @ # @ @ + + # + @ @ # @ @ + @ @ + # + # @ @ # @ @ # @ @ + + + + @ @ + + @ @ @ # + + + @ # + @ @ + # @ # @ + + + @ @ @ @ @ @ + @ @ @ + + @ + # @ # # + # # # @ + @ + + @ @ @ # @ + + # @ @ + # # @ @ # @ @ @ # @ # @ + # + # # # + @ @ + @ # + # @ @ + @ @ @ @ @ + # # # # # # # @ # @ @ @ + @ @ + @ @ + # @ # + # # # # + @ @ # + + @ # @ @ # + @ @ @ gXfXdXdXfXgX@ @ + gXfXdXdXdXdXdXdXdXdXdXdXdXdXdXdXdXdXdXdXdXdXdXdXdXfXgX# @ + @ @ # # @ # @ @ ",
"# @ @ @ # # # # # + $ # + # # # # $ @ # @ # # @ @ @ @ # # gXdXfXgX@ @ gXfXdXdXdXfXgX# @ + gXfXdXdX@ # # # # # @ # # @ dXdXfXgX+ # # # @ @ # # @ # @ @ + @ # + + @ $ $ # @ # @ + # @ + # @ + + # @ @ @ # + # # @ # + @ @ @ @ @ # # # + # # $ # @ # # @ @ @ @ # # $ @ + @ # # @ $ # @ # # # @ @ @ @ # # @ @ @ @ @ # @ @ @ + @ # # @ + @ @ # @ @ # # # + # # $ @ + $ # # # + @ # @ + + # # # + @ $ $ + + # @ # @ @ @ # + + @ @ @ @ $ # $ @ # @ # # @ @ + # @ @ # # @ + @ @ @ + + @ # + @ @ + # + + # # # # @ # # # @ # # # # @ @ $ @ # + # + # # + + + # # # @ @ # # gXfXdXdXfXgX@ @ # gXfXdXdXdXdXdXdXdXdXdXdXdXdXdXdXdXdXdXdXdXdXdXdXdXfXgX# @ # $ @ + @ @ # @ + ",
"# @ @ # # @ @ @ $ @ @ @ @ $ @ # @ # $ @ $ @ # # @ # $ @ @ gXdXfXgX@ @ gXfXdXdXdXfXgX# @ + gXfXdXdX@ + $ $ @ # # # @ @ dXdXfXgX@ # @ # $ # $ @ @ @ @ # @ @ @ # # @ + $ # # @ # $ # $ @ # $ @ @ # @ @ @ # # @ # @ # # @ # # $ $ @ # $ @ # # # # $ $ # @ # @ @ # + # $ @ @ # + $ # # @ @ $ @ @ # @ # @ # @ # @ @ $ @ # @ $ @ @ # # # @ @ # + @ + @ @ @ @ @ @ @ # @ @ $ # @ @ @ # # # $ # # # @ # @ $ @ $ @ @ # # $ @ $ # $ # # # $ $ @ @ @ # @ $ $ @ # # # @ # $ @ $ @ $ @ $ @ # @ @ @ @ @ @ @ @ $ @ $ $ $ $ # # @ # # @ @ @ # @ @ @ @ # $ # # + @ @ # # @ @ @ # @ @ gXfXdXdXfXgX$ # # gXfXdXdXdXdXdXdXdXdXdXdXdXdXdXdXdXdXdXdXdXdXdXdXdXfXgX@ @ # + # # @ @ # # @ ",
"@ $ # # # # # # # $ $ @ @ @ @ @ # @ @ @ @ @ # @ @ $ @ @ $ gXdXfXgX@ @ gXfXdXdXdXfXgX# # $ gXfXdXdX# @ @ @ # $ # # @ $ dXdXfXgX@ @ @ @ @ @ # @ $ $ @ # $ $ @ @ $ @ # # @ # $ $ # @ # # # @ $ $ @ @ # $ @ # $ @ $ @ $ $ $ @ @ $ @ $ # # @ # @ $ @ # $ @ # @ @ $ # $ $ $ $ @ # $ @ # @ $ @ # @ # $ # @ # # @ @ # $ # @ # $ @ # # @ # @ # $ # # # $ @ $ # # @ $ @ @ @ # @ @ @ $ @ @ # @ $ @ @ # @ @ # @ $ @ $ @ @ # @ @ @ @ @ # @ @ @ # # $ $ # $ @ $ $ $ @ @ # # # # @ @ @ @ # # # # $ $ $ @ # # $ @ # @ $ # # @ # @ $ # # # # @ # $ $ # @ $ # $ @ # # $ $ $ @ @ # # gXfXdXdXfXgX@ $ # gXfXdXdXdXdXdXdXdXdXdXdXdXdXdXdXdXdXdXdXdXdXdXdXdXfXgX$ @ # @ # $ $ $ @ $ # ",
"@ @ # $ $ $ @ # @ @ # $ $ @ $ $ # # $ $ # # @ # @ $ # $ # gXdXfXgX# @ gXfXdXdXdXfXgX@ # # gXfXdXdX@ # $ $ $ $ $ $ # @ dXdXfXgX@ $ $ # # $ # $ # @ # # # # $ $ $ $ $ $ $ # @ @ @ # @ @ $ $ @ # # $ # $ # # # $ @ $ # # # @ # $ @ @ @ @ # # # # $ # @ $ $ @ @ $ @ # @ $ @ $ @ @ @ $ # # @ $ @ $ $ # # $ @ # @ $ $ # # $ @ $ $ $ # @ @ @ $ $ @ @ @ @ # $ $ $ @ @ @ # # @ @ @ # @ # @ $ # $ # @ $ # $ $ # @ @ # # @ $ # # @ # @ @ # @ @ $ # @ # # $ @ @ @ @ # # # # # $ @ # # @ $ # $ # $ $ # # # @ # # $ $ @ @ # $ @ $ @ $ # $ $ $ # # # # $ @ $ # @ @ # # @ @ $ @ $ gXfXdXdXfXgX@ # # gXfXdXdXdXdXdXdXdXdXdXdXdXdXdXdXdXdXdXdXdXdXdXdXdXfXgX@ $ # @ # $ @ $ # # @ ",
"$ # $ % # @ # $ # # @ $ @ # # $ $ @ $ $ $ $ $ @ $ # @ $ $ gXdXfXgX# $ gXfXdXdXdXfXgX$ $ $ gXfXdXdX$ @ # @ $ $ $ # # @ dXdXfXgX$ # $ # @ # $ $ $ $ # # # # $ # # @ $ # # # # # # # $ # # # @ % @ # $ $ # # $ @ % # # $ $ $ $ # @ # $ @ $ $ # $ $ $ @ # @ $ $ # $ @ # # # # # # # @ $ # $ # % # % # $ # $ $ $ $ $ @ $ # # $ $ # # @ $ $ $ @ # # % $ $ @ @ # # # # $ # # $ # # @ % @ # $ @ # % # $ $ $ # % # $ $ @ # $ # # # # # # # # $ $ $ $ $ $ $ $ # # $ # $ % $ % # # @ # # # # @ $ % $ @ # # # $ # # @ # $ $ $ $ # @ # $ # # $ $ # @ # @ $ @ % $ # # # # $ # # gXfXdXdXfXgX# # # gXfXdXdXdXdXdXdXdXdXdXdXdXdXdXdXdXdXdXdXdXdXdXdXdXfXgX$ $ $ % % $ $ $ $ $ @ ",
"$ # @ # $ $ # % $ # # $ # # $ # % # # % # $ $ # % $ $ % # gXdXfXgX% # gXfXdXdXdXfXgX# # $ gXfXdXdX$ # % $ $ # $ # # # dXdXfXgX# # $ $ # % % % # % # # $ $ # # $ $ # # @ $ $ $ $ # $ # # # $ % # # # # $ % # @ $ # # $ $ $ $ $ # $ # % # % % $ % @ # $ $ $ # # $ $ # # $ $ # @ # # # % # # # % @ % $ # # $ $ $ $ % @ $ # $ # % # $ # $ $ % $ # % # % @ $ $ $ % % # $ # $ @ # # $ $ # # % $ # $ # @ # % $ # # $ $ # $ % $ # $ # # # $ $ # $ $ # # # $ $ % $ $ $ # # # # % $ $ % $ # $ $ # # $ % $ # # $ # @ $ # @ $ # @ # # $ @ $ $ # $ # $ # # $ # # $ # # # # # # gXfXdXdXfXgX# # # gXfXdXdXdXdXdXdXdXdXdXdXdXdXdXdXdXdXdXdXdXdXdXdXdXfXgX$ $ % $ $ # $ $ $ % $ ",
"_._._._._._._._._._._._._._._._._._._._._._._._._._._._._.gXdXfXgX_._.gXfXdXdXdXfXgX_._._.gXfXdXdX_._._._._._._._._._.dXdXfXgX_._._._._._._._._._._._._._._._._._._._._._._._._._._._._._._._._._._._._._._._._._._._._._._._._._._._._._._._._._._._._._._._._._._._.$ $ $ $ # $ $ % # # $ $ $ % # # # $ $ # $ # # $ # # $ # $ $ % $ # # # # $ # $ $ # # $ $ % # $ # % $ # $ $ % # # $ $ $ $ $ # # # % $ $ # $ # # # $ $ # # # $ $ # $ # % # $ % # $ % $ # $ # $ $ # $ # $ % % $ % # $ # # # # $ $ # $ % $ % % # $ $ $ # # $ $ % % % % # # $ # # # # $ $ # # $ $ gXfXdXdXfXgX# $ # gXfXdXdXdXdXdXdXdXdXdXdXdXdXdXdXdXdXdXdXdXdXdXdXdXfXgX# # # # $ $ # $ $ % # ",
"&X&X&X&X&X&X&X&X&X&X&X&X&X&X&X&X&X&X&X&X&X&X&X&X&X&X&X&X&XgXdXfXgX&X&XgXfXdXdXdXfXgX&X&X&XgXfXdXdX&X&X&X&X&X&X&X&X&X&XdXdXfXgX&X,X1X1X1X1X1X1X1X1X<X<X<X<X<X<X<X<X,X,X,X,X,X,X,X,X>X>X>X>X>X>X>X>X:X:X:X:X:X:X:X:X;X;X;X;X;X;X;X;X-X-X-X-X-X-X-X-X=X=X=X=X=X=X=X=X|.$ $ % $ $ $ $ % $ # # # # % % $ $ $ % # % $ % % % # % $ % % % $ % % % # % $ % $ # # % % # # # % $ % # % % $ $ # $ % $ $ % % % $ $ $ $ # $ % % $ $ % % % $ # # $ $ # % # % $ % # $ % # # $ # % # # # % $ $ $ $ $ % # $ % # # % # % % # % % % # % $ $ $ $ % # $ % % # $ $ % # % $ % $ % % $ % % gXfXdXdXfXgX$ # % gXfXdXdXdXdXdXdXdXdXdXdXdXdXdXdXdXdXdXdXdXdXdXdXdXfXgX$ $ % # $ # % % $ $ $ ",
"&X&X&X&X&X&X&X&X&X&X&X&X&X&X&X&X&X&X&X&X&X&X&X&X&X&X&X&X&XgXdXfXgX&X&XgXfXdXdXdXfXgX&X&X&XgXfXdXdX&X&X&X&X&X&X&X&X&X&XdXdXfXgX1X1X1X1X1X1X1X1X<X<X<X<X<X<X<X<X,X,X,X,X,X,X,X,X>X>X>X>X>X>X>X>X:X:X:X:X:X:X:X:X;X;X;X;X;X;X;X;X-X-X-X-X-X-X-X-X=X=X=X=X=X=X=X=X|.|.$ # % # % % % % & $ % # # % % # # % $ % $ $ $ # $ % $ $ % $ $ $ $ # # $ # $ % $ % $ $ % # $ $ % $ # # % $ $ $ $ % $ % % $ $ & $ $ # $ % $ % % % # % $ # $ $ % % $ % % % % % # $ % $ # $ $ % $ & % # % # $ $ $ % $ % % $ % % $ $ # % $ $ % % $ $ % % $ # $ $ # $ $ % $ $ % % # # $ % % $ % $ % % gXfXdXdXfXgX$ % $ gXfXdXdXdXdXdXdXdXdXdXdXdXdXdXdXdXdXdXdXdXdXdXdXdXfXgX$ $ $ $ $ % % # $ $ % ",
"|.|.|.|.|.|.|.|.|.|.|.|.|.|.|.|.|.|.|.|.|.|.|.|.|.|.|.|.|.gXdXfXgX|.|.gXfXdXdXdXfXgX|.|.|.gXfXdXdX|.|.|.|.|.|.|.|.|.|.dXdXfXgX|.|.|.|.|.|.|.|.|.|.|.|.|.|.|.|.|.|.|.|.|.|.|.|.|.|.|.|.|.|.|.|.|.|.|.|.|.|.|.|.|.|.|.|.|.|.|.|.|.|.|.|.|.|.|.|.|.|.|.|.|.|.|.|.$ & $ % % % $ $ $ # $ % % $ $ % $ & & % $ & % $ $ % % & & $ $ $ $ $ % $ # & $ $ $ $ $ $ $ % % % % # % % % % # $ $ $ $ $ % $ % $ $ $ % % & # % $ $ $ # $ $ % $ $ % $ $ $ & # # % % & $ % # $ & & & % % % $ % % % % % % $ $ $ & % $ % % & $ $ $ # $ $ % $ & # % & $ % $ $ % $ % # $ $ % % $ % & & % % gXfXdXdXfXgX# $ % gXfXdXdXdXdXdXdXdXdXdXdXdXdXdXdXdXdXdXdXdXdXdXdXdXfXgX$ % $ $ % % # $ $ $ & ",
"& $ % $ $ % % % $ $ $ % & & & & & $ $ % & $ % & & $ $ $ & gXdXfXgX% & gXfXdXdXdXfXgX$ % $ gXfXdXdX$ $ % % % $ $ % % $ dXdXfXgX% $ $ $ % & % $ $ & $ % % % & % $ & $ $ $ % % & $ $ $ $ % % & $ & $ % & % $ & % & $ & $ % % $ $ % % $ % $ % % $ % % $ & $ $ % & % % $ $ & $ $ % % % $ % % $ $ $ $ $ % $ $ % $ $ % $ % & % $ $ # # # # # # # # # # # # # # # # # # # # # # # # # # # # # # # # # # # # # # # # # # # # # # # # # # # # # # # # # # # # # # # # # # # # # # # # # # # # $ $ $ $ % $ % % & & & $ $ % % % % & $ $ $ % & & % % $ $ & % $ $ % % $ & $ $ $ gXfXdXdXfXgX$ & & gXfXdXdXdXdXdXdXdXdXdXdXdXdXdXdXdXdXdXdXdXdXdXdXdXfXgX$ % $ % $ % & % $ $ % ",
"$ & % % & % $ % & % $ $ $ & & & & % & % & % % & & % & $ & gXdXfXgX& & gXfXdXdXdXfXgX$ $ & gXfXdXdX$ $ $ % % % $ % $ & dXdXfXgX% & % % % $ $ % $ & % & $ $ & % & % % % % & $ $ % % & % % % % & & $ & % $ $ $ % % $ $ % % % % $ % % % $ & & $ $ & % & % % & & $ % % & % & % % % $ % % $ & & $ % % $ & % $ % % % & % $ # @ @ @ @ @ @ @ @ @ @ @ @ @ @ @ @ @ @ @ @ @ @ @ @ @ @ @ @ @ @ @ @ @ @ @ @ @ @ @ @ @ @ @ @ @ @ @ @ @ @ @ @ @ @ @ @ @ @ @ @ @ @ @ @ @ @ @ @ @ @ @ @ @ @ @ @ @ @ @ @ @ # $ $ & % & $ % $ % % $ & $ & & $ % $ % % % $ $ % $ % & & % $ & $ $ % % % gXfXdXdXfXgX$ & % gXfXdXdXdXdXdXdXdXdXdXdXdXdXdXdXdXdXdXdXdXdXdXdXdXfXgX& % % % & $ $ % % $ % ",
"% & % & $ % $ & % & % % % $ & % $ % % % % $ % $ $ & $ & $ gXdXfXgX$ & gXfXdXdXdXfXgX$ % & gXfXdXdX& % & % % $ % % $ % dXdXfXgX% % % & % % $ & % & $ & % % $ & & $ & $ % % $ & % % % $ $ & $ % % & & & $ % % % $ & % % % & & & & & % & % % $ & % $ $ % $ * $ & & $ $ % $ % % & % & $ * & $ & % % $ % $ % % % & & % & & $ % $ # # # # # # # # # # # # # # # # # # # # # # # # # # # # # # # # # # # # # # # # # # # # # # # # # # # # # # # # # # # # # # # # # # # # # # # # # # # # $ % % & & & & $ % & % $ % $ & & & & & * % & & & % & % $ & $ % % % $ $ % & & % gXfXdXdXfXgX& & $ gXfXdXdXdXdXdXdXdXdXdXdXdXdXdXdXdXdXdXdXdXdXdXdXdXfXgX$ % % & & & % % % % % ",
"gXgXgXgXgXgXgXgXgXgXgXgXgXgXgXgXgXgXgXgXgXgXgXgXgXgXgXgXgXgXdXfXgXgXgXgXfXdXdXdXfXgX% $ & gXfXdXdX% $ & & & % % % % & dXdXfXgX% % & & & $ * & * % % & & & % % & & $ & % % & * * & $ % & & & * & & * & $ % $ % % & $ % & $ $ % % * & % * & & * & $ & % $ % % & $ * & % % * % % * % & $ % & * & * & % & & % % & $ & & & & % $ % % & * % * & & % & * % % & % % & $ & & & % % % % $ % & & & % % % & & % $ % % & & & * & * & & % & $ $ % * & % & & & & & * & * * & % & % * % & & % % % & % & $ $ % % % % $ & % & % & & * & % % $ % * % % % & & * % % $ % & & % & & % & gXfXdXdXfXgX% & * gXfXdXdXdXdXdXdXdXdXdXdXdXdXdXdXdXdXdXdXdXdXdXdXdXfXgX% % * * & & % % & $ % ",
"fXfXfXfXfXfXfXfXfXfXfXfXfXfXfXfXfXfXfXfXfXfXfXfXfXfXfXfXfXgXdXfXgXfXfXgXfXdXdXdXfXgX% & % gXfXdXdX% & * % % * & & * % dXdXfXgX% & % % & & % % % & & & * * & % * % & & * & * % * * % & % % % % * & % * * & & & & % % & & & & % * % * & & % % * % % % * & * % & % * & % % % % & % % * % % & % & % * & * * & * & & & * & % & % % & % % & % & % % % & & % % * & % & * & % % & % & * * % & % * & & & % % * % % & % % * % * * * % % * % & % * & % * & % % * * & & * & * % & % % * & % & % & & & & % % & & % % & & % % * & & & % * % % % & & % % % & % & % % % * & % & & gXfXdXdXfXgX& % % gXfXdXdXdXdXdXdXdXdXdXdXdXdXdXdXdXdXdXdXdXdXdXdXdXfXgX% & & * * * * % & * % ",
"dXdXdXdXdXdXdXdXdXdXdXdXdXdXdXdXdXdXdXdXdXdXdXdXdXdXdXdXdXgXdXfXgXdXdXgXfXdXdXdXfXgX% * * gXfXdXdX& & % & % * & % % & dXdXfXgX% & * & * * * * * % * % % % * * & * * % % * * % % * % % & % % & & % & % & * & & * & & & * * % & * * & & * & & & * * & & % % % % % * & % % * * * & % % & & % & & * % % * % & % % & * & % * * * & & & % % & * & & % % & & % & & & & % & & % & & % * & & % & & & % & * % & * * * % & * & & % & % & & & * % * % % & * & * & & * % % % * & & * % & & & & % & & * & * * & & & * & & & * % * & * % % & & & * * * * * & & % & * * & * & & % gXfXdXdXfXgX% * * gXfXdXdXdXdXdXdXdXdXdXdXdXdXdXdXdXdXdXdXdXdXdXdXdXfXgX% & % & % % % & * & & ",
"dXdXdXdXdXdXdXdXdXdXdXdXdXdXdXdXdXdXdXdXdXdXdXdXdXdXdXdXdXgXdXfXgXdXdXgXfXdXdXdXfXgX% & * gXfXdXdXgXgXgXgXgXgXgXgXgXgXdXdXfXgX& * * & & % * * * * & * & * * & & * & & & * & & & % & % * & & * * & % & & & & * & * * % & % * * % * & & * * & * % * % * & * & * * % * * & * * & * * % * * & & & & & & & & & * % & * & & * & * & * & & % * % & & * & * * & & & * * & * % & * * & % & & % * * & % * & % & * % * * * & * % & * % & & % & * * & * * & & * * & * & * * & * % & * & & * & % & % * & & % & * & * * & % & * % * & * & & * % * * & & * & * * * & & & % * % * gXfXdXdXfXgX* & & gXfXdXdXdXdXdXdXdXdXdXdXdXdXdXdXdXdXdXdXdXdXdXdXdXfXgX* * & & * & % & & % & ",
"dXdXdXdXdXdXdXdXdXdXdXdXdXdXdXdXdXdXdXdXdXdXdXdXdXdXdXdXdXgXdXfXgXdXdXgXfXdXdXdXfXgX% & * gXfXdXdXdXdXdXdXdXdXdXdXdXdXdXdXfXgX& * & & & & * & * & & * * & % * = * * = & % * & * % = & & * & = & * * * % * & * * * & * * % * & & % & * & % & & & * * % * & & & & * * * * * * * & & * & & * * & & = = = & & * * & & % * * * & & & & & & * % % * & = & * % & & & & & * & & * * & & * * * & & & & * & & = = & * & & & & & & & * * & * & * & & = % & * = * & * & * * * % & & & * * % * = & * & = & * & & * & & & & % * & & % & & * & * & % * * = * & * & % * % = & & & gXfXdXdXfXgX* * * gXfXdXdXdXdXdXdXdXdXdXdXdXdXdXdXdXdXdXdXdXdXdXdXdXfXgX& * & * % & = & * = * ",
"fXfXfXfXfXfXfXfXfXfXfXfXfXfXfXfXfXfXfXfXfXfXfXfXfXfXfXfXfXgXdXfXgXfXfXgXfXdXdXdXfXgX& = & gXfXdXdXfXfXfXfXfXfXfXfXfXfXdXdXfXgX& = = * * * * * & & * * = * & * & = & * & = & & * * & * = * = * = * & * * & * * & = * * & & * * = * * & = & = & & * = = = = = = * & * * * * * & & & = & & = = & & * = & & & & = * & * * & * * = * * & & * * * & & & * * * = * & & = & = & * * & & * * = * & * * & * * * & = * * & & & & & & * & & & * * * * & * = = = & * * * * * = * * * & = * * & * = & * = & = & = * = * & * & * * = & & & & & * = * & & * & & = & * * & & & = * gXfXdXdXfXgX& & * gXfXdXdXdXdXdXdXdXdXdXdXdXdXdXdXdXdXdXdXdXdXdXdXdXfXgX* & * * = & & * & & & ",
"fXfXfXfXfXfXfXfXfXfXfXfXfXfXfXfXfXfXfXfXfXfXfXfXfXfXfXfXfXgXdXfXgXfXfXgXfXdXdXdXfXgX& & & gXfXdXdX& & * * * & & * * = dXdXfXgX& * * & & = & & = = = & & & = & * & & & & = * = & = * * * = & = * * & & = = * & & = * * & * & & * & * & & = & & = * & = = * * & * = * * & * = = & = & * * & * * * = & * & * * & = * * * & = * * = = & & * = * * & * * = = & & = * & = * & * = * & = & & = * * = = & & = * * = & & * & * * = * & & & & * & = * & & = * = & = & = = = & * = = * * = = & = & & & & * * * & * * & * & = = * = = = = * & & & * & = & & = * * = = = = * * gXfXdXdXfXgX* gXfXfXfXdXdXdXdXdXdXdXdXdXdXdXdXdXdXdXdXdXdXdXdXdXdXdXdXfXfXgX& & & & * & = * = ",
"& = * = = * = = = * = = = * = * * * = = = * = = & = * = = gXdXfXgX* = gXfXdXdXdXfXgX* = * gXfXdXdX= = * = = & = = * * dXdXfXgX= = = & = * = = & = = = * * & * * * * & * & & * & * & * * * = = & * = * = * = * * * & = * * & = & * * = * = * * = = * & = * & = = & & * * = & & * * * & * * * = = = & = & = & * * & * * & & & & * * * = = = = & & & * * * & * * * = = & * = = * & = * * * = = * * = * * = & * * = = = = = = = * = & & & * * = * * * & = = & * & * * & & = * * * = * = * = * = * * * * & * * * & * = = = & = = * * * & & * = = * = & * * * & * = = = gXfXdXdXfXgX= gXfXdXdXfXfXfXfXfXfXfXfXfXfXfXfXfXfXfXfXfXfXfXfXfXfXfXfXdXfXgX* = * & * = * = * ",
"= = * * = = & = = = - * = - & & - = * = * * - * = - * * = gXdXfXgX= = gXfXdXdXdXfXgX* & = gXfXdXdX& = * = * * * * * * dXdXfXgX* * & * & * = * * = * * * * = = = = * = * * * & & = = = = * - * = * = * * = & * * * * = * = = * = * * * * * = = * = = * & * * = = & & * * * * - * * & * * * = * * & * & = * & = * - = & * * & * * * * = * * * & = * = = * & * * = * * = - & * = = & = * * = * * * * - * = * * - * * * * = * * = * * = * * = & - = & = = * - = * = * = = = * = & - = * * * = - = * = = & - * * = * - & - = = - * * = * & = & = = = & - * = * = = - = gXfXdXdXfXgX* gXfXdXdXdXdXdXdXdXdXdXdXdXdXdXdXdXdXdXdXdXdXdXdXdXdXdXdXdXfXgX= = = = * - - * = ",
"gXgXgXgXgXgXgXgXgXgXgXgXgXgXgXgXgXgXgXgXgXgXgXgXgXgXgXgXgXgXdXfXgX* * gXfXdXdXdXfXgX= * = gXfXdXdX* * = - - = * = * * dXdXfXgX* * * * * = * * = = * - - = = = * * * * = * * = * - = * * - - * * * = * = * * = = = = * * - = = * = - = * * * * * * * - * = - * = - = - - * = = - = - * = * - - * = = = - = = - * * * * * - = = - - = * - * = = * - - - * * - - - = * = * = * - * * = - * = = = - = = = = * = * = = = * = * * * * * = * = - * = * - - = * * = = - = = * = = = * * - = - * = * = * = - = = = = - = = * - * = - = * = * - = * - * - = * * * * = * * - gXfXdXdXfXgX- gXfXdXdXdXdXdXdXdXdXdXdXdXdXdXdXdXdXdXdXdXdXdXdXdXdXdXdXdXfXgX* * - - * = = = * ",
"fXfXfXfXfXfXfXfXfXfXfXfXfXfXfXfXfXfXfXfXfXfXfXfXfXfXfXfXfXfXdXfXgX- = gXfXdXdXdXfXgX= = * gXfXdXdX- - * = = = = - - - dXdXfXgX* - * - - - - - = = - = = = - * * - = * * * * * - * * = = * * = = - * * * = - = = * = * - - = = = * * - - - * - * = * = - = * = - * - * = * * = * * = = = * * = * = * = = = * * = * = - - - * = * * * - - * * = - = = = = * = = = = - = * - - - - = - - * - * - * * - - = * * * = = = * = * = * * = * = - * * - * = - = = * - = * = * = = - * = - - - * * * * = * = - * * = - = * = - * * * = = = = = = = - - - * = - = * - * - = - gXfXdXdXfXgX= gXfXdXdXdXdXdXdXdXdXdXdXdXdXdXdXdXdXdXdXdXdXdXdXdXdXdXdXdXfXgX- = * - = - * - * ",
"dXdXdXdXdXdXdXdXdXdXdXdXdXdXdXdXdXdXdXdXdXdXdXdXdXdXdXdXdXdXdXfXgX= = gXfXdXdXdXfXgX- = = gXfXdXdX= - - - * * - - * = dXdXfXgX* = - - - = - - = - = * = = - = * = = = = = * = * - - - - * * - = * - = - = - = - - = = * * * = - - - - = * = = - = = - * - * = = = * = = - * * - - = = = * = = - * - - = - * * - * * - = = * - - = = * = - - = - = * = = = * * = = - - = * - = * = = * - - - - = = = - = = = * * = = * = = = = = = * - - - - = - = = = - - = - - * * - - - - - = - = * - = * - = = = = = = - = = = - * - = = - * = - = * = * = = - - - = - = - = = gXfXdXdXfXgX- gXfXdXdXdXdXdXdXdXdXdXdXdXdXdXdXdXdXdXdXdXdXdXdXdXdXdXdXdXfXgX- - * = - - - * = ",
"fXfXfXfXfXfXfXfXfXfXfXfXfXfXfXfXfXfXfXfXfXfXfXfXfXfXfXfXfXfXdXfXgX= - gXfXdXdXdXfXgX= ; - gXfXdXdX= = * - = - - = - * dXdXfXgX; - = - = - - ; - = = - * = - = - = - = = - - = = - - = = - - = = = - - - * = - - = - = = * - - - = ; - * - - = - = - = * - - = - - - = = - * * - - - - = = - = ; - - = = - = = - - - - = = - = - = - ; = - - = - ; = - - * = = ; = = - - = - - = = = - * = - - - = - - = ; = = = = - ; = * - = = - * = ; - - = = = = * * - = * = - = = - - * - - - * * = = - - = ; = - - = = * = = - - = = ; = ; - = - = = = - - - - ; - - - - = = gXfXdXdXfXgX- gXfXdXdXdXdXdXdXdXdXdXdXdXdXdXdXdXdXdXdXdXdXdXdXdXdXdXdXdXfXgX= = = * = = - * = ",
"= ; - = = ; - - = - = = - = = = ; = - = ; - - - ; = = = - gXdXfXgX; - gXfXdXdXdXfXgX= = = gXfXdXdXgXgXgXgXgXgXgXgXgXgXdXdXfXgX- ; = - * - = - - - - ; - = = ; - - ; ; = = ; - - = = = - - = - = ; = = ; - ; = = - = - = = - - = = ; = = - = = - - - - = ; - = = = - - - - - - ; = = = - = = - = - ; - = = - ; = - - = ; - = - - ; - = = = ; ; ; ; = = - ; - - = = = = ; = - - = = - ; - ; - = = = - - ; = = - ; = ; = - - - - - = = = = = = = = - = - = ; = - - = - - = ; - - = = - = ; - - - - = = - - = = - - = - = = = - ; - - ; - = - - = - = ; - - - ; - = = gXfXdXdXfXgX; gXfXdXdXdXdXdXdXdXdXdXdXdXdXdXdXdXdXdXdXdXdXdXdXdXdXdXdXdXfXgX- ; - = ; = - - - ",
"= ; - - - = - ; = ; - - - = ; ; - = ; = = = ; = ; = ; - = gXdXfXgX; = gXfXdXdXdXfXgX= ; = gXfXdXdXfXfXfXfXfXfXfXfXfXfXdXdXfXgX= - - - - - ; = - - - = ; ; = ; = - ; - - = - ; ; = - = - = - = ; - - - ; ; - - = - - = - = - - = = = - - ; = = - - = - - - - - - - - = = - = - = - - = - = - ; = - = - - ; = - - - = - - ; - - ; - - - ; - = - - ; - = - ; - - - ; = - - - ; - ; - = - - - ; - - ; ; = = - = = - - - ; ; ; - = ; - = - ; - ; - = ; = = = - ; - - - = - - ; - ; ; = - - - - - ; = ; = = ; - = = - ; ; = - - = ; ; - ; ; = = ; = - - ; - - ; ; - = - gXfXdXdXfXgX- gXfXdXdXdXdXdXdXdXdXdXdXdXdXdXdXdXdXdXdXdXdXdXdXdXdXdXdXdXfXgX; ; ; - - = - ; = ",
"; - - ; ; - - - = - ; - ; = ; = - - = ; - = - ; ; = ; = = gXdXfXgX; ; gXfXdXdXdXfXgX; = ; gXfXdXdXdXdXdXdXdXdXdXdXdXdXdXdXfXgX- ; - = = ; = = ; ; = - - - - ; = ; ; ; - ; ; = - - = - - = - - ; = - - = ; - ; ; - - = ; ; - = - - - - ; ; - - ; ; - - - ; ; - ; ; - ; - - - = ; - ; = ; ; ; ; ; - - ; - ; - - - - - ; - ; ; - ; - - = - ; ; - = ; - - ; - - ; - - ; - - ; ; ; = = ; ; ; = ; = - = ; ; = ; - = ; ; = = - ; - - ; - - - ; ; - - ; = = ; - - = - - ; - = - - = ; ; = ; = - ; ; = ; - ; - - ; ; = - - = - ; - = ; = = - ; - = ; - - - = - - ; ; - = - gXfXdXdXfXgX; gXfXdXdXdXdXdXdXdXdXdXdXdXdXdXdXdXdXdXdXdXdXdXdXdXdXdXdXdXfXgX; ; ; ; ; ; - ; - ",
"- ; = - ; - : ; - - ; : - : ; - ; ; : - = - : = ; - - - - gXdXfXgX- ; gXfXdXdXdXfXgX; - - gXfXdXdXdXdXdXdXdXdXdXdXdXdXdXdXfXgX- - - - - ; - ; - - ; ; ; = ; ; - - - ; ; ; - = - - - ; - - = - ; ; ; ; ; ; ; ; - - : - - ; ; - ; = - = ; = - - - - - - - - ; ; ; ; - : ; - - - - ; ; ; - : - - = - ; - - ; - ; ; - - = - - - ; - ; ; - ; - : - ; = - - - - : ; ; : - ; : - - - ; - ; ; ; ; ; - = - = ; - ; ; - : ; ; - : : - = : ; - ; - - - ; : ; - - = ; ; - = = ; ; ; : ; ; ; - - = - ; ; - - - - - - ; ; - - ; - ; ; ; = ; - - ; ; ; - - = - - ; ; - - : - - - gXfXdXdXfXgX- gXfXdXdXdXdXdXdXdXdXdXdXdXdXdXdXdXdXdXdXdXdXdXdXdXdXdXdXdXfXgX; ; ; ; : - ; - - ",
": - : - - - ; : ; ; - ; - - : : ; - ; : ; ; ; - : - - - ; gXdXfXgX- - gXfXdXdXdXfXgX; - - gXfXdXdXdXdXdXdXdXdXdXdXdXdXdXdXfXgX- - - - - : - : - ; ; : ; : ; ; : - ; ; - - - ; : - - : ; - ; - ; - ; - ; - : ; ; - - - - : - : - : ; - ; ; : - ; - - : - - : - - : - ; ; - - ; : ; ; - - ; : ; - - ; - ; ; ; - ; - : ; - ; ; - ; : - ; ; ; - - : - ; : - ; ; : - ; - - ; ; - - - : - : : : - ; - - ; - ; - : : - ; ; ; - ; - ; ; ; - ; - - - - - : - ; ; ; - ; : - - : : : - ; - - - : - ; ; - : ; - ; ; ; ; : : - ; ; - ; : - ; - ; : - ; - - : - - ; - - - ; - - gXfXdXdXfXgX; gXfXdXdXdXdXdXdXdXdXdXdXdXdXdXdXdXdXdXdXdXdXdXdXdXdXdXdXdXfXgX- ; - ; - - ; ; - ",
"- ; : ; : : - - ; : : ; : ; : ; ; : - ; ; : ; - - : : : ; gXdXfXgX; : gXfXdXdXdXfXgX- - - gXfXdXdXdXdXdXdXdXdXdXdXdXdXdXdXfXgX: - ; ; : ; - ; ; - : - - ; - ; : - ; : : : - : - ; - - : ; ; : ; ; - : - ; ; - : ; - - ; : : - ; - : ; ; - ; ; ; - - : ; ; - ; - ; - ; ; : : - - : - - : ; - : ; - ; - ; - - : ; - - - ; ; - - - ; : : ; - : - - : - : ; ; : : : : ; : - : : ; ; - ; : - ; - : : ; ; - ; : - ; ; - : ; - ; - - ; ; : ; - - ; ; ; - ; - ; ; ; : : : - : ; ; - : ; ; ; ; - : - ; - ; ; - ; - : ; ; - : ; - - - - - - ; - ; - - ; - : - ; - : ; ; ; : gXfXdXdXfXgX; gXfXdXdXdXdXdXdXdXdXdXdXdXdXdXdXdXdXdXdXdXdXdXdXdXdXdXdXdXfXgX; ; ; - - : ; : ; ",
": ; : ; ; - : ; : ; ; - : ; : : : : - ; : ; ; ; ; ; ; : : gXdXfXgX- : gXfXdXdXdXfXgX- ; ; gXfXdXdXdXdXdXdXdXdXdXdXdXdXdXdXfXgX: ; : ; : ; : : : ; - ; : ; ; : ; - - : - - - : ; : : ; ; : : - : ; : - - ; : ; - : - ; ; : - : : : - - : ; - ; ; - - ; : - ; : : : ; : ; : - : ; : ; ; ; ; : : : : - ; ; - ; - ; : : ; ; ; ; ; : : - : ; ; : ; ; - ; - ; : : : - ; ; ; - ; ; : : - : ; : : ; ; ; ; - : : : ; ; ; ; : ; : - ; : - : : ; : ; - ; ; ; ; - : ; : ; ; - ; - ; ; ; : : : : ; - : - : ; : ; - : ; ; ; ; : ; : ; : ; ; ; - - : : : ; : : : : ; : : ; - ; ; gXfXdXdXfXgX; gXfXdXdXdXdXdXdXdXdXdXdXdXdXdXdXdXdXdXdXdXdXdXdXdXdXdXdXdXfXgX; ; : - : : ; : ; ",
": ; ; : : ; : - - : : ; : ; ; : ; : ; ; : ; : : - ; ; ; ; gXdXfXgX: ; gXfXdXdXdXfXgX; ; ; gXfXdXdXdXdXdXdXdXdXdXdXdXdXdXdXfXgX; : ; : ; ; ; : : ; : : : : ; ; ; ; : - - : - ; : : ; ; ; : : ; : : : : - - - ; : ; ; : : : ; ; ; ; : ; : : : : - : : ; : : ; : : - ; ; : ; ; : ; ; : : : - : ; ; : ; ; : ; ; : : : : : : : - : ; : : ; ; - ; : : : ; ; : - : ; : : : - - ; ; - : : ; ; : ; : ; : : ; ; ; - - : ; ; ; ; : ; : : : ; : ; ; ; : : ; : ; ; : : ; ; ; : : - : : ; ; ; ; ; ; : - ; : : : ; ; : : ; - : : : ; : ; ; : - ; : : : : : : : : : - : : : : : : gXfXdXdXfXgX: gXfXdXdXdXdXdXdXdXdXdXdXdXdXdXdXdXdXdXdXdXdXdXdXdXdXdXdXdXfXgX: ; ; : ; : : ; : ",
"; : ; : ; : : : : : ; : ; : : ; ; - : : : ; : : ; : : : : gXdXfXgX: ; gXfXdXdXdXfXgX; ; : gXfXdXdXdXdXdXdXdXdXdXdXdXdXdXdXfXgX: : : ; ; : : ; ; ; : : ; ; : ; ; : : : : ; ; ; ; : : : : ; ; : : : : : : ; ; ; ; : : ; : : : : ; ; ; ; : ; ; : : : ; : : : : : : : : ; ; ; : ; ; : ; ; : : : ; : : : ; : : ; : : : : ; ; ; ; : : ; ; : : ; : ; : ; : : : : ; : : : : : ; : ; : : : : : : : : ; ; ; : : : ; ; : : : : ; : : : ; : : ; ; ; : : ; ; : ; ; : ; ; : ; : ; ; : ; : : : : ; ; : ; ; ; : : : ; : ; ; ; : ; : ; : ; ; ; : ; : : : : : ; : : ; ; ; ; : ; ; : gXfXdXdXfXgX; gXfXdXdXdXdXdXdXdXdXdXdXdXdXdXdXdXdXdXdXdXdXdXdXdXdXdXdXdXfXgX: : ; : ; : : : : ",
": : : : ; ; ; : : : ; : : : : : : : ; ; : : ; : : : : ; : gXdXfXgX: : gXfXdXdXdXfXgX: : : gXfXdXdXdXdXdXdXdXdXdXdXdXdXdXdXfXgX: : : ; ; ; : ; : : : ; ; ; : : : : : : : : : : : : : : : ; : : : ; ; : ; : : : : : : : ; : : : ; : ; : ; : : : : ; : ; : ; : : : : : ; : : : : : : : ; ; : ; ; ; ; ; : : : ; ; ; : : ; ; ; ; ; : : : : : ; : : ; : : ; ; : : : : : : : : ; : : : ; : : ; : : ; : : : ; : ; : : : ; ; : : : : : : ; : : : : : ; ; : : : : ; ; : : : : ; : : ; : : ; : ; : : : : ; ; : : : : : ; : : : ; : : : ; : ; : : : : : ; : : : ; : ; ; : ; : gXfXdXdXfXgX; gXfXdXdXdXdXdXdXdXdXdXdXdXdXdXdXdXdXdXdXdXdXdXdXdXdXdXdXdXfXgX; ; : ; ; : : : : ",
"; : : ; ; ; : : : : : : : : : : : : : : : : : : : : ; ; : gXdXfXgX; : gXfXdXdXdXfXgX; : : gXfXdXdXdXdXdXdXdXdXdXdXdXdXdXdXfXgX: ; : : : : : : : : ; : : : : : : : : : : : : ; : : : : : : : : ; ; : : : ; : : : ; : : : : : : ; : : : ; : ; : : : : : : : : : : : ; ; : : ; : : : : : : : : : : : ; : ; : : ; : : : : : : : ; : : : ; ; ; : : ; : : ; : : : : : : : : : : ; : ; : : ; : : : : ; ; : ; : ; : : : : ; : : : : : : : : : ; : : : : ; : : : : ; : : : ; ; : : : : : : : : : : : ; : : : : : : : : : ; : ; : : : : : : ; : ; : : : : ; : ; : : : : : : gXfXdXdXfXgX: gXfXdXdXdXdXdXdXdXdXdXdXdXdXdXdXdXdXdXdXdXdXdXdXdXdXdXdXdXfXgX: : : : : : : : : ",
": : ; : : : : : : : : : ; : : : : : : : : : : : : : ; : ; gXdXfXgX: : gXfXdXdXdXfXgX: : : gXfXdXdXdXdXdXdXdXdXdXdXdXdXdXdXfXgX: : : : : : : : ; : : ; : : : : : ; : ; : : : : : : : : : : : : : : : : : : ; : : : : : : : : : : : : : ; : : : : : : : : : : : ; : : : : : : ; : : ; ; : : : : : : : : : : : : : ; : : : ; : : : : ; : : : : : ; : : : : : : : : ; : : : : : : : : : ; : : : : : : : : : : : : : : : : : : : : : : : : : : : ; : : : : ; : : ; : ; ; : ; : : : : : : ; : : : : : : : : : : ; : : : ; : : : : : : : : ; : : ; : : : : : : : : : : : gXfXdXdXfXgX: gXfXdXdXdXdXdXdXdXdXdXdXdXdXdXdXdXdXdXdXdXdXdXdXdXdXdXdXdXfXgX: : : : : ; : : : ",
"+ + + + + + + + + + + + + + + + + + + + + + + + + + + + + + + + + + + + + + + + + + + + + + + + + + + + + + + + + + + + + + + + + + + + + + + + + + + + + + + + + + + + + + + + + + + + + + + + + + + + + + + + + + + + + + + + + + + + + + + + + + + + + + + + + + + + + + + + + + + + + + + + + + + + + + + + + + + + + + + + + + + + + + + + + + + + + + + + + + + + + + + + + + + + + + + + + + + + + + + + + + + + + + + + + + + + + + + + + + + + + + + + + + + + + + + + + + + + + + + + + + + + + + + + + + + + + + + + + + + + + + + + + + + + + + + + + + + + + + + + + + + + + + + + + + + + + + + + + + + + + + + + + + + + + + + + + + + + + + + + ",
"+ + + + + + + + + + + + + + + + + + + + + + + + + + + + + + + + + + + + + + + + + + + + + + + + + + + + + + + + + + + + + + + + + + + + + + + + + + + + + + + + + + + + + + + + + + + + + + + + + + + + + + + + + + + + + + + + + + + + + + + + + + + + + + + + + + + + + + + + + + + + + + + + + + + + + + + + + + + + + + + + + + + + + + + + + + + + + + + + + + + + + + + + + + + + + + + + + + + + + + + + + + + + + + + + + + + + + + + + + + + + + + + + + + + + + + + + + + + + + + + + + + + + + + + + + + + + + + + + + + + + + + + + + + + + + + + + + + + + + + + + + + + + + + + + + + + + + + + + + + + + + + + + + + + + + + + + + + + + + + + + ",
"+ + + + + + + + + + + + + + + + + + + + + + + + + + + + + + + + + + + + + + + + + + + + + + + + + + + + + + + + + + + + + + + + + + + + + + + + + + + + + + + + + + + + + + + + + + + + + + + + + + + + + + + + + + + + + + + + + + + + + + + + + + + + + + + + + + + + + + + + + + + + + + + + + + + + + + + + + + + + + + + + + + + + + + + + + + + + + + + + + + + + + + + + + + + + + + + + + + + + + + + + + + + + + + + + + + + + + + + + + + + + + + + + + + + + + + + + + + + + + + + + + + + + + + + + + + + + + + + + + + + + + + + + + + + + + + + + + + + + + + + + + + + + + + + + + + + + + + + + + + + + + + + + + + + + + + + + + + + + + + + + ",
"+ + + + + + + + + + + + + + + + + + + + + + + + + + + + + + + + + + + + + + + + + + + + + + + + + + + + + + + + + + + + + + + + + + + + + + + + + + + + + + + + + + + + + + + + + + + + + + + + + + + + + + + + + + + + + + + + + + + + + + + + + + + + + + + + + + + + + + + + + + + + + + + + + + + + + + + + + + + + + + + + + + + + + + + + + + + + + + + + + + + + + + + + + + + + + + + + + + + + + + + + + + + + + + + + + + + + + + + + + + + + + + + + + + + + + + + + + + + + + + + + + + + + + + + + + + + + + + + + + + + + + + + + + + + + + + + + + + + + + + + + + + + + + + + + + + + + + + + + + + + + + + + + + + + + + + + + + + + + + + + + ",
"+ + + + + + + + + + + + + + + + + + + + + + + + + + + + + + + + + + + + + + + + + + + + + + + + + + + + + + + + + + + + + + + + + + + + + + + + + + + + + + + + + + + + + + + + + + + + + + + + + + + + + + + + + + + + + + + + + + + + + + + + + + + + + + + + + + + + + + + + + + + + + + + + + + + + + + + + + + + + + + + + + + + + + + + + + + + + + + + + + + + + + + + + + + + + + + + + + + + + + + + + + + + + + + + + + + + + + + + + + + + + + + + + + + + + + + + + + + + + + + + + + + + + + + + + + + + + + + + + + + + + + + + + + + + + + + + + + + + + + + + + + + + + + + + + + + + + + + + + + + + + + + + + + + + + + + + + + + + + + + + + ",
"+ + + + + + + + + + + + + + + + + + + + + + + + + + + + + + + + + + + + + + + + + + + + + + + + + + + + + + + + + + + + + + + + + + + + + + + + + + + + + + + + + + + + + + + + + + + + + + + + + + + + + + + + + + + + + + + + + + + + + + + + + + + + + + + + + + + + + + + + + + + + + + + + + + + + + + + + + + + + + + + + + + + + + + + + + + + + + + + + + + + + + + + + + + + + + + + + + + + + + + + + + + + + + + + + + + + + + + + + + + + + + + + + + + + + + + + + + + + + + + + + + + + + + + + + + + + + + + + + + + + + + + + + + + + + + + + + + + + + + + + + + + + + + + + + + + + + + + + + + + + + + + + + + + + + + + + + + + + + + + + + ",
"+ + + + + + + + + + + + + + + + + + + + + + + + + + + + + + + + + + + + + + + + + + + + + + + + + + + + + + + + + + + + + + + + + + + + + + + + + + + + + + + + + + + + + + + + + + + + + + + + + + + + + + + + + + + + + + + + + + + + + + + + + + + + + + + + + + + + + + + + + + + + + + + + + + + + + + + + + + + + + + + + + + + + + + + + + + + + + + + + + + + + + + + + + + + + + + + + + + + + + + + + + + + + + + + + + + + + + + + + + + + + + + + + + + + + + + + + + + + + + + + + + + + + + + + + + + + + + + + + + + + + + + + + + + + + + + + + + + + + + + + + + + + + + + + + + + + + + + + + + + + + + + + + + + + + + + + + + + + + + + + + ",
"+ + + + + + + + + + + + + + + + + + + + + + + + + + + + + + + + + + + + + + + + + + + + + + + + + + + + + + + + + + + + + + + + + + + + + + + + + + + + + + + + + + + + + + + + + + + + + + + + + + + + + + + + + + + + + + + + + + + + + + + + + + + + + + + + + + + + + + + + + + + + + + + + + + + + + + + + + + + + + + + + + + + + + + + + + + + + + + + + + + + + + + + + + + + + + + + + + + + + + + + + + + + + + + + + + + + + + + + + + + + + + + + + + + + + + + + + + + + + + + + + + + + + + + + + + + + + + + + + + + + + + + + + + + + + + + + + + + + + + + + + + + + + + + + + + + + + + + + + + + + + + + + + + + + + + + + + + + + + + + + + ",
"+ + + + + + + + + + + + + + + + + + + + + + + + + + + + + + + + + + + + + + + + + + + + + + + + + + + + + + + + + + + + + + + + + + + + + + + + + + + + + + + + + + + + + + + + + + + + + + + + + + + + + + + + + + + + + + + + + + + + + + + + + + + + + + + + + + + + + + + + + + + + + + + + + + + + + + + + + + + + + + + + + + + + + + + + + + + + + + + + + + + + + + + + + + + + + + + + + + + + + + + + + + + + + + + + + + + + + + + + + + + + + + + + + + + + + + + + + + + + + + + + + + + + + + + + + + + + + + + + + + + + + + + + + + + + + + + + + + + + + + + + + + + + + + + + + + + + + + + + + + + + + + + + + + + + + + + + + + + + + + + + ",
"+ + + + + + + + + + + + + + + + + + + + + + + + + + + + + + + + + + + + + + + + + + + + + + + + + + + + + + + + + + + + + + + + + + + + + + + + + + + + + + + + + + + + + + + + + + + + + + + + + + + + + + + + + + + + + + + + + + + + + + + + + + + + + + + + + + + + + + + + + + + + + + + + + + + + + + + + + + + + + + + + + + + + + + + + + + + + + + + + + + + + + + + + + + + + + + + + + + + + + + + + + + + + + + + + + + + + + + + + + + + + + + + + + + + + + + + + + + + + + + + + + + + + + + + + + + + + + + + + + + + + + + + + + + + + + + + + + + + + + + + + + + + + + + + + + + + + + + + + + + + + + + + + + + + + + + + + + + + + + + + + ",
"+ + + + + + + + + + + + + + + + + + + + + + + + + + + + + + + + + + + + + + + + + + + + + + + + + + + + + + + + + + + + + + + + + + + + + + + + + + + + + + + + + + + + + + + + + + + + + + + + + + + + + + + + + + + + + + + + + + + + + + + + + + + + + + + + + + + + + + + + + + + + + + + + + + + + + + + + + + + + + + + + + + + + + + + + + + + + + + + + + + + + + + + + + + + + + + + + + + + + + + + + + + + + + + + + + + + + + + + + + + + + + + + + + + + + + + + + + + + + + + + + + + + + + + + + + + + + + + + + + + + + + + + + + + + + + + + + + + + + + + + + + + + + + + + + + + + + + + + + + + + + + + + + + + + + + + + + + + + + + + + + ",
"+ + + + + + + + + + + + + + + + + + + + + + + + + + + + + + + + + + + + + + + + + + + + + + + + + + + + + + + + + + + + + + + + + + + + + + + + + + + + + + + + + + + + + + + + + + + + + + + + + + + + + + + + + + + + + + + + + + + + + + + + + + + + + + + + + + + + + + + + + + + + + + + + + + + + + + + + + + + + + + + + + + + + + + + + + + + + + + + + + + + + + + + + + + + + + + + + + + + + + + + + + + + + + + + + + + + + + + + + + + + + + + + + + + + + + + + + + + + + + + + + + + + + + + + + + + + + + + + + + + + + + + + + + + + + + + + + + + + + + + + + + + + + + + + + + + + + + + + + + + + + + + + + + + + + + + + + + + + + + + + + ",
"+ + + + + + + + + + + + + + + + + + + + + + + + + + + + + + + + + + + + + + + + + + + + + + + + + + + + + + + + + + + + + + + + + + + + + + + + + + + + + + + + + + + + + + + + + + + + + + + + + + + + + + + + + + + + + + + + + + + + + + + + + + + + + + + + + + + + + + + + + + + + + + + + + + + + + + + + + + + + + + + + + + + + + + + + + + + + + + + + + + + + + + + + + + + + + + + + + + + + + + + + + + + + + + + + + + + + + + + + + + + + + + + + + + + + + + + + + + + + + + + + + + + + + + + + + + + + + + + + + + + + + + + + + + + + + + + + + + + + + + + + + + + + + + + + + + + + + + + + + + + + + + + + + + + + + + + + + + + + + + + + ",
"+ + + + + + + + + + + + + + + + + + + + + + + + + + + + + + + + + + + + + + + + + + + + + + + + + + + + + + + + + + + + + + + + + + + + + + + + + + + + + + + + + + + + + + + + + + + + + + + + + + + + + + + + + + + + + + + + + + + + + + + + + + + + + + + + + + + + + + + + + + + + + + + + + + + + + + + + + + + + + + + + + + + + + + + + + + + + + + + + + + + + + + + + + + + + + + + + + + + + + + + + + + + + + + + + + + + + + + + + + + + + + + + + + + + + + + + + + + + + + + + + + + + + + + + + + + + + + + + + + + + + + + + + + + + + + + + + + + + + + + + + + + + + + + + + + + + + + + + + + + + + + + + + + + + + + + + + + + + + + + + + ",
"+ + + + + + + + + + + + + + + + + + + + + + + + + + + + + + + + + + + + + + + + + + + + + + + + + + + + + + + + + + + + + + + + + + + + + + + + + + + + + + + + + + + + + + + + + + + + + + + + + + + + + + + + + + + + + + + + + + + + + + + + + + + + + + + + + + + + + + + + + + + + + + + + + + + + + + + + + + + + + + + + + + + + + + + + + + + + + + + + + + + + + + + + + + + + + + + + + + + + + + + + + + + + + + + + + + + + + + + + + + + + + + + + + + + + + + + + + + + + + + + + + + + + + + + + + + + + + + + + + + + + + + + + + + + + + + + + + + + + + + + + + + + + + + + + + + + + + + + + + + + + + + + + + + + + + + + + + + + + + + + + ",
"+ + + + + + + + + + + + + + + + + + + + + + + + + + + + + + + + + + + + + + + + + + + + + + + + + + + + + + + + + + + + + + + + + + + + + + + + + + + + + + + + + + + + + + + + + + + + + + + + + + + + + + + + + + + + + + + + + + + + + + + + + + + + + + + + + + + + + + + + + + + + + + + + + + + + + + + + + + + + + + + + + + + + + + + + + + + + + + + + + + + + + + + + + + + + + + + + + + + + + + + + + + + + + + + + + + + + + + + + + + + + + + + + + + + + + + + + + + + + + + + + + + + + + + + + + + + + + + + + + + + + + + + + + + + + + + + + + + + + + + + + + + + + + + + + + + + + + + + + + + + + + + + + + + + + + + + + + + + + + + + + ",
"+ + + + + + + + + + + + + + + + + + + + + + + + + + + + + + + + + + + + + + + + + + + + + + + + + + + + + + + + + + + + + + + + + + + + + + + + + + + + + + + + + + + + + + + + + + + + + + + + + + + + + + + + + + + + + + + + + + + + + + + + + + + + + + + + + + + + + + + + + + + + + + + + + + + + + + + + + + + + + + + + + + + + + + + + + + + + + + + + + + + + + + + + + + + + + + + + + + + + + + + + + + + + + + + + + + + + + + + + + + + + + + + + + + + + + + + + + + + + + + + + + + + + + + + + + + + + + + + + + + + + + + + + + + + + + + + + + + + + + + + + + + + + + + + + + + + + + + + + + + + + + + + + + + + + + + + + + + + + + + + + ",
"+ + + + + + + + + + + + + + + + + + + + + + + + + + + + + + + + + + + + + + + + + + + + + + + + + + + + + + + + + + + + + + + + + + + + + + + + + + + + + + + + + + + + + + + + + + + + + + + + + + + + + + + + + + + + + + + + + + + + + + + + + + + + + + + + + + + + + + + + + + + + + + + + + + + + + + + + + + + + + + + + + + + + + + + + + + + + + + + + + + + + + + + + + + + + + + + + + + + + + + + + + + + + + + + + + + + + + + + + + + + + + + + + + + + + + + + + + + + + + + + + + + + + + + + + + + + + + + + + + + + + + + + + + + + + + + + + + + + + + + + + + + + + + + + + + + + + + + + + + + + + + + + + + + + + + + + + + + + + + + + + ",
"+ + + + + + + + + + + + + + + + + + + + + + + + + + + + + + + + + + + + + + + + + + + + + + + + + + + + + + + + + + + + + + + + + + + + + + + + + + + + + + + + + + + + + + + + + + + + + + + + + + + + + + + + + + + + + + + + + + + + + + + + + + + + + + + + + + + + + + + + + + + + + + + + + + + + + + + + + + + + + + + + + + + + + + + + + + + + + + + + + + + + + + + + + + + + + + + + + + + + + + + + + + + + + + + + + + + + + + + + + + + + + + + + + + + + + + + + + + + + + + + + + + + + + + + + + + + + + + + + + + + + + + + + + + + + + + + + + + + + + + + + + + + + + + + + + + + + + + + + + + + + + + + + + + + + + + + + + + + + + + + + ",
"+ + + + + + + + + + + + + + + + + + + + + + + + + + + + + + + + + + + + + + + + + + + + + + + + + + + + + + + + + + + + + + + + + + + + + + + + + + + + + + + + + + + + + + + + + + + + + + + + + + + + + + + + + + + + + + + + + + + + + + + + + + + + + + + + + + + + + + + + + + + + + + + + + + + + + + + + + + + + + + + + + + + + + + + + + + + + + + + + + + + + + + + + + + + + + + + + + + + + + + + + + + + + + + + + + + + + + + + + + + + + + + + + + + + + + + + + + + + + + + + + + + + + + + + + + + + + + + + + + + + + + + + + + + + + + + + + + + + + + + + + + + + + + + + + + + + + + + + + + + + + + + + + + + + + + + + + + + + + + + + + ",
"+ + + + + + + + + + + + + + + + + + + + + + + + + + + + + + + + + + + + + + + + + + + + + + + + + + + + + + + + + + + + + + + + + + + + + + + + + + + + + + + + + + + + + + + + + + + + + + + + + + + + + + + + + + + + + + + + + + + + + + + + + + + + + + + + + + + + + + + + + + + + + + + + + + + + + + + + + + + + + + + + + + + + + + + + + + + + + + + + + + + + + + + + + + + + + + + + + + + + + + + + + + + + + + + + + + + + + + + + + + + + + + + + + + + + + + + + + + + + + + + + + + + + + + + + + + + + + + + + + + + + + + + + + + + + + + + + + + + + + + + + + + + + + + + + + + + + + + + + + + + + + + + + + + + + + + + + + + + + + + + + ",
"+ + + + + + + + + + + + + + + + + + + + + + + + + + + + + + + + + + + + + + + + + + + + + + + + + + + + + + + + + + + + + + + + + + + + + + + + + + + + + + + + + + + + + + + + + + + + + + + + + + + + + + + + + + + + + + + + + + + + + + + + + + + + + + + + + + + + + + + + + + + + + + + + + + + + + + + + + + + + + + + + + + + + + + + + + + + + + + + + + + + + + + + + + + + + + + + + + + + + + + + + + + + + + + + + + + + + + + + + + + + + + + + + + + + + + + + + + + + + + + + + + + + + + + + + + + + + + + + + + + + + + + + + + + + + + + + + + + + + + + + + + + + + + + + + + + + + + + + + + + + + + + + + + + + + + + + + + + + + + + + + ",
"+ + + + + + + + + + + + + + + + + + + + + + + + + + + + + + + + + + + + + + + + + + + + + + + + + + + + + + + + + + + + + + + + + + + + + + + + + + + + + + + + + + + + + + + + + + + + + + + + + + + + + + + + + + + + + + + + + + + + + + + + + + + + + + + + + + + + + + + + + + + + + + + + + + + + + + + + + + + + + + + + + + + + + + + + + + + + + + + + + + + + + + + + + + + + + + + + + + + + + + + + + + + + + + + + + + + + + + + + + + + + + + + + + + + + + + + + + + + + + + + + + + + + + + + + + + + + + + + + + + + + + + + + + + + + + + + + + + + + + + + + + + + + + + + + + + + + + + + + + + + + + + + + + + + + + + + + + + + + + + + + ",
"+ + + + + + + + + + + + + + + + + + + + + + + + + + + + + + + + + + + + + + + + + + + + + + + + + + + + + + + + + + + + + + + + + + + + + + + + + + + + + + + + + + + + + + + + + + + + + + + + + + + + + + + + + + + + + + + + + + + + + + + + + + + + + + + + + + + + + + + + + + + + + + + + + + + + + + + + + + + + + + + + + + + + + + + + + + + + + + + + + + + + + + + + + + + + + + + + + + + + + + + + + + + + + + + + + + + + + + + + + + + + + + + + + + + + + + + + + + + + + + + + + + + + + + + + + + + + + + + + + + + + + + + + + + + + + + + + + + + + + + + + + + + + + + + + + + + + + + + + + + + + + + + + + + + + + + + + + + + + + + + + ",
"+ + + + + + + + + + + + + + + + + + + + + + + + + + + + + + + + + + + + + + + + + + + + + + + + + + + + + + + + + + + + + + + + + + + + + + + + + + + + + + + + + + + + + + + + + + + + + + + + + + + + + + + + + + + + + + + + + + + + + + + + + + + + + + + + + + + + + + + + + + + + + + + + + + + + + + + + + + + + + + + + + + + + + + + + + + + + + + + + + + + + + + + + + + + + + + + + + + + + + + + + + + + + + + + + + + + + + + + + + + + + + + + + + + + + + + + + + + + + + + + + + + + + + + + + + + + + + + + + + + + + + + + + + + + + + + + + + + + + + + + + + + + + + + + + + + + + + + + + + + + + + + + + + + + + + + + + + + + + + + + + ",
"+ + + + + + + + + + + + + + + + + + + + + + + + + + + + + + + + + + + + + + + + + + + + + + + + + + + + + + + + + + + + + + + + + + + + + + + + + + + + + + + + + + + + + + + + + + + + + + + + + + + + + + + + + + + + + + + + + + + + + + + + + + + + + + + + + + + + + + + + + + + + + + + + + + + + + + + + + + + + + + + + + + + + + + + + + + + + + + + + + + + + + + + + + + + + + + + + + + + + + + + + + + + + + + + + + + + + + + + + + + + + + + + + + + + + + + + + + + + + + + + + + + + + + + + + + + + + + + + + + + + + + + + + + + + + + + + + + + + + + + + + + + + + + + + + + + + + + + + + + + + + + + + + + + + + + + + + + + + + + + + + ",
"+ + + + + + + + + + + + + + + + + + + + + + + + + + + + + + + + + + + + + + + + + + + + + + + + + + + + + + + + + + + + + + + + + + + + + + + + + + + + + + + + + + + + + + + + + + + + + + + + + + + + + + + + + + + + + + + + + + + + + + + + + + + + + + + + + + + + + + + + + + + + + + + + + + + + + + + + + + + + + + + + + + + + + + + + + + + + + + + + + + + + + + + + + + + + + + + + + + + + + + + + + + + + + + + + + + + + + + + + + + + + + + + + + + + + + + + + + + + + + + + + + + + + + + + + + + + + + + + + + + + + + + + + + + + + + + + + + + + + + + + + + + + + + + + + + + + + + + + + + + + + + + + + + + + + + + + + + + + + + + + + ",
"+ + + + + + + + + + + + + + + + + + + + + + + + + + + + + + + + + + + + + + + + + + + + + + + + + + + + + + + + + + + + + + + + + + + + + + + + + + + + + + + + + + + + + + + + + + + + + + + + + + + + + + + + + + + + + + + + + + + + + + + + + + + + + + + + + + + + + + + + + + + + + + + + + + + + + + + + + + + + + + + + + + + + + + + + + + + + + + + + + + + + + + + + + + + + + + + + + + + + + + + + + + + + + + + + + + + + + + + + + + + + + + + + + + + + + + + + + + + + + + + + + + + + + + + + + + + + + + + + + + + + + + + + + + + + + + + + + + + + + + + + + + + + + + + + + + + + + + + + + + + + + + + + + + + + + + + + + + + + + + + + ",
"+ + + + + + + + + + + + + + + + + + + + + + + + + + + + + + + + + + + + + + + + + + + + + + + + + + + + + + + + + + + + + + + + + + + + + + + + + + + + + + + + + + + + + + + + + + + + + + + + + + + + + + + + + + + + + + + + + + + + + + + + + + + + + + + + + + + + + + + + + + + + + + + + + + + + + + + + + + + + + + + + + + + + + + + + + + + + + + + + + + + + + + + + + + + + + + + + + + + + + + + + + + + + + + + + + + + + + + + + + + + + + + + + + + + + + + + + + + + + + + + + + + + + + + + + + + + + + + + + + + + + + + + + + + + + + + + + + + + + + + + + + + + + + + + + + + + + + + + + + + + + + + + + + + + + + + + + + + + + + + + + ",
"+ + + + + + + + + + + + + + + + + + + + + + + + + + + + + + + + + + + + + + + + + + + + + + + + + + + + + + + + + + + + + + + + + + + + + + + + + + + + + + + + + + + + + + + + + + + + + + + + + + + + + + + + + + + + + + + + + + + + + + + + + + + + + + + + + + + + + + + + + + + + + + + + + + + + + + + + + + + + + + + + + + + + + + + + + + + + + + + + + + + + + + + + + + + + + + + + + + + + + + + + + + + + + + + + + + + + + + + + + + + + + + + + + + + + + + + + + + + + + + + + + + + + + + + + + + + + + + + + + + + + + + + + + + + + + + + + + + + + + + + + + + + + + + + + + + + + + + + + + + + + + + + + + + + + + + + + + + + + + + + + ",
"+ + + + + + + + + + + + + + + + + + + + + + + + + + + + + + + + + + + + + + + + + + + + + + + + + + + + + + + + + + + + + + + + + + + + + + + + + + + + + + + + + + + + + + + + + + + + + + + + + + + + + + + + + + + + + + + + + + + + + + + + + + + + + + + + + + + + + + + + + + + + + + + + + + + + + + + + + + + + + + + + + + + + + + + + + + + + + + + + + + + + + + + + + + + + + + + + + + + + + + + + + + + + + + + + + + + + + + + + + + + + + + + + + + + + + + + + + + + + + + + + + + + + + + + + + + + + + + + + + + + + + + + + + + + + + + + + + + + + + + + + + + + + + + + + + + + + + + + + + + + + + + + + + + + + + + + + + + + + + + + + ",
"+ + + + + + + + + + + + + + + + + + + + + + + + + + + + + + + + + + + + + + + + + + + + + + + + + + + + + + + + + + + + + + + + + + + + + + + + + + + + + + + + + + + + + + + + + + + + + + + + + + + + + + + + + + + + + + + + + + + + + + + + + + + + + + + + + + + + + + + + + + + + + + + + + + + + + + + + + + + + + + + + + + + + + + + + + + + + + + + + + + + + + + + + + + + + + + + + + + + + + + + + + + + + + + + + + + + + + + + + + + + + + + + + + + + + + + + + + + + + + + + + + + + + + + + + + + + + + + + + + + + + + + + + + + + + + + + + + + + + + + + + + + + + + + + + + + + + + + + + + + + + + + + + + + + + + + + + + + + + + + + + ",
"+ + + + + + + + + + + + + + + + + + + + + + + + + + + + + + + + + + + + + + + + + + + + + + + + + + + + + + + + + + + + + + + + + + + + + + + + + + + + + + + + + + + + + + + + + + + + + + + + + + + + + + + + + + + + + + + + + + + + + + + + + + + + + + + + + + + + + + + + + + + + + + + + + + + + + + + + + + + + + + + + + + + + + + + + + + + + + + + + + + + + + + + + + + + + + + + + + + + + + + + + + + + + + + + + + + + + + + + + + + + + + + + + + + + + + + + + + + + + + + + + + + + + + + + + + + + + + + + + + + + + + + + + + + + + + + + + + + + + + + + + + + + + + + + + + + + + + + + + + + + + + + + + + + + + + + + + + + + + + + + + ",
"+ + + + + + + + + + + + + + + + + + + + + + + + + + + + + + + + + + + + + + + + + + + + + + + + + + + + + + + + + + + + + + + + + + + + + + + + + + + + + + + + + + + + + + + + + + + + + + + + + + + + + + + + + + + + + + + + + + + + + + + + + + + + + + + + + + + + + + + + + + + + + + + + + + + + + + + + + + + + + + + + + + + + + + + + + + + + + + + + + + + + + + + + + + + + + + + + + + + + + + + + + + + + + + + + + + + + + + + + + + + + + + + + + + + + + + + + + + + + + + + + + + + + + + + + + + + + + + + + + + + + + + + + + + + + + + + + + + + + + + + + + + + + + + + + + + + + + + + + + + + + + + + + + + + + + + + + + + + + + + + + ",
"+ + + + + + + + + + + + + + + + + + + + + + + + + + + + + + + + + + + + + + + + + + + + + + + + + + + + + + + + + + + + + + + + + + + + + + + + + + + + + + + + + + + + + + + + + + + + + + + + + + + + + + + + + + + + + + + + + + + + + + + + + + + + + + + + + + + + + + + + + + + + + + + + + + + + + + + + + + + + + + + + + + + + + + + + + + + + + + + + + + + + + + + + + + + + + + + + + + + + + + + + + + + + + + + + + + + + + + + + + + + + + + + + + + + + + + + + + + + + + + + + + + + + + + + + + + + + + + + + + + + + + + + + + + + + + + + + + + + + + + + + + + + + + + + + + + + + + + + + + + + + + + + + + + + + + + + + + + + + + + + + ",
"+ + + + + + + + + + + + + + + + + + + + + + + + + + + + + + + + + + + + + + + + + + + + + + + + + + + + + + + + + + + + + + + + + + + + + + + + + + + + + + + + + + + + + + + + + + + + + + + + + + + + + + + + + + + + + + + + + + + + + + + + + + + + + + + + + + + + + + + + + + + + + + + + + + + + + + + + + + + + + + + + + + + + + + + + + + + + + + + + + + + + + + + + + + + + + + + + + + + + + + + + + + + + + + + + + + + + + + + + + + + + + + + + + + + + + + + + + + + + + + + + + + + + + + + + + + + + + + + + + + + + + + + + + + + + + + + + + + + + + + + + + + + + + + + + + + + + + + + + + + + + + + + + + + + + + + + + + + + + + + + + ",
"+ + + + + + + + + + + + + + + + + + + + + + + + + + + + + + + + + + + + + + + + + + + + + + + + + + + + + + + + + + + + + + + + + + + + + + + + + + + + + + + + + + + + + + + + + + + + + + + + + + + + + + + + + + + + + + + + + + + + + + + + + + + + + + + + + + + + + + + + + + + + + + + + + + + + + + + + + + + + + + + + + + + + + + + + + + + + + + + + + + + + + + + + + + + + + + + + + + + + + + + + + + + + + + + + + + + + + + + + + + + + + + + + + + + + + + + + + + + + + + + + + + + + + + + + + + + + + + + + + + + + + + + + + + + + + + + + + + + + + + + + + + + + + + + + + + + + + + + + + + + + + + + + + + + + + + + + + + + + + + + + "
};
