/* XPM */
static char *end_floor3_020[] = {
/* columns rows colors chars-per-pixel */
"320 200 256 2 ",
"   c black",
".  c #040404",
"X  c #0C0C0C",
"o  c gray8",
"O  c gray11",
"+  c gray14",
"@  c #2C2C2C",
"#  c #343434",
"$  c #3C3C3C",
"%  c #444444",
"&  c #4C4C4C",
"*  c gray33",
"=  c gray36",
"-  c #646464",
";  c #6C6C6C",
":  c #747474",
">  c #200000",
",  c #340000",
"<  c #480000",
"1  c #5C0000",
"2  c #700404",
"3  c #840404",
"4  c #980808",
"5  c #AC0C0C",
"6  c #C01010",
"7  c #C42424",
"8  c #CC3838",
"9  c #D05050",
"0  c #D86464",
"q  c #DC7C7C",
"w  c #E49898",
"e  c #ECB4B4",
"r  c #2C1400",
"t  c #3C1C00",
"y  c #502400",
"u  c #643000",
"i  c #743804",
"p  c #884404",
"a  c #984C08",
"s  c #AC580C",
"d  c #C06410",
"f  c #C47024",
"g  c #CC8038",
"h  c #D09050",
"j  c #D89C64",
"k  c #DCAC7C",
"l  c #E4C098",
"z  c #ECD0B4",
"x  c #2C2C00",
"c  c #3C3C00",
"v  c #505000",
"b  c #646400",
"n  c #747804",
"m  c #848808",
"M  c #94980C",
"N  c #A4A814",
"B  c #B4B81C",
"V  c #C4C824",
"C  c #CCCC38",
"Z  c #D0D450",
"A  c #D8D868",
"S  c #E0E080",
"D  c #E4E49C",
"F  c #ECECB8",
"G  c #0C1400",
"H  c #202C00",
"J  c #344400",
"K  c #445C00",
"L  c #587400",
"P  c #6C8C00",
"I  c #7CA400",
"U  c #90BC00",
"Y  c #98C010",
"T  c #A4C828",
"R  c #B0D040",
"E  c #BCD85C",
"W  c #C8E078",
"Q  c #D4E498",
"!  c #E0ECB4",
"~  c #ECF4D8",
"^  c #001400",
"/  c #002C00",
"(  c #004400",
")  c #005C00",
"_  c #007400",
"`  c #008C00",
"'  c #00A400",
"]  c #00C000",
"[  c #10C410",
"{  c #28CC28",
"}  c #44D444",
"|  c #5CD85C",
" . c #78E078",
".. c #98E898",
"X. c #B8ECB8",
"o. c #D8F4D8",
"O. c #00140C",
"+. c #002C1C",
"@. c #004428",
"#. c #005C38",
"$. c #007448",
"%. c #048C58",
"&. c #04A468",
"*. c #04BC78",
"=. c #18C084",
"-. c #30C890",
";. c #48D09C",
":. c #60D8AC",
">. c #7CE0BC",
",. c #9CE4C8",
"<. c #B8ECD8",
"1. c #D8F4E8",
"2. c #001414",
"3. c #002C2C",
"4. c #004444",
"5. c #005C5C",
"6. c #007474",
"7. c #008C8C",
"8. c #00A4A4",
"9. c #00BCBC",
"0. c #10C0C0",
"q. c #28C8C8",
"w. c #40D0D0",
"e. c #5CD8D8",
"r. c #78E0E0",
"t. c #98E4E4",
"y. c #B4ECEC",
"u. c #D8F4F4",
"i. c #00142C",
"p. c #001C3C",
"a. c #002850",
"s. c #003064",
"d. c #043C74",
"f. c #044488",
"g. c #085098",
"h. c #0C5CAC",
"j. c #1068C0",
"k. c #2474C4",
"l. c #3884CC",
"z. c #5090D0",
"x. c #64A0D8",
"c. c #7CACDC",
"v. c #98C0E4",
"b. c #B4D0EC",
"n. c #00002C",
"m. c #00003C",
"M. c #000050",
"N. c #000064",
"B. c #040474",
"V. c #040488",
"C. c #080898",
"Z. c #0C0CAC",
"A. c #1010C0",
"S. c #2828C8",
"D. c #4040D0",
"F. c #5C5CD8",
"G. c #7878E0",
"H. c #9898E4",
"J. c #B4B4EC",
"K. c #D8D8F4",
"L. c #747474",
"P. c #7C7C7C",
"I. c #848484",
"U. c gray55",
"Y. c #989898",
"T. c #A0A0A0",
"R. c gray66",
"E. c gray69",
"W. c #BCBCBC",
"Q. c gray77",
"!. c gray80",
"~. c #D8D8D8",
"^. c gray88",
"/. c gray91",
"(. c gray94",
"). c gray99",
"_. c #3C1800",
"`. c #401C00",
"'. c #482004",
"]. c #502804",
"[. c #542C08",
"{. c #5C340C",
"}. c #603814",
"|. c #684018",
" X c #704820",
".X c #C8CC28",
"XX c #C8B024",
"oX c #C89020",
"OX c #C4701C",
"+X c #C45018",
"@X c #C03014",
"#X c #C01010",
"$X c #2C0014",
"%X c #3C001C",
"&X c #500024",
"*X c #640030",
"=X c #740438",
"-X c #880444",
";X c #98084C",
":X c #AC0C58",
">X c #C01064",
",X c #C42470",
"<X c #CC3880",
"1X c #D05090",
"2X c #D8649C",
"3X c #DC7CAC",
"4X c #E498C0",
"5X c #ECB4D0",
"6X c #201408",
"7X c #301C0C",
"8X c #402810",
"9X c #503418",
"0X c #60401C",
"qX c #704820",
"wX c #805424",
"eX c #94602C",
"rX c #A06C3C",
"tX c #A8784C",
"yX c #B08458",
"uX c #BC906C",
"iX c #C4A080",
"pX c #D0B094",
"aX c #D8BCA8",
"sX c #E4D0C0",
"dX c #081420",
"fX c #0C1C30",
"gX c #142840",
"hX c #183450",
"jX c #204060",
"kX c #244870",
"lX c #2C5480",
"zX c #346090",
"xX c #3C6CA0",
"cX c #4C78A8",
"vX c #5884B0",
"bX c #6C90BC",
"nX c #80A0C4",
"mX c #94B0D0",
"MX c #A8BCD8",
"NX c #C0D0E4",
"BX c #1C1C20",
"VX c #F8F8FC",
"CX c #600000",
"ZX c #F80000",
"AX c #003000",
"SX c #00F800",
"DX c #1C201C",
"FX c #747874",
"GX c #F8FCF8",
"HX c #747874",
"JX c #2828CC",
"KX c #7878E4",
"LX c #D8E4F8",
"PX c #7878E4",
"IX c #2828CC",
"UX c #980088",
/* pixels */
"+ + + + + + + + + + + + + + + + + + + + + + + + + + + + + + + + + + + + + + + + + + + + + + + + + + + + + + + + + + + + + + + + + + + + + + + + + + + + + + + + + + + + + + + + + + + + + + + + + + + + + + + + + + + + + + + + + + + + + + + + + + + + + + + + + + + + + + + + + + + + + + + + + + + + + + + + + + + + + + + + + + + + + + + + + + + + + + + + + + + + + + + + + + + + + + + + + + + + + + + + + + + + + + + + + + + + + + + + + + + + + + + + + + + + + + + + + + + + + + + + + + + + + + + + + + + + + + + + + + + + + + + + + + + + + + + + + + + + + + + + + + + + + + + + + + + + + + + + + + + + + + + + + + + + + + + + + + + + + + + + ",
"+ + + + + + + + + + + + + + + + + + + + + + + + + + + + + + + + + + + + + + + + + + + + + + + + + + + + + + + + + + + + + + + + + + + + + + + + + + + + + + + + + + + + + + + + + + + + + + + + + + + + + + + + + + + + + + + + + + + + + + + + + + + + + + + + + + + + + + + + + + + + + + + + + + + + + + + + + + + + + + + + + + + + + + + + + + + + + + + + + + + + + + + + + + + + + + + + + + + + + + + + + + + + + + + + + + + + + + + + + + + + + + + + + + + + + + + + + + + + + + + + + + + + + + + + + + + + + + + + + + + + + + + + + + + + + + + + + + + + + + + + + + + + + + + + + + + + + + + + + + + + + + + + + + + + + + + + + + + + + + + + ",
"+ + + + + + + + + + + + + + + + + + + + + + + + + + + + + + + + + + + + + + + + + + + + + + + + + + + + + + + + + + + + + + + + + + + + + + + + + + + + + + + + + + + + + + + + + + + + + + + + + + + + + + + + + + + + + + + + + + + + + + + + + + + + + + + + + + + + + + + + + + + + + + + + + + + + + + + + + + + + + + + + + + + + + + + + + + + + + + + + + + + + + + + + + + + + + + + + + + + + + + + + + + + + + + + + + + + + + + + + + + + + + + + + + + + + + + + + + + + + + + + + + + + + + + + + + + + + + + + + + + + + + + + + + + + + + + + + + + + + + + + + + + + + + + + + + + + + + + + + + + + + + + + + + + + + + + + + + + + + + + + + ",
"+ + + + + + + + + + + + + + + + + + + + + + + + + + + + + + + + + + + + + + + + + + + + + + + + + + + + + + + + + + + + + + + + + + + + + + + + + + + + + + + + + + + + + + + + + + + + + + + + + + + + + + + + + + + + + + + + + + + + + + + + + + + + + + + + + + + + + + + + + + + + + + + + + + + + + + + + + + + + + + + + + + + + + + + + + + + + + + + + + + + + + + + + + + + + + + + + + + + + + + + + + + + + + + + + + + + + + + + + + + + + + + + + + + + + + + + + + + + + + + + + + + + + + + + + + + + + + + + + + + + + + + + + + + + + + + + + + + + + + + + + + + + + + + + + + + + + + + + + + + + + + + + + + + + + + + + + + + + + + + + + ",
"+ + + + + + + + + + + + + + + + + + + + + + + + + + + + + + + + + + + + + + + + + + + + + + + + + + + + + + + + + + + + + + + + + + + + + + + + + + + + + + + + + + + + + + + + + + + + + + + + + + + + + + + + + + + + + + + + + + + + + + + + + + + + + + + + + + + + + + + + + + + + + + + + + + + + + + + + + + + + + + + + + + + + + + + + + + + + + + + + + + + + + + + + + + + + + + + + + + + + + + + + + + + + + + + + + + + + + + + + + + + + + + + + + + + + + + + + + + + + + + + + + + + + + + + + + + + + + + + + + + + + + + + + + + + + + + + + + + + + + + + + + + + + + + + + + + + + + + + + + + + + + + + + + + + + + + + + + + + + + + + + ",
"+ + + + + + + + + + + + + + + + + + + + + + + + + + + + + + + + + + + + + + + + + + + + + + + + + + + + + + + + + + + + + + + + + + + + + + + + + + + + + + + + + + + + + + + + + + + + + + + + + + + + + + + + + + + + + + + + + + + + + + + + + + + + + + + + + + + + + + + + + + + + + + + + + + + + + + + + + + + + + + + + + + + + + + + + + + + + + + + + + + + + + + + + + + + + + + + + + + + + + + + + + + + + + + + + + + + + + + + + + + + + + + + + + + + + + + + + + + + + + + + + + + + + + + + + + + + + + + + + + + + + + + + + + + + + + + + + + + + + + + + + + + + + + + + + + + + + + + + + + + + + + + + + + + + + + + + + + + + + + + + + ",
"+ + + + + + + + + + + + + + + + + + + + + + + + + + + + + + + + + + + + + + + + + + + + + + + + + + + + + + + + + + + + + + + + + + + + + + + + + + + + + + + + + + + + + + + + + + + + + + + + + + + + + + + + + + + + + + + + + + + + + + + + + + + + + + + + + + + + + + + + + + + + + + + + + + + + + + + + + + + + + + + + + + + + + + + + + + + + + + + + + + + + + + + + + + + + + + + + + + + + + + + + + + + + + + + + + + + + + + + + + + + + + + + + + + + + + + + + + + + + + + + + + + + + + + + + + + + + + + + + + + + + + + + + + + + + + + + + + + + + + + + + + + + + + + + + + + + + + + + + + + + + + + + + + + + + + + + + + + + + + + + + ",
"+ + + + + + + + + + + + + + + + + + + + + + + + + + + + + + + + + + + + + + + + + + + + + + + + + + + + + + + + + + + + + + + + + + + + + + + + + + + + + + + + + + + + + + + + + + + + + + + + + + + + + + + + + + + + + + + + + + + + + + + + + + + + + + + + + + + + + + + + + + + + + + + + + + + + + + + + + + + + + + + + + + + + + + + + + + + + + + + + + + + + + + + + + + + + + + + + + + + + + + + + + + + + + + + + + + + + + + + + + + + + + + + + + + + + + + + + + + + + + + + + + + + + + + + + + + + + + + + + + + + + + + + + + + + + + + + + + + + + + + + + + + + + + + + + + + + + + + + + + + + + + + + + + + + + + + + + + + + + + + + + ",
"+ + + + + + + + + + + + + + + + + + + + + + + + + + + + + + + + + + + + + + + + + + + + + + + + + + + + + + + + + + + + + + + + + + + + + + + + + + + + + + + + + + + + + + + + + + + + + + + + + + + + + + + + + + + + + + + + + + + + + + + + + + + + + + + + + + + + + + + + + + + + + + + + + + + + + + + + + + + + + + + + + + + + + + + + + + + + + + + + + + + + + + + + + + + + + + + + + + + + + + + + + + + + + + + + + + + + + + + + + + + + + + + + + + + + + + + + + + + + + + + + + + + + + + + + + + + + + + + + + + + + + + + + + + + + + + + + + + + + + + + + + + + + + + + + + + + + + + + + + + + + + + + + + + + + + + + + + + + + + + + + ",
"+ + + + + + + + + + + + + + + + + + + + + + + + + + + + + + + + + + + + + + + + + + + + + + + + + + + + + + + + + + + + + + + + + + + + + + + + + + + + + + + + + + + + + + + + + + + + + + + + + + + + + + + + + + + + + + + + + + + + + + + + + + + + + + + + + + + + + + + + + + + + + + + + + + + + + + + + + + + + + + + + + + + + + + + + + + + + + + + + + + + + + + + + + + + + + + + + + + + + + + + + + + + + + + + + + + + + + + + + + + + + + + + + + + + + + + + + + + + + + + + + + + + + + + + + + + + + + + + + + + + + + + + + + + + + + + + + + + + + + + + + + + + + + + + + + + + + + + + + + + + + + + + + + + + + + + + + + + + + + + + + ",
"+ + + + + + + + + + + + + + + + + + + + + + + + + + + + + + + + + + + + + + + + + + + + + + + + + + + + + + + + + + + + + + + + + + + + + + + + + + + + + + + + + + + + + + + + + + + + + + + + + + + + + + + + + + + + + + + + + + + + + + + + + + + + + + + + + + + + + + + + + + + + + + + + + + + + + + + + + + + + + + + + + + + + + + + + + + + + + + + + + + + + + + + + + + + + + + + + + + + + + + + + + + + + + + + + + + + + + + + + + + + + + + + + + + + + + + + + + + + + + + + + + + + + + + + + + + + + + + + + + + + + + + + + + + + + + + + + + + + + + + + + + + + + + + + + + + + + + + + + + + + + + + + + + + + + + + + + + + + + + + + + ",
"+ + + + + + + + + + + + + + + + + + + + + + + + + + + + + + + + + + + + + + + + + + + + + + + + + + + + + + + + + + + + + + + + + + + + + + + + + + + + + + + + + + + + + + + + + + + + + + + + + + + + + + + + + + + + + + + + + + + + + + + + + + + + + + + + + + + + + + + + + + + + + + + + + + + + + + + + + + + + + + + + + + + + + + + + + + + + + + + + + + + + + + + + + + + + + + + + + + + + + + + + + + + + + + + + + + + + + + + + + + + + + + + + + + + + + + + + + + + + + + + + + + + + + + + + + + + + + + + + + + + + + + + + + + + + + + + + + + + + + + + + + + + + + + + + + + + + + + + + + + + + + + + + + + + + + + + + + + + + + + + + ",
"+ + + + + + + + + + + + + + + + + + + + + + + + + + + + + + + + + + + + + + + + + + + + + + + + + + + + + + + + + + + + + + + + + + + + + + + + + + + + + + + + + + + + + + + + + + + + + + + + + + + + + + + + + + + + + + + + + + + + + + + + + + + + + + + + + + + + + + + + + + + + + + + + + + + + + + + + + + + + + + + + + + + + + + + + + + + + + + + + + + + + + + + + + + + + + + + + + + + + + + + + + + + + + + + + + + + + + + + + + + + + + + + + + + + + + + + + + + + + + + + + + + + + + + + + + + + + + + + + + + + + + + + + + + + + + + + + + + + + + + + + + + + + + + + + + + + + + + + + + + + + + + + + + + + + + + + + + + + + + + + + ",
"+ + + + + + + + + + + + + + + + + + + + + + + + + + + + + + + + + + + + + + + + + + + + + + + + + + + + + + + + + + + + + + + + + + + + + + + + + + + + + + + + + + + + + + + + + + + + + + + + + + + + + + + + + + + + + + + + + + + + + + + + + + + + + + + + + + + + + + + + + + + + + + + + + + + + + + + + + + + + + + + + + + + + + + + + + + + + + + + + + + + + + + + + + + + + + + + + + + + + + + + + + + + + + + + + + + + + + + + + + + + + + + + + + + + + + + + + + + + + + + + + + + + + + + + + + + + + + + + + + + + + + + + + + + + + + + + + + + + + + + + + + + + + + + + + + + + + + + + + + + + + + + + + + + + + + + + + + + + + + + + + ",
"+ + + + + + + + + + + + + + + + + + + + + + + + + + + + + + + + + + + + + + + + + + + + + + + + + + + + + + + + + + + + + + + + + + + + + + + + + + + + + + + + + + + + + + + + + + + + + + + + + + + + + + + + + + + + + + + + + + + + + + + + + + + + + + + + + + + + + + + + + + + + + + + + + + + + + + + + + + + + + + + + + + + + + + + + + + + + + + + + + + + + + + + + + + + + + + + + + + + + + + + + + + + + + + + + + + + + + + + + + + + + + + + + + + + + + + + + + + + + + + + + + + + + + + + + + + + + + + + + + + + + + + + + + + + + + + + + + + + + + + + + + + + + + + + + + + + + + + + + + + + + + + + + + + + + + + + + + + + + + + + + ",
"+ + + + + + + + + + + + + + + + + + + + + + + + + + + + + + + + + + + + + + + + + + + + + + + + + + + + + + + + + + + + + + + + + + + + + + + + + + + + + + + + + + + + + + + + + + + + + + + + + + + + + + + + + + + + + + + + + + + + + + + + + + + + + + + + + + + + + + + + + + + + + + + + + + + + + + + + + + + + + + + + + + + + + + + + + + + + + + + + + + + + + + + + + + + + + + + + + + + + + + + + + + + + + + + + + + + + + + + + + + + + + + + + + + + + + + + + + + + + + + + + + + + + + + + + + + + + + + + + + + + + + + + + + + + + + + + + + + + + + + + + + + + + + + + + + + + + + + + + + + + + + + + + + + + + + + + + + + + + + + + + ",
"+ + + + + + + + + + + + + + + + + + + + + + + + + + + + + + + + + + + + + + + + + + + + + + + + + + + + + + + + + + + + + + + + + + + + + + + + + + + + + + + + + + + + + + + + + + + + + + + + + + + + + + + + + + + + + + + + + + + + + + + + + + + + + + + + + + + + + + + + + + + + + + + + + + + + + + + + + + + + + + + + + + + + + + + + + + + + + + + + + + + + + + + + + + + + + + + + + + + + + + + + + + + + + + + + + + + + + + + + + + + + + + + + + + + + + + + + + + + + + + + + + + + + + + + + + + + + + + + + + + + + + + + + + + + + + + + + + + + + + + + + + + + + + + + + + + + + + + + + + + + + + + + + + + + + + + + + + + + + + + + + ",
"+ + + + + + + + + + + + + + + + + + + + + + + + + + + + + + + + + + + + + + + + + + + + + + + + + + + + + + + + + + + + + + + + + + + + + + + + + + + + + + + + + + + + + + + + + + + + + + + + + + + + + + + + + + + + + + + + + + + + + + + + + + + + + + + + + + + + + + + + + + + + + + + + + + + + + + + + + + + + + + + + + + + + + + + + + + + + + + + + + + + + + + + + + + + + + + + + + + + + + + + + + + + + + + + + + + + + + + + + + + + + + + + + + + + + + + + + + + + + + + + + + + + + + + + + + + + + + + + + + + + + + + + + + + + + + + + + + + + + + + + + + + + + + + + + + + + + + + + + + + + + + + + + + + + + + + + + + + + + + + + + ",
"+ + + + + + + + + + + + + + + + + + + + + + + + + + + + + + + + + + + + + + + + + + + + + + + + + + + + + + + + + + + + + + + + + + + + + + + + + + + + + + + + + + + + + + + + + + + + + + + + + + + + + + + + + + + + + + + + + + + + + + + + + + + + + + + + + + + + + + + + + + + + + + + + + + + + + + + + + + + + + + + + + + + + + + + + + + + + + + + + + + + + + + + + + + + + + + + + + + + + + + + + + + + + + + + + + + + + + + + + + + + + + + + + + + + + + + + + + + + + + + + + + + + + + + + + + + + + + + + + + + + + + + + + + + + + + + + + + + + + + + + + + + + + + + + + + + + + + + + + + + + + + + + + + + + + + + + + + + + + + + + + ",
"+ + + + + + + + + + + + + + + + + + + + + + + + + + + + + + + + + + + + + + + + + + + + + + + + + + + + + + + + + + + + + + + + + + + + + + + + + + + + + + + + + + + + + + + + + + + + + + + + + + + + + + + + + + + + + + + + + + + + + + + + + + + + + + + + + + + + + + + + + + + + + + + + + + + + + + + + + + + + + + + + + + + + + + + + + + + + + + + + + + + + + + + + + + + + + + + + + + + + + + + + + + + + + + + + + + + + + + + + + + + + + + + + + + + + + + + + + + + + + + + + + + + + + + + + + + + + + + + + + + + + + + + + + + + + + + + + + + + + + + + + + + + + + + + + + + + + + + + + + + + + + + + + + + + + + + + + + + + + + + + + ",
"+ + + + + + + + + + + + + + + + + + + + + + + + + + + + + + + + + + + + + + + + + + + + + + + + + + + + + + + + + + + + + + + + + + + + + + + + + + + + + + + + + + + + + + + + + + + + + + + + + + + + + + + + + + + + + + + + + + + + + + + + + + + + + + + + + + + + + + + + + + + + + + + + + + + + + + + + + + + + + + + + + + + + + + + + + + + + + + + + + + + + + + + + + + + + + + + + + + + + + + + + + + + + + + + + + + + + + + + + + + + + + + + + + + + + + + + + + + + + + + + + + + + + + + + + + + + + + + + + + + + + + + + + + + + + + + + + + + + + + + + + + + + + + + + + + + + + + + + + + + + + + + + + + + + + + + + + + + + + + + + + ",
"+ + + + + + + + + + + + + + + + + + + + + + + + + + + + + + + + + + + + + + + + + + + + + + + + + + + + + + + + + + + + + + + + + + + + + + + + + + + + + + + + + + + + + + + + + + + + + + + + + + + + + + + + + + + + + + + + + + + + + + + + + + + + + + + + + + + + + + + + + + + + + + + + + + + + + + + + + + + + + + + + + + + + + + + + + + + + + + + + + + + + + + + + + + + + + + + + + + + + + + + + + + + + + + + + + + + + + + + + + + + + + + + + + + + + + + + + + + + + + + + + + + + + + + + + + + + + + + + + + + + + + + + + + + + + + + + + + + + + + + + + + + + + + + + + + + + + + + + + + + + + + + + + + + + + + + + + + + + + + + + + ",
"+ + + + + + + + + + + + + + + + + + + + + + + + + + + + + + + + + + + + + + + + + + + + + + + + + + + + + + + + + + + + + + + + + + + + + + + + + + + + + + + + + + + + + + + + + + + + + + + + + + + + + + + + + + + + + + + + + + + + + + + + + + + + + + + + + + + + + + + + + + + + + + + + + + + + + + + + + + + + + + + + + + + + + + + + + + + + + + + + + + + + + + + + + + + + + + + + + + + + + + + + + + + + + + + + + + + + + + + + + + + + + + + + + + + + + + + + + + + + + + + + + + + + + + + + + + + + + + + + + + + + + + + + + + + + + + + + + + + + + + + + + + + + + + + + + + + + + + + + + + + + + + + + + + + + + + + + + + + + + + + + ",
"+ + + + + + + + + + + + + + + + + + + + + + + + + + + + + + + + + + + + + + + + + + + + + + + + + + + + + + + + + + + + + + + + + + + + + + + + + + + + + + + + + + + + + + + + + + + + + + + + + + + + + + + + + + + + + + + + + + + + + + + + + + + + + + + + + + + + + + + + + + + + + + + + + + + + + + + + + + + + + + + + + + + + + + + + + + + + + + + + + + + + + + + + + + + + + + + + + + + + + + + + + + + + + + + + + + + + + + + + + + + + + + + + + + + + + + + + + + + + + + + + + + + + + + + + + + + + + + + + + + + + + + + + + + + + + + + + + + + + + + + + + + + + + + + + + + + + + + + + + + + + + + + + + + + + + + + + + + + + + + + + ",
"+ + + + + + + + + + + + + + + + + + + + + + + + + + + + + + + + + + + + + + + + + + + + + + + + + + + + + + + + + + + + + + + + + + + + + + + + + + + + + + + + + + + + + + + + + + + + + + + + + + + + + + + + + + + + + + + + + + + + + + + + + + + + + + + + + + + + + + + + + + + + + + + + + + + + + + + + + + + + + + + + + + + + + + + + + + + + + + + + + + + + + + + + + + + + + + + + + + + + + + + + + + + + + + + + + + + + + + + + + + + + + + + + + + + + + + + + + + + + + + + + + + + + + + + + + + + + + + + + + + + + + + + + + + + + + + + + + + + + + + + + + + + + + + + + + + + + + + + + + + + + + + + + + + + + + + + + + + + + + + + + ",
"+ + + + + + + + + + + + + + + + + + + + + + + + + + + + + + + + + + + + + + + + + + + + + + + + + + + + + + + + + + + + + + + + + + + + + + + + + + + + + + + + + + + + + + + + + + + + + + + + + + + + + + + + + + + + + + + + + + + + + + + + + + + + + + + + + + + + + + + + + + + + + + + + + + + + + + + + + + + + + + + + + + + + + + + + + + + + + + + + + + + + + + + + + + + + + + + + + + + + + + + + + + + + + + + + + + + + + + + + + + + + + + + + + + + + + + + + + + + + + + + + + + + + + + + + + + + + + + + + + + + + + + + + + + + + + + + + + + + + + + + + + + + + + + + + + + + + + + + + + + + + + + + + + + + + + + + + + + + + + + + + ",
"+ + + + + + + + + + + + + + + + + + + + + + + + + + + + + + + + + + + + + + + + + + + + + + + + + + + + + + + + + + + + + + + + + + + + + + + + + + + + + + + + + + + + + + + + + + + + + + + + + + + + + + + + + + + + + + + + + + + + + + + + + + + + + + + + + + + + + + + + + + + + + + + + + + + + + + + + + + + + + + + + + + + + + + + + + + + + + + + + + + + + + + + + + + + + + + + + + + + + + + + + + + + + + + + + + + + + + + + + + + + + + + + + + + + + + + + + + + + + + + + + + + + + + + + + + + + + + + + + + + + + + + + + + + + + + + + + + + + + + + + + + + + + + + + + + + + + + + + + + + + + + + + + + + + + + + + + + + + + + + + + ",
"+ + + + + + + + + + + + + + + + + + + + + + + + + + + + + + + + + + + + + + + + + + + + + + + + + + + + + + + + + + + + + + + + + + + + + + + + + + + + + + + + + + + + + + + + + + + + + + + + + + + + + + + + + + + + + + + + + + + + + + + + + + + + + + + + + + + + + + + + + + + + + + + + + + + + + + + + + + + + + + + + + + + + + + + + + + + + + + + + + + + + + + + + + + + + + + + + + + + + + + + + + + + + + + + + + + + + + + + + + + + + + + + + + + + + + + + + + + + + + + + + + + + + + + + + + + + + + + + + + + + + + + + + + + + + + + + + + + + + + + + + + + + + + + + + + + + + + + + + + + + + + + + + + + + + + + + + + + + + + + + + ",
"+ + + + + + + + + + + + + + + + + + + + + + + + + + + + + + + + + + + + + + + + + + + + + + + + + + + + + + + + + + + + + + + + + + + + + + + + + + + + + + + + + + + + + + + + + + + + + + + + + + + + + + + + + + + + + + + + + + + + + + + + + + + + + + + + + + + + + + + + + + + + + + + + + + + + + + + + + + + + + + + + + + + + + + + + + + + + + + + + + + + + + + + + + + + + + + + + + + + + + + + + + + + + + + + + + + + + + + + + + + + + + + + + + + + + + + + + + + + + + + + + + + + + + + + + + + + + + + + + + + + + + + + + + + + + + + + + + + + + + + + + + + + + + + + + + + + + + + + + + + + + + + + + + + + + + + + + + + + + + + + + ",
"+ + + + + + + + + + + + + + + + + + + + + + + + + + + + + + + + + + + + + + + + + + + + + + + + + + + + + + + + + + + + + + + + + + + + + + + + + + + + + + + + + + + + + + + + + + + + + + + + + + + + + + + + + + + + + + + + + + + + + + + + + + + + + + + + + + + + + + + + + + + + + + + + + + + + + + + + + + + + + + + + + + + + + + + + + + + + + + + + + + + + + + + + + + + + + + + + + + + + + + + + + + + + + + + + + + + + + + + + + + + + + + + + + + + + + + + + + + + + + + + + + + + + + + + + + + + + + + + + + + + + + + + + + + + + + + + + + + + + + + + + + + + + + + + + + + + + + + + + + + + + + + + + + + + + + + + + + + + + + + + + ",
"+ + + + + + + + + + + + + + + + + + + + + + + + + + + + + + + + + + + + + + + + + + + + + + + + + + + + + + + + + + + + + + + + + + + + + + + + + + + + + + + + + + + + + + + + + + + + + + + + + + + + + + + + + + + + + + + + + + + + + + + + + + + + + + + + + + + + + + + + + + + + + + + + + + + + + + + + + + + + + + + + + + + + + + + + + + + + + + + + + + + + + + + + + + + + + + + + + + + + + + + + + + + + + + + + + + + + + + + + + + + + + + + + + + + + + + + + + + + + + + + + + + + + + + + + + + + + + + + + + + + + + + + + + + + + + + + + + + + + + + + + + + + + + + + + + + + + + + + + + + + + + + + + + + + + + + + + + + + + + + + + ",
"+ + + + + + + + + + + + + + + + + + + + + + + + + + + + + + + + + + + + + + + + + + + + + + + + + + + + + + + + + + + + + + + + + + + + + + + + + + + + + + + + + + + + + + + + + + + + + + + + + + + + + + + + + + + + + + + + + + + + + + + + + + + + + + + + + + + + + + + + + + + + + + + + + + + + + + + + + + + + + + + + + + + + + + + + + + + + + + + + + + + + + + + + + + + + + + + + + + + + + + + + + + + + + + + + + + + + + + + + + + + + + + + + + + + + + + + + + + + + + + + + + + + + + + + + + + + + + + + + + + + + + + + + + + + + + + + + + + + + + + + + + + + + + + + + + + + + + + + + + + + + + + + + + + + + + + + + + + + + + + + + ",
"+ + + + + + + + + + + + + + + + + + + + + + + + + + + + + + + + + + + + + + + + + + + + + + + + + + + + + + + + + + + + + + + + + + + + + + + + + + + + + + + + + + + + + + + + + + + + + + + + + + + + + + + + + + + + + + + + + + + + + + + + + + + + + + + + + + + + + + + + + + + + + + + + + + + + + + + + + + + + + + + + + + + + + + + + + + + + + + + + + + + + + + + + + + + + + + + + + + + + + + + + + + + + + + + + + + + + + + + + + + + + + + + + + + + + + + + + + + + + + + + + + + + + + + + + + + + + + + + + + + + + + + + + + + + + + + + + + + + + + + + + + + + + + + + + + + + + + + + + + + + + + + + + + + + + + + + + + + + + + + + + ",
"+ + + + + + + + + + + + + + + + + + + + + + + + + + + + + + + + + + + + + + + + + + + + + + + + + + + + + + + + + + + + + + + + + + + + + + + + + + + + + + + + + + + + + + + + + + + + + + + + + + + + + + + + + + + + + + + + + + + + + + + + + + + + + + + + + + + + + + + + + + + + + + + + + + + + + + + + + + + + + + + + + + + + + + + + + + + + + + + + + + + + + + + + + + + + + + + + + + + + + + + + + + + + + + + + + + + + + + + + + + + + + + + + + + + + + + + + + + + + + + + + + + + + + + + + + + + + + + + + + + + + + + + + + + + + + + + + + + + + + + + + + + + + + + + + + + + + + + + + + + + + + + + + + + + + + + + + + + + + + + + + ",
"+ + + + + + + + + + + + + + + + + + + + + + + + + + + + + + + + + + + + + + + + + + + + + + + + + + + + + + + + + + + + + + + + + + + + + + + + + + + + + + + + + + + + + + + + + + + + + + + + + + + + + + + + + + + + + + + + + + + + + + + + + + + + + + + + + + + + + + + + + + + + + + + + + + + + + + + + + + + + + + + + + + + + + + + + + + + + + + + + + + + + + + + + + + + + + + + + + + + + + + + + + + + + + + + + + + + + + + + + + + + + + + + + + + + + + + + + + + + + + + + + + + + + + + + + + + + + + + + + + + + + + + + + + + + + + + + + + + + + + + + + + + + + + + + + + + + + + + + + + + + + + + + + + + + + + + + + + + + + + + + + ",
"+ + + + + + + + + + + + + + + + + + + + + + + + + + + + + + + + + + + + + + + + + + + + + + + + + + + + + + + + + + + + + + + + + + + + + + + + + + + + + + + + + + + + + + + + + + + + + + + + + + + + + + + + + + + + + + + + + + + + + + + + + + + + + + + + + + + + + + + + + + + + + + + + + + + + + + + + + + + + + + + + + + + + + + + + + + + + + + + + + + + + + + + + + + + + + + + + + + + + + + + + + + + + + + + + + + + + + + + + + + + + + + + + + + + + + + + + + + + + + + + + + + + + + + + + + + + + + + + + + + + + + + + + + + + + + + + + + + + + + + + + + + + + + + + + + + + + + + + + + + + + + + + + + + + + + + + + + + + + + + + + ",
"+ + + + + + + + + + + + + + + + + + + + + + + + + + + + + + + + + + + + + + + + + + + + + + + + + + + + + + + + + + + + + + + + + + + + + + + + + + + + + + + + + + + + + + + + + + + + + + + + + + + + + + + + + + + + + + + + + + + + + + + + + + + + + + + + + + + + + + + + + + + + + + + + + + + + + + + + + + + + + + + + + + + + + + + + + + + + + + + + + + + + + + + + + + + + + + + + + + + + + + + + + + + + + + + + + + + + + + + + + + + + + + + + + + + + + + + + + + + + + + + + + + + + + + + + + + + + + + + + + + + + + + + + + + + + + + + + + + + + + + + + + + + + + + + + + + + + + + + + + + + + + + + + + + + + + + + + + + + + + + + + ",
"                                                    - * - * = - : : P.I.U.Y.T.R.E.W.Q.!.Q.W.E.R.T.Y.U.I.P.: ; : U.Y.U.=                                                           n.          n.                                                                                                                        A.                                                                                                                                                                                                m.                                                                          = = = = I.I.I.I.= = = = = = P.P.P.P.P.: : : : : P.P.: : P.",
"                                                  $ - * - * = - : : P.I.U.Y.T.R.E.W.Q.!.Q.W.E.R.T.Y.U.I.P.: ; : U.Y.U.= $                                                                                                                                               n.                                                M.                                                                                                                                                                                                                                                                          = = = = I.I.I.I.= = = = = = P.P.P.P.P.: : : : : P.P.: : P.",
"                                                  % - * - * = - : : P.I.U.Y.T.R.E.W.Q.!.Q.W.E.R.T.Y.U.I.P.: ; : U.Y.U.= %           M.                                                                                                                                                                                                                                                                                              M.                                                                                                                                Q.R.            Q.Q.              = I.I.I.I.I.I.I.= = = = = = = = P.= P.P.: = = = P.P.P.: ",
"                                                  & - * - * = - : : P.I.U.Y.T.R.E.W.Q.!.Q.W.E.R.T.Y.U.I.P.: ; : U.Y.U.= &                                                                                                                                                                                                                                                                                                                                                                                                                                           Q.R.W.Q.        Q.R.R.R.              I.I.I.I.I.I.I.= = = = = = = = = = = = = = = = P.P.P.P.",
"          K.                                      * - * - * = - : : P.I.U.Y.T.R.E.W.Q.!.Q.W.E.R.T.Y.U.I.P.: ; : U.Y.U.= *                                                                             n.                                        n.                                                                                                                                      n.                                                                                                                                              A.                        Q.R.W.Q.P.      Q.R.R.W.P.                  I.I.I.I.I.= = I.= = = = = = = P.P.= = = P.P.P.P.P.",
"                                                  = - * - * = - : : P.I.U.Y.T.R.E.W.Q.!.Q.W.E.R.T.Y.U.I.P.: ; : U.Y.U.= =                                                                                                                                                                                                                                                                                                                                                                                                                                       Q.R.W.Q.P.      Q.R.R.W.P.    M.                = = I.I.I.I.I.I.I.  = = = = = = P.P.P.P.P.P.P.P.",
"              n.        M.                        - - * - * = - : : P.I.U.Y.T.R.E.W.Q.!.Q.W.E.R.T.Y.U.I.P.: ; : U.Y.U.= =                             K.                                                                                                                                                                                                                                                      n.                                                                                                                                              Q.R.W.Q.P.      Q.R.R.W.P.M.                      = = I.I.I.I.I.I.I.  = = = = = = P.P.P.P.P.P.P.P.",
"                    n.                            - - * - * = - : : P.I.U.Y.T.R.E.W.Q.!.Q.W.E.R.T.Y.U.I.P.: ; : U.Y.U.= =                                 K.                                                                                                                                        n.                                                                                                                n.                                                  K.                        m.                                                      Q.R.W.Q.P.      Q.R.R.W.P.                              I.I.I.I.I.      = = = = = = P.P.P.P.P.P.P.P.",
"                                  M.              = - * - * = - : : P.I.U.Y.T.R.E.W.Q.!.Q.W.E.R.T.Y.U.I.P.: ; : U.Y.U.= =     A.          M.                                                                                                                                            n.                                                                      K.  n.                                                                                                  A.                                                    % I.I.I.I.I.I.I.I.I.I.I.I.I.I.I.I.Q.P.      Q.R.R.W.P.                                I.  I.I.        = = = = P.P.P.P.P.P.P.M.  P.",
"                                                  = - * - * = - : : P.I.U.Y.T.R.E.W.Q.!.Q.W.E.R.T.Y.U.I.P.: ; : U.Y.U.= =                                                                                                 n.                                A.          M.                                                                                                                                                                              m.                                                            % I.I.I.I.; ; ; ; ; ; ; ; ; ; ; ; ; ; ; ; I.I.I.I.Q.R.R.W.P.        M.                          I.            = = = = P.P.P.P.P.P.        ",
"                                                  = - * - * = - : : P.I.U.Y.T.R.E.W.Q.!.Q.W.E.R.T.Y.U.I.P.: ; : U.Y.U.= =                     n.                                                      n.                      n.                                                                                                                                                                                                                                                    M.          n.                % I.I.; ; ; ; ; ; ; ; ; ; ; ; ; ; ; ; ; ; ; ; ; ; ; ; I.I.W.P.                                                        = P.P.P.P.P.P.P.        ",
"                                                  = * ; - * = - : : P.I.U.Y.T.R.E.W.Q.!.Q.W.E.R.T.Y.U.I.P.: ; : U.Y.U.= =                                                                                                                                                                           p pX=                                               n.                                                  p rXy                                                                                               % I.; ; ; ; ; ; = = = = = = = = = = = = = = = = ; ; ; ; ; ; P.%                                                         = P.P.P.P.P.P.P.        ",
"                                                  = * ; - * = - : : P.I.U.Y.T.R.E.W.Q.!.Q.W.E.R.T.Y.U.I.P.: ; : U.Y.U.: =                                                       M.                                                                                                            M.    y a p                                                       n.                                      y       rX            rXrX                                                                            % I.; ; ; = = = =                                 = = = = ; ; ; I.%                                             K.n.  = = = = P.P.P.P.P.P.      n.",
"                n.                                = * ; - * = - : : P.I.U.Y.T.R.E.W.Q.!.Q.W.E.R.T.Y.U.I.P.: ; : U.Y.U.: =                                                                                                                                                                                                                                                         M.      p p p p y y y y u eXeX      rX      j y                                                                             I.; ; = =       * : : : : : : : : : : : : : : : : *       = = ; ; I.                                                  = = = I.P.P.P.P.P.          ",
"                                                  = * ; - * = - : : P.I.U.Y.T.R.E.W.Q.!.Q.W.E.R.T.Y.U.I.P.: ; : U.Y.U.P.=               n.                                                                                                                                                              M.                                                      p                 p   p p pXrXeXeXrXrXrXeXp p tX      rXy y   y eX  y                                                                         ; ; =     * : : : : : Y.T.R.E.W.Q.!.Q.W.E.R.T.Y.: : : : *     = ; ;                                             = =   I.I.I.I.I.I.                ",
"                                                  = * ; - * = - : : P.I.U.Y.T.R.E.W.Q.!.Q.W.E.R.T.Y.U.I.P.: ; : P.U.Y.U.=                                                                                                                                                 n.                                                                                  p y y       p p p p   a p pXpXuXeXeXrXrXtXY.Y.Y.uXtXtXeXk eXa rX  y rXy y y y     p y                                             n.            ; =   : : - : : P.I.U.Y.T.R.E.W.Q.!.Q.W.E.R.T.Y.U.I.P.; : : :   = ;                                             = =   I.I.I.I.I.I.        n.      ",
"                              n.                n.= * ; - * = - : : P.I.U.Y.T.R.E.W.Q.!.Q.W.E.R.T.Y.U.I.P.: ; : : U.Y.U.=                   M.                                              M.                          M.                                                              n.                                        n.                                  y     p p p p p rXpXeXrXrXtXuXpXpXY.Y.Y.pXj k j j pXrXj rXrXeXa p p p   y                                                               =   ; - * = - : P.I.U.Y.T.R.E.W.Q.!.Q.W.E.R.T.Y.U.I.P.; : U.Y.:   =                                                       I.I.I.I.                ",
"                                          K.      = * ; - * = - : : P.I.U.Y.T.R.E.W.Q.!.Q.W.E.R.T.Y.U.I.P.: ; : : U.Y.U.=                                                                                                                         n.                                                    M.                  n.              M.          uX. p y p   u p p p p uXY.eXeXa a uXuXY.Y.pXpXpXuXuXY.pXpXj pXk pXpXk j j Y.j eXeXp p tXY.                                            n.                - ; - * = - : P.I.U.Y.T.R.E.W.Q.!.Q.W.E.R.T.Y.U.I.P.; : U.Y.U.=                                                         I.I.                    ",
"                                                $ = * ; - * = - : : P.I.U.Y.T.R.E.W.Q.!.Q.W.E.R.T.Y.U.I.P.: ; : : U.Y.U.= $                                                                                         n.                                                n.                                                  n.                          pXuXpXpX  pXuXp = eXtXpXpXpXpXeXeXpXpXpXY.pXp pXuXj Y.pXpXpXpXk pXpXpXpXk pXrXpXtXY.u eXp y                                                             $ - ; - * = - : P.I.U.Y.T.R.E.W.Q.!.Q.W.E.R.T.Y.U.I.P.; : U.Y.U.= $                                                       I.                      ",
"                                                % = * ; - * = - : : P.I.U.Y.T.R.E.W.Q.!.Q.W.E.R.T.Y.U.I.P.: ; : : U.Y.U.= %                                                                           M.                                                                                                            M.                y                 uX  u   p p eXuXY.pXpXpXpXpXrXeXpXpXp eXpXrXY.Y.pXY.pXpXk l k pXj k pXj j j j tXp y p a       u                                       m.              % - ; - * = - : P.I.U.Y.T.R.E.W.Q.!.Q.W.E.R.T.Y.U.I.P.; : U.Y.U.= %       K.                                                                      ",
"                M.                    M.        & = * ; - * = - : : P.I.U.Y.T.R.E.W.Q.!.Q.W.E.R.T.Y.U.I.P.: ; : : U.Y.U.= &                                                                                                                                                                                             M.              y                 a p eXpXpXuXpXpXpXpXl uXpXpXpXrXpXY.pXuXpXY.pXpXY.uXuXuXuXj l l k pXk j j tXh h rXrXa u   a u                                               n.      & - ; - * = - : P.I.U.Y.T.R.E.W.Q.!.Q.W.E.R.T.Y.U.I.P.; : U.Y.U.= &                                     n.          M.                            ",
"                                                * = * ; - * = - : : P.I.U.Y.T.R.E.W.Q.!.Q.W.E.R.T.Y.U.I.P.: ; : : U.Y.U.= *                             n.                                                                                                                                                                          a   y y   n.  y   y p a p uXpXpXpXuXpXpXl eXpXpXsXpXpXpXpXpXpXpXpXY.pXj pXY.uXtXtXpXh k pXpXk pXj j j tXh a u   u u                                                       * - ; - * = - : P.I.U.Y.T.R.E.W.Q.!.Q.W.E.R.T.Y.U.I.P.; : U.Y.U.= *                         n.              M.              n.A.                  ",
"                            A.                  = = * ; - * = - : : P.I.U.Y.T.R.E.W.Q.!.Q.W.E.R.T.Y.U.I.P.: ; : : U.Y.U.= =                                                                       M.                        n.                        K.                      n.  n.                                                    6               u = tX= a pXY.pXpXpXpXl Y.pXsXl sXpXpXk pXj k j j j j pXuXtXtXtXj j k h j k j k tXj j j u tXn.                                                        = - ; - * = - : P.I.U.Y.T.R.E.W.Q.!.Q.W.E.R.T.Y.U.I.P.; : U.Y.U.= =                                                                               ",
"                  M.                            - = * ; - * = - : : P.I.U.Y.T.R.E.W.Q.!.Q.W.E.R.T.Y.U.I.P.: ; : : U.Y.U.= =               M.                n.                                                                                                                                                                          3 2 6 3   2 p p a p a eXeXtXuXpXpXk k l k pXpXpXpXpXj Y.pXk k j k j j k pXuXrXtXk k j g j h pXj pXj k j tXn.u                                                         - - ; - * = - : P.I.U.Y.T.R.E.W.Q.!.Q.W.E.R.T.Y.U.I.P.; : U.Y.U.= =                                                                               ",
"                                                - = * ; - * = - : : P.I.U.Y.T.R.E.W.Q.!.Q.W.E.R.T.Y.U.I.P.: ; : : U.Y.U.= =                                                                                                 n.                                  M.            M.              n.                3               2     6 2   2 6 y 2 = u p p a eXeXtX2 j j j sXsXk j k j j j k j j k pXpXj pXj pXpXj uXg j pXk k j g j k k k j j eXu     l n.                                              A.  - - ; - * = - : P.I.U.Y.T.R.E.W.Q.!.Q.W.E.R.T.Y.U.I.P.; : U.Y.U.= =                                                                               ",
"                        n.                      = = * ; - * = - : : P.I.U.Y.T.R.E.W.Q.!.Q.W.E.R.T.Y.U.I.P.: ; : : U.Y.U.= =                                                                                                                                                                                       6 3   6 y   3 6 2 2   6       3 p y   h eXtXa eX2 tX2 j f h j pXk j j j pXj j pXj pXpXj j pXpXj j j j k f j k pXk k k k k j tXtXrXuX  pXpX                                                  = - ; - * = - : P.I.U.Y.T.R.E.W.Q.!.Q.W.E.R.T.Y.U.I.P.; : U.Y.U.= =                                                                               ",
"                                                = = * ; - * = - : : P.I.U.Y.T.R.E.W.Q.!.Q.W.E.R.T.Y.U.I.P.: ; : : U.Y.U.= =                                                                                                                         n.          n.                                    2               6 f   4 2 6   3 2 6 2   2 2 2   a a 2 tX3 2 rXh 6 rXf j k j j j j j j j g j pXpXpXpXpXpXpXpXk f k g k k k pXpXpXpXk k j j j rXeXu eX                                                    = - ; - * = - : P.I.U.Y.T.R.E.W.Q.!.Q.W.E.R.T.Y.U.I.P.; : U.Y.U.P.=                                                                               ",
"                                                = = * ; - * = - : : P.I.U.Y.T.R.E.W.Q.!.Q.W.E.R.T.Y.U.I.P.: ; : : U.Y.U.= =                                                                                                                                                                         6       4   2   f 7 7 7 2 2 7 6 3 2   6 3 2 3 3 3 3 6 3 3 3 2 2 j 2 2 j j k j j j g j f j pXpXpXpXY.pXpXpXpXpXj f f k pXpXpXk l pXk j j k k sXpXeX  eX  u pXuX                                            = - ; - * = - : P.I.U.Y.T.R.E.W.Q.!.Q.W.E.R.T.Y.U.I.P.; : P.U.Y.U.=                                                                               ",
"                                                = = * ; - * = - : : P.I.U.Y.T.R.E.W.Q.!.Q.W.E.R.T.Y.U.I.P.: ; : : U.Y.U.= =                                                                                     n.n.                                                                            2     2   6 6 7   6 7 7 6 3 4 7 3 6 6 6 3 3 6   6 6 6 6 6 6 7 4 3 h 3 k k k j k e j g j j pXf pXpXY.Y.pXj j j k g f g k k l k k k pXpXpXj k l l sXpXl pXpXeX  u                         n.                    = - ; - * = - : P.I.U.Y.T.R.E.W.Q.!.Q.W.E.R.T.Y.U.I.P.; : : U.Y.U.=                 n.                                                            ",
"                                                = = * ; - * = - : : P.I.U.Y.T.R.E.W.Q.!.Q.W.E.R.T.Y.U.I.P.: ; : : U.Y.U.= =                                   M.                                    M.                                                                                          2 3 2 4 3 7 3 6 6 7 7 6 6 3 6 6 6 6 6 4 6 6 3 6 6 6 6 6 d 6 6 4 3 rX2 2 f pXj f e f f f f g j j j k j j k f f j f f e e 3 3 sXpXk pXpXk k sXsXpXl sXj pXpXuXp     eX                                          = - ; - * = - : P.I.U.Y.T.R.E.W.Q.!.Q.W.E.R.T.Y.U.I.P.; : : U.Y.U.=                                                                               ",
"            M.                                  = = * ; - * = - : : P.I.U.Y.T.R.E.W.Q.!.Q.W.E.R.T.Y.U.I.P.: ; : : U.Y.U.= =                                                     n.                                                              n.                                            6 6 4 6 7 3 7 f 7 f 7 g 7 7 f 6 6 6 6 6 6 6 7 3 7 7 7 d d 7 7 6 6 6 6 4 3 f f j k 3 6 2 f f f k f k e k k e e f f f e e 3 6 3 l l pXl pXl l sXl l pX3 pXpXpXa eXuXpXrXy n.                                      = - ; - * = - : P.I.U.Y.T.R.E.W.Q.!.Q.W.E.R.T.Y.U.I.P.; : : U.Y.U.=                                                                               ",
"                                                = = * ; - * = - : : P.I.U.Y.T.R.E.W.Q.!.Q.W.E.R.T.Y.U.I.P.: ; : : U.Y.U.= =                           A.                                                                                                                      n.      n.      6 6 2 3 f 7 f j f f g j f 7 7 f 7 6 f 6 7 f f f f 8 8 f f f f 7 7 6 4 3 2 2 2 f 2 2 2 f f f f f e k 2 k e 2 e k f e l 2 6 6 e sX3 l pXpXpXl 2 pXl 6 sXl pXuXuXpX      uX    n.                                  = - ; - * = - : P.I.U.Y.T.R.E.W.Q.!.Q.W.E.R.T.Y.U.I.P.; : : U.Y.U.=                               M.  n.                                          ",
"          n.                                    = * - ; = * = - : : P.I.U.Y.T.R.E.W.Q.!.Q.W.E.R.T.Y.U.I.P.: : ; : U.Y.U.= =                                                                                                                 M.                                              2 6 2 7 4 3 6 f g f f g j k f f f 7 f f 6 f f f f f f g g g g f f 7 7 6 2 6 g 4 f 4 2 j j f f j f k k j k 3 6 6 e e e 3 3 6 sXl 6 6 6 pXl pX3 3 pXl l 2 l pXpXpXeXuX      u                                       = - ; - * = - : P.I.U.Y.T.R.E.W.Q.!.Q.W.E.R.T.Y.U.I.P.: ; : U.Y.U.=                                                                               ",
"                                                = * ; - * = - ; : : P.I.U.Y.T.R.E.W.Q.!.Q.W.E.R.T.Y.U.I.P.: : ; : U.Y.U.= =                                                                                                                     n.                                          4 3 7 6 f 3 f 7 g f g f k f f f f k k f k g f f f f g g g g g g g f f 7 6 j 4 3 3 6 j j j j f f g 3 2 pXpX3 d l l pXl 3 6 3 pXl pX6 2 3 6 l pX3 6 3 pXpXpXpXuXpXuX    pXuX                                        = - - * = - ; : P.I.U.Y.T.R.E.W.Q.!.Q.W.E.R.T.Y.U.I.P.: ; : U.Y.U.=                                                                               ",
"                                                = * ; - * = - : : : P.I.U.Y.T.R.E.W.Q.!.Q.W.E.R.T.Y.U.I.P.: : ; : U.Y.U.: =                                                                                                                                     ;                           3     l 7 7 g j f g k f S k g f k k g k j k g k g g j j j j g g g g g f 7 7 4 3 j 2 f j j k f k 7 3 d k j 3 6 6 2 2 3 6 6 3 2 2 6 3 6 6 3 3 pX2 Y.2 pX2 pXuXpXpX      p                                           - ; - * = - : : P.I.U.Y.T.R.E.W.Q.!.Q.W.E.R.T.Y.U.I.P.: ; : U.Y.U.=                                                                               ",
"                                              $ = * ; - * = - : : : P.I.U.Y.T.R.E.W.Q.!.Q.W.E.R.T.Y.U.I.P.: : ; : U.Y.U.P.= $                                                                                                                                 & ; ; ;                   3 3 4 6 l f g g 6 6 d j k l j Z k l k l k k k k k g g k j k k k j j g g g f 7 6 6 2 3 j 2 d j k k k f 3 6 k d 6 d d 3 6 6 6 6 d 6 6 6 Y.3 6 6 Y.Y.3 3 3 d Y.2 Y.pXuXp pX2 Y.                                        $ - ; - * = - : : P.I.U.Y.T.R.E.W.Q.!.Q.W.E.R.T.Y.U.I.P.: ; : U.Y.U.= $           M.                                              M.                ",
"              M.                              % = * ; - * = - : : : P.I.U.Y.T.R.E.W.Q.!.Q.W.E.R.T.Y.U.I.P.: : ; : P.U.Y.U.= %                           M.                                                                                                    & ; ; ; ; ;           n.    4 2 7 6 g f 7 f k k k k A A k l A l l k k k k k j j k j k k k k k j j g g f f 6 4 7 4 h j k k f f 3 6 3 2 3 d 6 6 d 6 6 d 6 6 6 d 6 6 Y.6 Y.Y.6 Y.Y.6 6 g 3 3 pXY.6                                               % - ; - * = - : : P.I.U.Y.T.R.E.W.Q.!.Q.W.E.R.T.Y.U.I.P.: ; : U.Y.U.= %                       M.                                                    ",
"                      M.                      & = * ; - * = - : : : P.I.U.Y.T.R.E.W.Q.!.Q.W.E.R.T.Y.U.I.P.: : ; : : U.Y.U.= &                                                                                                                                 ; P.: : ; ; Y.=             4 2 4 7 f f 3 j l k Z k S S S A k S k l k k k k k k k l l k k k k j j j g g 6 7 6 2 j 4 j e f f j 3 7 3 d d 6 6 6 6 6 6 6 6 6 6 6 6 Y.6 Y.Y.Y.Y.Y.g g d 6 3 6 2 Y.eXd                                             & - ; - * = - : : P.I.U.Y.T.R.E.W.Q.!.Q.W.E.R.T.Y.U.I.P.: ; : U.Y.U.= &                                                                             ",
"                                              = = * ; - * = - : : : P.I.U.Y.T.R.E.W.Q.!.Q.W.E.R.T.Y.U.I.P.: : ; : : U.Y.U.= *                                                                                                                                 & ; P.: : ; Y.=   n.      2 2 2 3 f 7 f 6 k l k k A A A A A S k k k k k k k k l l l l A A k k k k k j f 7 6 f 2 j h k e f k 2 3 7 3 6 f d d d Y.d d d d d d d d d d d Y.Y.d d d yX6 6 6 g d Y.rXy g d k                                       * - ; - * = - : : P.I.U.Y.T.R.E.W.Q.!.Q.W.E.R.T.Y.U.I.P.: ; : U.Y.U.= *                                                                           A.",
"                                              = = * ; - * = - : : : P.I.U.Y.T.R.E.W.Q.!.Q.W.E.R.T.Y.U.I.P.: : ; : : U.Y.U.= =                                                                                   D.      M.    n.                            & ; P.P.P.P.: P.=             6 2 3 3 f f f l k k Z A S A A S S l k k k k l k l l l S A A A A S k k k j j d d g 6 g 2 j j k 3 4 4 d 6 6 d d d g d d g g g g g g g g g g g g g g g g d Y.yXg g f 3 2 y d           n.                            = - ; - * = - : : P.I.U.Y.T.R.E.W.Q.!.Q.W.E.R.T.Y.U.I.P.: ; : U.Y.U.= =                                                                             ",
"                                              = = * ; - * = - : : : P.I.U.Y.T.R.E.W.Q.!.Q.W.E.R.T.Y.U.I.P.: : ; : : U.Y.U.= =                                                                                 A.G.A.                          M.            & ; P.P.P.P.I.Y.= =             2 6 f f f f l k Z Z S S S S S A S S k l k k k l k S A A A S A S k k k k k d g d g 4 d g g 2 j 6 7 f d d d f f g g g g g f f f f g j j iXiXiXiXiXyXyXyXg g k 7 6 6 3 2       d                                 M.- - ; - * = - : : P.I.U.Y.T.R.E.W.Q.!.Q.W.E.R.T.Y.U.I.P.: ; : U.Y.U.= =                                                       n.                    ",
"                                              = = * ; - * = - : : : P.I.U.Y.T.R.E.W.Q.!.Q.W.E.R.T.Y.U.I.P.: : ; : : U.Y.U.= =                                                                               D.G.K.G.D.                                      & I.P.P.P.P.I.Y.Q.=           3 3 6 f 6 6 k f l S A S S S A A l S S l k l k l l l l S S S S S S l k k g g g d f 2 h 2 h g g 3 4 7 f f f f g g j j g j j g g g g g j j pXA Z Z iXyXyXyXg g d d Y.6 3 2                                       M.  - - ; - * = - : : P.I.U.Y.T.R.E.W.Q.!.Q.W.E.R.T.Y.U.I.P.: ; : U.Y.U.= =                                                                             ",
"                                              = = * ; - * = - : : : P.I.U.Y.T.R.E.W.Q.!.Q.W.E.R.T.Y.U.I.P.: : ; : : U.Y.U.= =                                                                                 A.G.A.                                        & ; I.I.P.P.Y.E.Q.=           2 4 6 6 6 6 g k k A A A A S S A A l S l k l k k k l A S S S S S S l j j g k f f 4 4 6 f 2 k 5 4 6 6 f f f g j k k l l j j j j j j A A A A A Z A k pXk k k d d d 5 6 4 3 2                                         = - ; - * = - : : P.I.U.Y.T.R.E.W.Q.!.Q.W.E.R.T.Y.U.I.P.: ; : U.Y.U.= =                               K.                                            ",
"                                            $ = = * ; - * = - : : : P.I.U.Y.T.R.E.W.Q.!.Q.W.E.R.T.Y.U.I.P.: : ; : : U.Y.U.= =                                             M.                                    D.                                        & ; P.P.I.I.P.I.Y.Q.%           4   3 g 6 j d j A k A A A A A l A l S l k l k k l l A A S S A A S l k k k g g f f 6 e j 2 2 4 5 6 6 7 f g j k k l j k A A A A A A A A A A A A A A l l l k d g Y.5 6 3 3 2 5 4 6 2                                 = - ; - * = - : : P.I.U.Y.T.R.E.W.Q.!.Q.W.E.R.T.Y.U.I.P.: ; : U.Y.U.= =                                     n.                                      ",
"                  M.                        % = = * ; - * = - : : : P.I.U.Y.T.R.E.W.Q.!.Q.W.E.R.T.Y.U.I.P.: : ; : : U.Y.U.= =             M.              Q.Q.            R.Q.                                                                            ; ; P.P.P.P.I.Y.E.Q.I.        2       3 7 6 g j g 7 f l S A A S l l l l l l k k l A A S S A A A S k k k j g f f 6 6 3 j 2 3 5 6 6 6 7 g j k k k k Y.A A A A A A A A A S S S A A A S l l l d d d d 5 5 4 5 5 3 5                                   = - ; - * = - : : P.I.U.Y.T.R.E.W.Q.!.Q.W.E.R.T.Y.U.I.P.: ; : U.Y.U.= =               n.                                                            ",
"                                            & = = * ; - * = - : : : P.I.I.I.I.I.T.W.Q.I.T.W.E.I.I.I.I.I.E.: : ; : : U.Y.U.= =                           R.R.R.Q.        Q.W.R.Q.                                                                        & ; P.: : P.I.I.Y.Y.E.I.            3   3 6 f 7 g k k l l l l k S l l l l k l l k k l A A A A A A Y.k k j g g f f 6 3 2 2 2 3 4 6 6 7 f g k k Y.Y.Y.A A A A A A A A ! A S S S S A A S Y.Y.k j d d d 5 5 4 3 6 4 2                                   = - ; - * = - : : P.I.U.Y.T.R.E.W.Q.!.Q.W.E.R.T.Y.U.I.P.: ; : U.Y.U.= =                                                                             ",
"                                            * = = * ; - * = - : : : P.: : : : I.E.W.: : : Y.E.R.: : : : I.: : ; : : U.Y.U.= =                           P.W.R.R.Q.      P.Q.W.R.Q.                                                                      ; P.P.P.P.: I.Y.Y.E.Q.%               2 3   f g g j k k k k l l l l l l k l l l l k k l l l k k Y.Y.Y.Y.j g g f d 6 3 2 2 3 4 6 6 7 Y.g j k k k l A A A S S S S ! ! Z ! ! A ! A S S S S l Y.k j d 7 7 6 5 3 2 d                                     = - ; - * = - : : P.I.U.Y.T.R.E.W.Q.!.Q.W.E.R.T.Y.U.I.P.: ; : U.Y.U.= =                                                                             ",
"                                            = = = * ; - * = - : : : P.: : : I.R.E.: : : : : I.R.T.: : : I.: : ; : : U.Y.U.= =                             P.W.R.R.Q.      P.Q.W.R.Q.                M.                                        n.      & & P.P.P.P.P.Y.Y.Y.R.Q.I.            2 6 2 7 f g g j k k k k k l l l l l l k A A l l l l k l k k Y.Y.k j j g g f d 6 3 2 2 3 4 6 7 f g g j Y.j l l A A S S S S ! S F ! ! ! ! ! F ! ! S A l Y.l j d 7 7 6 4 3 2       n.          M.                  = - ; - * = - : : P.I.U.Y.T.R.E.W.Q.!.Q.W.E.R.T.Y.U.I.P.: ; : U.Y.U.= =                                                                             ",
"                                            = = = * ; - * = - : : : P.: : I.T.R.: : : : : : : I.T.Y.: : I.: : ; : : U.Y.U.= =                               P.W.R.R.Q.      P.Q.W.R.Q.                                                                & P.P.P.P.P.P.I.Y.Y.E.Q.%               6 3 6 6 g f g g k k k k l l l l Z A A S A A l l l k k k k k j Y.j g Y.Y.g 7 6 2 2 3 4 4 6 d f g g j j j l Y.A A S S ! F F ! F F ! F F ! F F S A A Y.Y.l k d 7 7 6 4 3 2 2 3                                   = - ; - * = - : : P.I.U.Y.T.R.E.W.Q.!.Q.W.E.R.T.Y.U.I.P.: ; : U.Y.U.P.=                                                                             ",
"      A.                                    = = = * ; - * = - : : : P.: I.Y.T.R.E.W.Q.!.Q.W.E.R.T.Y.U.: I.: : ; : : U.Y.U.= =                                 P.W.R.R.Q.      P.Q.W.R.Q.                                                            & & P.P.P.P.P.I.Y.Y.Y.R.Q.I.              2 3 4 6 g f k g k j k l l l l l A S S ! A A l l k k k k Y.j g g g g Y.f 6 6 4 2 2 3 4 5 7 f f g g j j j Z A A A S ! F F F F F F F F F F F F ! S A A k l k d 7 7 6 4 3 3 2   2       A.                        = - ; - * = - : : P.I.U.Y.T.R.E.W.Q.!.Q.W.E.R.T.Y.U.I.P.: ; : P.U.Y.U.=                                                                             ",
"                                            = = = * ; - * = - : : : P.I.U.Y.T.R.E.: : : : : : T.T.T.U.I.I.: : ; : : U.Y.U.= =                                   P.W.R.R.Q.      P.Q.I.I.I.I.I.I.I.I.I.I.I.I.I.%                                   & & & P.P.P.P.P.I.Y.Y.Y.E.Q.%                 2 4 g g f k k g k k l l l A S S ! ! ! ! A A k l k k Y.Y.g f f Y.f Y.7 Y.6 3 2 3 3 4 6 d f g g Y.k j j Z A A S S ! ! F F F F F ! ! ! F ! ! S S S A l l j g d 7 6 4 3 4 2                                     = - ; - * = - : : P.I.I.I.I.I.T.W.Q.I.T.W.E.I.I.I.I.I.E.: ; : : U.Y.U.=                                                   M.                  M.    ",
"                                            = = = * ; - * = - : : : P.I.U.: I.R.: : I.!.Q.W.E.R.T.: I.I.P.: : ; : : U.Y.U.= =                                     P.W.R.R.Q.I.I.I.I.; ; ; ; ; ; ; ; ; ; ; ; ; I.I.I.I.%                           & ; ; I.I.P.P.I.Y.Y.Y.Y.E.Q.%                 2 4 6 7 f g k j k k l & P.R.R.R.R.R.R.R.R.R.R.R.R.R.R.R.R.R.R.R.R.R.R.R.R.: : : : R.R.P.& g j k l j l Z A S S S S S ! F F F F F F F F ! S S S A A l l j g d 7 6 4 5 2 2   M.                                = - ; - * = - : : P.: : : : I.E.W.: : : Y.E.R.: : : : I.: ; : : U.Y.U.=                                                                             ",
"                        M.                  = = = * ; = * = - : : : P.I.: : I.R.: : I.!.Q.W.E.R.T.: : T.P.: : ; : : U.Y.U.= =           M.                          P.W.I.I.; ; ; ; ; ; ; ; ; ; ; ; ; ; ; ; ; ; ; ; ; I.I.%                     & & ; P.P.P.I.I.I.Y.Y.Y.R.E.Q.                y 2 4 6 & P.R.R.R.R.R.R.R.R.T.Y.Y.Y.Y.Y.Y.Y.Y.Y.Y.T.R.T.Y.Y.T.R.E.W.!.W.E.R.Y.Y.Y.Y.Y.Y.R.R.R.R.R.R.R.R.: : S S S S S S ! F F F ! F F F ! S S S A A l k j f d 6 6 d 6 4         3                           $ = - ; - * = - : : P.: : : I.R.E.: : : : : I.R.T.: : : I.: ; : : U.Y.U.= $                                                                           ",
"                                            = = * - ; * = = - : : : P.: : : I.R.: : I.I.I.I.I.T.T.: : : I.: : ; : : U.Y.U.= =                                       % P.; ; ; ; ; ; = = = = = = = = = = = = = ; ; ; ; ; ; I.%                   & ; P.P.P.P.P.I.Y.Y.Y.R.R.E.Q.                & P.R.R.R.R.U.I.U.Y.Y.Y.Y.Y.T.Y.Y.Y.Y.Y.Y.Y.Y.Y.Y.T.R.T.Y.Y.T.R.E.W.!.W.E.R.Y.Y.Y.Y.Y.Y.Y.Y.Y.Y.Y.Y.Y.Y.Y.Y.: : P.& S S ! F F F ! F ! ! ! S S S A A l l j f d 6 5 4 6                               n.      % = - ; - * = - : : P.: : I.T.R.: : : : : : : I.T.Y.: : I.: ; : : U.Y.U.= %             M.                                                            ",
"                                            = = * - ; * = = - : : : P.I.: : I.R.E.W.Q.!.Q.: : I.T.: : : P.: : ; : : U.Y.U.= =                                     % I.; ; ; = = = =                           = = = = ; ; ; I.%               & & ; P.P.P.P.I.Y.Y.Y.Y.Y.R.Q.I.            = R.R.T.T.Y.T.Y.U.I.U.Y.Y.Y.Y.Y.T.Y.Y.Y.Y.Y.Y.Y.Y.Y.Y.T.R.T.Y.Y.T.R.E.W.!.W.E.R.T.Y.Y.Y.Y.Y.Y.Y.Y.Y.Y.Y.Y.Y.Y.Y.Y.Y.Y.R.R.= ! ! F ! ! ! ! S ! S S S A A l l k g d 6 5 4 3 2 2   2 4 4                           & = - ; - * = - : : P.: I.Y.T.R.E.W.Q.!.Q.W.E.R.T.Y.U.: I.: ; : : U.Y.U.= &                                                                           ",
"                                            = = * - ; * = = - : : : P.I.U.: I.R.E.W.Q.!.Q.: : I.T.: : I.P.T.: ; : : U.Y.U.= =                                     I.; ; = =       * : : : : : : : : : : : : : *       = = ; ; I.              & ; P.P.P.P.P.P.Y.Y.Y.Y.R.E.E.Q.        * U.Y.U.Y.T.T.Y.T.Y.U.I.U.Y.Y.Y.Y.Y.T.Y.Y.Y.Y.Y.Y.Y.Y.Y.Y.T.R.T.Y.Y.T.R.E.W.!.W.E.R.T.Y.Y.Y.Y.Y.Y.Y.Y.Y.Y.Y.Y.Y.Y.Y.Y.Y.Y.Y.U.Y.U.* ! ! ! ! ! ! S S S A A A l l j g d d 6 4 4 3 2 4 3 2 5     n.  M.                * = - ; - * = - : : P.I.U.Y.T.R.E.: : : : : : T.T.T.U.I.I.: ; : : U.Y.U.= *                           M.                                              ",
"                                            = = * - ; * = = - : : : P.I.U.Y.I.R.: : : : : : : R.T.: U.I.I.: : ; : : U.Y.U.= =                                     ; ; =     * : : : : : Y.T.R.E.W.W.E.R.T.Y.: : : : *     = ; ;             & & ; P.P.P.P.P.I.Y.Y.Y.Y.R.E.Q.        : I.U.Y.U.Y.T.T.Y.T.Y.U.I.U.Y.Y.Y.Y.Y.T.Y.Y.Y.Y.Y.Y.Y.Y.Y.Y.T.R.T.Y.Y.T.R.E.W.!.W.E.R.T.Y.Y.Y.Y.Y.Y.Y.Y.Y.Y.Y.Y.Y.Y.Y.Y.Y.Y.Y.U.Y.U.I.: ! A S S ! S S A A A A l k j f d d 6 5 5 3 2   3       2       M.              = = - ; - * = - : : P.I.U.: I.R.: : I.!.Q.W.E.R.T.: I.I.P.: ; : : U.Y.U.= =                                                           n.              ",
"                    M.                A.    = = * - ; * = = - : : : P.: I.Y.T.R.E.W.Q.!.Q.W.E.R.T.Y.U.I.: : : ; : : U.Y.U.= =                                     ; =   : : - : : P.I.U.Y.T.R.E.W.W.E.R.T.Y.U.I.P.; : : :   = ;             & ; P.P.P.P.P.P.I.Y.Y.Y.R.E.Q.Q.      = : I.U.Y.U.Y.T.T.Y.T.Y.U.I.U.Y.Y.Y.Y.Y.T.Y.Y.Y.Y.Y.Y.Y.Y.Y.Y.T.R.T.Y.Y.T.R.E.W.!.W.E.R.T.Y.Y.Y.Y.Y.Y.Y.Y.Y.Y.Y.Y.Y.Y.Y.Y.Y.Y.Y.U.Y.U.I.: = ! S S S S A A A A A l k g f d d 6 6 5 3 2         4       n.                - = - ; - * = - : : P.I.: : I.R.: : I.!.Q.W.E.R.T.: : T.P.: ; : : U.Y.U.= =                                                 M.                        ",
"                                            = = * - ; * = = - : : : P.: : I.T.R.I.I.I.I.I.I.I.T.T.Y.T.: : : : ; : : U.Y.U.= = $           K.                      =   ; - * = - : P.I.U.Y.T.R.E.W.W.E.R.T.Y.U.I.P.; : U.Y.:   =           & ; P.P.P.P.P.P.I.Y.Y.Y.Y.Y.R.Q.I.      = : I.U.Y.U.Y.T.T.Y.T.Y.U.I.U.Y.Y.Y.Y.U.I.I.I.I.I.I.I.I.I.I.I.I.I.I.I.I.I.I.I.I.I.I.I.I.I.I.I.I.I.I.U.Y.Y.Y.Y.Y.Y.Y.Y.Y.Y.Y.Y.Y.U.Y.U.I.: = ! ! ! S S A A A A j l k g f d 6 6 6 4 4 3 2 6   7 5 2 2                     - = - ; - * = - : : P.: : : I.R.: : I.I.I.I.I.T.T.: : : I.: ; : : U.Y.U.= =                                                                           ",
"                                            = = * - ; * = = - : : : P.I.: : I.R.E.: : : : : : R.T.T.: : P.: : ; : : U.Y.U.= = %                     M.              - ; - * = - : P.I.U.Y.T.R.E.W.W.E.R.T.Y.U.I.P.; : U.Y.U.=             & ; P.P.P.P.P.P.I.Y.Y.Y.Y.R.E.Q.Q.      = : I.U.Y.U.Y.T.T.U.I.I.I.I.I.I.I.I.I.: * $ $ $ $ $ $ $ $ $ $ $ $ $ $ $ $ $ $ $ $ $ $ $ $ $ $ $ $ * : I.I.I.I.I.I.I.I.I.U.Y.Y.Y.U.Y.U.I.: = ! ! ! S S A A l l j k k g f f 6 7 6 5 4 3 4 2 6 6 5                         = = - ; - * = - : : P.I.: : I.R.E.W.Q.!.Q.: : I.T.: : : P.: ; : : U.Y.U.= =               N.                                                          ",
"                                            = = * - ; * = = - : : : P.I.: : : I.E.W.: : : : E.R.I.: : P.P.: : ; : : U.Y.U.= = &                                   $ - ; - * = - : P.I.U.Y.T.R.E.W.W.E.R.T.Y.U.I.P.; : U.Y.U.= $         & ; P.P.P.P.P.P.I.Y.Y.Y.Y.Y.R.E.Q.        = : I.U.I.I.I.I.I.: * $ $ $ $ $ $ $ $ $ $ # # # # # # # # # # # # # # # # # # # # # # # # # # # # $ $ $ $ $ $ $ $ $ $ * : I.I.I.I.I.U.I.: = S S S S A A A l k k k k j g 6 f 7 6 7 6 g f 6   7   2                       = = - ; - * = - : : P.I.U.: I.R.E.W.Q.!.Q.: : I.T.: : I.P.T.; : : U.Y.U.= =             M.V.M.                                                        ",
"                                          $ = = * - ; * = = - : : : P.I.U.: : : I.W.Q.: : W.E.I.: : : I.P.: : ; : : U.Y.U.: = *                                   % - ; - * = - : P.I.U.Y.T.R.E.W.W.E.R.T.Y.U.I.P.; : U.Y.U.= %         & ; I.I.P.P.P.I.Y.Y.Y.Y.Y.R.E.Q.          = : I.: & $ $ $ $ $ $ # # # - : U.T.E.W.W.W.W.W.W.W.W.W.W.W.W.W.W.W.W.W.W.W.W.W.W.W.W.W.W.W.W.W.W.W.W.E.T.U.: - # # # $ $ $ $ $ $ & : I.: = S S S A A A A l l @ k k j g g f 8 8 j 7 k g 7 7   5 3                       = = - ; - * = - : : P.I.U.Y.I.R.: : : : : : : R.T.: U.I.I.: ; : : U.Y.U.= =           N.V.Z.V.N.                                                      ",
"                                          % = = * - ; * = = - : : : P.I.U.: : : : I.Q.!.Q.W.I.: : : P.I.P.: : ; : : U.Y.U.P.= =                                   & - ; - * = - : P.I.U.Y.T.R.E.W.W.E.R.T.Y.U.I.P.; : U.Y.U.= &       & ; P.P.P.I.P.P.I.Y.Y.Y.Y.Y.R.E.Q.%         = &   - : U.T.W.W.W.W.W.W.W.W.W.E.T.R.E.R.T.T.T.T.T.T.T.T.T.T.R.E.R.T.R.E.W.Q.~.^./.(./.^.~.Q.W.g g T.T.T.T.E.W.W.W.! A W.W.E.T.U.: - A & = A Y.S S S A A l k k k k k j g g k j f g 5 7 7 6     2   6               M.  = = - ; - * = - : : P.: I.Y.T.R.E.W.Q.!.Q.W.E.R.T.Y.U.I.: : ; : : U.Y.U.= =             M.V.M.                                                        ",
"                                          & = = * - ; * = = - : : : P.I.U.Y.: : : : Y.I.I.I.: : : : U.I.P.: : : ; : : U.Y.U.= =                                   * - ; - * = - : P.I.U.Y.T.R.E.W.W.E.R.T.Y.U.I.P.; : U.Y.U.= *       ; ; P.P.P.P.I.I.Y.Y.Y.Y.Y.Y.R.E.I.            & : P.I.U.I.T.R.T.U.I.P.I.U.Y.T.T.R.E.R.T.T.T.T.T.T.T.T.T.T.R.E.R.T.R.E.W.Q.~.^./.(./.^.~.Q.W.E.g T.T.T.T.k S S S ! ! ! = = = U.S P.: & S Y.S A Z Z A k l l l l k k k j g 6 k 7 5 6 5 g 7 7     5 2                   = = - ; - * = - : : P.: : I.T.R.I.I.I.I.I.I.I.T.T.Y.T.: : : ; : : U.Y.U.= =               N.        n.                                                ",
"                                          * = = * - ; * = = - : : : P.I.U.Y.: : : : P.I.I.P.: : : P.U.I.P.: : : ; : : U.Y.U.= =                                   = - ; - * = - : P.I.U.Y.T.R.E.W.W.E.R.T.Y.U.I.P.; : U.Y.U.= =     & ; P.P.P.P.P.P.I.Y.Y.Y.Y.Y.R.E.E.Q.          & : = = U.  T.R.= U.I.P.I.U.Y.T.T.T.R.E.R.T.T.T.T.T.T.T.T.T.T.R.E.R.T.T.R.E.W.Q.~.^./.(./.^.~.Q.W.g = = T.T.= = = = S S A A l = = S = P.: S S S A A A S A A S S S k k k j g g f 7 g 7 7 5 7         2                   = = - ; - * = - : : P.I.: : I.R.E.: : : : : : R.T.T.: : P.: ; : : U.Y.U.= =                                                                           ",
"A.                                        = = = * - ; * = = - : : : P.I.U.Y.T.: : : P.I.I.P.: : : Y.U.I.P.: : : ; : : U.Y.U.= =                                   - - ; - * = - : P.I.U.Y.T.R.E.W.W.E.R.T.Y.U.I.P.; : U.Y.U.= =     ; P.P.P.P.P.P.I.Y.Y.Y.Y.Y.Y.R.E.Q.          & : = = = = U.T.= f = I.P.I.U.Y.T.T.R.E.R.T.T.T.T.T.T.T.T.T.T.T.R.E.R.T.T.R.E.W.Q.~.^./.(./.^.6 Q.W.E.g k = = k k k A = = = S l l T.Y.S = S : & S S S A S A S A A A A A k k j j g 7 6 7 3 3 5 2                           = = - ; - * = - : : P.I.: : : I.E.W.: : : : E.R.I.: : P.P.: ; : : U.Y.U.= =                                                                           ",
"  M.                                      = = = * - ; * = = - : : : P.I.U.Y.T.: : : P.I.I.P.: : P.Y.U.I.P.: : : ; : : U.Y.U.= =                                   - - ; - * = - : P.I.U.Y.T.R.E.W.W.E.R.T.Y.U.I.P.; : U.Y.U.= =   & ; I.I.P.P.P.I.I.Y.Y.Y.Y.Y.R.E.Q.Q.        & = = = f f f = = f h f h     Y.T.T.T.R.E.R.T.T.T.T.T.T.T.T.T.T.T.T.R.E.R.T.R.E.W.Q.~.^./.(./.3 4 Q.W.g g j = k k k k $ @ @ = l l l = = l l I.l : & S S A S S ! A S A A A k k k j 6 7 6 5 4 4 3                             = = - ; - * = - : : P.I.U.: : : I.W.Q.: : W.E.I.: : : I.P.: : ; : U.Y.U.= =                                   M.                  A.                  ",
"                                          = = = * - ; * = = - : : : P.I.U.Y.T.R.: : P.I.I.P.: : T.Y.U.I.P.: : : ; : : U.Y.U.= =                                   = - ; - * = - : P.I.U.Y.T.R.E.W.W.E.R.T.Y.U.I.P.; : U.Y.U.= =   ; Y.U.U.I.P.P.I.Y.Y.Y.Y.Y.Y.R.E.Q.        & : = = = f h h h = f h h h I.    T.T.R.E.R.T.T.T.T.T.T.T.T.T.T.T.T.T.R.E.R.T.R.E.W.Q.~.^./.(./.^.4 Q.W.= = g j k k k k k $ S l l l l l k j j j I.P.: & k A A A A S S k k j k g f 7 6 6 4 3 3 2 3                             = - ; - * = - ; : : P.I.U.: : : : I.Q.!.Q.W.I.: : : P.I.P.: : ; : U.Y.U.= =                       n.                                                  ",
"                                          = = = * - ; * = = - : : : P.I.U.Y.T.R.: : P.I.I.P.: P.T.Y.U.I.P.: : : ; : : U.Y.U.= =                                   = - ; - * = - : P.I.U.Y.T.R.E.W.W.E.R.T.Y.U.I.P.; : U.Y.U.P.=   ; Y.Y.U.U.I.I.Y.Y.Y.Y.Y.Y.R.E.Q.        & = = = = f f h h f f h h f = = Y.T.T.T.R.E.R.T.T.T.T.T.T.T.T.T.T.T.T.T.R.E.R.T.T.R.E.W.Q.~.^./.(./.4 6 Q.= g g j k k k k k $ k l l l k k k k g Y.j I.P.: & S S A A S l k k j k g 7 6 6 4 4 3 3 2 2   2                         = - ; - * = - : : : P.I.U.Y.: : : : Y.I.I.I.: : : : U.I.P.: : ; : U.Y.U.= =                                                                           ",
"                              M.          = = = * - ; * = = - : : : P.I.U.Y.T.R.E.: P.I.I.P.: R.T.Y.U.I.P.: : : ; : : U.Y.U.= =                           M.      = - ; - * = - : P.I.U.Y.T.R.E.W.W.E.R.T.Y.U.I.P.; : P.U.Y.U.= ; I.U.U.Y.Y.U.I.Y.Y.Y.Y.Y.R.R.E.Q.h     & = = f f = f h h h h h h h h h f = T.  T.R.E.R.T.T.T.T.T.T.T.T.T.T.T.T.T.R.E.R.T.T.R.E.W.Q.~.^./.(./.^.5 Q.f f g g j k k k k k $ $ k k k k k f = = g U.I.k l & k k k k k k j j j g d 6 6 6 4 3 2 3 3                           $ = - ; - * = - : : : P.I.U.Y.: : : : P.I.I.P.: : : P.U.I.P.: : ; : U.Y.U.P.= $                               M.        n.                              ",
"                                          = = = * - ; * = = - : : : P.I.U.Y.T.R.E.: P.I.I.P.P.R.T.Y.U.I.P.: : : ; : : U.Y.U.= =                                   = - ; - * = - : P.I.U.Y.T.R.E.W.W.E.R.T.Y.U.I.P.; : : U.Y.U.- - - : - - $ $ $ Y.Y.Y.Y.Y.R.E.Q.h     & = = f f f h h f f h h f h h h h h f f T.R.E.R.T.T.T.T.T.T.T.T.T.T.T.T.T.T.R.E.R.T.T.R.E.W.Q.~.^./.(./.^.~.= 7 f f g j j j j j j k j # j j k g g k = k = j k k : & k k k k k j g g g f 6 5 5 4 2 4 2 3 n.                        % = - ; - * = - : : : P.I.U.Y.T.: : : P.I.I.P.: : : Y.U.I.P.: : ; : P.U.Y.U.= %                                                                         ",
"            n.                            = = = * - ; * = = - : : : P.I.U.Y.T.R.E.W.P.I.I.P.E.R.T.Y.U.I.P.: : : ; : : U.Y.U.= =                           M.      = - ; - * = - : P.I.U.Y.T.R.E.W.W.E.R.T.Y.U.I.P.; : : U.Y.U.- - - - $ I.I.I.E.$ Y.Y.Y.R.E.E.Q.h z & = = f f h h h f f f f h f f h f f f = T.T.R.E.R.T.T.T.T.T.T.T.T.T.T.T.T.T.T.R.E.R.T.T.R.E.W.Q.~.^./.(./.^.~.5 d f f g g g j j g k g k j k k k g k g g k g Y.U.I.k : & k k j j j g g g f 6 5 5 5 2 3 2             ;           M.  & = - ; - * = - : : : P.I.U.Y.T.: : : P.I.I.P.: : P.Y.U.I.P.: : ; : : U.Y.U.= &   n.                                                      n.            ",
"                                          = = = * ; * = = - ; : : : P.I.U.Y.T.R.E.W.P.I.I.P.E.R.T.Y.U.I.P.: : : ; : : U.Y.U.= =                                   = - ; - * = - : P.I.U.Y.T.R.E.W.W.E.R.T.Y.U.I.P.; : : U.Y.- - - - - $ Y.Y.!.R.R.Y.Y.Y.R.E.Q.h   & : = f f f h f h f f h f h f f I.= f f = = T.R.E.R.T.T.T.T.T.T.T.T.T.T.T.T.T.T.R.E.R.T.T.T.R.E.W.Q.~.^./.(.3 4 5 d f f R.= g g g k j j # j g k k g g g g g g = = U.I.P.: & j g g g g g f 7 6 4 5 3 2   2             ; ; ; ;         * = - ; - * = - : : : P.I.U.Y.T.R.: : P.I.I.P.: : T.Y.U.I.P.: : ; : : U.Y.U.= *                                                                         ",
"                                          = = * - ; * = = - : : : : P.I.U.Y.T.R.E.W.Q.I.I.W.E.R.T.Y.U.I.P.: : : ; : : U.Y.U.= =                                   = - ; - * = - : P.I.U.Y.T.R.E.W.W.E.R.T.Y.U.I.P.; : : U.Y.; - : - $ P.Y.!.!.R.!.Y.Y.R.E.Q.  n.& : P.= = f h f f f f f f f h f f = f f f f f = E.R.T.T.T.T.T.T.T.T.T.T.T.T.T.T.T.T.R.E.R.T.T.R.E.W.Q.~.^./.2 3 ^.5 Q.W.E.R.T.g T.= g g g $ g g g f g g g g 5 f f f = U.I.P.: & g f f f f 7 6 6 4 3 2 2                 ; ;         -   = = - ; - * = & & : : P.I.U.Y.T.R.: : P.I.I.P.: P.T.Y.U.I.P.: : ; : : U.Y.U.= =                                                                         ",
"                      M.                  = = * - ; * = = - : : : : P.I.U.Y.T.R.E.W.Q.!.Q.W.E.R.T.Y.U.I.P.: : : ; : : U.Y.U.= =                                   = - ; - * = - : P.I.U.Y.T.R.E.W.W.E.R.T.Y.U.I.P.: ; : U.; P.I.I.P.P.P.R.E.!.R.R.Y.Y.R.E.Q.  & :   I.= = = f f f T.R.= f f f f = U.= f f f f R.E.R.T.T.T.T.T.T.T.T.T.T.T.T.T.T.T.T.R.E.R.T.T.R.E.W.Q.g ^./.a /.^.~.5 W.E.R.f T.T.= = g g # g g f f 6 g g g 5 5 5 5 f Y.U.g P.: & f f f f 7 6 6 3 2 3                   ; ; : P.I.  - - - & & & & ; & P.P.& & P.I.U.Y.T.R.E.: P.I.I.P.: R.T.Y.U.I.P.: : ; : : U.Y.U.= =                                                                         ",
"                                          = = * - ; * = = - : : : : P.I.U.Y.T.R.E.W.Q.!.Q.W.E.R.T.Y.U.I.P.: : : ; : : U.Y.U.= =                                   = - - * = - ; : P.I.U.Y.T.R.E.W.W.E.R.T.Y.U.I.P.: ; : U.; P.P.P.I.I.P.P.!.!.R.!.Y.E.E.Q.  & :     U.= f f f f f R.T.U.= f f f = U.Y.= f f R.E.R.T.T.T.T.T.T.T.T.T.T.T.T.T.T.T.T.T.R.E.R.T.T.T.R.E.W.Q.~.^./.(./.^.~.Q.W.E.R.T.f f f f $ $ f 8 3 7 5 5 6 g g 6 5 = T.f f f f P.: & f f f 7 6 6 3 3 2 2 2                 ; ; : P.I.P.- - - - P.P.* = P.P.P.P.P.I.U.Y.T.R.E.: P.I.I.P.P.R.T.Y.U.I.P.: : ; : : U.Y.U.= =                                                                         ",
"                                          = = * - ; * = = - : : : : P.I.U.Y.T.R.E.W.Q.!.Q.W.E.R.T.Y.U.I.P.: : : ; : : U.Y.U.= =                                   - ; - * = - : : P.I.U.Y.T.R.E.W.W.E.R.T.Y.U.I.P.: ; : U.P.P.P.  I.I.P.R.E.!.R.Y.E.Q.Q.& & : P.I.U.f f f f f T.f f U.U.= f f f U.Y.T.T.f T.R.E.R.T.T.T.T.T.T.T.T.T.T.T.T.T.T.T.T.T.R.E.R.T.T.T.R.E.W.Q.~.^./.(./.^.~.Q.W.= = T.T.= f $ # 8 f 8 7 3 4 4 5 6 g g 6 T.Y.T.T.f 7 I.P.: & 7 7 6 6 4 3   2 3   2               ; ; : P.I.P.: - - - : P.P.P.P.P.P.P.P.I.U.Y.T.R.E.W.P.I.I.P.E.R.T.Y.U.I.P.: : ; : : U.Y.U.= =                                                                         ",
"              K.                          = = * - ; * = = - : : : : P.I.U.Y.T.R.E.W.Q.!.Q.W.E.R.T.Y.U.I.P.: : : ; : : U.Y.U.= =                                 $ - ; - * = - : : P.I.U.Y.T.R.E.W.W.E.R.T.Y.U.I.P.: ; : U.Y.U.= $     P.P.!.!.R.R.Y.Q.% & : P.I.U.U.U.= f U.f T.R.T.U.  U.I.f f U.Y.T.T.T.  R.E.R.T.T.T.T.T.T.T.T.T.T.T.T.T.T.T.T.T.R.E.R.T.T.T.R.E.W.Q.~.^./.(./.^.= = = = @ @ T.= 7 # d 7 7 f 7 4 . 3 4 4 5 = T.T.T.Y.T.T.Y.U.I.P.: & 6 6 4 3 2       2                 Y.; : P.I.P.P.- - - - P.P.P.P.P.P.: P.I.U.Y.T.R.E.W.P.I.I.P.E.R.T.Y.U.I.P.: : ; : : U.Y.U.= =                                       n.        M.                      ",
"                      M.                $ = = * - ; * = = - : : : : P.I.U.Y.T.R.E.W.Q.!.Q.W.E.R.T.Y.U.I.P.: : : ; : : U.Y.U.= =                                 % - ; - * = - : : P.I.U.Y.T.R.E.W.W.E.R.T.Y.U.I.P.: ; : U.Y.U.= %       P.E.!.R.Y.Q.  & : P.I.U.U.U.f f f U.T.R.T.U.U.  I.P.I.f Y.T.T.T.T.R.  R.T.T.T.T.T.T.T.T.T.T.T.T.T.T.T.T.T.T.R.E.R.T.T.T.R.E.W.Q.~.^./.(./.^.~.@ @ @ @ @ = = 6 7 6 6 6 6 6 6 $ @ 3 3 4 6 = T.T.6 6 6 6 Y.U.I.P.: & 4 3 2           2               = Y.P.I.I.P.P.$ $ $ $ - P.P.P.P.P.: P.I.U.Y.T.R.E.W.Q.I.I.W.E.R.T.Y.U.I.P.: : ; : : U.Y.U.= =                                                   n.                    ",
"                                        % = = * - ; * = = - : : : : P.I.U.Y.T.R.E.W.Q.- - - E.R.T.Y.U.I.P.: : : ; : : U.Y.U.= =     A.      M.                  & - ; - * = - : : P.I.U.Y.T.R.E.W.W.E.R.T.Y.U.I.P.: ; : U.Y.U.= &     P.P.!.R.R.R.Y.& : P.I.U.U.U.  U.I.f T.R.T.U.U.U.U.I.P.I.f Y.T.T.T.T.R.E.R.T.T.T.T.T.T.T.T.T.T.T.T.T.T.T.T.T.T.R.E.R.T.T.T.T.R.E.W.Q.~.^./.(./.= @ Q.W.@ @ @ = 6 $ 6 6 6 6 6 @ $ @ 2 3 3 4 4 = = 2 = T.T.5 Y.U.I.P.: & 3 2         n.                  = E.Y.Y.I.$ P.P.Y.P.$ P.P.I.I.I.: P.I.U.Y.T.R.E.W.Q.!.Q.W.E.- - - U.I.P.: : ; : : U.Y.U.= =                   M.                                                    ",
"                      n.                & = = * - ; * = = - : : : : P.I.U.Y.T.R.E.W.- CXCXCX- R.T.Y.U.I.P.: : : ; : : U.Y.U.= =                                 * - ; - * = - : : P.I.U.Y.T.R.E.W.W.E.R.T.Y.U.I.P.: ; : U.Y.U.= *       P.E.!.R.I.& : P.I.U.U.U.U.U.I.U.U.T.R.T.U.U.U.I.P.I.U.Y.  T.T.T.T.R.E.R.T.T.T.T.T.T.T.T.T.T.T.T.T.T.T.T.T.T.R.E.R.T.T.T.T.R.E.W.Q.~.^./.(./.rX~.Q.W.E.= @ @ $ @ 6 6 6 6 4 $ @ 4 2 2 3 3 3 2 2 5 = Y.T.T.T.Y.U.I.P.: & 2                               = Q.Y.P.P.R.Y.Y.Y.I.$ I.Y.Y.: : P.I.U.Y.T.R.E.W.Q.!.Q.W.- ZXZXZX- I.P.: : ; : : U.Y.U.= =                                                                         ",
"                                        * = = * - ; * = = - : : : : P.I.U.Y.T.R.E.W.- CXCXCX- R.T.Y.U.I.P.: : : ; : : U.Y.U.= =                                 = - ; - * = - : : P.I.U.Y.T.R.E.W.W.E.R.T.Y.U.I.P.: ; : U.Y.U.= =     R.P.!.R.R.R.: P.I.U.U.U.U.U.I.U.U.T.R.T.U.U.U.U.I.P.I.U.Y.  T.T.T.R.E.R.T.T.T.T.T.T.T.T.T.T.T.T.T.T.T.T.T.T.T.T.R.E.R.T.T.T.R.E.W.Q.~.^./.tX/.^.~.Q.W.= = @ @ $ @ 3 3 3 3 3 $ @ 3 2 2 2 2 2 3 3 4 4 = = T.T.T.Y.U.I.P.: &                               = P.P.R.P.P.E.!.!.E.$ Y.Y.: : : P.I.U.Y.T.R.E.W.Q.!.Q.W.- ZXZXZX- I.P.: : ; : : U.Y.U.= =                                                                         ",
"                                        = = = * - ; * = = - : : : : P.I.U.Y.T.R.E.W.- - - - - R.T.Y.U.I.P.: : : ; : : U.Y.U.= =                   M.            - - ; - * = - : : P.I.U.Y.T.R.E.W.W.E.R.T.Y.U.I.P.: ; : U.Y.U.= =     P.P.!.!.!.: P.I.U.U.U.U.U.U.I.U.T.R.T.U.U.U.U.I.P.I.U.Y.  T.T.T.T.R.E.R.T.T.T.T.T.T.T.T.T.T.T.T.T.T.T.T.T.T.T.T.R.E.R.T.T.T.R.E.W.Q.~.^./.(./.^.~.Q.W.= @ @ # @ 2 2 2 2 2 $ $ @ @ 2 2       2 2 3 3 3 3 Y.T.T.T.Y.U.I.P.: &                         = P.P.R.P.P.E.!.!.!.R.R.$ Y.- : : : P.I.U.Y.T.R.E.W.Q.!.Q.W.- - - - - I.P.: : ; : : U.Y.U.= =                                                                         ",
"                                        = = = * - ; * = = - : : : : P.I.U.Y.T.R.E.W.- CXCXCX- R.T.Y.U.I.P.: : : ; : : U.Y.U.= =                   n.            - - ; - * = - : : P.I.U.Y.T.R.E.W.W.E.R.T.Y.U.I.P.: ; : U.Y.U.= =     R.P.!.R.R.R.I.U.U.U.U.U.U.I.U.U.T.R.T.U.U.U.U.I.P.I.U.  T.T.T.T.R.E.R.T.T.T.T.T.T.T.T.T.T.T.T.T.T.T.T.T.T.T.T.T.R.E.R.T.T.T.T.R.E.W.Q.~.^./.(./.^.@ @ @ @ @ @ @         $ @ @ @ @ @             2 2 T.T.2 Y.T.T.T.Y.U.I.P.: &                   = P.P.R.P.P.E.!.!.!.R.R.!.R.Y.= - : : : P.I.U.Y.T.R.E.W.Q.!.Q.W.- ZXZXZX- I.P.: : ; : : U.Y.U.= =                                                                         ",
"                                        = = = * - ; * = = - : : : : P.I.U.Y.T.R.E.W.- CXCXCX- R.T.Y.U.I.P.: : : ; : : U.Y.U.= =                                 = - ; - * = - : : P.I.U.Y.T.R.E.W.W.E.R.T.Y.U.I.P.: ; : U.Y.U.= =     P.P.!.!.!.: U.U.U.U.U.U.I.U.U.T.R.T.U.U.U.U.I.P.I.U.Y.T.T.T.T.T.R.E.R.T.T.T.T.T.T.T.T.T.T.T.T.T.T.T.T.T.T.T.T.T.R.E.R.T.T.T.T.R.E.W.Q.~.^./.(./.^.~.Q.W.@ R.@   T.T.  @ @ @ @ T.  T.' ` `   ` ' T.    T.T.T.Y.T.T.T.Y.U.I.P.: &             = P.P.R.P.P.E.!.!.!.R.R.!.R.E.- * = - : : : P.I.U.Y.T.R.E.W.Q.!.Q.W.- ZXZXZX- I.P.: : : : : U.Y.U.= =                                                                         ",
"                                        = = = * - ; * = = - : : : : P.).).).).).).).).).).).).).).).).).).).).).).).).).).).).).).).).).).).).).).).).).).).).).).).).).).).).).).).).).).).).).).).).).).).).).).).).).).).).).).).).).).).).).).).).).).).).).).).).).).).).).).).).).).).).).).).).).).).).).).).).).).).).).).).).).).).).).).).).).).).).).).).).).).).).).).).).).).).).).).).).).).).).).).).).).).).).).).).).).).).).).).).).).).).).).).).).).).).).).).).).).).).).).).).).).).).).).).).).).).).).).).).).).).).).).).).).).).).).).).).).).).).).).Y.U.= =                                                                         ",
"                                        = = = * - ; * = = - : : : : P.).).).).).).).).).).).).).).).).).).).).).).).).).).).).).).).).).).).).).).).).).).).).).).).).).).).).).).).).).).).).).).).).).).).).).).).).).).).).).).).).).).).).).).).).).).).).).).).).).).).).).).).).).).).).).).).).).).).).).).).).).).).).).).).).).).).).).).).).).).).).).).).).).).).).).).).).).).).).).).).).).).).).).).).).).).).).).).).).).).).).).).).).).).).).).).).).).).).).).).).).).).).).).).).).).).).).).).).).).).).).).).).).).).).).).).).).).).).).).).).).).).).).).Y.U.= = $                                                                       ",
"                                        = = = * - ; * = = - : : : : P./.!.!.!.!.!.!.!.!.!.!.!.!.!.!.!.!.!.!.!.!.!.!.!.!.!.!.!.!.!.!.!.!.!.!.!.!.!.!.!.!.!.!.!.!.!.!.!.!.!.!.!.!.!.!.!.!.!.!.!.!.!.!.!.!.!.!.!.!.!.!.!.!.!.!.!.!.!.!.!.!.!.!.!.!.!.!.!.!.!.!.!.!.!.!.!.!.!.!.!.!.!.!.!.!.!.!.!.!.!.!.!.!.!.!.!.!.!.!.!.!.!.!.!.!.!.!.!.!.!.!.!.!.!.!.!.!.!.!.!.!.!.!.!.!.!.!.!.!.!.!.!.!.!.!.!.!.!.!.!.!.!.!.!.!.!.!.!.!.!.!.!.!.!.!.!.!.!.!.!.!.!.!.!.!.!.!.!.!.!.!.!.!.!.!.!.!.!.!.!.!.!.!.!.!.!.!.!.!.!.!.!.!.!.!.!.!.!.!.!.!.!.!.!.!.!.!.!.!.!.!.!.!.!.!.!.!.!.!.!.!.!.!.!./.Y.U.= = %                                                                       ",
"                                        = = = * - ; * = = - : : : : P./.!.!.!.!.!.!.!.!.!.!.!.!.!.!.!.!.!.!.!.!.!.!.!.!.!.!.!.!.!.!.!.!.!.!.!.!.!.!.!.!.!.!.!.!.!.!.!.!.!.!.!.!.!.!.!.!.!.!.!.!.!.!.!.!.!.!.!.!.!.!.!.!.!.!.!.!.!.!.!.!.!.!.!.!.!.!.!.!.!.!.!.!.!.!.!.!.!.!.!.!.!.!.!.!.!.!.!.!.!.!.!.!.!.!.!.!.!.!.!.!.!.!.!.!.!.!.!.!.!.!.!.!.!.!.!.!.!.!.!.!.!.!.!.!.!.!.!.!.!.!.!.!.!.!.!.!.!.!.!.!.!.!.!.!.!.!.!.!.!.!.!.!.!.!.!.!.!.!.!.!.!.!.!.!.!.!.!.!.!.!.!.!.!.!.!.!.!.!.!.!.!.!.!.!.!.!.!.!.!.!.!.!.!.!.!.!.!.!.!.!.!.!.!.!.!.!.!.!.!.!.!.!.!.!.!.!.!.!.!.!.!.!.!./.Y.U.= = &             n.                                                        ",
"                                        = = = * - ; * = = - : : : : P.U.U.U.U.U.U.U.U.U.U.U.U.U.U.U.U.U.U.U.U.U.U.U.U.U.U.U.U.U.U.U.U.U.U.U.U.U.U.U.U.U.U.U.U.U.U.U.U.U.U.U.U.U.U.U.U.U.U.U.U.U.U.U.U.U.U.U.U.U.U.U.U.U.U.U.U.U.U.U.U.U.U.U.U.U.U.U.U.U.U.U.U.U.U.U.U.U.U.U.U.U.U.U.U.U.U.U.U.U.U.U.U.U.U.U.U.U.U.U.U.U.U.U.U.U.U.U.U.U.U.U.U.U.U.U.U.U.U.U.U.U.U.U.U.U.U.U.U.U.U.U.U.U.U.U.U.U.U.U.U.U.U.U.U.U.U.U.U.U.U.U.U.U.U.U.U.U.U.U.U.U.U.U.U.U.U.U.U.U.U.U.U.U.U.U.U.U.U.U.U.U.U.U.U.U.U.U.U.U.U.U.U.U.U.U.U.U.U.U.U.U.U.U.U.U.U.U.U.U.U.U.U.U.U.U.U.U.U.U.U.U.U.U.U.U.Y.U.= = *                                                                       ",
"                                        = = = * - ; * = = - : : : : P.I.U.Y.Q.R.= = = = = = = = = = = T.E.T.= = = = = = = = = = = T.E.T.= = = = = = = = = = = T.E.T.= = = = = = = = = = = T.E.T.= = = = = = = = = = = T.E.T.= = = = = = = = = = = T.E.T.= = = = = = = = = = = T.E.T.= = = = = = = = = = = T.E.T.= = = = = = = = = = = T.E.T.= = = = = = = = = = = T.E.T.= = = = = = = = = = = T.E.T.= = = = = = = = = = = T.E.T.= = = = = = = = = = = T.E.T.= = = = = = = = = = = T.E.T.= = = = = = = = = = = T.E.T.= = = = = = = = = = = T.E.T.= = = = = = = = = = = R.Q.: : U.Y.U.= = =             A.                                                        ",
"                                        = = = * - ; * = = - : : : : P.I.U.Y./.Q.= % % % % % % % % % = T.Q.T.= % % % % % % % % % = T.Q.T.= % % % % % % % % % = T.Q.T.= % % % % % % % % % = T.Q.T.= % % % % % % % % % = T.Q.T.= % % % % % % % % % = T.Q.T.= % % % % % % % % % = T.Q.T.= % % % % % % % % % = T.Q.T.= % % % % % % % % % = T.Q.T.= % % % % % % % % % = T.Q.T.= % % % % % % % % % = T.Q.T.= % % % % % % % % % = T.Q.T.= % % % % % % % % % = T.Q.T.= % % % % % % % % % = T.Q.T.= % % % % % % % % % = T.Q.T.= % % % % % % % % % = T.Q.T.= % % % % % % % % % = Q./.: : U.Y.U.P.= =                     M.                                                ",
"                                        = = = * - ; * = = - : : : : P.I.U.Y./.Q.= = = = = = = = = = = T.Q.T.= = = = = = = = = = = T.Q.T.= = = = = = = = = = = T.Q.T.= = = = = = = = = = = T.Q.T.= = = = = = = = = = = T.Q.T.= = = = = = = = = = = T.Q.T.= = = = = = = = = = = T.Q.T.= = = = = = = = = = = T.Q.T.= = = = = = = = = = = T.Q.T.= = = = = = = = = = = T.Q.T.= = = = = = = = = = = T.Q.T.= = = = = = = = = = = T.Q.T.= = = = = = = = = = = T.Q.T.= = = = = = = = = = = T.Q.T.= = = = = = = = = = = T.Q.T.= = = = = = = = = = = T.Q.T.= = = = = = = = = = = Q./.: : P.U.Y.U.= =                                                       K.              ",
"                          A.            = = = * - ; * = = - : : : : P.I.U.Y./.Q.).).).).).).).).).).).Q.Q.).).).).).).).).).).).).Q.Q.).).).).).).).).).).).).Q.Q.).).).).).).).).).).).).Q.Q.).).).).).).).).).).).).Q.Q.).).).).).).).).).).).).Q.Q.).).).).).).).).).).).).Q.Q.).).).).).).).).).).).).Q.Q.).).).).).).).).).).).).Q.Q.).).).).).).).).).).).).Q.Q.).).).).).).).).).).).).Q.Q.).).).).).).).).).).).).Q.Q.).).).).).).).).).).).).Q.Q.).).).).).).).).).).).).Q.Q.).).).).).).).).).).).).Q.Q.).).).).).).).).).).).).Q.Q.).).).).).).).).).).).).Q./.: : : U.Y.U.= =                                                             M.        ",
"                                        = = * = - ; * = = - : : : : P.I.U.Y./.Q.Q.Q.Q.Q.Q.Q.Q.Q.Q.Q.Q.Q.Q.Q.Q.Q.Q.Q.Q.Q.Q.Q.Q.Q.Q.Q.Q.Q.Q.Q.Q.Q.Q.Q.Q.Q.Q.Q.Q.Q.Q.Q.Q.Q.Q.Q.Q.Q.Q.Q.Q.Q.Q.Q.Q.Q.Q.Q.Q.Q.Q.Q.Q.Q.Q.Q.Q.Q.Q.Q.Q.Q.Q.Q.Q.Q.Q.Q.Q.Q.Q.Q.Q.Q.Q.Q.Q.Q.Q.Q.Q.Q.Q.Q.Q.Q.Q.Q.Q.Q.Q.Q.Q.Q.Q.Q.Q.Q.Q.Q.Q.Q.Q.Q.Q.Q.Q.Q.Q.Q.Q.Q.Q.Q.Q.Q.Q.Q.Q.Q.Q.Q.Q.Q.Q.Q.Q.Q.Q.Q.Q.Q.Q.Q.Q.Q.Q.Q.Q.Q.Q.Q.Q.Q.Q.Q.Q.Q.Q.Q.Q.Q.Q.Q.Q.Q.Q.Q.Q.Q.Q.Q.Q.Q.Q.Q.Q.Q.Q.Q.Q.Q.Q.Q.Q.Q.Q.Q.Q.Q.Q.Q.Q.Q.Q.Q.Q.Q.Q.Q.Q.Q.Q.Q.Q.Q.Q.Q.Q.Q.Q.Q.Q.Q.Q.Q.Q.Q.Q.Q.Q.Q.Q.Q.Q.Q.Q.Q.Q.Q.Q.Q.Q.Q.Q.Q./.: : : U.Y.U.= =                                                                       ",
"                                      $ = = * = - ; * = = - : : : : P.I.U.Y./.Q.Q.Q.Q.Q.Q.Q.Q.Q.Q.Q.Q.Q.Q.Q.Q.Q.Q.Q.Q.Q.Q.Q.Q.Q.Q.Q.Q.Q.Q.Q.Q.Q.Q.Q.Q.Q.Q.Q.Q.Q.Q.Q.Q.Q.Q.Q.Q.Q.Q.Q.Q.Q.Q.Q.Q.Q.Q.Q.Q.Q.Q.Q.Q.Q.Q.Q.Q.Q.Q.Q.Q.Q.Q.Q.Q.Q.Q.Q.Q.Q.Q.Q.Q.Q.Q.Q.Q.Q.Q.Q.Q.Q.Q.Q.Q.Q.Q.Q.Q.Q.Q.Q.Q.Q.Q.Q.Q.Q.Q.Q.Q.Q.Q.Q.Q.Q.Q.Q.Q.Q.Q.Q.Q.Q.Q.Q.Q.Q.Q.Q.Q.Q.Q.Q.Q.Q.Q.Q.Q.Q.Q.Q.Q.Q.Q.Q.Q.Q.Q.Q.Q.Q.Q.Q.Q.Q.Q.Q.Q.Q.Q.Q.Q.Q.Q.Q.Q.Q.Q.Q.Q.Q.Q.Q.Q.Q.Q.Q.Q.Q.Q.Q.Q.Q.Q.Q.Q.Q.Q.Q.Q.Q.Q.Q.Q.Q.Q.Q.Q.Q.Q.Q.Q.Q.Q.Q.Q.Q.Q.Q.Q.Q.Q.Q.Q.Q.Q.Q.Q.Q.Q.Q.Q.Q.Q.Q.Q.Q.Q.Q.Q.Q.Q.Q.Q.Q./.: : : U.Y.U.= =                                                                       ",
"                                      % = = * = - ; * = = - : : : : P.I.U.Y./.Q.Q.Q.Q.Q.Q.Q.Q.Q.Q.Q.Q.Q.Q.Q.Q.Q.Q.Q.Q.Q.Q.Q.Q.Q.Q.Q.Q.Q.Q.Q.Q.Q.Q.Q.Q.Q.Q.Q.Q.Q.Q.Q.Q.Q.Q.Q.Q.Q.Q.Q.Q.Q.Q.Q.Q.Q.Q.Q.Q.Q.Q.Q.Q.Q.Q.Q.Q.Q.Q.Q.Q.Q.Q.Q.Q.Q.Q.Q.Q.Q.Q.Q.Q.Q.Q.Q.Q.Q.Q.Q.Q.Q.Q.Q.Q.Q.Q.Q.Q.Q.Q.Q.Q.Q.Q.Q.Q.Q.Q.Q.Q.Q.Q.Q.Q.Q.Q.Q.Q.Q.Q.Q.Q.Q.Q.Q.Q.Q.Q.Q.Q.Q.Q.Q.Q.Q.Q.Q.Q.Q.Q.Q.Q.Q.Q.Q.Q.Q.Q.Q.Q.Q.Q.Q.Q.Q.Q.Q.Q.Q.Q.Q.Q.Q.Q.Q.Q.Q.Q.Q.Q.Q.Q.Q.Q.Q.Q.Q.Q.Q.Q.Q.Q.Q.Q.Q.Q.Q.Q.Q.Q.Q.Q.Q.Q.Q.Q.Q.Q.Q.Q.Q.Q.Q.Q.Q.Q.Q.Q.Q.Q.Q.Q.Q.Q.Q.Q.Q.Q.Q.Q.Q.Q.Q.Q.Q.Q.Q.Q.Q.Q.Q.Q.Q.Q.Q./.: : : U.Y.U.= =     n.                                                                ",
"                                      & = = * = - ; * = = - : : : : P.I.U.Y./.Q.Q.Q.Q.Q.Q.Q.Q.Q.Q.Q.Q.Q.Q.Q.Q.Q.Q.Q.Q.Q.Q.Q.Q.Q.Q.Q.Q.Q.Q.Q.Q.Q.Q.Q.Q.Q.Q.Q.Q.Q.Q.Q.Q.Q.Q.Q.Q.Q.Q.Q.Q.Q.Q.Q.Q.Q.Q.Q.Q.Q.Q.Q.Q.Q.Q.Q.Q.Q.Q.Q.Q.Q.Q.Q.Q.Q.Q.Q.Q.Q.Q.Q.Q.Q.Q.Q.Q.Q.Q.Q.Q.Q.Q.Q.Q.Q.Q.Q.Q.Q.Q.Q.Q.Q.Q.Q.Q.Q.Q.Q.Q.Q.Q.Q.Q.Q.Q.Q.Q.Q.Q.Q.Q.Q.Q.Q.Q.Q.Q.Q.Q.Q.Q.Q.Q.Q.Q.Q.Q.Q.Q.Q.Q.Q.Q.Q.Q.Q.Q.Q.Q.Q.Q.Q.Q.Q.Q.Q.Q.Q.Q.Q.Q.Q.Q.Q.Q.Q.Q.Q.Q.Q.Q.Q.Q.Q.Q.Q.Q.Q.Q.Q.Q.Q.Q.Q.Q.Q.Q.Q.Q.Q.Q.Q.Q.Q.Q.Q.Q.Q.Q.Q.Q.Q.Q.Q.Q.Q.Q.Q.Q.Q.Q.Q.Q.Q.Q.Q.Q.Q.Q.Q.Q.Q.Q.Q.Q.Q.Q.Q.Q.Q.Q.Q.Q.Q./.: : : U.Y.U.= =                                                                       ",
"$ $ $ $ $ $ $ $ $ $ $ $ $ $ $ $ $ $ $ * = = * - ; * = = - : : : : : P.I.U.Y././././././././././././././././././././././././././././././././././././././././././././././././././.).).).).).).).).).).).).).).).).).).).).).).).).).).).).).).).).Q.E./././././././././././././././././././././././././././././././././././././././././././././././././././././././././././././././././././././././.E.Q.).).).).).).).).).).).).).).).).).).).).).).).).).).).).).).).)././././././././././././././././././././././././././././././././././././././././././././././././././.: : : U.Y.U.= = $ $ $ $ $ $ $ $ $ $ $ $ $ $ $ $ $ $ $ $ $ $ $ $ $ $ $ $ $ $ $ $ $ $ $ ",
"$ $ $ $ $ $ $ $ $ $ $ $ $ $ $ $ $ $ $ = = = * - ; * = = - : : : : : P.I.U./.^.^.^.^.^.^.^.^.^.^.^.^.^.^.^.^.^.^.^.^.^.^.^.^.^.^.^.^.^.^.^.^.^.^.^.^.^.^.^.^.^.^.^.^.^.^.^.^.^.^.).).).).).).).).).).).).).).).).).).).).).).).).).).).).).).).).R.E.^.^.^.^.^.^.^.^.^.^.^.^.^.^.^.^.^.^.^.^.^.^.^.^.^.^.^.^.^.^.^.^.^.^.^.^.^.^.^.^.^.^.^.^.^.^.^.^.^.^.^.^.^.^.^.^.^.^.^.^.^.^.^.^.^.^.^.^.^.^.^.E.R.).).).).).).).).).).).).).).).).).).).).).).).).).).).).).).).).^.^.^.^.^.^.^.^.^.^.^.^.^.^.^.^.^.^.^.^.^.^.^.^.^.^.^.^.^.^.^.^.^.^.^.^.^.^.^.^.^.^.^.^.^.^.^.^.^.^./.: : U.Y.U.= = $ $ $ $ $ $ $ $ $ $ $ $ $ $ $ $ $ $ $ $ $ $ $ $ $ $ $ $ $ $ $ $ $ $ $ ",
"$ $ $ $ $ $ $ $ $ $ $ $ $ $ $ $ $ $ $ = = = * - ; * = = - : : : : : P.I./.^.^.^.^.^.^.^.^.^.^.^.^.^.^.^.^.^.^.^.^.^.^.^.^.^.^.^.^.^.^.^.^.^.^.^.^.^.^.^.^.^.^.^.^.^.^.^.^.^.^.).).).).).).).).).).).).).).).).).).).).).).).).).).).).).).).).).T.E.^.^.^.^.^.^.^.^.^.^.^.^.^.^.^.^.^.^.^.^.^.^.^.^.^.^.^.^.^.^.^.^.^.^.^.^.^.^.^.^.^.^.^.^.^.^.^.^.^.^.^.^.^.^.^.^.^.^.^.^.^.^.^.^.^.^.^.^.^.^.^.E.T.).).).).).).).).).).).).).).).).).).).).).).).).).).).).).).).).).^.^.^.^.^.^.^.^.^.^.^.^.^.^.^.^.^.^.^.^.^.^.^.^.^.^.^.^.^.^.^.^.^.^.^.^.^.^.^.^.^.^.^.^.^.^.^.^.^.^./.: U.Y.U.= = $ $ $ $ $ % $ $ $ $ $ $ $ $ $ $ $ $ $ $ $ $ $ $ $ $ $ $ % $ $ $ $ $ $ ",
"$ $ $ $ $ $ $ % $ $ $ $ $ $ $ % $ $ $ = = = * - ; * = = - : : : : : P./.^.^.^.^.^.^.^.^.^.^.^.^.^.^.^.^.^.^.^.^.^.^.^.^.^.^.^.^.^.^.^.^.^.^.^.^.^.^.^.^.^.^.^.^.^.^.^.^.^.^.^.).).).).).).).).).).).).).).).).).).).).).).).).).).).).).).).).).T.E.^.^.^.^.^.^.^.^.^.^.^.^.^.^.^.^.^.^.^.^.^.^.^.^.^.^.^.^.^.^.^.^.^.^.^.^.^.^.^.^.^.^.^.^.^.^.^.^.^.^.^.^.^.^.^.^.^.^.^.^.^.^.^.^.^.^.^.^.^.^.^.E.T.).).).).).).).).).).).).).).).).).).).).).).).).).).).).).).).).).^.^.^.^.^.^.^.^.^.^.^.^.^.^.^.^.^.^.^.^.^.^.^.^.^.^.^.^.^.^.^.^.^.^.^.^.^.^.^.^.^.^.^.^.^.^.^.^.^.^.^./.U.Y.U.= = $ $ $ % $ $ $ $ $ $ $ $ % $ $ $ $ $ $ $ $ $ % $ $ % $ $ $ $ % $ $ % $ ",
"$ $ $ $ % % $ $ % % % $ $ $ $ $ % $ $ = = = * - ; * = = - : : : : : /.^.^.^.^.^.^.^.^.^.^.^.^.^.^.^.^.^.^.^.^.^.^.^.^.^.^.^.^.^.^.^.^.^.^.^.^.^.^.^.^.^.^.^.^.^.^.^.^.^.^.^.).).).).).).).).).).).).).).).).).).).).).).).).).).).).).).).).).!.T.E.^.^.^.^.^.^.^.^.^.^.^.^.^.^.^.^.^.^.^.^.^.^.^.^.^.^.^.^.^.^.^.^.^.^.^.^.^.^.^.^.^.^.^.^.^.^.^.^.^.^.^.^.^.^.^.^.^.^.^.^.^.^.^.^.^.^.^.^.^.^.^.E.T.!.).).).).).).).).).).).).).).).).).).).).).).).).).).).).).).).).).^.^.^.^.^.^.^.^.^.^.^.^.^.^.^.^.^.^.^.^.^.^.^.^.^.^.^.^.^.^.^.^.^.^.^.^.^.^.^.^.^.^.^.^.^.^.^.^.^.^.^./.Y.U.= = $ $ % $ % % % % $ $ % $ $ $ $ % $ $ $ $ % % % % $ $ $ % $ $ $ $ % % $ ",
"% $ $ $ $ % $ % $ % % % % % $ % $ % $ = = = * - ; * = = - : : : : /.^.^.^.^.^.^.^.^.^.^.^.^.^.^.^.^.^.^.^.^.^.^.^.^.^.^.^.^.^.^.^.^.^.^.^.^.^.^.^.^.^.^.^.^.^.^.^.^.^.^.^.^.).).).).).).).).).).).).).).).).).).).).).).).).).).).).).).).).).R.T.E.^.^.^.^.^.^.^.^.^.^.^.^.^.^.^.^.^.^.^.^.^.^.^.^.^.^.^.^.^.^.^.^.^.^.^.^.^.^.^.^.^.^.^.^.^.^.^.^.^.^.^.^.^.^.^.^.^.^.^.^.^.^.^.^.^.^.^.^.^.^.^.E.T.R.).).).).).).).).).).).).).).).).).).).).).).).).).).).).).).).).).^.^.^.^.^.^.^.^.^.^.^.^.^.^.^.^.^.^.^.^.^.^.^.^.^.^.^.^.^.^.^.^.^.^.^.^.^.^.^.^.^.^.^.^.^.^.^.^.^.^.^.^./.U.= = $ $ % % % % % % % $ % $ $ % % $ % $ % $ % % % % $ % % % % $ $ % % % % ",
"% & $ % % % % % & % % % % % & % % % & = = = * - ; * = = - : : : /.^.^.^.^.^.^.^.^.^.^.^.^.^.^.^.^.^.^.^.^.^.^.^.^.^.^.^.^.^.^.^.^.^.^.^.^.^.^.^.^.^.^.^.^.^.^.^.^.^.^.^.^.).).).).).).).).).).).).).).).).).).).).).).).).).).).).).).).).).).R.T.E.^.^.^.^.^.^.^.^.^.^.^.^.^.^.^.^.^.^.^.^.^.^.^.^.^.^.^.^.^.^.^.^.^.^.^.^.^.^.^.^.^.^.^.^.^.^.^.^.^.^.^.^.^.^.^.^.^.^.^.^.^.^.^.^.^.^.^.^.^.^.^.E.T.R.).).).).).).).).).).).).).).).).).).).).).).).).).).).).).).).).).).^.^.^.^.^.^.^.^.^.^.^.^.^.^.^.^.^.^.^.^.^.^.^.^.^.^.^.^.^.^.^.^.^.^.^.^.^.^.^.^.^.^.^.^.^.^.^.^.^.^.^.^./.= = & % % % % % % % % & % & % % & & & $ % % % & & % & % $ $ % & % & & % % ",
"% % % % % & & & % & % % % % & % % % & = = = * - ; * = = - : : /.^.^.^.^.^.^.^.^.^.^.^.^.^.^.^.^.^.^.^.^.^.^.^.^.^.^.^.^.^.^.^.^.^.^.^.^.^.^.^.^.^.^.^.^.^.^.^.^.^.^.^.^.^.).).).).).).).).).).).).).).).).).).).).).).).).).).).).).).).).).).T.E.^.^.^.^.^.^.^.^.^.^.^.^.^.^.^.^.^.^.^.^.^.^.^.^.^.^.^.^.^.^.^.^.^.^.^.^.^.^.^.^.^.^.^.^.^.^.^.^.^.^.^.^.^.^.^.^.^.^.^.^.^.^.^.^.^.^.^.^.^.^.^.^.^.E.T.).).).).).).).).).).).).).).).).).).).).).).).).).).).).).).).).).).^.^.^.^.^.^.^.^.^.^.^.^.^.^.^.^.^.^.^.^.^.^.^.^.^.^.^.^.^.^.^.^.^.^.^.^.^.^.^.^.^.^.^.^.^.^.^.^.^.^.^.T.T./.= % % & % % & % & % % % & % % % & % % % & % & % & % & & % % % % & % % & ",
"% & & % % & & & & & & % & & & & & & % = = = * - ; * = = - : /.^.^.^.^.^.^.^.^.^.^.^.^.^.^.^.^.^.^.^.^.^.^.^.^.^.^.^.^.^.^.^.^.^.^.^.^.^.^.^.^.^.^.^.^.^.^.^.^.^.^.^.^.^.).).).).).).).).).).).).).).).).).).).).).).).).).).).).).).).).).).!.T.E.^.^.^.^.^.^.^.^.^.^.^.^.^.^.^.^.^.^.^.^.^.^.^.^.^.^.^.^.^.^.^.^.^.^.^.^.^.^.^.^.^.^.^.^.^.^.^.^.^.^.^.^.^.^.^.^.^.^.^.^.^.^.^.^.^.^.^.^.^.^.^.^.^.E.T.!.).).).).).).).).).).).).).).).).).).).).).).).).).).).).).).).).).).^.^.^.^.^.^.^.^.^.^.^.^.^.^.^.^.^.^.^.^.^.^.^.^.^.^.^.^.^.^.^.^.^.^.^.^.^.^.^.^.^.^.^.^.^.^.^.^.T.T.T.T.^./.& & & % % % & % % % & % & % % % & & % & & & % & & & % % % & & & & % % ",
"& % % * % & & & % & & & & & & & & * & = = = * - ; * = = - /.^.^.^.^.^.^.^.^.^.^.^.^.^.^.^.^.^.^.^.^.^.^.^.^.^.^.^.^.^.^.^.^.^.^.^.^.^.^.^.^.^.^.^.^.^.^.^.^.^.^.^.^.^.^.).).).).).).).).).).).).).).).).).).).).).).).).).).).).).).).).).).R.T.E.^.^.^.^.^.^.^.^.^.^.^.^.^.^.^.^.^.^.^.^.^.^.^.^.^.^.^.^.^.^.^.^.^.^.^.^.^.^.^.^.^.^.^.^.^.^.^.^.^.^.^.^.^.^.^.^.^.^.^.^.^.^.^.^.^.^.^.^.^.^.^.^.^.E.T.R.).).).).).).).).).).).).).).).).).).).).).).).).).).).).).).).).).).^.^.^.^.^.^.^.^.^.^.^.^.^.^.^.^.^.^.^.^.^.^.^.^.^.^.^.^.^.^.^.^.^.^.^.^.^.^.^.^.^.^.^.^.^.^.^.^.T.T.T.T.^.^./.% & & & & & & % & & * & & & & & % & & & & & % & & & % & * & & * * & ",
"& & & * & * * & & & * & & * & & & & & = = = * - ; * = = /.^.^.^.^.^.^.^.^.^.^.^.^.^.^.^.^.^.^.^.^.^.^.^.^.^.^.^.^.^.^.^.^.^.^.^.^.^.^.^.^.^.^.^.^.^.^.^.^.^.^.^.^.^.^.).).).).).).).).).).).).).).).).).).).).).).).).).).).).).).).).).).).R.T.E.^.^.^.^.^.^.^.^.^.^.^.^.^.^.^.^.^.^.^.^.^.^.^.^.^.^.^.^.^.^.^.^.^.^.^.^.^.^.^.^.^.^.^.^.^.^.^.^.^.^.^.^.^.^.^.^.^.^.^.^.^.^.^.^.^.^.^.^.^.^.^.^.^.E.T.R.).).).).).).).).).).).).).).).).).).).).).).).).).).).).).).).).).).).^.^.^.^.^.^.^.^.^.^.^.^.^.^.^.^.^.^.^.^.^.^.^.^.^.^.^.^.^.^.^.^.^.^.^.^.^.^.^.^.^.^.^.^.^.^.T.T.T.T.T.& & T./.* & & & & & & * * & & & & & * & & & * * & * * & * * & & & & * * & ",
"& & & & * & * * & * & * & & * & * & & = = = * - ; * = /.^.^.^.^.^.^.^.^.^.^.^.^.^.^.^.^.^.^.^.^.^.^.^.^.^.^.^.^.^.^.^.^.^.^.^.^.^.^.^.^.^.^.^.^.^.^.^.^.^.^.^.^.^.^.^.).).).).).).).).).).).).).).).).).).).).).).).).).).).).).).).).).).).R.T.E.^.^.^.^.^.^.^.^.^.^.^.^.^.^.^.^.^.^.^.^.^.^.^.^.^.^.^.^.^.^.^.^.^.^.^.^.^.^.^.^.^.^.^.^.^.^.^.^.^.^.^.^.^.^.^.^.^.^.^.^.^.^.^.^.^.^.^.^.^.^.^.^.^.E.T.R.).).).).).).).).).).).).).).).).).).).).).).).).).).).).).).).).).).).^.^.^.^.^.^.^.^.^.^.^.^.^.^.^.^.^.^.^.^.^.^.^.^.^.^.^.^.^.^.^.^.^.^.^.^.^.^.^.^.^.^.= = & & T.& & & T.& & & T.T.* * * * * * & & * & * * & & & & * & * * & * & & * * * * & & * & ",
"& & * * * * & * & = * * * * & & * * = = = = * - ; * /.^.^.^.^.^.^.^.^.^.^.^.^.^.^.^.^.^.^.^.^.^.^.^.^.^.^.^.^.^.^.^.^.^.^.^.^.^.^.^.^.^.^.^.^.^.^.^.^.^.^.^.^.^.^.^.).).).).).).).).).).).).).).).).).).).).).).).).).).).).).).).).).).).!.R.T.E.^.^.^.^.^.^.^.^.^.^.^.^.^.^.^.^.^.^.^.^.^.^.^.^.^.^.^.^.^.^.^.^.^.^.^.^.^.^.^.^.^.^.^.^.^.^.^.^.^.^.^.^.^.^.^.^.^.^.^.^.^.^.^.^.^.^.^.^.^.^.^.^.^.E.T.R.!.).).).).).).).).).).).).).).).).).).).).).).).).).).).).).).).).).).).^.^.^.^.^.^.^.^.^.^.^.^.^.^.^.^.^.^.^.^.^.^.^.^.^.^.^.^.^.^.^.^.^.^.^.^.^.^.^.^.^.= & & & & & & & & & & & & & & * % % % * * * = * * * * * * * * * & * * * & & * * * & & * * * ",
"* * = * * = * * * & * = * = * = = & * = = = * - ; /.^.^.^.^.^.^.^.^.^.^.^.^.^.^.^.^.^.^.^.^.^.^.^.^.^.^.^.^.^.^.^.^.^.^.^.^.^.^.^.^.^.^.^.^.^.^.^.^.^.^.^.^.^.^.^.^.).).).).).).).).).).).).).).).).).).).).).).).).).).).).).).).).).).).R.R.T.E.^.^.^.^.^.^.^.^.^.^.^.^.^.^.^.^.^.^.^.^.^.^.^.^.^.^.^.^.^.^.^.^.^.^.^.^.^.^.^.^.^.^.^.^.^.^.^.^.^.^.^.^.^.^.^.^.^.^.^.^.^.^.^.^.^.^.^.^.^.^.^.^.^.E.T.R.R.).).).).).).).).).).).).).).).).).).).).).).).).).).).).).).).).).).).^.^.^.^.^.^.^.^.^.^.^.^.^.^.^.^.^.^.^.^.^.^.^.^.^.^.^.^.^.^.^.^.^.^.^.^.^.^.^.^.^.= & & & & & & & & & & & & & & /.% % % & * * & * * = * = * * * = & = * = = & * = * * = * * * ",
"= * = * * = * = = * = = * = * * * * = = = = * - /././././././././././././././././././././././././././././././././././././././././././././././././././././././././.).).).).).).).).).).).).).).).).).).).).).).).).).).).).).).).).).).).).R.R.T.E./././././././././././././././././././././././././././././././././././././././././././././././././././././././././././././././././././././././././.E.T.R.R.).).).).).).).).).).).).).).).).).).).).).).).).).).).).).).).).).).).)././././././././././././././././././././././././././././././././././././././././.= & & & & & & & & & & & & & & T.% % % * = = = * = = * = * = * = * * * * * = = * * = * * * = ",
"= = = = = * = * * = * = = * = = * * = = = = * - /.Q.Q.Q.Q.Q.Q.Q.Q.Q.Q.Q.Q.Q.Q.Q.Q.Q.Q.Q.Q.Q.Q.Q.Q.Q.Q.Q.Q.Q.Q.Q.Q.Q.Q.Q.Q.Q.Q.Q.Q.Q.Q.Q.Q.Q.Q.Q.Q.Q.Q.Q.Q.Q.Q.Q.Q.).).).).).).).).).).).).).).).).).).).).).).).).).).).).).).).).).).).).R.R.R.T.E.Q.Q.Q.Q.Q.Q.Q.Q.Q.Q.Q.Q.Q.Q.Q.Q.Q.Q.Q.Q.Q.Q.Q.^.kXkXkXkXkXkXkXkXkXkXkXkXkXkXkXkXkXkXkXkXkXkXkX^.Q.Q.Q.Q.Q.Q.Q.Q.Q.Q.Q.Q.Q.Q.Q.Q.Q.Q.Q.Q.Q.Q.Q.E.T.R.R.R.).).).).).).).).).).).).).).).).).).).).).).).).).).).).).).).).).).).).Q.Q.Q.Q.Q.Q.Q.Q.Q.Q.Q.Q.Q.Q.Q.Q.Q.Q.Q.Q.Q.Q.Q.Q.Q.Q.Q.Q.Q.Q.Q.Q.Q.Q.Q.Q.Q.Q.Q.Q.= & & & & & & & & & & & & & & & T.T.= * = & * = = = = = * = = - = = = * = = = * * = = * * - ",
"= - * = * = - = = * = = - * = = = = = = = = * - /.Q.Q.Q.Q.Q.Q.Q.Q.Q.Q.Q.Q.Q.Q.Q.Q.Q.Q.Q.Q.Q.Q.Q.Q.Q.Q.Q.Q.Q.Q.Q.Q.Q.Q.Q.Q.Q.Q.Q.Q.Q.Q.Q.Q.Q.Q.Q.Q.Q.Q.Q.Q.Q.Q.Q.).).).).).).).).).).).).).).).).).).).).).).).).).).).).).).).).).).).).!.R.R.R.T.E.Q.Q.Q.Q.Q.Q.Q.Q.Q.Q.Q.Q.Q.Q.Q.Q.Q.Q.Q.R.P.= Q.^.kXkXkXkXkXkXkXkXkXkXkXkXkXkXkXkXkXkXkXkXkXkXkX^.Q.R.P.= Q.Q.Q.Q.Q.Q.Q.Q.Q.Q.Q.Q.Q.Q.Q.Q.Q.Q.Q.E.T.R.R.R.!.).).).).).).).).).).).).).).).).).).).).).).).).).).).).).).).).).).).).Q.Q.Q.Q.Q.Q.Q.Q.Q.Q.Q.Q.Q.Q.Q.Q.Q.Q.Q.Q.Q.Q.Q.Q.Q.Q.Q.Q.Q.Q.Q.Q.Q.Q.Q.Q.Q.& & & & & & & & & & & & & & & & & & & & & & & & : = = = = = = = - = * - - - = - = = = = = - - = ",
"= - - = - = = - - - = = = - = - - - - = = * = - /.Q.Q.Q.Q.Q.Q.Q.Q.Q.Q.Q.Q.Q.Q.Q.Q.Q.Q.Q.Q.Q.Q.Q.Q.Q.Q.Q.Q.Q.Q.Q.Q.Q.Q.Q.Q.Q.Q.Q.Q.Q.Q.Q.Q.Q.Q.Q.Q.Q.Q.Q.Q.Q.Q.Q.).).).).).).).).).).).).).).).).).).).).).).).).).).).).).).).).).).).).R.R.R.R.T.E.Q.Q.Q.Q.Q.Q.Q.Q.Q.Q.Q.Q.Q.Q.Q.Q.Q.Q.Q.R.P.= Q.^.kXkXlXlXlXlXlXlXlXlXlXlXlXlXlXlXlXlXlXlXlXkXkX^.Q.R.P.= Q.Q.Q.Q.Q.Q.Q.Q.Q.Q.Q.Q.Q.Q.Q.Q.Q.Q.Q.E.T.R.R.R.R.).).).).).).).).).).).).).).).).).).).).).).).).).).).).).).).).).).).).Q.Q.Q.Q.Q.Q.Q.Q.Q.Q.Q.Q.Q.Q.Q.Q.Q.Q.Q.Q.Q.Q.Q.Q.Q.Q.Q.Q.Q.Q.Q.Q.Q.Q.Q.Q.Q.& & & & & & & & & & & & & & & & & & & & & & & & : = - - - = - = - = - - - = - - - = - - = - - = ",
"- - = = - - - - - - = - = - - - - - = = = * = - /.Q.Q.Q.Q.Q.Q.Q.Q.Q.Q.Q.Q.Q.Q.Q.Q.Q.Q.Q.Q.Q.Q.Q.Q.Q.Q.Q.Q.Q.Q.Q.Q.Q.Q.Q.Q.Q.Q.Q.Q.Q.Q.Q.Q.Q.Q.Q.Q.Q.Q.Q.Q.Q.Q.).).).).).).).).).).).).).).).).).).).).).).).).).).).).).).).).).).).).).R.R.R.R.T.E.Q.Q.Q.Q.Q.Q.Q.Q.Q.Q.Q.Q.Q.Q.Q.Q.Q.Q.Q.R.P.= Q.^.kXkXlXxXxXxXxXxXxXxXzXlXzXxXxXxXxXxXxXxXlXkXkX^.Q.R.P.= Q.Q.Q.Q.Q.Q.Q.Q.Q.Q.Q.Q.Q.Q.Q.Q.Q.Q.Q.E.T.R.R.R.R.).).).).).).).).).).).).).).).).).).).).).).).).).).).).).).).).).).).).).Q.Q.Q.Q.Q.Q.Q.Q.Q.Q.Q.Q.Q.Q.Q.Q.Q.Q.Q.Q.Q.Q.Q.Q.Q.Q.Q.Q.Q.Q.Q.= = Q.Q.& & & & & & & & & & & & & & & & & & & & & & & & : : : : - - = - - = = - - - - - - = - - - - = - - ",
"- = - ; ; ; - ; - - ; - - - ; - - - = = = * = - /.Q.Q.Q.Q.Q.Q.Q.Q.Q.Q.Q.Q.Q.Q.Q.Q.Q.Q.Q.Q.Q.Q.Q.Q.Q.Q.Q.Q.Q.Q.Q.Q.Q.Q.Q.Q.Q.Q.Q.Q.Q.Q.Q.Q.Q.Q.Q.Q.Q.Q.Q.Q.Q.Q.).).).).).).).).).).).).).).).).).).).).).).).).).).).).).).).).).).).).).R.R.R.R.T.E.Q.Q.Q.Q.Q.Q.Q.Q.Q.Q.Q.Q.Q.Q.Q.Q.Q.Q.Q.).).).Q.^.kXkXlXxXxXnXnXnXnXxXzXlXzXxXnXnXnXnXxXxXlXkXkX^.Q.).).).Q.Q.Q.Q.Q.Q.Q.Q.Q.Q.Q.Q.Q.Q.Q.Q.Q.Q.Q.E.T.R.R.R.R.).).).).).).).).).).).).).).).).).).).).).).).).).).).).).).).).).).).).).Q.Q.Q.Q.Q.Q.Q.Q.Q.Q.Q.Q.Q.Q.Q.Q.Q.Q.Q.Q.Q.Q.Q.Q.Q.Q.Q.Q.Q.= = = = & & & & & & & & & & & & & & & & & & & & & & & & & & : : & & & & & - - - - - - ; - - - - ; - = - - ; - ",
"- ; - - - - - - - ; ; ; ; ; - - - ; = = = * = - /.Q.Q.Q.Q.Q.Q.Q.Q.Q.Q.Q.Q.Q.Q.Q.Q.Q.Q.Q.Q.Q.Q.Q.Q.Q.Q.Q.Q.Q.Q.Q.Q.Q.Q.Q.Q.Q.Q.Q.Q.Q.Q.Q.Q.Q.Q.Q.Q.Q.Q.Q.Q.Q.).).).).).).).).).).).).).).).).).).).).).).).).).).).).).).).).).).).).).!.R.R.R.R.T.E.Q.Q.Q.Q.Q.Q.Q.Q.Q.Q.Q.Q.Q.Q.Q.Q.Q.Q.(.(.(.(.(.^.kXkXlXxXxXbXbXbXbXxXzXlXzXxXbXbXbXbXxXxXlXkXkX^.(.(.(.(.(.Q.Q.Q.Q.Q.Q.Q.Q.Q.Q.Q.Q.Q.Q.Q.Q.Q.Q.E.T.R.R.R.R.!.).).).).).).).).).).).).).).).).).).).).).).).).).).).).).).).).).).).).).Q.Q.Q.Q.Q.Q.Q.Q.Q.Q.Q.Q.Q.Q.Q.Q.Q.Q.Q.Q.Q.Q.Q.Q.Q.Q.Q.Q.= = = = & & & & & & & & & & & & & & & & & & & & & & & & & & : : & & & & & - - - - - - ; - ; - ; - - ; - - - - ",
"- - ; ; ; ; - ; ; ; ; ; - - - - ; ; = = = * = - /.Q.Q.Q.Q.Q.Q.Q.Q.Q.Q.Q.Q.Q.Q.Q.Q.Q.Q.Q.Q.Q.Q.Q.Q.Q.Q.Q.Q.Q.Q.Q.Q.Q.Q.Q.Q.Q.Q.Q.Q.Q.Q.Q.Q.Q.Q.Q.Q.Q.Q.Q.Q.Q.).).).).).).).).).).).).).).).).).).).).).).).).).).).).).).).).).).).).).R.R.R.R.R.T.E.Q.Q.Q.Q.Q.Q.Q.Q.Q.Q.Q.Q.Q.Q.Q.Q.Q.(././.(././.^.kXkXlXxXxXvXvXvXvXxXzXlXzXxXvXvXvXvXxXxXlXkXkX^././.(././.(.Q.Q.Q.Q.Q.Q.Q.Q.Q.Q.Q.Q.Q.Q.Q.Q.Q.E.T.R.R.R.R.R.).).).).).).).).).).).).).).).).).).).).).).).).).).).).).).).).).).).).).Q.Q.Q.Q.Q.Q.Q.Q.Q.Q.Q.Q.Q.Q.Q.Q.Q.Q.Q.Q.Q.Q.Q.Q.Q.Q.Q.& & & = & & & & & & & & & & & : : : & : : : & & & & & & & & & & & & & & & & T.; ; ; - ; ; - - ; - ; - ; ; - ; - ",
": ; - ; ; : ; ; ; ; ; ; ; : ; ; ; ; = = = * = - ` _ _ _ _ _ _ _ _ _ _ _ _ _ _ _ _ _ _ _ _ _ _ _ _ _ _ _ _ _ _ _ _ _ _ _ _ _ _ _ _ _ _ _ _ _ _ _ _ _ _ _ _ ).).).).).).).).).).).).).).).).).).).).).).).).).).).).).).).).).).).).).).R.R.R.R.) ( ) _ _ _ _ _ _ _ _ _ _ _ _ _ _ _ _ ` ` ` ` ` ` ` ^.lXlXzXxXxXcXcXcXcXxXzXlXzXxXcXcXcXcXxXxXzXlXlX^.` ` ` ` ` ` ` _ _ _ _ _ _ _ _ _ _ _ _ _ _ _ _ ) ( R.R.R.R.R.).).).).).).).).).).).).).).).).).).).).).).).).).).).).).).).).).).).).).)._ _ _ _ _ _ _ _ _ _ _ _ _ _ _ _ _ _ _ _ _ _ _ _ & & & & & & & & & & & & & & & & & : : : : : : : & & & & & & & & & & & & & & & & T.T.; ; : ; ; : ; - ; ; : ; : ; - ; ",
"; ; ; : : : ; ; ; ; : ; ; ; ; ; : : = = = * = - ` _ _ _ _ _ _ _ _ _ _ _ _ _ _ _ _ _ _ _ _ _ _ _ _ _ _ _ _ _ _ _ _ _ _ _ _ _ _ _ _ _ _ _ _ _ _ _ _ _ _ _ _ ).).).).).).).).).).).).).).).).).).).).).).).).).).).).).).).).).).).).).).R.R.) ) ) ( ) _ _ _ _ _ _ _ _ _ _ _ _ _ _ _ ` ` ` ` ` ` ` ` ^.zXzXxXxXxXxXxXxXxXxXzXlXzXxXxXxXxXxXxXxXxXzXzX^.` ` ` ` ` ` ` ` _ _ _ _ _ _ _ _ _ _ _ _ _ _ _ ) ( ) ) ) R.R.).).).).).).).).).).).).).).).).).).).).).).).).).).).).).).).).).).).).).)._ _ _ _ _ _ _ _ _ _ _ _ _ _ _ _ _ _ _ _ _ _ _ & & & & & & & & & & & & & & & : : : & & : : : : & & & & & & & & & & & & & & & & & T.; ; ; ; : : ; ; ; ; ; : : ; ; ; : ",
"; : ; ; : ; ; ; : ; : ; ; : ; ; : : = = = * = - ` _ _ _ _ _ _ _ _ _ _ _ _ _ _ _ _ _ _ _ _ _ _ _ _ _ _ _ _ _ _ _ _ _ _ _ _ _ _ _ _ _ _ _ _ _ _ _ _ _ _ _ ` ` ` ` ` ` ` ` ` ` ` ` ` ` ` ` ` ` ` ` ` ` ` ` ` ` ` ` ` ` ` ` ` ` ` ` ` ` ' ) ) ) ) ) ( ) _ _ _ _ _ _ _ _ _ _ _ _ _ _ ` ` ` ` ` ` ` ` ` ^.xXxXxXxXxXxXxXxXxXxXzXlXzXxXxXxXxXxXxXxXxXxXxX^.` ` ` ` ` ` ` ` ` _ _ _ _ _ _ _ _ _ _ _ _ _ _ ) ( ) ) ) ) ) ' ` ` ` ` ` ` ` ` ` ` ` ` ` ` ` ` ` ` ` ` ` ` ` ` ` ` ` ` ` ` ` ` ` ` ` ` ` ' _ _ _ _ _ _ _ _ _ _ _ _ _ _ _ _ _ _ _ _ _ _ & & & & & & & & & & & & & & & : : : & & : : : : & & & & & & & & & & & & & & & & & T.; : : : ; : : : : : ; ; : : : ; ; ",
"; : : ; ; ; ; : : ; : ; ; : : : ; : = = = * = - /.Q.Q.Q.Q.Q.Q.Q.Q.Q.Q.Q.Q.Q.Q.Q.Q.Q.Q.Q.Q.Q.Q.Q.Q.Q.Q.Q.Q.Q.Q.Q.Q.Q.Q.Q.Q.Q.Q.Q.Q.Q.Q.Q.Q.Q.Q.Q.Q.Q.Q.Q.` ` ` ` ` ` ` ` ` ` ` ` ` ` ` ` ` ` ` ` ` ` ` ` ` ` ` ` ` ` ` ` ` ` ` ` ` ' ) ) ) ) ) R.T.E.Q.Q.Q.Q.Q.Q.Q.Q.Q.Q.Q.Q.Q.Q.Q.Q.Q.Q.Q.Q.Q.Q.Q.^.xXxXxXxXxXxXxXxXxXxXzXlXzXxXxXxXxXxXxXxXxXxXxX^.Q.Q.Q.Q.Q.Q.Q.Q.Q.Q.Q.Q.Q.Q.Q.Q.Q.Q.Q.Q.Q.Q.Q.E.T.) ) ) ) ) ) ' ` ` ` ` ` ` ` ` ` ` ` ` ` ` ` ` ` ` ` ` ` ` ` ` ` ` ` ` ` ` ` ` ` ` ` ` ' Q.Q.Q.Q.Q.Q.Q.Q.Q.Q.Q.Q.Q.Q.Q.Q.= = Q.Q.Q.& & & & & & & & & & & = & & = : : : : : : & : : : & & & & & & & & & & & & & & & & & & ; : : ; ; : : : : : : ; : : : : : ",
": : : : : : : : : : : : : ; : : : : = = = * = - /.Q.Q.Q.Q.Q.Q.Q.Q.Q.Q.Q.Q.Q.Q.Q.Q.Q.Q.Q.Q.Q.Q.Q.Q.Q.Q.Q.Q.Q.Q.Q.Q.Q.Q.Q.Q.Q.Q.Q.Q.Q.Q.Q.Q.Q.Q.Q.Q.Q.Q.` ` ` ` ` ` ` ` ` ` ` ` ` ` ` ` ` ` ` ` ` ` ` ` ` ` ` ` ` ` ` ` ` ` ` ` ` ` ' ) ) R.R.R.R.T.E.Q.Q.Q.Q.Q.Q.Q.Q.Q.Q.Q.Q.Q.Q.Q.Q.Q.Q.Q.Q.Q.Q.Q.^.xXxXxXxXxXxXxXxXxXxXzXlXzXxXxXxXxXxXxXxXxXxXxX^.Q.Q.Q.Q.Q.Q.Q.Q.Q.Q.Q.Q.Q.Q.Q.Q.Q.Q.Q.Q.Q.Q.Q.E.T.R.R.R.R.) ) ' ` ` ` ` ` ` ` ` ` ` ` ` ` ` ` ` ` ` ` ` ` ` ` ` ` ` ` ` ` ` ` ` ` ` ` ` ` ' Q.Q.Q.Q.Q.Q.Q.Q.Q.Q.Q.Q.Q.Q.= = = = & & & & & & & & & & & & & & : : : : : : : : : : & & & & & & & & & & & & & & & & & & & & & & ; : : : : : : : : : : : : : : : ",
": : : : : : : : : : : : : : : : : : = = = * = - /.Q.Q.Q.Q.Q.Q.Q.Q.Q.Q.Q.Q.Q.Q.Q.Q.Q.Q.Q.Q.Q.Q.Q.Q.Q.Q.Q.Q.Q.Q.Q.Q.Q.Q.Q.Q.Q.Q.Q.Q.Q.Q.Q.Q.Q.Q.Q.Q.Q.Q.).).).).).).).).).).).).).).).).).).).).).).).).).).).).).).).).).).).).).).).R.R.R.R.R.R.T.E.Q.Q.Q.Q.Q.Q.Q.Q.Q.Q.Q.Q.Q.Q.Q.Q.Q.Q.Q.Q.Q.Q.Q.^.xXxXxXxXxXxXxXxXxXxXzXlXzXxXxXxXxXxXxXxXxXxXxX^.Q.Q.Q.Q.Q.Q.Q.Q.Q.Q.Q.Q.Q.Q.Q.Q.Q.Q.Q.Q.Q.Q.Q.E.T.R.R.R.R.R.R.).).).).).).).).).).).).).).).).).).).).).).).).).).).).).).).).).).).).).).).Q.Q.Q.Q.Q.Q.Q.Q.Q.Q.Q.Q.Q.Q.Q.= = = = = & = = = = & & & & & & = : : : : Q.Q.Q.: : : : & & & & & & & & & & & & & & & & & & & & T.T.T.: : : T.: : : : : : : : : : ",
"+ + + + + + + + + + + + + + + + + + + + + + + + + + + + + + + + + + + + + + + + + + + + + + + + + + + + + + + + + + + + + + + + + + + + + + + + + + + + + + + + + + + + + + + + + + + + + + + + + + + + + + + + + + + + + + + + + + + + + + + + + + + + + + + + + + + + + + + + + + + + + + + + + + + + + + + + + + + + + + + + + + + + + + + + + + + + + + + + + + + + + + + + + + + + + + + + + + + + + + + + + + + + + + + + + + + + + + + + + + + + + + + + + + + + + + + + + + + + + + + + + + + + + + + + + + + + + + + + + + + + + + + + + + + + + + + + + + + + + + + + + + + + + + + + + + + + + + + + + + + + + + + + + + + + + + + + + + + + + + + + ",
"+ + + + + + + + + + + + + + + + + + + + + + + + + + + + + + + + + + + + + + + + + + + + + + + + + + + + + + + + + + + + + + + + + + + + + + + + + + + + + + + + + + + + + + + + + + + + + + + + + + + + + + + + + + + + + + + + + + + + + + + + + + + + + + + + + + + + + + + + + + + + + + + + + + + + + + + + + + + + + + + + + + + + + + + + + + + + + + + + + + + + + + + + + + + + + + + + + + + + + + + + + + + + + + + + + + + + + + + + + + + + + + + + + + + + + + + + + + + + + + + + + + + + + + + + + + + + + + + + + + + + + + + + + + + + + + + + + + + + + + + + + + + + + + + + + + + + + + + + + + + + + + + + + + + + + + + + + + + + + + + + ",
"+ + + + + + + + + + + + + + + + + + + + + + + + + + + + + + + + + + + + + + + + + + + + + + + + + + + + + + + + + + + + + + + + + + + + + + + + + + + + + + + + + + + + + + + + + + + + + + + + + + + + + + + + + + + + + + + + + + + + + + + + + + + + + + + + + + + + + + + + + + + + + + + + + + + + + + + + + + + + + + + + + + + + + + + + + + + + + + + + + + + + + + + + + + + + + + + + + + + + + + + + + + + + + + + + + + + + + + + + + + + + + + + + + + + + + + + + + + + + + + + + + + + + + + + + + + + + + + + + + + + + + + + + + + + + + + + + + + + + + + + + + + + + + + + + + + + + + + + + + + + + + + + + + + + + + + + + + + + + + + + + ",
"+ + + + + + + + + + + + + + + + + + + + + + + + + + + + + + + + + + + + + + + + + + + + + + + + + + + + + + + + + + + + + + + + + + + + + + + + + + + + + + + + + + + + + + + + + + + + + + + + + + + + + + + + + + + + + + + + + + + + + + + + + + + + + + + + + + + + + + + + + + + + + + + + + + + + + + + + + + + + + + + + + + + + + + + + + + + + + + + + + + + + + + + + + + + + + + + + + + + + + + + + + + + + + + + + + + + + + + + + + + + + + + + + + + + + + + + + + + + + + + + + + + + + + + + + + + + + + + + + + + + + + + + + + + + + + + + + + + + + + + + + + + + + + + + + + + + + + + + + + + + + + + + + + + + + + + + + + + + + + + + + ",
"+ + + + + + + + + + + + + + + + + + + + + + + + + + + + + + + + + + + + + + + + + + + + + + + + + + + + + + + + + + + + + + + + + + + + + + + + + + + + + + + + + + + + + + + + + + + + + + + + + + + + + + + + + + + + + + + + + + + + + + + + + + + + + + + + + + + + + + + + + + + + + + + + + + + + + + + + + + + + + + + + + + + + + + + + + + + + + + + + + + + + + + + + + + + + + + + + + + + + + + + + + + + + + + + + + + + + + + + + + + + + + + + + + + + + + + + + + + + + + + + + + + + + + + + + + + + + + + + + + + + + + + + + + + + + + + + + + + + + + + + + + + + + + + + + + + + + + + + + + + + + + + + + + + + + + + + + + + + + + + + + ",
"+ + + + + + + + + + + + + + + + + + + + + + + + + + + + + + + + + + + + + + + + + + + + + + + + + + + + + + + + + + + + + + + + + + + + + + + + + + + + + + + + + + + + + + + + + + + + + + + + + + + + + + + + + + + + + + + + + + + + + + + + + + + + + + + + + + + + + + + + + + + + + + + + + + + + + + + + + + + + + + + + + + + + + + + + + + + + + + + + + + + + + + + + + + + + + + + + + + + + + + + + + + + + + + + + + + + + + + + + + + + + + + + + + + + + + + + + + + + + + + + + + + + + + + + + + + + + + + + + + + + + + + + + + + + + + + + + + + + + + + + + + + + + + + + + + + + + + + + + + + + + + + + + + + + + + + + + + + + + + + + + ",
"+ + + + + + + + + + + + + + + + + + + + + + + + + + + + + + + + + + + + + + + + + + + + + + + + + + + + + + + + + + + + + + + + + + + + + + + + + + + + + + + + + + + + + + + + + + + + + + + + + + + + + + + + + + + + + + + + + + + + + + + + + + + + + + + + + + + + + + + + + + + + + + + + + + + + + + + + + + + + + + + + + + + + + + + + + + + + + + + + + + + + + + + + + + + + + + + + + + + + + + + + + + + + + + + + + + + + + + + + + + + + + + + + + + + + + + + + + + + + + + + + + + + + + + + + + + + + + + + + + + + + + + + + + + + + + + + + + + + + + + + + + + + + + + + + + + + + + + + + + + + + + + + + + + + + + + + + + + + + + + + + ",
"+ + + + + + + + + + + + + + + + + + + + + + + + + + + + + + + + + + + + + + + + + + + + + + + + + + + + + + + + + + + + + + + + + + + + + + + + + + + + + + + + + + + + + + + + + + + + + + + + + + + + + + + + + + + + + + + + + + + + + + + + + + + + + + + + + + + + + + + + + + + + + + + + + + + + + + + + + + + + + + + + + + + + + + + + + + + + + + + + + + + + + + + + + + + + + + + + + + + + + + + + + + + + + + + + + + + + + + + + + + + + + + + + + + + + + + + + + + + + + + + + + + + + + + + + + + + + + + + + + + + + + + + + + + + + + + + + + + + + + + + + + + + + + + + + + + + + + + + + + + + + + + + + + + + + + + + + + + + + + + + + ",
"+ + + + + + + + + + + + + + + + + + + + + + + + + + + + + + + + + + + + + + + + + + + + + + + + + + + + + + + + + + + + + + + + + + + + + + + + + + + + + + + + + + + + + + + + + + + + + + + + + + + + + + + + + + + + + + + + + + + + + + + + + + + + + + + + + + + + + + + + + + + + + + + + + + + + + + + + + + + + + + + + + + + + + + + + + + + + + + + + + + + + + + + + + + + + + + + + + + + + + + + + + + + + + + + + + + + + + + + + + + + + + + + + + + + + + + + + + + + + + + + + + + + + + + + + + + + + + + + + + + + + + + + + + + + + + + + + + + + + + + + + + + + + + + + + + + + + + + + + + + + + + + + + + + + + + + + + + + + + + + + + ",
"+ + + + + + + + + + + + + + + + + + + + + + + + + + + + + + + + + + + + + + + + + + + + + + + + + + + + + + + + + + + + + + + + + + + + + + + + + + + + + + + + + + + + + + + + + + + + + + + + + + + + + + + + + + + + + + + + + + + + + + + + + + + + + + + + + + + + + + + + + + + + + + + + + + + + + + + + + + + + + + + + + + + + + + + + + + + + + + + + + + + + + + + + + + + + + + + + + + + + + + + + + + + + + + + + + + + + + + + + + + + + + + + + + + + + + + + + + + + + + + + + + + + + + + + + + + + + + + + + + + + + + + + + + + + + + + + + + + + + + + + + + + + + + + + + + + + + + + + + + + + + + + + + + + + + + + + + + + + + + + + + ",
"+ + + + + + + + + + + + + + + + + + + + + + + + + + + + + + + + + + + + + + + + + + + + + + + + + + + + + + + + + + + + + + + + + + + + + + + + + + + + + + + + + + + + + + + + + + + + + + + + + + + + + + + + + + + + + + + + + + + + + + + + + + + + + + + + + + + + + + + + + + + + + + + + + + + + + + + + + + + + + + + + + + + + + + + + + + + + + + + + + + + + + + + + + + + + + + + + + + + + + + + + + + + + + + + + + + + + + + + + + + + + + + + + + + + + + + + + + + + + + + + + + + + + + + + + + + + + + + + + + + + + + + + + + + + + + + + + + + + + + + + + + + + + + + + + + + + + + + + + + + + + + + + + + + + + + + + + + + + + + + + + ",
"+ + + + + + + + + + + + + + + + + + + + + + + + + + + + + + + + + + + + + + + + + + + + + + + + + + + + + + + + + + + + + + + + + + + + + + + + + + + + + + + + + + + + + + + + + + + + + + + + + + + + + + + + + + + + + + + + + + + + + + + + + + + + + + + + + + + + + + + + + + + + + + + + + + + + + + + + + + + + + + + + + + + + + + + + + + + + + + + + + + + + + + + + + + + + + + + + + + + + + + + + + + + + + + + + + + + + + + + + + + + + + + + + + + + + + + + + + + + + + + + + + + + + + + + + + + + + + + + + + + + + + + + + + + + + + + + + + + + + + + + + + + + + + + + + + + + + + + + + + + + + + + + + + + + + + + + + + + + + + + + + ",
"+ + + + + + + + + + + + + + + + + + + + + + + + + + + + + + + + + + + + + + + + + + + + + + + + + + + + + + + + + + + + + + + + + + + + + + + + + + + + + + + + + + + + + + + + + + + + + + + + + + + + + + + + + + + + + + + + + + + + + + + + + + + + + + + + + + + + + + + + + + + + + + + + + + + + + + + + + + + + + + + + + + + + + + + + + + + + + + + + + + + + + + + + + + + + + + + + + + + + + + + + + + + + + + + + + + + + + + + + + + + + + + + + + + + + + + + + + + + + + + + + + + + + + + + + + + + + + + + + + + + + + + + + + + + + + + + + + + + + + + + + + + + + + + + + + + + + + + + + + + + + + + + + + + + + + + + + + + + + + + + + ",
"+ + + + + + + + + + + + + + + + + + + + + + + + + + + + + + + + + + + + + + + + + + + + + + + + + + + + + + + + + + + + + + + + + + + + + + + + + + + + + + + + + + + + + + + + + + + + + + + + + + + + + + + + + + + + + + + + + + + + + + + + + + + + + + + + + + + + + + + + + + + + + + + + + + + + + + + + + + + + + + + + + + + + + + + + + + + + + + + + + + + + + + + + + + + + + + + + + + + + + + + + + + + + + + + + + + + + + + + + + + + + + + + + + + + + + + + + + + + + + + + + + + + + + + + + + + + + + + + + + + + + + + + + + + + + + + + + + + + + + + + + + + + + + + + + + + + + + + + + + + + + + + + + + + + + + + + + + + + + + + + + ",
"+ + + + + + + + + + + + + + + + + + + + + + + + + + + + + + + + + + + + + + + + + + + + + + + + + + + + + + + + + + + + + + + + + + + + + + + + + + + + + + + + + + + + + + + + + + + + + + + + + + + + + + + + + + + + + + + + + + + + + + + + + + + + + + + + + + + + + + + + + + + + + + + + + + + + + + + + + + + + + + + + + + + + + + + + + + + + + + + + + + + + + + + + + + + + + + + + + + + + + + + + + + + + + + + + + + + + + + + + + + + + + + + + + + + + + + + + + + + + + + + + + + + + + + + + + + + + + + + + + + + + + + + + + + + + + + + + + + + + + + + + + + + + + + + + + + + + + + + + + + + + + + + + + + + + + + + + + + + + + + + + ",
"+ + + + + + + + + + + + + + + + + + + + + + + + + + + + + + + + + + + + + + + + + + + + + + + + + + + + + + + + + + + + + + + + + + + + + + + + + + + + + + + + + + + + + + + + + + + + + + + + + + + + + + + + + + + + + + + + + + + + + + + + + + + + + + + + + + + + + + + + + + + + + + + + + + + + + + + + + + + + + + + + + + + + + + + + + + + + + + + + + + + + + + + + + + + + + + + + + + + + + + + + + + + + + + + + + + + + + + + + + + + + + + + + + + + + + + + + + + + + + + + + + + + + + + + + + + + + + + + + + + + + + + + + + + + + + + + + + + + + + + + + + + + + + + + + + + + + + + + + + + + + + + + + + + + + + + + + + + + + + + + + ",
"+ + + + + + + + + + + + + + + + + + + + + + + + + + + + + + + + + + + + + + + + + + + + + + + + + + + + + + + + + + + + + + + + + + + + + + + + + + + + + + + + + + + + + + + + + + + + + + + + + + + + + + + + + + + + + + + + + + + + + + + + + + + + + + + + + + + + + + + + + + + + + + + + + + + + + + + + + + + + + + + + + + + + + + + + + + + + + + + + + + + + + + + + + + + + + + + + + + + + + + + + + + + + + + + + + + + + + + + + + + + + + + + + + + + + + + + + + + + + + + + + + + + + + + + + + + + + + + + + + + + + + + + + + + + + + + + + + + + + + + + + + + + + + + + + + + + + + + + + + + + + + + + + + + + + + + + + + + + + + + + + ",
"+ + + + + + + + + + + + + + + + + + + + + + + + + + + + + + + + + + + + + + + + + + + + + + + + + + + + + + + + + + + + + + + + + + + + + + + + + + + + + + + + + + + + + + + + + + + + + + + + + + + + + + + + + + + + + + + + + + + + + + + + + + + + + + + + + + + + + + + + + + + + + + + + + + + + + + + + + + + + + + + + + + + + + + + + + + + + + + + + + + + + + + + + + + + + + + + + + + + + + + + + + + + + + + + + + + + + + + + + + + + + + + + + + + + + + + + + + + + + + + + + + + + + + + + + + + + + + + + + + + + + + + + + + + + + + + + + + + + + + + + + + + + + + + + + + + + + + + + + + + + + + + + + + + + + + + + + + + + + + + + + ",
"+ + + + + + + + + + + + + + + + + + + + + + + + + + + + + + + + + + + + + + + + + + + + + + + + + + + + + + + + + + + + + + + + + + + + + + + + + + + + + + + + + + + + + + + + + + + + + + + + + + + + + + + + + + + + + + + + + + + + + + + + + + + + + + + + + + + + + + + + + + + + + + + + + + + + + + + + + + + + + + + + + + + + + + + + + + + + + + + + + + + + + + + + + + + + + + + + + + + + + + + + + + + + + + + + + + + + + + + + + + + + + + + + + + + + + + + + + + + + + + + + + + + + + + + + + + + + + + + + + + + + + + + + + + + + + + + + + + + + + + + + + + + + + + + + + + + + + + + + + + + + + + + + + + + + + + + + + + + + + + + + ",
"+ + + + + + + + + + + + + + + + + + + + + + + + + + + + + + + + + + + + + + + + + + + + + + + + + + + + + + + + + + + + + + + + + + + + + + + + + + + + + + + + + + + + + + + + + + + + + + + + + + + + + + + + + + + + + + + + + + + + + + + + + + + + + + + + + + + + + + + + + + + + + + + + + + + + + + + + + + + + + + + + + + + + + + + + + + + + + + + + + + + + + + + + + + + + + + + + + + + + + + + + + + + + + + + + + + + + + + + + + + + + + + + + + + + + + + + + + + + + + + + + + + + + + + + + + + + + + + + + + + + + + + + + + + + + + + + + + + + + + + + + + + + + + + + + + + + + + + + + + + + + + + + + + + + + + + + + + + + + + + + + ",
"+ + + + + + + + + + + + + + + + + + + + + + + + + + + + + + + + + + + + + + + + + + + + + + + + + + + + + + + + + + + + + + + + + + + + + + + + + + + + + + + + + + + + + + + + + + + + + + + + + + + + + + + + + + + + + + + + + + + + + + + + + + + + + + + + + + + + + + + + + + + + + + + + + + + + + + + + + + + + + + + + + + + + + + + + + + + + + + + + + + + + + + + + + + + + + + + + + + + + + + + + + + + + + + + + + + + + + + + + + + + + + + + + + + + + + + + + + + + + + + + + + + + + + + + + + + + + + + + + + + + + + + + + + + + + + + + + + + + + + + + + + + + + + + + + + + + + + + + + + + + + + + + + + + + + + + + + + + + + + + + + ",
"+ + + + + + + + + + + + + + + + + + + + + + + + + + + + + + + + + + + + + + + + + + + + + + + + + + + + + + + + + + + + + + + + + + + + + + + + + + + + + + + + + + + + + + + + + + + + + + + + + + + + + + + + + + + + + + + + + + + + + + + + + + + + + + + + + + + + + + + + + + + + + + + + + + + + + + + + + + + + + + + + + + + + + + + + + + + + + + + + + + + + + + + + + + + + + + + + + + + + + + + + + + + + + + + + + + + + + + + + + + + + + + + + + + + + + + + + + + + + + + + + + + + + + + + + + + + + + + + + + + + + + + + + + + + + + + + + + + + + + + + + + + + + + + + + + + + + + + + + + + + + + + + + + + + + + + + + + + + + + + + + ",
"+ + + + + + + + + + + + + + + + + + + + + + + + + + + + + + + + + + + + + + + + + + + + + + + + + + + + + + + + + + + + + + + + + + + + + + + + + + + + + + + + + + + + + + + + + + + + + + + + + + + + + + + + + + + + + + + + + + + + + + + + + + + + + + + + + + + + + + + + + + + + + + + + + + + + + + + + + + + + + + + + + + + + + + + + + + + + + + + + + + + + + + + + + + + + + + + + + + + + + + + + + + + + + + + + + + + + + + + + + + + + + + + + + + + + + + + + + + + + + + + + + + + + + + + + + + + + + + + + + + + + + + + + + + + + + + + + + + + + + + + + + + + + + + + + + + + + + + + + + + + + + + + + + + + + + + + + + + + + + + + + ",
"+ + + + + + + + + + + + + + + + + + + + + + + + + + + + + + + + + + + + + + + + + + + + + + + + + + + + + + + + + + + + + + + + + + + + + + + + + + + + + + + + + + + + + + + + + + + + + + + + + + + + + + + + + + + + + + + + + + + + + + + + + + + + + + + + + + + + + + + + + + + + + + + + + + + + + + + + + + + + + + + + + + + + + + + + + + + + + + + + + + + + + + + + + + + + + + + + + + + + + + + + + + + + + + + + + + + + + + + + + + + + + + + + + + + + + + + + + + + + + + + + + + + + + + + + + + + + + + + + + + + + + + + + + + + + + + + + + + + + + + + + + + + + + + + + + + + + + + + + + + + + + + + + + + + + + + + + + + + + + + + + ",
"+ + + + + + + + + + + + + + + + + + + + + + + + + + + + + + + + + + + + + + + + + + + + + + + + + + + + + + + + + + + + + + + + + + + + + + + + + + + + + + + + + + + + + + + + + + + + + + + + + + + + + + + + + + + + + + + + + + + + + + + + + + + + + + + + + + + + + + + + + + + + + + + + + + + + + + + + + + + + + + + + + + + + + + + + + + + + + + + + + + + + + + + + + + + + + + + + + + + + + + + + + + + + + + + + + + + + + + + + + + + + + + + + + + + + + + + + + + + + + + + + + + + + + + + + + + + + + + + + + + + + + + + + + + + + + + + + + + + + + + + + + + + + + + + + + + + + + + + + + + + + + + + + + + + + + + + + + + + + + + + + ",
"+ + + + + + + + + + + + + + + + + + + + + + + + + + + + + + + + + + + + + + + + + + + + + + + + + + + + + + + + + + + + + + + + + + + + + + + + + + + + + + + + + + + + + + + + + + + + + + + + + + + + + + + + + + + + + + + + + + + + + + + + + + + + + + + + + + + + + + + + + + + + + + + + + + + + + + + + + + + + + + + + + + + + + + + + + + + + + + + + + + + + + + + + + + + + + + + + + + + + + + + + + + + + + + + + + + + + + + + + + + + + + + + + + + + + + + + + + + + + + + + + + + + + + + + + + + + + + + + + + + + + + + + + + + + + + + + + + + + + + + + + + + + + + + + + + + + + + + + + + + + + + + + + + + + + + + + + + + + + + + + + ",
"+ + + + + + + + + + + + + + + + + + + + + + + + + + + + + + + + + + + + + + + + + + + + + + + + + + + + + + + + + + + + + + + + + + + + + + + + + + + + + + + + + + + + + + + + + + + + + + + + + + + + + + + + + + + + + + + + + + + + + + + + + + + + + + + + + + + + + + + + + + + + + + + + + + + + + + + + + + + + + + + + + + + + + + + + + + + + + + + + + + + + + + + + + + + + + + + + + + + + + + + + + + + + + + + + + + + + + + + + + + + + + + + + + + + + + + + + + + + + + + + + + + + + + + + + + + + + + + + + + + + + + + + + + + + + + + + + + + + + + + + + + + + + + + + + + + + + + + + + + + + + + + + + + + + + + + + + + + + + + + + + ",
"+ + + + + + + + + + + + + + + + + + + + + + + + + + + + + + + + + + + + + + + + + + + + + + + + + + + + + + + + + + + + + + + + + + + + + + + + + + + + + + + + + + + + + + + + + + + + + + + + + + + + + + + + + + + + + + + + + + + + + + + + + + + + + + + + + + + + + + + + + + + + + + + + + + + + + + + + + + + + + + + + + + + + + + + + + + + + + + + + + + + + + + + + + + + + + + + + + + + + + + + + + + + + + + + + + + + + + + + + + + + + + + + + + + + + + + + + + + + + + + + + + + + + + + + + + + + + + + + + + + + + + + + + + + + + + + + + + + + + + + + + + + + + + + + + + + + + + + + + + + + + + + + + + + + + + + + + + + + + + + + + ",
"+ + + + + + + + + + + + + + + + + + + + + + + + + + + + + + + + + + + + + + + + + + + + + + + + + + + + + + + + + + + + + + + + + + + + + + + + + + + + + + + + + + + + + + + + + + + + + + + + + + + + + + + + + + + + + + + + + + + + + + + + + + + + + + + + + + + + + + + + + + + + + + + + + + + + + + + + + + + + + + + + + + + + + + + + + + + + + + + + + + + + + + + + + + + + + + + + + + + + + + + + + + + + + + + + + + + + + + + + + + + + + + + + + + + + + + + + + + + + + + + + + + + + + + + + + + + + + + + + + + + + + + + + + + + + + + + + + + + + + + + + + + + + + + + + + + + + + + + + + + + + + + + + + + + + + + + + + + + + + + + + ",
"+ + + + + + + + + + + + + + + + + + + + + + + + + + + + + + + + + + + + + + + + + + + + + + + + + + + + + + + + + + + + + + + + + + + + + + + + + + + + + + + + + + + + + + + + + + + + + + + + + + + + + + + + + + + + + + + + + + + + + + + + + + + + + + + + + + + + + + + + + + + + + + + + + + + + + + + + + + + + + + + + + + + + + + + + + + + + + + + + + + + + + + + + + + + + + + + + + + + + + + + + + + + + + + + + + + + + + + + + + + + + + + + + + + + + + + + + + + + + + + + + + + + + + + + + + + + + + + + + + + + + + + + + + + + + + + + + + + + + + + + + + + + + + + + + + + + + + + + + + + + + + + + + + + + + + + + + + + + + + + + + ",
"+ + + + + + + + + + + + + + + + + + + + + + + + + + + + + + + + + + + + + + + + + + + + + + + + + + + + + + + + + + + + + + + + + + + + + + + + + + + + + + + + + + + + + + + + + + + + + + + + + + + + + + + + + + + + + + + + + + + + + + + + + + + + + + + + + + + + + + + + + + + + + + + + + + + + + + + + + + + + + + + + + + + + + + + + + + + + + + + + + + + + + + + + + + + + + + + + + + + + + + + + + + + + + + + + + + + + + + + + + + + + + + + + + + + + + + + + + + + + + + + + + + + + + + + + + + + + + + + + + + + + + + + + + + + + + + + + + + + + + + + + + + + + + + + + + + + + + + + + + + + + + + + + + + + + + + + + + + + + + + + + ",
"+ + + + + + + + + + + + + + + + + + + + + + + + + + + + + + + + + + + + + + + + + + + + + + + + + + + + + + + + + + + + + + + + + + + + + + + + + + + + + + + + + + + + + + + + + + + + + + + + + + + + + + + + + + + + + + + + + + + + + + + + + + + + + + + + + + + + + + + + + + + + + + + + + + + + + + + + + + + + + + + + + + + + + + + + + + + + + + + + + + + + + + + + + + + + + + + + + + + + + + + + + + + + + + + + + + + + + + + + + + + + + + + + + + + + + + + + + + + + + + + + + + + + + + + + + + + + + + + + + + + + + + + + + + + + + + + + + + + + + + + + + + + + + + + + + + + + + + + + + + + + + + + + + + + + + + + + + + + + + + + + ",
"+ + + + + + + + + + + + + + + + + + + + + + + + + + + + + + + + + + + + + + + + + + + + + + + + + + + + + + + + + + + + + + + + + + + + + + + + + + + + + + + + + + + + + + + + + + + + + + + + + + + + + + + + + + + + + + + + + + + + + + + + + + + + + + + + + + + + + + + + + + + + + + + + + + + + + + + + + + + + + + + + + + + + + + + + + + + + + + + + + + + + + + + + + + + + + + + + + + + + + + + + + + + + + + + + + + + + + + + + + + + + + + + + + + + + + + + + + + + + + + + + + + + + + + + + + + + + + + + + + + + + + + + + + + + + + + + + + + + + + + + + + + + + + + + + + + + + + + + + + + + + + + + + + + + + + + + + + + + + + + + + ",
"+ + + + + + + + + + + + + + + + + + + + + + + + + + + + + + + + + + + + + + + + + + + + + + + + + + + + + + + + + + + + + + + + + + + + + + + + + + + + + + + + + + + + + + + + + + + + + + + + + + + + + + + + + + + + + + + + + + + + + + + + + + + + + + + + + + + + + + + + + + + + + + + + + + + + + + + + + + + + + + + + + + + + + + + + + + + + + + + + + + + + + + + + + + + + + + + + + + + + + + + + + + + + + + + + + + + + + + + + + + + + + + + + + + + + + + + + + + + + + + + + + + + + + + + + + + + + + + + + + + + + + + + + + + + + + + + + + + + + + + + + + + + + + + + + + + + + + + + + + + + + + + + + + + + + + + + + + + + + + + + + ",
"+ + + + + + + + + + + + + + + + + + + + + + + + + + + + + + + + + + + + + + + + + + + + + + + + + + + + + + + + + + + + + + + + + + + + + + + + + + + + + + + + + + + + + + + + + + + + + + + + + + + + + + + + + + + + + + + + + + + + + + + + + + + + + + + + + + + + + + + + + + + + + + + + + + + + + + + + + + + + + + + + + + + + + + + + + + + + + + + + + + + + + + + + + + + + + + + + + + + + + + + + + + + + + + + + + + + + + + + + + + + + + + + + + + + + + + + + + + + + + + + + + + + + + + + + + + + + + + + + + + + + + + + + + + + + + + + + + + + + + + + + + + + + + + + + + + + + + + + + + + + + + + + + + + + + + + + + + + + + + + + + ",
"+ + + + + + + + + + + + + + + + + + + + + + + + + + + + + + + + + + + + + + + + + + + + + + + + + + + + + + + + + + + + + + + + + + + + + + + + + + + + + + + + + + + + + + + + + + + + + + + + + + + + + + + + + + + + + + + + + + + + + + + + + + + + + + + + + + + + + + + + + + + + + + + + + + + + + + + + + + + + + + + + + + + + + + + + + + + + + + + + + + + + + + + + + + + + + + + + + + + + + + + + + + + + + + + + + + + + + + + + + + + + + + + + + + + + + + + + + + + + + + + + + + + + + + + + + + + + + + + + + + + + + + + + + + + + + + + + + + + + + + + + + + + + + + + + + + + + + + + + + + + + + + + + + + + + + + + + + + + + + + + + ",
"+ + + + + + + + + + + + + + + + + + + + + + + + + + + + + + + + + + + + + + + + + + + + + + + + + + + + + + + + + + + + + + + + + + + + + + + + + + + + + + + + + + + + + + + + + + + + + + + + + + + + + + + + + + + + + + + + + + + + + + + + + + + + + + + + + + + + + + + + + + + + + + + + + + + + + + + + + + + + + + + + + + + + + + + + + + + + + + + + + + + + + + + + + + + + + + + + + + + + + + + + + + + + + + + + + + + + + + + + + + + + + + + + + + + + + + + + + + + + + + + + + + + + + + + + + + + + + + + + + + + + + + + + + + + + + + + + + + + + + + + + + + + + + + + + + + + + + + + + + + + + + + + + + + + + + + + + + + + + + + + + "
};
