/* XPM */
static char *end_floor3_055[] = {
/* columns rows colors chars-per-pixel */
"320 200 67 1 ",
"  c #000000",
". c #0B0B0B",
"X c gray8",
"o c #1C1C1C",
"O c #00002C",
"+ c #00003C",
"@ c gray14",
"# c #2C2C2C",
"$ c #343434",
"% c #3C3C3C",
"& c #600000",
"* c #643000",
"= c #743804",
"- c #004400",
"; c #005C00",
": c #007400",
"> c #000050",
", c #000064",
"< c #244870",
"1 c #444444",
"2 c #4C4C4C",
"3 c #545454",
"4 c #5C5C5C",
"5 c #646464",
"6 c #6C6C6C",
"7 c #747474",
"8 c #7C7C7C",
"9 c #F80000",
"0 c #884404",
"q c #984C08",
"w c #AC580C",
"e c #C47024",
"r c #008C00",
"t c #00A400",
"y c #CC8038",
"u c #D09050",
"i c #040488",
"p c #0C0CAC",
"a c #2C5480",
"s c #346090",
"d c #3C6CA0",
"f c #4C78A8",
"g c #1010C0",
"h c #4040D0",
"j c #7878E0",
"k c #5884B0",
"l c #6C90BC",
"z c #848484",
"x c #8C8C8C",
"c c #939393",
"v c #989898",
"b c #A0A0A0",
"n c #A8A8A8",
"m c #B0B0B0",
"M c #BCBCBC",
"N c #E4C098",
"B c #ECD0B4",
"V c #80A0C4",
"C c #C4C4C4",
"Z c #CCCCCC",
"A c #D4D4D4",
"S c #DADADA",
"D c #D8D8F4",
"F c #E0E0E0",
"G c #E8E8E8",
"H c #F1F1F1",
"J c #FCFCFC",
/* pixels */
"@@@@@@@@@@@@@@@@@@@@@@@@@@@@@@@@@@@@@@@@@@@@@@@@@@@@@@@@@@@@@@@@@@@@@@@@@@@@@@@@@@@@@@@@@@@@@@@@@@@@@@@@@@@@@@@@@@@@@@@@@@@@@@@@@@@@@@@@@@@@@@@@@@@@@@@@@@@@@@@@@@@@@@@@@@@@@@@@@@@@@@@@@@@@@@@@@@@@@@@@@@@@@@@@@@@@@@@@@@@@@@@@@@@@@@@@@@@@@@@@@@@@@@@@@@@@@@@@@@@@@@@@@@@@@@@@@@@@@@@@@@@@@@@@@@@@@@@@@@@@@@@@@@@@@@@@@@@@@@@@",
"@@@@@@@@@@@@@@@@@@@@@@@@@@@@@@@@@@@@@@@@@@@@@@@@@@@@@@@@@@@@@@@@@@@@@@@@@@@@@@@@@@@@@@@@@@@@@@@@@@@@@@@@@@@@@@@@@@@@@@@@@@@@@@@@@@@@@@@@@@@@@@@@@@@@@@@@@@@@@@@@@@@@@@@@@@@@@@@@@@@@@@@@@@@@@@@@@@@@@@@@@@@@@@@@@@@@@@@@@@@@@@@@@@@@@@@@@@@@@@@@@@@@@@@@@@@@@@@@@@@@@@@@@@@@@@@@@@@@@@@@@@@@@@@@@@@@@@@@@@@@@@@@@@@@@@@@@@@@@@@@",
"@@@@@@@@@@@@@@@@@@@@@@@@@@@@@@@@@@@@@@@@@@@@@@@@@@@@@@@@@@@@@@@@@@@@@@@@@@@@@@@@@@@@@@@@@@@@@@@@@@@@@@@@@@@@@@@@@@@@@@@@@@@@@@@@@@@@@@@@@@@@@@@@@@@@@@@@@@@@@@@@@@@@@@@@@@@@@@@@@@@@@@@@@@@@@@@@@@@@@@@@@@@@@@@@@@@@@@@@@@@@@@@@@@@@@@@@@@@@@@@@@@@@@@@@@@@@@@@@@@@@@@@@@@@@@@@@@@@@@@@@@@@@@@@@@@@@@@@@@@@@@@@@@@@@@@@@@@@@@@@@",
"@@@@@@@@@@@@@@@@@@@@@@@@@@@@@@@@@@@@@@@@@@@@@@@@@@@@@@@@@@@@@@@@@@@@@@@@@@@@@@@@@@@@@@@@@@@@@@@@@@@@@@@@@@@@@@@@@@@@@@@@@@@@@@@@@@@@@@@@@@@@@@@@@@@@@@@@@@@@@@@@@@@@@@@@@@@@@@@@@@@@@@@@@@@@@@@@@@@@@@@@@@@@@@@@@@@@@@@@@@@@@@@@@@@@@@@@@@@@@@@@@@@@@@@@@@@@@@@@@@@@@@@@@@@@@@@@@@@@@@@@@@@@@@@@@@@@@@@@@@@@@@@@@@@@@@@@@@@@@@@@",
"@@@@@@@@@@@@@@@@@@@@@@@@@@@@@@@@@@@@@@@@@@@@@@@@@@@@@@@@@@@@@@@@@@@@@@@@@@@@@@@@@@@@@@@@@@@@@@@@@@@@@@@@@@@@@@@@@@@@@@@@@@@@@@@@@@@@@@@@@@@@@@@@@@@@@@@@@@@@@@@@@@@@@@@@@@@@@@@@@@@@@@@@@@@@@@@@@@@@@@@@@@@@@@@@@@@@@@@@@@@@@@@@@@@@@@@@@@@@@@@@@@@@@@@@@@@@@@@@@@@@@@@@@@@@@@@@@@@@@@@@@@@@@@@@@@@@@@@@@@@@@@@@@@@@@@@@@@@@@@@@",
"@@@@@@@@@@@@@@@@@@@@@@@@@@@@@@@@@@@@@@@@@@@@@@@@@@@@@@@@@@@@@@@@@@@@@@@@@@@@@@@@@@@@@@@@@@@@@@@@@@@@@@@@@@@@@@@@@@@@@@@@@@@@@@@@@@@@@@@@@@@@@@@@@@@@@@@@@@@@@@@@@@@@@@@@@@@@@@@@@@@@@@@@@@@@@@@@@@@@@@@@@@@@@@@@@@@@@@@@@@@@@@@@@@@@@@@@@@@@@@@@@@@@@@@@@@@@@@@@@@@@@@@@@@@@@@@@@@@@@@@@@@@@@@@@@@@@@@@@@@@@@@@@@@@@@@@@@@@@@@@@",
"@@@@@@@@@@@@@@@@@@@@@@@@@@@@@@@@@@@@@@@@@@@@@@@@@@@@@@@@@@@@@@@@@@@@@@@@@@@@@@@@@@@@@@@@@@@@@@@@@@@@@@@@@@@@@@@@@@@@@@@@@@@@@@@@@@@@@@@@@@@@@@@@@@@@@@@@@@@@@@@@@@@@@@@@@@@@@@@@@@@@@@@@@@@@@@@@@@@@@@@@@@@@@@@@@@@@@@@@@@@@@@@@@@@@@@@@@@@@@@@@@@@@@@@@@@@@@@@@@@@@@@@@@@@@@@@@@@@@@@@@@@@@@@@@@@@@@@@@@@@@@@@@@@@@@@@@@@@@@@@@",
"@@@@@@@@@@@@@@@@@@@@@@@@@@@@@@@@@@@@@@@@@@@@@@@@@@@@@@@@@@@@@@@@@@@@@@@@@@@@@@@@@@@@@@@@@@@@@@@@@@@@@@@@@@@@@@@@@@@@@@@@@@@@@@@@@@@@@@@@@@@@@@@@@@@@@@@@@@@@@@@@@@@@@@@@@@@@@@@@@@@@@@@@@@@@@@@@@@@@@@@@@@@@@@@@@@@@@@@@@@@@@@@@@@@@@@@@@@@@@@@@@@@@@@@@@@@@@@@@@@@@@@@@@@@@@@@@@@@@@@@@@@@@@@@@@@@@@@@@@@@@@@@@@@@@@@@@@@@@@@@@",
"@@@@@@@@@@@@@@@@@@@@@@@@@@@@@@@@@@@@@@@@@@@@@@@@@@@@@@@@@@@@@@@@@@@@@@@@@@@@@@@@@@@@@@@@@@@@@@@@@@@@@@@@@@@@@@@@@@@@@@@@@@@@@@@@@@@@@@@@@@@@@@@@@@@@@@@@@@@@@@@@@@@@@@@@@@@@@@@@@@@@@@@@@@@@@@@@@@@@@@@@@@@@@@@@@@@@@@@@@@@@@@@@@@@@@@@@@@@@@@@@@@@@@@@@@@@@@@@@@@@@@@@@@@@@@@@@@@@@@@@@@@@@@@@@@@@@@@@@@@@@@@@@@@@@@@@@@@@@@@@@",
"@@@@@@@@@@@@@@@@@@@@@@@@@@@@@@@@@@@@@@@@@@@@@@@@@@@@@@@@@@@@@@@@@@@@@@@@@@@@@@@@@@@@@@@@@@@@@@@@@@@@@@@@@@@@@@@@@@@@@@@@@@@@@@@@@@@@@@@@@@@@@@@@@@@@@@@@@@@@@@@@@@@@@@@@@@@@@@@@@@@@@@@@@@@@@@@@@@@@@@@@@@@@@@@@@@@@@@@@@@@@@@@@@@@@@@@@@@@@@@@@@@@@@@@@@@@@@@@@@@@@@@@@@@@@@@@@@@@@@@@@@@@@@@@@@@@@@@@@@@@@@@@@@@@@@@@@@@@@@@@@",
"@@@@@@@@@@@@@@@@@@@@@@@@@@@@@@@@@@@@@@@@@@@@@@@@@@@@@@@@@@@@@@@@@@@@@@@@@@@@@@@@@@@@@@@@@@@@@@@@@@@@@@@@@@@@@@@@@@@@@@@@@@@@@@@@@@@@@@@@@@@@@@@@@@@@@@@@@@@@@@@@@@@@@@@@@@@@@@@@@@@@@@@@@@@@@@@@@@@@@@@@@@@@@@@@@@@@@@@@@@@@@@@@@@@@@@@@@@@@@@@@@@@@@@@@@@@@@@@@@@@@@@@@@@@@@@@@@@@@@@@@@@@@@@@@@@@@@@@@@@@@@@@@@@@@@@@@@@@@@@@@",
"@@@@@@@@@@@@@@@@@@@@@@@@@@@@@@@@@@@@@@@@@@@@@@@@@@@@@@@@@@@@@@@@@@@@@@@@@@@@@@@@@@@@@@@@@@@@@@@@@@@@@@@@@@@@@@@@@@@@@@@@@@@@@@@@@@@@@@@@@@@@@@@@@@@@@@@@@@@@@@@@@@@@@@@@@@@@@@@@@@@@@@@@@@@@@@@@@@@@@@@@@@@@@@@@@@@@@@@@@@@@@@@@@@@@@@@@@@@@@@@@@@@@@@@@@@@@@@@@@@@@@@@@@@@@@@@@@@@@@@@@@@@@@@@@@@@@@@@@@@@@@@@@@@@@@@@@@@@@@@@@",
"@@@@@@@@@@@@@@@@@@@@@@@@@@@@@@@@@@@@@@@@@@@@@@@@@@@@@@@@@@@@@@@@@@@@@@@@@@@@@@@@@@@@@@@@@@@@@@@@@@@@@@@@@@@@@@@@@@@@@@@@@@@@@@@@@@@@@@@@@@@@@@@@@@@@@@@@@@@@@@@@@@@@@@@@@@@@@@@@@@@@@@@@@@@@@@@@@@@@@@@@@@@@@@@@@@@@@@@@@@@@@@@@@@@@@@@@@@@@@@@@@@@@@@@@@@@@@@@@@@@@@@@@@@@@@@@@@@@@@@@@@@@@@@@@@@@@@@@@@@@@@@@@@@@@@@@@@@@@@@@@",
"@@@@@@@@@@@@@@@@@@@@@@@@@@@@@@@@@@@@@@@@@@@@@@@@@@@@@@@@@@@@@@@@@@@@@@@@@@@@@@@@@@@@@@@@@@@@@@@@@@@@@@@@@@@@@@@@@@@@@@@@@@@@@@@@@@@@@@@@@@@@@@@@@@@@@@@@@@@@@@@@@@@@@@@@@@@@@@@@@@@@@@@@@@@@@@@@@@@@@@@@@@@@@@@@@@@@@@@@@@@@@@@@@@@@@@@@@@@@@@@@@@@@@@@@@@@@@@@@@@@@@@@@@@@@@@@@@@@@@@@@@@@@@@@@@@@@@@@@@@@@@@@@@@@@@@@@@@@@@@@@",
"@@@@@@@@@@@@@@@@@@@@@@@@@@@@@@@@@@@@@@@@@@@@@@@@@@@@@@@@@@@@@@@@@@@@@@@@@@@@@@@@@@@@@@@@@@@@@@@@@@@@@@@@@@@@@@@@@@@@@@@@@@@@@@@@@@@@@@@@@@@@@@@@@@@@@@@@@@@@@@@@@@@@@@@@@@@@@@@@@@@@@@@@@@@@@@@@@@@@@@@@@@@@@@@@@@@@@@@@@@@@@@@@@@@@@@@@@@@@@@@@@@@@@@@@@@@@@@@@@@@@@@@@@@@@@@@@@@@@@@@@@@@@@@@@@@@@@@@@@@@@@@@@@@@@@@@@@@@@@@@@",
"@@@@@@@@@@@@@@@@@@@@@@@@@@@@@@@@@@@@@@@@@@@@@@@@@@@@@@@@@@@@@@@@@@@@@@@@@@@@@@@@@@@@@@@@@@@@@@@@@@@@@@@@@@@@@@@@@@@@@@@@@@@@@@@@@@@@@@@@@@@@@@@@@@@@@@@@@@@@@@@@@@@@@@@@@@@@@@@@@@@@@@@@@@@@@@@@@@@@@@@@@@@@@@@@@@@@@@@@@@@@@@@@@@@@@@@@@@@@@@@@@@@@@@@@@@@@@@@@@@@@@@@@@@@@@@@@@@@@@@@@@@@@@@@@@@@@@@@@@@@@@@@@@@@@@@@@@@@@@@@@",
"@@@@@@@@@@@@@@@@@@@@@@@@@@@@@@@@@@@@@@@@@@@@@@@@@@@@@@@@@@@@@@@@@@@@@@@@@@@@@@@@@@@@@@@@@@@@@@@@@@@@@@@@@@@@@@@@@@@@@@@@@@@@@@@@@@@@@@@@@@@@@@@@@@@@@@@@@@@@@@@@@@@@@@@@@@@@@@@@@@@@@@@@@@@@@@@@@@@@@@@@@@@@@@@@@@@@@@@@@@@@@@@@@@@@@@@@@@@@@@@@@@@@@@@@@@@@@@@@@@@@@@@@@@@@@@@@@@@@@@@@@@@@@@@@@@@@@@@@@@@@@@@@@@@@@@@@@@@@@@@@",
"@@@@@@@@@@@@@@@@@@@@@@@@@@@@@@@@@@@@@@@@@@@@@@@@@@@@@@@@@@@@@@@@@@@@@@@@@@@@@@@@@@@@@@@@@@@@@@@@@@@@@@@@@@@@@@@@@@@@@@@@@@@@@@@@@@@@@@@@@@@@@@@@@@@@@@@@@@@@@@@@@@@@@@@@@@@@@@@@@@@@@@@@@@@@@@@@@@@@@@@@@@@@@@@@@@@@@@@@@@@@@@@@@@@@@@@@@@@@@@@@@@@@@@@@@@@@@@@@@@@@@@@@@@@@@@@@@@@@@@@@@@@@@@@@@@@@@@@@@@@@@@@@@@@@@@@@@@@@@@@@",
"@@@@@@@@@@@@@@@@@@@@@@@@@@@@@@@@@@@@@@@@@@@@@@@@@@@@@@@@@@@@@@@@@@@@@@@@@@@@@@@@@@@@@@@@@@@@@@@@@@@@@@@@@@@@@@@@@@@@@@@@@@@@@@@@@@@@@@@@@@@@@@@@@@@@@@@@@@@@@@@@@@@@@@@@@@@@@@@@@@@@@@@@@@@@@@@@@@@@@@@@@@@@@@@@@@@@@@@@@@@@@@@@@@@@@@@@@@@@@@@@@@@@@@@@@@@@@@@@@@@@@@@@@@@@@@@@@@@@@@@@@@@@@@@@@@@@@@@@@@@@@@@@@@@@@@@@@@@@@@@@",
"@@@@@@@@@@@@@@@@@@@@@@@@@@@@@@@@@@@@@@@@@@@@@@@@@@@@@@@@@@@@@@@@@@@@@@@@@@@@@@@@@@@@@@@@@@@@@@@@@@@@@@@@@@@@@@@@@@@@@@@@@@@@@@@@@@@@@@@@@@@@@@@@@@@@@@@@@@@@@@@@@@@@@@@@@@@@@@@@@@@@@@@@@@@@@@@@@@@@@@@@@@@@@@@@@@@@@@@@@@@@@@@@@@@@@@@@@@@@@@@@@@@@@@@@@@@@@@@@@@@@@@@@@@@@@@@@@@@@@@@@@@@@@@@@@@@@@@@@@@@@@@@@@@@@@@@@@@@@@@@@",
"@@@@@@@@@@@@@@@@@@@@@@@@@@@@@@@@@@@@@@@@@@@@@@@@@@@@@@@@@@@@@@@@@@@@@@@@@@@@@@@@@@@@@@@@@@@@@@@@@@@@@@@@@@@@@@@@@@@@@@@@@@@@@@@@@@@@@@@@@@@@@@@@@@@@@@@@@@@@@@@@@@@@@@@@@@@@@@@@@@@@@@@@@@@@@@@@@@@@@@@@@@@@@@@@@@@@@@@@@@@@@@@@@@@@@@@@@@@@@@@@@@@@@@@@@@@@@@@@@@@@@@@@@@@@@@@@@@@@@@@@@@@@@@@@@@@@@@@@@@@@@@@@@@@@@@@@@@@@@@@@",
"@@@@@@@@@@@@@@@@@@@@@@@@@@@@@@@@@@@@@@@@@@@@@@@@@@@@@@@@@@@@@@@@@@@@@@@@@@@@@@@@@@@@@@@@@@@@@@@@@@@@@@@@@@@@@@@@@@@@@@@@@@@@@@@@@@@@@@@@@@@@@@@@@@@@@@@@@@@@@@@@@@@@@@@@@@@@@@@@@@@@@@@@@@@@@@@@@@@@@@@@@@@@@@@@@@@@@@@@@@@@@@@@@@@@@@@@@@@@@@@@@@@@@@@@@@@@@@@@@@@@@@@@@@@@@@@@@@@@@@@@@@@@@@@@@@@@@@@@@@@@@@@@@@@@@@@@@@@@@@@@",
"@@@@@@@@@@@@@@@@@@@@@@@@@@@@@@@@@@@@@@@@@@@@@@@@@@@@@@@@@@@@@@@@@@@@@@@@@@@@@@@@@@@@@@@@@@@@@@@@@@@@@@@@@@@@@@@@@@@@@@@@@@@@@@@@@@@@@@@@@@@@@@@@@@@@@@@@@@@@@@@@@@@@@@@@@@@@@@@@@@@@@@@@@@@@@@@@@@@@@@@@@@@@@@@@@@@@@@@@@@@@@@@@@@@@@@@@@@@@@@@@@@@@@@@@@@@@@@@@@@@@@@@@@@@@@@@@@@@@@@@@@@@@@@@@@@@@@@@@@@@@@@@@@@@@@@@@@@@@@@@@",
"@@@@@@@@@@@@@@@@@@@@@@@@@@@@@@@@@@@@@@@@@@@@@@@@@@@@@@@@@@@@@@@@@@@@@@@@@@@@@@@@@@@@@@@@@@@@@@@@@@@@@@@@@@@@@@@@@@@@@@@@@@@@@@@@@@@@@@@@@@@@@@@@@@@@@@@@@@@@@@@@@@@@@@@@@@@@@@@@@@@@@@@@@@@@@@@@@@@@@@@@@@@@@@@@@@@@@@@@@@@@@@@@@@@@@@@@@@@@@@@@@@@@@@@@@@@@@@@@@@@@@@@@@@@@@@@@@@@@@@@@@@@@@@@@@@@@@@@@@@@@@@@@@@@@@@@@@@@@@@@@",
"@@@@@@@@@@@@@@@@@@@@@@@@@@@@@@@@@@@@@@@@@@@@@@@@@@@@@@@@@@@@@@@@@@@@@@@@@@@@@@@@@@@@@@@@@@@@@@@@@@@@@@@@@@@@@@@@@@@@@@@@@@@@@@@@@@@@@@@@@@@@@@@@@@@@@@@@@@@@@@@@@@@@@@@@@@@@@@@@@@@@@@@@@@@@@@@@@@@@@@@@@@@@@@@@@@@@@@@@@@@@@@@@@@@@@@@@@@@@@@@@@@@@@@@@@@@@@@@@@@@@@@@@@@@@@@@@@@@@@@@@@@@@@@@@@@@@@@@@@@@@@@@@@@@@@@@@@@@@@@@@",
"@@@@@@@@@@@@@@@@@@@@@@@@@@@@@@@@@@@@@@@@@@@@@@@@@@@@@@@@@@@@@@@@@@@@@@@@@@@@@@@@@@@@@@@@@@@@@@@@@@@@@@@@@@@@@@@@@@@@@@@@@@@@@@@@@@@@@@@@@@@@@@@@@@@@@@@@@@@@@@@@@@@@@@@@@@@@@@@@@@@@@@@@@@@@@@@@@@@@@@@@@@@@@@@@@@@@@@@@@@@@@@@@@@@@@@@@@@@@@@@@@@@@@@@@@@@@@@@@@@@@@@@@@@@@@@@@@@@@@@@@@@@@@@@@@@@@@@@@@@@@@@@@@@@@@@@@@@@@@@@@",
"@@@@@@@@@@@@@@@@@@@@@@@@@@@@@@@@@@@@@@@@@@@@@@@@@@@@@@@@@@@@@@@@@@@@@@@@@@@@@@@@@@@@@@@@@@@@@@@@@@@@@@@@@@@@@@@@@@@@@@@@@@@@@@@@@@@@@@@@@@@@@@@@@@@@@@@@@@@@@@@@@@@@@@@@@@@@@@@@@@@@@@@@@@@@@@@@@@@@@@@@@@@@@@@@@@@@@@@@@@@@@@@@@@@@@@@@@@@@@@@@@@@@@@@@@@@@@@@@@@@@@@@@@@@@@@@@@@@@@@@@@@@@@@@@@@@@@@@@@@@@@@@@@@@@@@@@@@@@@@@@",
"@@@@@@@@@@@@@@@@@@@@@@@@@@@@@@@@@@@@@@@@@@@@@@@@@@@@@@@@@@@@@@@@@@@@@@@@@@@@@@@@@@@@@@@@@@@@@@@@@@@@@@@@@@@@@@@@@@@@@@@@@@@@@@@@@@@@@@@@@@@@@@@@@@@@@@@@@@@@@@@@@@@@@@@@@@@@@@@@@@@@@@@@@@@@@@@@@@@@@@@@@@@@@@@@@@@@@@@@@@@@@@@@@@@@@@@@@@@@@@@@@@@@@@@@@@@@@@@@@@@@@@@@@@@@@@@@@@@@@@@@@@@@@@@@@@@@@@@@@@@@@@@@@@@@@@@@@@@@@@@@",
"@@@@@@@@@@@@@@@@@@@@@@@@@@@@@@@@@@@@@@@@@@@@@@@@@@@@@@@@@@@@@@@@@@@@@@@@@@@@@@@@@@@@@@@@@@@@@@@@@@@@@@@@@@@@@@@@@@@@@@@@@@@@@@@@@@@@@@@@@@@@@@@@@@@@@@@@@@@@@@@@@@@@@@@@@@@@@@@@@@@@@@@@@@@@@@@@@@@@@@@@@@@@@@@@@@@@@@@@@@@@@@@@@@@@@@@@@@@@@@@@@@@@@@@@@@@@@@@@@@@@@@@@@@@@@@@@@@@@@@@@@@@@@@@@@@@@@@@@@@@@@@@@@@@@@@@@@@@@@@@@",
"@@@@@@@@@@@@@@@@@@@@@@@@@@@@@@@@@@@@@@@@@@@@@@@@@@@@@@@@@@@@@@@@@@@@@@@@@@@@@@@@@@@@@@@@@@@@@@@@@@@@@@@@@@@@@@@@@@@@@@@@@@@@@@@@@@@@@@@@@@@@@@@@@@@@@@@@@@@@@@@@@@@@@@@@@@@@@@@@@@@@@@@@@@@@@@@@@@@@@@@@@@@@@@@@@@@@@@@@@@@@@@@@@@@@@@@@@@@@@@@@@@@@@@@@@@@@@@@@@@@@@@@@@@@@@@@@@@@@@@@@@@@@@@@@@@@@@@@@@@@@@@@@@@@@@@@@@@@@@@@@",
"@@@@@@@@@@@@@@@@@@@@@@@@@@@@@@@@@@@@@@@@@@@@@@@@@@@@@@@@@@@@@@@@@@@@@@@@@@@@@@@@@@@@@@@@@@@@@@@@@@@@@@@@@@@@@@@@@@@@@@@@@@@@@@@@@@@@@@@@@@@@@@@@@@@@@@@@@@@@@@@@@@@@@@@@@@@@@@@@@@@@@@@@@@@@@@@@@@@@@@@@@@@@@@@@@@@@@@@@@@@@@@@@@@@@@@@@@@@@@@@@@@@@@@@@@@@@@@@@@@@@@@@@@@@@@@@@@@@@@@@@@@@@@@@@@@@@@@@@@@@@@@@@@@@@@@@@@@@@@@@@",
"@@@@@@@@@@@@@@@@@@@@@@@@@@@@@@@@@@@@@@@@@@@@@@@@@@@@@@@@@@@@@@@@@@@@@@@@@@@@@@@@@@@@@@@@@@@@@@@@@@@@@@@@@@@@@@@@@@@@@@@@@@@@@@@@@@@@@@@@@@@@@@@@@@@@@@@@@@@@@@@@@@@@@@@@@@@@@@@@@@@@@@@@@@@@@@@@@@@@@@@@@@@@@@@@@@@@@@@@@@@@@@@@@@@@@@@@@@@@@@@@@@@@@@@@@@@@@@@@@@@@@@@@@@@@@@@@@@@@@@@@@@@@@@@@@@@@@@@@@@@@@@@@@@@@@@@@@@@@@@@@",
"@@@@@@@@@@@@@@@@@@@@@@@@@@@@@@@@@@@@@@@@@@@@@@@@@@@@@@@@@@@@@@@@@@@@@@@@@@@@@@@@@@@@@@@@@@@@@@@@@@@@@@@@@@@@@@@@@@@@@@@@@@@@@@@@@@@@@@@@@@@@@@@@@@@@@@@@@@@@@@@@@@@@@@@@@@@@@@@@@@@@@@@@@@@@@@@@@@@@@@@@@@@@@@@@@@@@@@@@@@@@@@@@@@@@@@@@@@@@@@@@@@@@@@@@@@@@@@@@@@@@@@@@@@@@@@@@@@@@@@@@@@@@@@@@@@@@@@@@@@@@@@@@@@@@@@@@@@@@@@@@",
"@@@@@@@@@@@@@@@@@@@@@@@@@@@@@@@@@@@@@@@@@@@@@@@@@@@@@@@@@@@@@@@@@@@@@@@@@@@@@@@@@@@@@@@@@@@@@@@@@@@@@@@@@@@@@@@@@@@@@@@@@@@@@@@@@@@@@@@@@@@@@@@@@@@@@@@@@@@@@@@@@@@@@@@@@@@@@@@@@@@@@@@@@@@@@@@@@@@@@@@@@@@@@@@@@@@@@@@@@@@@@@@@@@@@@@@@@@@@@@@@@@@@@@@@@@@@@@@@@@@@@@@@@@@@@@@@@@@@@@@@@@@@@@@@@@@@@@@@@@@@@@@@@@@@@@@@@@@@@@@@",
"@@@@@@@@@@@@@@@@@@@@@@@@@@@@@@@@@@@@@@@@@@@@@@@@@@@@@@@@@@@@@@@@@@@@@@@@@@@@@@@@@@@@@@@@@@@@@@@@@@@@@@@@@@@@@@@@@@@@@@@@@@@@@@@@@@@@@@@@@@@@@@@@@@@@@@@@@@@@@@@@@@@@@@@@@@@@@@@@@@@@@@@@@@@@@@@@@@@@@@@@@@@@@@@@@@@@@@@@@@@@@@@@@@@@@@@@@@@@@@@@@@@@@@@@@@@@@@@@@@@@@@@@@@@@@@@@@@@@@@@@@@@@@@@@@@@@@@@@@@@@@@@@@@@@@@@@@@@@@@@@",
"@@@@@@@@@@@@@@@@@@@@@@@@@@@@@@@@@@@@@@@@@@@@@@@@@@@@@@@@@@@@@@@@@@@@@@@@@@@@@@@@@@@@@@@@@@@@@@@@@@@@@@@@@@@@@@@@@@@@@@@@@@@@@@@@@@@@@@@@@@@@@@@@@@@@@@@@@@@@@@@@@@@@@@@@@@@@@@@@@@@@@@@@@@@@@@@@@@@@@@@@@@@@@@@@@@@@@@@@@@@@@@@@@@@@@@@@@@@@@@@@@@@@@@@@@@@@@@@@@@@@@@@@@@@@@@@@@@@@@@@@@@@@@@@@@@@@@@@@@@@@@@@@@@@@@@@@@@@@@@@@",
"@@@@@@@@@@@@@@@@@@@@@@@@@@@@@@@@@@@@@@@@@@@@@@@@@@@@@@@@@@@@@@@@@@@@@@@@@@@@@@@@@@@@@@@@@@@@@@@@@@@@@@@@@@@@@@@@@@@@@@@@@@@@@@@@@@@@@@@@@@@@@@@@@@@@@@@@@@@@@@@@@@@@@@@@@@@@@@@@@@@@@@@@@@@@@@@@@@@@@@@@@@@@@@@@@@@@@@@@@@@@@@@@@@@@@@@@@@@@@@@@@@@@@@@@@@@@@@@@@@@@@@@@@@@@@@@@@@@@@@@@@@@@@@@@@@@@@@@@@@@@@@@@@@@@@@@@@@@@@@@@",
"                          535345778zxvbnmMCZCMmnbvxz8767xvx4                             O     O                                                            g                                                                                                +                                          O                       ",
"                         %535345778zxvbnmMCZCMmnbvxz8767xvx4%                                                                       O                        >                                                                                                                                                              >O  ",
"                         1535345778zxvbnmMCZCMmnbvxz8767xvx41     >                                                                                                                                               >                                                                Cn      CC                                   ",
"                         2535345778zxvbnmMCZCMmnbvxz8767xvx42                                                                                                                                                                                                                     CnMC    Cnnn                                  ",
"     D                   3535345778zxvbnmMCZCMmnbvxz8767xvx43                                      O                    O                                                                   O                                                                       g            CnMC8   CnnM8           >                      ",
"                         4535345778zxvbnmMCZCMmnbvxz8767xvx44                                                                                                                                                                                                                   CnMC8   CnnM8  >                                ",
"       O    >            5535345778zxvbnmMCZCMmnbvxz8767xvx44              D                                                                                                                           O                                                                       CnMC8   CnnM8>                                   ",
"          O              5535345778zxvbnmMCZCMmnbvxz8767xvx44                D                                                                    O                                                        O                         D            +                           CnMC8   CnnM8                                     ",
"                 >       4535345778zxvvnmMCZCMmnbvxz8767xvx44  g     >                                                                      O                                   D O                                                 g                          1zzzzzzzzzzzzzzzzC8   CnnM8                                   >  ",
"                         4535345778zxvbnmMCZCMmnbvxz8767xvx44                                                O                g     >                                                                                       +                              1zzzz6666666666666666zzzzCnnM8    >                    >             ",
"                         4535345778zxvbnmMCZCMmnbvxz8767xvx44          O                           O           O                                                                                                                          >     O        1zz666666666666666666666666zzM8                                        ",
"                         4365345778zxvbnmMCZCMnnvvxz8767xvx44                                                                                                               O                                                                           1z666666444444444444444466666681                                        ",
"                         4365345778zxvbnnMCACMmnnvxz8767xvx74                           >                                                      >                                O                                                                      1z6664444                4444666z1                      DO              O",
"        O                4365345778zxvbnmMCZCMmnvvxz8767xvx74                                                                                                                            >                                                             z6644   377777777777777773   4466z                                       ",
"                         4365345778zxvbnnCCZCMmnbvxz8767xvx84       O                                                                               >                                                                                                  664  377777vbnmMCZCMmnvv77773  466                                       ",
"                         4365345778zxvbnmMCZCMmnbvxz87678xvx4                                                                        O                                         >                          >                                     O      64 775778zxvbnmMCZCMmnbvxz86777 46                                   O   ",
"               O        O4365345778zxvbnmMCZCMmnbvxz87677xvx4         >                       >             >                               O                    O                                                                                     4 6534578zxvbnmMCZCMmnbvxz867xv7 4                                       ",
"                     D   4365345778zxvbnmMCZCMmnbvxz87677xvx4                                                            O                          >         O       >             O                                                          O        56534578zxvbnmMCZCMmnnvxz867xvx4                                        ",
"                        %4365345778zxvbnmMCZCMmnbvxz87677xvx4%                                            O                        O                         O             >                                                                           %56534578zxvbnmMCZCMmnvvxz867xvx4%                                       ",
"                        14365345778zxvbnmMCZCMmnbvxz87677xvx41                                     >                                                      >                                       +                                            +       156534578zxvbnmMCZCMmnvvxz867xvx41   D                                   ",
"        >          >    24365345778zxvbnmMCZCMmnbvxz87677xvx42                                                                                              >               g   O                            >                                     O   256534578zxvbnmMCZCMmnbvxz867xvx42                  O     >              ",
"                        34365345778zxvbnmMCZCMmnbvxz87677xvx43              O                                                                                                                        O                                                 356534578zxvbnmMCZCMmnbvxz867xvx43            O       >       Og         ",
"              g         44365345778zxvbnmMCZCMmnbvxz87677xvx44                                   >            O            D           O O                         >     O                                               O                             456534578zxvbnmMCZCMmnbvxz867xvx44                                       ",
"         >              54365345778zxvbnmMCZCMmnbvxz87677xvx44       >        O                                                                                                                      >                                                 556534578zxvbnmMCZCMmnbvxz867xvx44                                       ",
"                        54365345778zxvbnmMCZCMmnbvxz87677xvx44                                                O                 >      >       O                  O                                                                                  g 556534578zxvbnmMCZCMmnbvxz867xvx44                                       ",
"            O           44365345778zxvbnmMCZCMmnbvxz87677xvx44                                                                                                                                                                                         456534578zxvbnmMCZCMmnbvxz867xvx44                                       ",
"                        44365345778zxvbnmMCZCMmnbvxz87677xvx44                                                            O     O                         O                                                   O          >                             456534578zxvbnmMCZCMmnbvxz867xvx84                                       ",
"                        44365345778zxvbnmMCZCMmnbvxz87677xvx44                                                                                                                       >     +                                                           456534578zxvbnmMCZCMmnbvxz8678xvx4                                       ",
"                        44365345778zxvbnmMCZCMmnbvxz87677xvx44                                          OO                                                    >           +                                                                 O          456534578zxvbnmMCZCMmnbvxz8677xvx4        O                              ",
"                        44365345778zxvbnmMCZCMmnbvxz87677xvx44                 >                  >                                                        O                  +                                     >                                  456534578zxvbnmMCZCMmnbvxz8677xvx4                                       ",
"      >                 44365345778zxvbnmMCZCMmnbvxz87677xvx44                          O                               O                                                                                                          O                   456534578zxvbnmMCZCMmnvvxz8677xvx4                                       ",
"                        44365345778zxvbnmMCZCMmnbvxz87677xvx44             g                                                           O   O                             >                                                           O                 456534578zxvbnmMCZCMmnbvxz8677xvx4               > O                     ",
"     O                  43564345778zxvbnmMCZCMmnbvxz87767xvx44                                                        >                                                              +                                                                 456534578zxvbnmMCZCMmnbvxz8767xvx4                                       ",
"                        43653456778zxvvnmMCZCMmnbvxz87767xvx44                                                          O                                                                                                                              455345678zxvbnmMCZCMmnbvxz8767xvx4                                       ",
"                        43653457778zxvbnmMCZCMmnbvxz87767xvx74                                                                                                                                          >                                              565345778zxvbnmMCZCMmnbvxz8767xvx4                                       ",
"                       %43653457778zxvbnmMCZCMmnbvxz87767xvx84%                                                                                        >                      +                                                                       %565345778zxvbnmMCZCMmnbvxz8767xvx4%     >                       >        ",
"       >               143653457778zxvbnmMCZCMmnbvxz877678xvx41             >                                                             O                                                              >              O                             1565345778zxvbnmMCZCMmnbvxz8767xvx41           >                          ",
"           >           243653457778zxvbnmMCZCMmnbvxz877677xvx42                                                                                                                                                         DO                            2565345778zxvbnmMCZCMmnbvxz8767xvx42                                      ",
"                       443653457778zxvbnmMCZCMmnbvxz877677xvx43                                                                         O                                                                                                             3565345778zxvbnmMCZCMmnbvxz8767xvx43                                     g",
"                       443653457778zxvb741%#%1148vxz877677xvx44                                         h   >  O                   O                     +                                                                             O              4565345778zxvbnmMCZCMmnbvxz8767xvx44                                      ",
"                       443653457778zx42@$531$@41$25z877677xvx44                                        gjg             >         >                                                                                    O                              >5565345778xxvvnmMCZCMmnbvxz8867xvx44                           O          ",
"                       44365345777861%#7@8%x1 z1#@11777677xvx44                                       hjDjh                                                     >                           g     +                                                 > 5565345778zxvvnmMCZCMmnbvxz8767xvx44                                      ",
"                       443653457773$$2#Zz     o%S6o$%57677xvx44                                        gjg                                                    >                                                            >                          4565345778zxvbnmMCZCMmnbvxz8767xvx44               D                      ",
"                      %4436534577311$x7o@15765$X6x111%6677xvx44                      >                  h                                                                                                                                             4565345778zxvbnmMCZCMnnbvxz8767xvx44                  O                   ",
"         >            144365345751X6n@@4MHJJJJGm$ 6n@#%677xvx44      >       CC      nC                                                                   +                                                                                           4565345778zxvb741%#%2148vxz8767xvx44       O                              ",
"                      2443653457%1 .$ bJGSSSSSSJJzo%  2%77xvx44             nnnC    CMnC                                                                                                                                    O                         4565345778zx52@$521$@41$25z8767xvx44                                      ",
"                      34436534532    SJSAGJHSSJGHJM   o157xvx44             8MnnC   8CMnC                                                                                     >   +                     +                                             456534577861$#7@8%x1 z1#@117767xvx44                                      ",
"                      444365345%$   nJZSJMx7ZZx8vcC6   117xvx44              8MnnC   8CMnC        >                    O                                                                                                     >              >         4565345773$$2#Cz     o%S6X#1567xvx44                                      ",
"                      4443653421.  2JSAJC  $Hz 63  A$  @%7xvx44               8MnnC   8CMnC                                        O           +                                                                                     O                45653457311$c6o#16775$.6c112%47xvx84                                      ",
"   g                  444365341$   mJAJC  2JJ5%J6  Sv   %4xvx44                8MnnC   8CMnC                                                                D                                   +                 >                      g            456534551X6n@@4MGJJJJGm$ 6n@#%78xvx4                                      ",
"                      44436534%#  XGSJC  3JGSCHJ# .GS   %1xvx44                 8MnnC   8Czzzzzzzzzzzzz1                                                                                         +                                                    4565345%% .% nJGSSSSASJJzo%  217xvx4                         >         >  ",
"                      44436534$z  8GJC  3JHSSHJ% .AHS3 @8%xvx44                  8MnnCzzzz6666666666666zzzz1                                               28nnnnnnnnnnnnnnnnnnnnnnnn7777nn82                     O               O  >                45653411.   SJSZGJJSSJHHJM   o15xvx4                                      ",
"            >         44436434@vx7nHM  4JHSFFG1 oZJFZv7vz$xvx44     >             8Mzz666666666666666666666zz1                                     28nnnnnnnnbvvvvvvvvvvbnbvvbnmMZMmnvvvvvvnnnnnnnn77              O                                 %456535%$   mJAAJMx7ZZx8vxC6   11xvx4%                                     ",
"                      44356344@xMvxJ@  %$@@@nn  zJvmSzmn6%xvx44                   186666664444444444444666666z1                                28nnnnxzxvvvvvbvvvvvvvvvvbnvvvbnmMZMmnvvvvvvvvvvvvvvvv7782              O                         O   14565311.  2JAAJC  #Jz 62  A%  @%zvx41      >                              ",
"                      44356344@zbvxG@       cn  vn nSzbv5%xvx44                  1z6664444             4444666z1                >            4nnbbvbvxzxvvvvvbvvvvvvvvvvbnbvvbnmMZMmnbvvvvvvvvvvvvvvvvvvnn4                                          245653%$   mHAJC  2JJ5%J6  Sv   %6vx42                                     ",
"                      44356344#863xCnxzxv5  cMoo7@XSM72x31cvx44                  z6644   377777777777773   4466z                           3xvxvbbvbvxzxvvvvvbvvvvvvvvvvbnbvvbnmMZMmnbvvvvvvvvvvvvvvvvvvvxvx3                               >        345653%#  XGSJC  3JGSMHJ$ .GS   %3vx43             >                       ",
"                      4435634413xvxcJHJHJm  7JSSCZSFxvcx$6xvx44                  664  377777vbnmMMmnbv77773  466                          7zxvxvbbvbvxzxvvvvvbvvvvvvvvvvbnbvvbnmMZMmnvvvvvvvvvvvvvvvvvvvvxvxz7              O             O  >       445653#z. 8GJC. 3JHSAJJ% .ZHS3 @z1vx44                             O       ",
"          >        g  443563445@vb77ZGASJv  7JFSSSJm68nz@7xvx44                  64 775778zxvbnmMMmnbvxz86777 46                 O       47zxvxvbbvbvxzxvvvvvvvvvvvcvvvvbnbvvbnmMZMmnbvvvvvvvvvvvvvvvvvvvxvxz74                    O  O              545653@vx6nHM. 4JHSFFF1 oZJSZb7cz1vx44                        >            ",
"                      443563445$782x8GGASZMmCSSSSHZ8z2v137xvx44%     D           4 6534578zxvbnmMMmnbvxz867xv7 4              g          47zxvxvbbvvvxzxvvvvxzzzzzzzzzzzzzzzzzzzzzzzzzzzzzzxvvvvvvvvvvvvvxvxz74                            O         545654@zMvxJ@  $$@@@nn  xJvnSzmn6%vx44                                     ",
"                      4435634456@cmnx8SGSSGHFSASHZ8cnn8o77xvx441          >       56534578zxvbnmMMmnbvxz867xvx4       O       O          47zxvxvbbxzzzzzzzzz73%%%%%%%%%%%%%%%%%%%%%%%%%%%%37zzzzzzzzzxvvvxvxz74                                      445653@zbvzG@       cb  vn nF8vb51vx44       ,                             ",
"                      443563445712bb%4xMFHGFFGGSm746nc#477xvx442                 %56534578zxvbnmMMmnbvxz867xvx4%                         47zxzzzzz73%%%%%%%%%%$$$$$$$$$$$$$$$$$$$$$$$$$$$$%%%%%%%%%%37zzzzzxz74  O                                   445653@872xZnzxxv5  vMo@7@XSC72x44vx44      >i>                            ",
"                     %44356344577#684536vMCCCMmx8513821677xvx743                 156534578zxvbnmMMmnbvxz867xvx41                         47z72%%%%%%$$$57xbmMMMMMMMMMMMMMMMMMMMMMMMMMMMMMMMMmbx75$$$%%%%%%27z74          O     O                     445653%3xvxcJHJJJm  7JSSCZSSxvcc$8vx44     ,ipi,                           ",
"                     1443563445777@4n432%338z515%1z52%7677xvx844                 256534578zxvvnmMMmnbvxz867xvx42                         42 57xbMMMMMMMMMmbnmnbbbbbbbbbbnmnbnmMCSFGHGSSCM  bbbbmMMM  MMmbx75 24    g                               > 4456534@vv77ZGASHv  7JFFFSJm68n8@xvx44      >i>                            ",
"                     24435634457778%168214437n2717z12777677xvx44                 356534578zxvbnmMMmnbvxz867xvx43                          278zxzbnbxz8zxvbbnmnbbbbbbbbbvnmnbnmMCSFGHGFSCMm bbbbtrrrrt 444x 872                    O                  4456534#782c8FGSSZMmZSSAAGA8z2v23xvx44       ,    O                        ",
"                     34435634457778z4157vzv67nzcz2$68777677xvx44                 456534578zxvbnmMMmnbvxz867xvx44                         2744x bn4xz8zxvbbbnmnbbbbbbbbbnnmnbbnmMCSSGHGSSCM 44bb4444rrt  44 487                                       44565345@cmnx8SGSSGGFASSGZ8cnn8@7xvx44                                     ",
"g                    44435634457878zxv6$%356643$$7xz8777677xvx44                 556534578zxvbnmMMmnbvxz867xvx44                        274444xb4 4z8zxvbbnmnvbbbbbbbbbvnmnbbnmMCSFGHGF CMm##44####444   bv 4 72                                     4456534511bb%4xMFHGGFGHSm747bc$47xvx44                                     ",
" >                   44435634457778zxvv7778zz8778vxz8777677xvx44                 556534578zxvbnmMMmnbvxz867xvx44           D           2444   44   4  vbbbnmnnvbbbbbbbbbbnmnbnmMCSFGHG  CM###4####%##4   44  z 72                                    445653457#684536vmCCCMnc851381167xvx44                 >         g         ",
"                     44435634457778zxvvn778zz877bvxz8777677xvx44                 456534578zxvbnmMMmnbvxz867xvx44                      27444    4    z  bbnmnbbbbbbbbbbbbbnmnbnmMCSSGHGF CM44#######%          z872          O                        4565345677#5n4311338z515$1z62%767xvx44           O                         ",
"                     44435634457778zxvbn778zz878bvxz8777677xvx44                 456534578zxvbnmMMmnbvxz867xvx84                     24444         44vbbbnmnbbbbbbbbbbbbbnmnbbnmMCSFGHG  C4########%         v z872                                  45653457778%168224438b2717z117767xvx44                                     ",
"               >     44435634457778zxvbnm78zz87nbvxz8777677xvx44             >   456534578zxvbnmMMmnbvxz8678xvx4                    244  4           4b bnmnbbbbbbbbbbbbbnmnbbnmMCSSGHGF C4#########%%      44 xz  2   D                            %45653457778z5%47vzv67nxxz2%687767xvx84%               >    O               ",
"                     44435634457778zxvbnm78zz88nbvxz8777677xvx44                 456534578zxvbnmMMmnbvxz8677xvx4               O   244                 bnmnbbbbbbbbbbbbbbnmnbbnmMCSFGGGFS4############$      4 4   72                 O             145653457778zxv6$%356642$$7xz877678xvx41                                    ",
"      O              44435634457778zxvbnmM8zz8mnbvxz8777677xvx44             >   456534578zxvbnmMMmnbvxz8677xvx4                  244      7vZZ2     4bbnmnbbbbbbbbbbbbbbnnnbbnmMCSSGHGFS@#############         vxz 72                            > 245653457778zxvb7778zz8778vxz877677xvx42 O                           O      ",
"                     44436344567778zxvbnmM8zz8mnbvxz8777677xvx44                 456534578zxvbnmMMmnbvxz8677xvx4                 274     7nZZ%%Z2z4  44bnmnbbbbbbbbbbbbbbnmnbbbnmMCSFGH######n4######$          44xz872   >                         345653457778zxvbn778zz877bvxz877677xvx43                                    ",
"                     44356344577778zxvbnmMCzzMmnbvxz8777677xvx44                 456534578zxvbnmMMmnbvxz8677xvx4               O27844  7nZnnZ  %Z4     4mnbbvbbbbbbbbbbbbbnmnbbnmMCSFG##F#CMmnb#b4###%            4xz872                            445653457778zxvbn778zz878bvxz877677xvx44                                    ",
"           >         44356344577778zxvbnmMCZCMmnbvxz8777677xvx44                 456534578zxvbnmMMnnbvxz8767xvx4               27 z447nZnnZmZb %Zx4    nmnbvnbbbbbbbbbbbbbnmnbbnmMC FG#GFS Mmn bb44##$             vx 872                           545653457778zxvbnn78zz87nbvxz877677xvx44                                    ",
"                     44356344577778zxvvnmMCZCMmnbvxz8777677xvx44                 455345678zxvbnmMMmnbvxz8767xvx4          O   27  x7nZnnZZZmvZZZvxv4  nmnbbbbbbbbbbbbbbbbbnmnvbbnmMCSFGGGFSCMmnb####%%           4b    872             D       O    545653457778zxvbnm78zz88nbvxz877677xvx44                                    ",
"                     44356344577778xxvbnmMCZCMmnbvxz8777677xvx44                 565345778zxvbnmMMmnbvxz8767xvx4             278z7nZnnZZZm88n88 xvbb bnmnbbbbbbbbbbbvbbbbbnmnnbbnmMCSFGHGSSCM44bb4#%$            bvbb  z872                         445653457778zxvbnmM8zz8mnbvxz877677xvx44                                    ",
"       D             44356344577778zxvbnmMCZCMmnbvxz8777677xvx44                %565345778zxvbnmMMnnbvxz8767Bux4%           2787nZnnZZZm88n88z  xvbbb nmnbbbbbbbbbbbnbbbbbnmnvbbnnMCSFGHGF4444##b4#$           4bbbvbbvxz872                 >      445653457778zxvbnmM8zz8mnbvxz877677xvx44                   O    >           ",
"           >        %44356344577778zxvbnmMCZCMmnbvxz8777677xvx44                1565345778zxvbnmCMmnbvxz876uuuu41          277nZnnZZZm88n88 z8z vbbbbn nbbbbbbbbbbbbvbbbbbnmnbbbnmMCSFGHGFS#####44###     %#    4bb    vxz872                       445653457778zxvbnmMCzzMmnbvxz877677xvx44                         O          ",
"                    144356344577778zxvbnmMC555mnbvxz8777677xvx44  g   >         2565345778zxvbnmMMm1zCCCCCCCCCCCCCCCz1    27nZnnZZZm88n88xxxz8z vbbbbnmnbbbbbbbbbbbbbbbbbbnmnbbbbnmMCSSGHG4#CM###4#%     #%#     44 4bb vxz872      O               445653457778zxvbnmMCZCMm555xz877677xvx44         >                          ",
"           O        244356344577778zxvbnmM5&&&5nbvxz8777677xvx44                3565345778zxvb1zCCCCCmmmmmmmmmmmmmmnCCCCvznZnnZZZm88n88bxxxz8zxv bbbvnmnbbbbbbbbbbbbbbbbbbnmnbbbbnmMCSFGHG SCMm4##%#     %#         4vbbbvxz872                     445653457778zxvvnmMCZCM59995z877677xvx44                                    ",
"                    344356344577778zxvbnmM5&&&5nbvxz8777677xvx44                45653457781zCCCCmmmmmnnnnnnnnnnnnnnnmmvvnZnnZZZm88n8bnbxxxxz8zxv bbbnmnbbbbbbvbbbbbbbbbbbbbnmnbbbnmMCSSG GSSCM44##%#     %#          44bbbvxz872                    445653457778zxvbnmMCZCM59995z877677xvx44                                    ",
"                    444356344577778zxvbnmM55555nbvxz8777677xvx44         >      55653451zCCCmmmnnnnnnvvvvvvvvvvvvvvvvvnZnnZZZm88n8cvnbxxxxz8zxv bbbbnmnbbbbbbnvbbbbbbbbbbbbnmnbbbnmMCSFGHGFSCM4##$#     %%##           vbbbvxz872                   445653457778zxvbnmMCZCM55555z877677xvx44                                    ",
"                    444356344577778zxvbnmM5&&&5nbvxz8777677xvx44         O      556531zCCmmmnnnnvvvvvvvvvvvvvvvvvvvvnZnnZZZm88n8zxxbnbxxxxz8zx bbbbnmnbbbbbbbbbbbbbbbbbbbbvnmnbbbbnmMCSFGGGF#######    %#####        bb vbbbvxz872                  445653457778zxvbnmMCZCM59995z877677xvx44                                    ",
"                    444356344577778zxvbnmM5&&&5nvvxz8777677xvx44                4561zCCmmnnnvvvvvvvvvvvvvvvvvvvvvvnZnnZZZm88n8xzxxbnbxxxxz8zxvbbbbbnmnbbbbbbbbbbbbbbbbbbbbbnmnbbbbnmMCSFGHGFSCM#n# bb ####b btrr rtb  bbbvbbbvxz872                 445653457778zxvbnmMCZCM59995z877777xvx44                                    ",
"                    444356344577778JJJJJJJJJJJJJJJJJJJJJJJJJJJJJJJJJJJJJJJJJJJJJJJJJJJJJJJJJJJJJJJJJJJJJJJJJJJJJJJJJJJJJJJJJJJJJJJJJJJJJJJJJJJJJJJJJJJJJJJJJJJJJJJJJJJJJJJJJJJJJJJJJJJJJJJJJJJJJJJJJJJJJJJJJJJJJJJJJJJJJJJJJJJJJJJJJJJJJJJJJJJJJJJJJJJJJJJJJJJJJJJJJJJJJJJJJJJJJJJJJJJJJvx44                                    ",
"                    444356344577778JJJJJJJJJJJJJJJJJJJJJJJJJJJJJJJJJJJJJJJJJJJJJJJJJJJJJJJJJJJJJJJJJJJJJJJJJJJJJJJJJJJJJJJJJJJJJJJJJJJJJJJJJJJJJJJJJJJJJJJJJJJJJJJJJJJJJJJJJJJJJJJJJJJJJJJJJJJJJJJJJJJJJJJJJJJJJJJJJJJJJJJJJJJJJJJJJJJJJJJJJJJJJJJJJJJJJJJJJJJJJJJJJJJJJJJJJJJJJJJJJJJJJvx44%                                   ",
"                    444356344577778GZZZZZZZZZZZZZZZZZZZZZZZZZZZZZZZZZZZZZZZZZZZZZZZZZZZZZZZZZZZZZZZZZZZZZZZZZZZZZZZZZZZZZZZZZZZZZZZZZZZZZZZZZZZZZZZZZZZZZZZZZZZZZZZZZZZZZZZZZZZZZZZZZZZZZZZZZZZZZZZZZZZZZZZZZZZZZZZZZZZZZZZZZZZZZZZZZZZZZZZZZZZZZZZZZZZZZZZZZZZZZZZZZZZZZZZZZZZZZZZZZZZGvx441                                   ",
"                    444356344577778GZZZZZZZZZZZZZZZZZZZZZZZZZZZZZZZZZZZZZZZZZZZZZZZZZZZZZZZZZZZZZZZZZZZZZZZZZZZZZZZZZZZZZZZZZZZZZZZZZZZZZZZZZZZZZZZZZZZZZZZZZZZZZZZZZZZZZZZZZZZZZZZZZZZZZZZZZZZZZZZZZZZZZZZZZZZZZZZZZZZZZZZZZZZZZZZZZZZZZZZZZZZZZZZZZZZZZZZZZZZZZZZZZZZZZZZZZZZZZZZZZZZGvx442      O                            ",
"                    444356344577778xxxxxxxxxxxxxxxxxxxxxxxxxxxxxxxxxxxxxxxxxxxxxxxxxxxxxxxxxxxxxxxxxxxxxxxxxxxxxxxxxxxxxxxxxxxxxxxxxxxxxxxxxxxxxxxxxxxxxxxxxxxxxxxxxxxxxxxxxxxxxxxxxxxxxxxxxxxxxxxxxxxxxxxxxxxxxxxxxxxxxxxxxxxxxxxxxxxxxxxxxxxxxxxxxxxxxxxxxxxxxxxxxxxxxxxxxxxxxxxxxxxxxvx443                                   ",
"                    444356344577778zxvCn44444444444bmb44444444444bmb44444444444bmb44444444444bmb44444444444vmb44444444444bmb44444444444bmb44444444444bmb44444444444bmb44444444444bmb44444444444bmb44444444444bmb44444444444bmb44444444444bmb44444444444bmb44444444444bmb44444444444nC77xvx444      g                            ",
"                    444356344577778zxvGC41111111114bCb41111111114bCb41111111114bCb41111111114vCb41111111114bCb41111111114bCb41111111114bCb41111111114bCb41111111114bCb41111111114bCb41111111114bCb41111111114bCb41111111114vCb41111111114bCb41111111114bCb41111111114vCb41111111114CG77xvx844          >                        ",
"                    444356344577778zxvGC44444444444bCb44444444444bCb44444444444vCb44444444444bCb44444444444bCb44444444444bCb44444444444bCv44444444444bCb44444444444bCb44444444444bCb44444444444vCb44444444444bCb44444444444bCb44444444444bCb44444444444bCb44444444444bCb44444444444CG778xvx44                           D       ",
"             g      444356344577778zxvGCJJJJJJJJJJJCCJJJJJJJJJJJJCCJJJJJJJJJJJJCCJJJJJJJJJJJJCCJJJJJJJJJJJJCCJJJJJJJJJJJJCCJJJJJJJJJJJJCCJJJJJJJJJJJJCCJJJJJJJJJJJJCCJJJJJJJJJJJJCCJJJJJJJJJJJJCCJJJJJJJJJJJJCCJJJJJJJJJJJJCCJJJJJJJJJJJJCCJJJJJJJJJJJJCCJJJJJJJJJJJJCCJJJJJJJJJJJJCG777xvx44                              >    ",
"                    443456344577778zxvGCCCCCCCCCCCCCCCCCCCCCCCCCCCCCCCCCCCCCCCCCCCCCCCCCCCCCCCCCCCCCCCCCCCCCCCCCCCCCCCCCCCCCCCCCCCCCCCCCCCCCCCCCCCCCCCCCCCCCCCCCCCCCCCCCCCCCCCCCCCCCCCCCCCCCCCCCCCCCCCCCCCCCCCCCCCCCCCCCCCCCCCCCCCCCCCCCCCCCCCCCCCCCCCCCCCCCCCCCCCCCCCCCCCCCCCCCCCCCG777xvx44                                   ",
"                   %443456344577778zxvGCCCCCCCCCCCCCCCCCCCCCCCCCCCCCCCCCCCCCCCCCCCCCCCCCCCCCCCCCCCCCCCCCCCCCCCCCCCCCCCCCCCCCCCCCCCCCCCCCCCCCCCCCCCCCCCCCCCCCCCCCCCCCCCCCCCCCCCCCCCCCCCCCCCCCCCCCCCCCCCCCCCCCCCCCCCCCCCCCCCCCCCCCCCCCCCCCCCCCCCCCCCCCCCCCCCCCCCCCCCCCCCCCCCCCCCCCCCCCG777xvx44                                   ",
"                   1443456344577778zxvGCCCCCCCCCCCCCCCCCCCCCCCCCCCCCCCCCCCCCCCCCCCCCCCCCCCCCCCCCCCCCCCCCCCCCCCCCCCCCCCCCCCCCCCCCCCCCCCCCCCCCCCCCCCCCCCCCCCCCCCCCCCCCCCCCCCCCCCCCCCCCCCCCCCCCCCCCCCCCCCCCCCCCCCCCCCCCCCCCCCCCCCCCCCCCCCCCCCCCCCCCCCCCCCCCCCCCCCCCCCCCCCCCCCCCCCCCCCCCG777xvx44  O                                ",
"                   2443456344577778zxvGCCCCCCCCCCCCCCCCCCCCCCCCCCCCCCCCCCCCCCCCCCCCCCCCCCCCCCCCCCCCCCCCCCCCCCCCCCCCCCCCCCCCCCCCCCCCCCCCCCCCCCCCCCCCCCCCCCCCCCCCCCCCCCCCCCCCCCCCCCCCCCCCCCCCCCCCCCCCCCCCCCCCCCCCCCCCCCCCCCCCCCCCCCCCCCCCCCCCCCCCCCCCCCCCCCCCCCCCCCCCCCCCCCCCCCCCCCCCCG777xvx44                                   ",
"%%%%%%%%%%%%%%%%%%%3443563445777778zxvGGGGGGGGGGGGGGGGGGGGGGGGGGGGGGGGGGGGGGGGGGGGGGGGGGJJJJJJJJJJJJJJJJJJJJJJJJJJJJJJJJCmGGGGGGGGGGGGGGGGGGGGGGGGGGGGGGGGGGGGGGGGGGGGGGGGGGGGGGGGGGGGGGGGGGGGGGGmCJJJJJJJJJJJJJJJJJJJJJJJJJJJJJJJJGGGGGGGGGGGGGGGGGGGGGGGGGGGGGGGGGGGGGGGGGGGGGGGGGG777xvx44%%%%%%%%%%%%%%%%%%%%%%%%%%%%%%%%%%%",
"%%%%%%%%%%%%%%%%%%%4443563445777778zxGSFFFFFFFFFFFFFFFFFFFFFFFSFFFFFFFFFFFFFFFFFFFFFFFFFJJJJJJJJJJJJJJJJJJJJJJJJJJJJJJJJnmFFFFFFSFFFFFFFFFFFFFFFFFFFFFFFFFFFFFFFFFFFFFFFFFFFFFFFSFFFFFFFFFFFFFFFFmnJJJJJJJJJJJJJJJJJJJJJJJJJJJJJJJJFFFFFFFFFFFFFFFFFFFFFSFFFFFFFFFFFFFFFFFFFFFFFFFFFFG77xvx44%%%%%%%%%%%%%%%%%%%%%%%%%%%%%%%%%%%",
"%%%%%%%%%%%%%%%%%%%4443563445777778zGFFFFFFFFFFFFFFFFFFFFFFFFFFFFFFFFFFFFFFFFFFFFFFFFFFJJJJJJJJJJJJJJJJJJJJJJJJJJJJJJJJJbmFFFFFFFFFFFFFFFFFFFFFFFFFFFFFFFFFFFFFFFFFFFFFFFFFFFFFFFFFFFFFFFFFFFFFFFmbJJJJJJJJJJJJJJJJJJJJJJJJJJJJJJJJJFFFFFFFFFFFFFFFFFFFFFFFFFFFFFFFFFFFFFFFFFFFFFFFFFFG7xvx44%%%%%1%%%%%%%%%%%%%%%%%%%%%%1%%%%%%",
"%%%%%%%1%%%%%%%1%%%4443563445777778GFFFFFFFFFFFFFFFFFFFFFFFFFFFFFFFFFFFFFFFFFFFFFFFFFFFJJJJJJJJJJJJJJJJJJJJJJJJJJJJJJJJJbmFFFFFFFFFFFFFFFFFFFFFFFFFFFSFFFFFFFFFFFFFFFFFFFFFFFFFFFFFFFFFFFFFFFFFFFmbJJJJJJJJJJJJJJJJJJJJJJJJJJJJJJJJJFFFFFFFFFFFFFFFFFFFFFFFFFFFFFFFFFFFFFFFFFFFFFFFFFFFGxvx44%%%1%%%%%%%%1%%%%%%%%%1%%1%%%%1%%1%",
"%%%%11%%111%%%%%1%%444356344577777GFFFFFFFFFFFFFFFFFFFFFFFFFFFFFFFFFFFFFFFFFFFFFFFFFFFJJJJJJJJJJJJJJJJJJJJJJJJJJJJJJJJJZbmFFFFFFFFFFFFFFFFFFFFFFFFFFFFFFFFFFFFFFFFFFFFFFFFFFFFFFFFFFFFFFFFFFFFFFFmbZJJJJJJJJJJJJJJJJJJJJJJJJJJJJJJJJJFFFFFFFFFFFFFFFFFFFFFFFFFFFFFFFFFFFFFFFFFFFFFFFFFFFGvx44%%1%1111%%1%%%%1%%%%1111%%%1%%%%11%",
"1%%%%1%1%11111%1%1%44435634457777GFFFFFFFFFFFFFFFFFFFFFFFFFFFFFFFFFFFFFFFFFFFFFFFFFFFFJJJJJJJJJJJJJJJJJJJJJJJJJJJJJJJJJnbmFFFFFFFFFFFFFFFFFFFFFFFFFFFFFFFFFFFFFFFFFFFFFFFFFFFFFFFFFFFFFFFFFFFFFFFmbnJJJJJJJJbbbbbbbbbbbbbbbbbvJJJJJJJFFFFFFFFFFFFFFFFFFFFFFFFFFFFFFFFFFFFFFFFFFFFFFFFFFFSGx44%%1111111%1%%11%1%1%1111%1111%%1111",
"12%11111211111211124443563445777GFFFFFFFFFFFFFFFFFFFFFFFFFFFFFFFFFFFFFFFFFFFFFFFFFFFFJJJJJJJJJJJJJJJJJJJJJJJJJJJJJJJJJJnbmFFFFFFFFFFFFFFFFFFFFFFFFFFFFFFFFFFFFFFFFFFFFFFFFFFFFFFFFFFFFFFFFFFFFFFFmbnJJJJJJJJ .  .  . . . . 11xJJ========FFFFFFFFFFFFFFFFFFFFFFFFFFFFFFFFFFFFFFFFFFFFFFFFFFG4421111111121211222%11122121%%1212211",
"1111122212111121112444356344577GFFFFFFFFFFFSFFFFFFFFFFFFFFFFFFFFFFFFFFFFFFFFFFFFFFFFFJJJJJJJJJJJJJJJJJJJJJJJJJJJJJJJJJJvmFFFFFFFFFFFFFFFFFFFFFFFFFFFFFFFFFFFFFFFFFFFFFFFSFFFFFFFFFFFFFFFFFFFFFFFFFmbJJJJJJJJJ . . .  .     11xxw52$$$$$$eFFFFFFFFFFFFFFFFFFFFFFFFFFFFFFFFFFFFFFFFFFFFFFFFFFG411211212111211121113131212211112112",
"122112222221222222144435634457GFFFFFFFFFFFFFFFFFFFFFFFFFFFFFFFFFFFFFFFFFFFFFFFFFFFFFJJJJJJJJJJJJJJJJJJJJJJJJJJJJJJJJJJZbmFFFFFFFFFFFFFFFFFFFFFFFFFFFFFFFFFFFFFFFFFFFFFFFFFFFFFFFFFFFFFFFFFFFFFFFFFmbZJJJJJJJJ999  999 .999.000w4$$$$$$$$$e000FFFFFFFFFFFFFFFFFFFFFFFFFFFFFFFFFFFFFFFFFFFFFFFG22211121112121112211311222111222211",
"21131222122222222324443563445GFFFFFFFFFFFFFFFFFFFFFFFFFFFFFFFFFFFFFFFFFFFFFFFFFFFFFFJJJJJJJJJJJJJJJJJJJJJJJJJJJJJJJJJJnbmFFFFFFFFFFFFFFFFFFFFFFFFFFFFFFFFFFFFFFFFFFFFFFFFFFFFFFFFFFFFFFFFFFFFFFFFFmbnJJJJJJJJ .  . .   .  .11e%$$$$$$$$$$$eFFFFFFFFFFFFFFFFFFFFFFFFFFFFFFFFFFFFFFFFFFFFFFFFFFG1222222122322222122231113212322332",
"2223233222322322222444356344GFFFFFFFFFFFFFFFFFFFFFFFFFFFFFFFFFFFFFFFFFFFFFFFFFFFFFFJJJJJJJJJJJJJJJJJJJJJJJJJJJJJJJJJJJnbmFFFFFFFFFFFFFFFFFFFFFFFFFFFFFFFFFFFFFFFFFFFFFFFFFFFFFFFFFFFFFFFFFFFFFFFFFmbnJJJJJJJJJ .   . .  .  1NNNNNNNNNNNNNNNeFFFFFFFFFFFFFFFFFFFFFFFFFFFFFFFFFFFFFFFFFFFFFFFFFFG322222233222223222332432332222332",
"222232332323223232244435634GFFFFFFFFFFFFFFFFFFFFFFFFFFFFFFFFFFFFFFFFFFFFFFFFFFFFFFFJJJJJJJJJJJJJJJJJJJJJJJJJJJJJJJJJJJnbmFFFFFFFFFFFFFFFFFFFFFFFFFFFFFFFFFFFFFFFFFFFFFFFFFFFFFFFFFFFFFFFFFFFFFFFFFmbnJJJJJJJJJ  ..   .. . eyuuuuuuuuuuuuuuuuweFFFFFFFFFFFFFFFFFFFFFFFFFFFFFFFFFFFFFSFFFFFFFFFFFG33333322323322223233232233332232",
"22333323243333223344443563GFFFFFFFFFFFFFFFFFFFFFFFFFFFFFFFFFFFFFFFFFFFFFFFFFFFFFFFJJJJJJJJJJJJJJJJJJJJJJJJJJJJJJJJJJJZnbmFFFFFFFFFFFFFFFFFFFFFFFFFFFFFFFFFFFFFFFFFFFFFFFFFFFFFFFFFFFFFFFFFFFFFFFFFmbnZJJJJJJJJ.    .   . 0wy@@yyyyyyyyyyyy@@ywwFFFFFFFFFFFFFFFFFFFFFFFFFFFFFFFFFFFFFFFFFFFFFFFFFG3334333433333333323332233322333",
"3343343332343434423444356GFFFFFFFFFFFFFFFFFSFFFFFSFFFFFFFFFFFFFFFFFFFFSFFFFFFFFFFFJJJJJJJJJJJJJJJJJJJJJJJJJJJJJJJJJJJnnbmFFFFFFSFFFFFFFFFSFFFFFFFFFFFFFFFFFSFFFFFFFSFFFFFFFFFFFFFFFFSFFFFFFFFFFFFFmbnnJJJJJJJJ  .  ... wooqqqqqqqqqqqqqqqqqqqqooeFFFFFSFFFFFFFFFFFFFFFFFFFFFFFSFFFFFFFFFFFFFFFFFFG444233233434333424344234334333",
"434334344344343333444435GGGGGGGGGGGGGGGGGGGGGGGGGGGGGGGGGGGGGGGGGGGGGGGGGGGGGGGGFJJJJJJJJJJJJJJJJJJJJJJJJJJJJJJJJJJJJnnvmGGGGGGGGGGGGGGGGGGGGGGGGGGGGGGGGGGGGGGGGGGGGGGGGGGGGGGGGGGGGGGGGGGGGGGGGGmbnnJJJJJJJJJ. .     0===******************===wGGGGGGGGGGGGGGGGGGGGGGGGGGGGGGGGGGGGGGGGGGGGGGGGGG44344434434343433333443343334",
"444443433434434433444435GCCCCCCCCCCCCCCCCCCCCCCCCCCCCCCCCCCCCCCCCCCCCCCCCCCCCCCCCJJJJJJJJJJJJJJJJJJJJJJJJJJJJJJJJJJJJnnnbmCCCCCCCCCCCCCCCCCCCCCCCF<<<<<<<<<<<<<<<<<<<<<<<FCCCCCCCCCCCCCCCCCCCCCCCmbnnnJJJJJJJJJ  ..   .0oooooooooooooooooooooooowCCCCCCCCCCCCCCCCCCCCCCCCCCCCCCCCCCCCCCCCCCCCCCCCCG54344344444344544434443344335",
"453434544344534444444435GCCCCCCCCCCCCCCCCCCCCCCCCCCCCCCCCCCCCCCCCCCCCCCCCCCCCCCCJJJJJJJJJJJJJJJJJJJJJJJJJJJJJJJJJJJJZnnnbmCCCCCCCCCCCCCCCCCCCn84CF<<<<<<<<<<<<<<<<<<<<<<<FCn84CCCCCCCCCCCCCCCCCCCmvnnnZJJJJJJJJ     ..  eeeeeeeeeeeeeeeeeeeeeeeeCCCCCCCCCCCCCCCCCCCCCCCCCCCCCCCCCCCCCCCCCCCCCCCCCCG54434444444445435554544444554",
"455454455544454555544345GCCCCCCCCCCCCCCCCCCCCCCCCCCCCCCCCCCCCCCCCCCCCCCCCCCCCCCCJJJJJJJJJJJJJJJJJJJJJJJJJJJJJJJJJJJJnnnnbmCCCCCCCCCCCCCCCCCCCn84CF<<aaaaaaaaaaaaaaaaaaa<<FCn84CCCCCCCCCCCCCCCCCCCmbnnnnJJJJJJJJJ..    ..  .11eeeeeeeeeeeeeqCCCCCCCCCCCCCCCCCCCCCCCCCCCCCCCCCCCCCCCCCCCCCCCCCCCCCCCG55554445554545455545554554554",
"554455555545455555444345GCCCCCCCCCCCCCCCCCCCCCCCCCCCCCCCCCCCCCCCCCCCCCCCCCCCCCCJJJJJJJJJJJJJJJJJJJJJJJJJJJJJJJJJJJJJnnnnbmCCCCCCCCCCCCCCCCCCCn84CF<<adddddddsasddddddda<<FCn84CCCCCCCCCCCCCCCCCCCmbnnnnJJJJJJJJJ   ..   .  1111111xJJJJJJJJJCCCCCCCCCCCCCCCCCCCCCCCCCCCCCCCCCCCCCCCCCCCCCCCCCCCCCCG55554555554554455555545555455",
"545666565565556555444345GCCCCCCCCCCCCCCCCCCCCCCCCCCCCCCCCCCCCCCCCCCCCCCCCCCCCCCJJJJJJJJJJJJJJJJJJJJJJJJJJJJJJJJJJJJJnnnnbmCCCCCCCCCCCCCCCCCCCJJJCF<<addVVVVdsasdVVVVdda<<FCJJJZCCCCCCCCCCCCCCCCCCmbnnnnJJJJJJJJJJJJJJJJJJJJJJJJJJJJJJJJJJJJJCCCCCCCCCCCCCCCCCCCCCCCCCCCCCCCCCCCCCCCCCCCCCCCCCCCCCCG55445455554555555655556545565",
"565555555666665556444345GCCCCCCCCCCCCCCCCCCCCCCCCCCCCCCCCCCCCCCCCCCCCCCCCCCCCCJJJJJJJJJJJJJJJJJJJJJJJJJJJJJJJJJJJJJZnnnnbmCCCCCCCCCCCCCCCCCCGHHHHF<<addlllldsasdlllldda<<FHHHGGCCCCCCCCCCCCCCCCCCmbnnnnZJJJJJJJJJJJJJJJJJJJJJJJJJJJJJJJJJJJJJCCCCCCCCCCCCCCCCCCCCCCCCCCCCCCCCCCCCCCCCCCCCCCCCCCCCCG55566665556555555656565565555",
"556666566666555566444345GCCCCCCCCCCCCCCCCCCCCCCCCCCCCCCCCCCCCCCCCCCCCCCCCCCCCCJJJJJJJJJJJJJJJJJJJJJJJJJJJJJJJJJJJJJnnnnnbmCCCCCCCCCCCCCCCCCHGGHGGF<<addkkkkdsasdkkkkdda<<FGGHGGHCCCCCCCCCCCCCCCCCmbnnnnnJJJJJJJJJJJJJJJJJJJJJJJJJJJJJJJJJJJJJCCCCCCCCCCCCCCCCCCCCCCCCCCCCCCCCCCCCCCCCCCCCCCCCCCCCCG65666556666666656655656566565",
"765667666666686666444345r::::::::::::::::::::::::::::::::::::::::::::::::::::JJJJJJJJJJJJJJJJJJJJJJJJJJJJJJJJJJJJJJnnnn;-;::::::::::::::::rrrrrrrFaasddffffdsasdffffddsaaFrrrrrrr::::::::::::::::;-nnnnnJJJJJJJJJJJJJJJJmmmmmmmmmmmmmmmmJJJJJJ::::::::::::::::::::::::::::::::::::::::::::::::::::t67666676666566676676566767656",
"666777666676666677444345r::::::::::::::::::::::::::::::::::::::::::::::::::::JJJJJJJJJJJJJJJJJJJJJJJJJJJJJJJJJJJJJJnn;;;-;:::::::::::::::rrrrrrrrFssddddddddsasddddddddssFrrrrrrrr:::::::::::::::;-;;;nnJJJJJJJJJJJJJJJJJmmmmmmmmmmmmmmmmJJJJJ::::::::::::::::::::::::::::::::::::::::::::::::::::t67776666667766667766666776667",
"676676667676676677444345r:::::::::::::::::::::::::::::::::::::::::::::::::::rrrrrrrrrrrrrrrrrrrrrrrrrrrrrrrrrrrrrrt;;;;;-;::::::::::::::rrrrrrrrrFddddddddddsasddddddddddFrrrrrrrrr::::::::::::::;-;;;;;trrrrrrrrrrrrrrrrr::::::::::::::::rrrrt:::::::::::::::::::::::::::::::::::::::::::::::::::t66666766667667776777776677766",
"677666677676677767444345GCCCCCCCCCCCCCCCCCCCCCCCCCCCCCCCCCCCCCCCCCCCCCCCCCCCrrrrrrrrrrrrrrrrrrrrrrrrrrrrrrrrrrrrrt;;;;;nbmCCCCCCCCCCCCCCCCCCCCCCCFddddddddddsasddddddddddFCCCCCCCCCCCCCCCCCCCCCCCmb;;;;;;trrrrrrrrrrrrrrrrr::::::::::::::::rrrtCCCCCCCCCCCCCCCCCCCCCCCCCCCCCCCCCCCCCCCCCCCCCCCCCCCG77677767677667766777777677777",
"777777777777767777444345GCCCCCCCCCCCCCCCCCCCCCCCCCCCCCCCCCCCCCCCCCCCCCCCCCCrrrrrrrrrrrrrrrrrrrrrrrrrrrrrrrrrrrrrrt;;nnnnbmCCCCCCCCCCCCCCCCCCCCCCCFddddddddddsasddddddddddFCCCCCCCCCCCCCCCCCCCCCCCmbnnnn;;trrrrrrrrrrrrrrrrr:::::::::::::::::rrrtCCCCCCCCCCCCCCCCCCCCCCCCCCCCCCCCCCCCCCCCCCCCCCCCCCG77777777777776777777777777777",
"777777777777777777444345GCCCCCCCCCCCCCCCCCCCCCCCCCCCCCCCCCCCCCCCCCCCCCCCCCCJJJJJJJJJJJJJJJJJJJJJJJJJJJJJJJJJJJJJJJnnnnnnvmCCCCCCCCCCCCCCCCCCCCCCCFddddddddddsasddddddddddFCCCCCCCCCCCCCCCCCCCCCCCmbnnnnnnJJJJJJJJJJJJJJJJJJmmmmmmmmmmmmmmmmmJJJJCCCCCCCCCCCCCCCCCCCCCCCCCCCCCCCCCCCCCCCCCCCCCCCCCCG77777777777777777777777777777",
"@@@@@@@@@@@@@@@@@@@@@@@@@@@@@@@@@@@@@@@@@@@@@@@@@@@@@@@@@@@@@@@@@@@@@@@@@@@@@@@@@@@@@@@@@@@@@@@@@@@@@@@@@@@@@@@@@@@@@@@@@@@@@@@@@@@@@@@@@@@@@@@@@@@@@@@@@@@@@@@@@@@@@@@@@@@@@@@@@@@@@@@@@@@@@@@@@@@@@@@@@@@@@@@@@@@@@@@@@@@@@@@@@@@@@@@@@@@@@@@@@@@@@@@@@@@@@@@@@@@@@@@@@@@@@@@@@@@@@@@@@@@@@@@@@@@@@@@@@@@@@@@@@@@@@@@@@@@@@@@@",
"@@@@@@@@@@@@@@@@@@@@@@@@@@@@@@@@@@@@@@@@@@@@@@@@@@@@@@@@@@@@@@@@@@@@@@@@@@@@@@@@@@@@@@@@@@@@@@@@@@@@@@@@@@@@@@@@@@@@@@@@@@@@@@@@@@@@@@@@@@@@@@@@@@@@@@@@@@@@@@@@@@@@@@@@@@@@@@@@@@@@@@@@@@@@@@@@@@@@@@@@@@@@@@@@@@@@@@@@@@@@@@@@@@@@@@@@@@@@@@@@@@@@@@@@@@@@@@@@@@@@@@@@@@@@@@@@@@@@@@@@@@@@@@@@@@@@@@@@@@@@@@@@@@@@@@@@@@@@@@@@",
"@@@@@@@@@@@@@@@@@@@@@@@@@@@@@@@@@@@@@@@@@@@@@@@@@@@@@@@@@@@@@@@@@@@@@@@@@@@@@@@@@@@@@@@@@@@@@@@@@@@@@@@@@@@@@@@@@@@@@@@@@@@@@@@@@@@@@@@@@@@@@@@@@@@@@@@@@@@@@@@@@@@@@@@@@@@@@@@@@@@@@@@@@@@@@@@@@@@@@@@@@@@@@@@@@@@@@@@@@@@@@@@@@@@@@@@@@@@@@@@@@@@@@@@@@@@@@@@@@@@@@@@@@@@@@@@@@@@@@@@@@@@@@@@@@@@@@@@@@@@@@@@@@@@@@@@@@@@@@@@@",
"@@@@@@@@@@@@@@@@@@@@@@@@@@@@@@@@@@@@@@@@@@@@@@@@@@@@@@@@@@@@@@@@@@@@@@@@@@@@@@@@@@@@@@@@@@@@@@@@@@@@@@@@@@@@@@@@@@@@@@@@@@@@@@@@@@@@@@@@@@@@@@@@@@@@@@@@@@@@@@@@@@@@@@@@@@@@@@@@@@@@@@@@@@@@@@@@@@@@@@@@@@@@@@@@@@@@@@@@@@@@@@@@@@@@@@@@@@@@@@@@@@@@@@@@@@@@@@@@@@@@@@@@@@@@@@@@@@@@@@@@@@@@@@@@@@@@@@@@@@@@@@@@@@@@@@@@@@@@@@@@",
"@@@@@@@@@@@@@@@@@@@@@@@@@@@@@@@@@@@@@@@@@@@@@@@@@@@@@@@@@@@@@@@@@@@@@@@@@@@@@@@@@@@@@@@@@@@@@@@@@@@@@@@@@@@@@@@@@@@@@@@@@@@@@@@@@@@@@@@@@@@@@@@@@@@@@@@@@@@@@@@@@@@@@@@@@@@@@@@@@@@@@@@@@@@@@@@@@@@@@@@@@@@@@@@@@@@@@@@@@@@@@@@@@@@@@@@@@@@@@@@@@@@@@@@@@@@@@@@@@@@@@@@@@@@@@@@@@@@@@@@@@@@@@@@@@@@@@@@@@@@@@@@@@@@@@@@@@@@@@@@@",
"@@@@@@@@@@@@@@@@@@@@@@@@@@@@@@@@@@@@@@@@@@@@@@@@@@@@@@@@@@@@@@@@@@@@@@@@@@@@@@@@@@@@@@@@@@@@@@@@@@@@@@@@@@@@@@@@@@@@@@@@@@@@@@@@@@@@@@@@@@@@@@@@@@@@@@@@@@@@@@@@@@@@@@@@@@@@@@@@@@@@@@@@@@@@@@@@@@@@@@@@@@@@@@@@@@@@@@@@@@@@@@@@@@@@@@@@@@@@@@@@@@@@@@@@@@@@@@@@@@@@@@@@@@@@@@@@@@@@@@@@@@@@@@@@@@@@@@@@@@@@@@@@@@@@@@@@@@@@@@@@",
"@@@@@@@@@@@@@@@@@@@@@@@@@@@@@@@@@@@@@@@@@@@@@@@@@@@@@@@@@@@@@@@@@@@@@@@@@@@@@@@@@@@@@@@@@@@@@@@@@@@@@@@@@@@@@@@@@@@@@@@@@@@@@@@@@@@@@@@@@@@@@@@@@@@@@@@@@@@@@@@@@@@@@@@@@@@@@@@@@@@@@@@@@@@@@@@@@@@@@@@@@@@@@@@@@@@@@@@@@@@@@@@@@@@@@@@@@@@@@@@@@@@@@@@@@@@@@@@@@@@@@@@@@@@@@@@@@@@@@@@@@@@@@@@@@@@@@@@@@@@@@@@@@@@@@@@@@@@@@@@@",
"@@@@@@@@@@@@@@@@@@@@@@@@@@@@@@@@@@@@@@@@@@@@@@@@@@@@@@@@@@@@@@@@@@@@@@@@@@@@@@@@@@@@@@@@@@@@@@@@@@@@@@@@@@@@@@@@@@@@@@@@@@@@@@@@@@@@@@@@@@@@@@@@@@@@@@@@@@@@@@@@@@@@@@@@@@@@@@@@@@@@@@@@@@@@@@@@@@@@@@@@@@@@@@@@@@@@@@@@@@@@@@@@@@@@@@@@@@@@@@@@@@@@@@@@@@@@@@@@@@@@@@@@@@@@@@@@@@@@@@@@@@@@@@@@@@@@@@@@@@@@@@@@@@@@@@@@@@@@@@@@",
"@@@@@@@@@@@@@@@@@@@@@@@@@@@@@@@@@@@@@@@@@@@@@@@@@@@@@@@@@@@@@@@@@@@@@@@@@@@@@@@@@@@@@@@@@@@@@@@@@@@@@@@@@@@@@@@@@@@@@@@@@@@@@@@@@@@@@@@@@@@@@@@@@@@@@@@@@@@@@@@@@@@@@@@@@@@@@@@@@@@@@@@@@@@@@@@@@@@@@@@@@@@@@@@@@@@@@@@@@@@@@@@@@@@@@@@@@@@@@@@@@@@@@@@@@@@@@@@@@@@@@@@@@@@@@@@@@@@@@@@@@@@@@@@@@@@@@@@@@@@@@@@@@@@@@@@@@@@@@@@@",
"@@@@@@@@@@@@@@@@@@@@@@@@@@@@@@@@@@@@@@@@@@@@@@@@@@@@@@@@@@@@@@@@@@@@@@@@@@@@@@@@@@@@@@@@@@@@@@@@@@@@@@@@@@@@@@@@@@@@@@@@@@@@@@@@@@@@@@@@@@@@@@@@@@@@@@@@@@@@@@@@@@@@@@@@@@@@@@@@@@@@@@@@@@@@@@@@@@@@@@@@@@@@@@@@@@@@@@@@@@@@@@@@@@@@@@@@@@@@@@@@@@@@@@@@@@@@@@@@@@@@@@@@@@@@@@@@@@@@@@@@@@@@@@@@@@@@@@@@@@@@@@@@@@@@@@@@@@@@@@@@",
"@@@@@@@@@@@@@@@@@@@@@@@@@@@@@@@@@@@@@@@@@@@@@@@@@@@@@@@@@@@@@@@@@@@@@@@@@@@@@@@@@@@@@@@@@@@@@@@@@@@@@@@@@@@@@@@@@@@@@@@@@@@@@@@@@@@@@@@@@@@@@@@@@@@@@@@@@@@@@@@@@@@@@@@@@@@@@@@@@@@@@@@@@@@@@@@@@@@@@@@@@@@@@@@@@@@@@@@@@@@@@@@@@@@@@@@@@@@@@@@@@@@@@@@@@@@@@@@@@@@@@@@@@@@@@@@@@@@@@@@@@@@@@@@@@@@@@@@@@@@@@@@@@@@@@@@@@@@@@@@@",
"@@@@@@@@@@@@@@@@@@@@@@@@@@@@@@@@@@@@@@@@@@@@@@@@@@@@@@@@@@@@@@@@@@@@@@@@@@@@@@@@@@@@@@@@@@@@@@@@@@@@@@@@@@@@@@@@@@@@@@@@@@@@@@@@@@@@@@@@@@@@@@@@@@@@@@@@@@@@@@@@@@@@@@@@@@@@@@@@@@@@@@@@@@@@@@@@@@@@@@@@@@@@@@@@@@@@@@@@@@@@@@@@@@@@@@@@@@@@@@@@@@@@@@@@@@@@@@@@@@@@@@@@@@@@@@@@@@@@@@@@@@@@@@@@@@@@@@@@@@@@@@@@@@@@@@@@@@@@@@@@",
"@@@@@@@@@@@@@@@@@@@@@@@@@@@@@@@@@@@@@@@@@@@@@@@@@@@@@@@@@@@@@@@@@@@@@@@@@@@@@@@@@@@@@@@@@@@@@@@@@@@@@@@@@@@@@@@@@@@@@@@@@@@@@@@@@@@@@@@@@@@@@@@@@@@@@@@@@@@@@@@@@@@@@@@@@@@@@@@@@@@@@@@@@@@@@@@@@@@@@@@@@@@@@@@@@@@@@@@@@@@@@@@@@@@@@@@@@@@@@@@@@@@@@@@@@@@@@@@@@@@@@@@@@@@@@@@@@@@@@@@@@@@@@@@@@@@@@@@@@@@@@@@@@@@@@@@@@@@@@@@@",
"@@@@@@@@@@@@@@@@@@@@@@@@@@@@@@@@@@@@@@@@@@@@@@@@@@@@@@@@@@@@@@@@@@@@@@@@@@@@@@@@@@@@@@@@@@@@@@@@@@@@@@@@@@@@@@@@@@@@@@@@@@@@@@@@@@@@@@@@@@@@@@@@@@@@@@@@@@@@@@@@@@@@@@@@@@@@@@@@@@@@@@@@@@@@@@@@@@@@@@@@@@@@@@@@@@@@@@@@@@@@@@@@@@@@@@@@@@@@@@@@@@@@@@@@@@@@@@@@@@@@@@@@@@@@@@@@@@@@@@@@@@@@@@@@@@@@@@@@@@@@@@@@@@@@@@@@@@@@@@@@",
"@@@@@@@@@@@@@@@@@@@@@@@@@@@@@@@@@@@@@@@@@@@@@@@@@@@@@@@@@@@@@@@@@@@@@@@@@@@@@@@@@@@@@@@@@@@@@@@@@@@@@@@@@@@@@@@@@@@@@@@@@@@@@@@@@@@@@@@@@@@@@@@@@@@@@@@@@@@@@@@@@@@@@@@@@@@@@@@@@@@@@@@@@@@@@@@@@@@@@@@@@@@@@@@@@@@@@@@@@@@@@@@@@@@@@@@@@@@@@@@@@@@@@@@@@@@@@@@@@@@@@@@@@@@@@@@@@@@@@@@@@@@@@@@@@@@@@@@@@@@@@@@@@@@@@@@@@@@@@@@@",
"@@@@@@@@@@@@@@@@@@@@@@@@@@@@@@@@@@@@@@@@@@@@@@@@@@@@@@@@@@@@@@@@@@@@@@@@@@@@@@@@@@@@@@@@@@@@@@@@@@@@@@@@@@@@@@@@@@@@@@@@@@@@@@@@@@@@@@@@@@@@@@@@@@@@@@@@@@@@@@@@@@@@@@@@@@@@@@@@@@@@@@@@@@@@@@@@@@@@@@@@@@@@@@@@@@@@@@@@@@@@@@@@@@@@@@@@@@@@@@@@@@@@@@@@@@@@@@@@@@@@@@@@@@@@@@@@@@@@@@@@@@@@@@@@@@@@@@@@@@@@@@@@@@@@@@@@@@@@@@@@",
"@@@@@@@@@@@@@@@@@@@@@@@@@@@@@@@@@@@@@@@@@@@@@@@@@@@@@@@@@@@@@@@@@@@@@@@@@@@@@@@@@@@@@@@@@@@@@@@@@@@@@@@@@@@@@@@@@@@@@@@@@@@@@@@@@@@@@@@@@@@@@@@@@@@@@@@@@@@@@@@@@@@@@@@@@@@@@@@@@@@@@@@@@@@@@@@@@@@@@@@@@@@@@@@@@@@@@@@@@@@@@@@@@@@@@@@@@@@@@@@@@@@@@@@@@@@@@@@@@@@@@@@@@@@@@@@@@@@@@@@@@@@@@@@@@@@@@@@@@@@@@@@@@@@@@@@@@@@@@@@@",
"@@@@@@@@@@@@@@@@@@@@@@@@@@@@@@@@@@@@@@@@@@@@@@@@@@@@@@@@@@@@@@@@@@@@@@@@@@@@@@@@@@@@@@@@@@@@@@@@@@@@@@@@@@@@@@@@@@@@@@@@@@@@@@@@@@@@@@@@@@@@@@@@@@@@@@@@@@@@@@@@@@@@@@@@@@@@@@@@@@@@@@@@@@@@@@@@@@@@@@@@@@@@@@@@@@@@@@@@@@@@@@@@@@@@@@@@@@@@@@@@@@@@@@@@@@@@@@@@@@@@@@@@@@@@@@@@@@@@@@@@@@@@@@@@@@@@@@@@@@@@@@@@@@@@@@@@@@@@@@@@",
"@@@@@@@@@@@@@@@@@@@@@@@@@@@@@@@@@@@@@@@@@@@@@@@@@@@@@@@@@@@@@@@@@@@@@@@@@@@@@@@@@@@@@@@@@@@@@@@@@@@@@@@@@@@@@@@@@@@@@@@@@@@@@@@@@@@@@@@@@@@@@@@@@@@@@@@@@@@@@@@@@@@@@@@@@@@@@@@@@@@@@@@@@@@@@@@@@@@@@@@@@@@@@@@@@@@@@@@@@@@@@@@@@@@@@@@@@@@@@@@@@@@@@@@@@@@@@@@@@@@@@@@@@@@@@@@@@@@@@@@@@@@@@@@@@@@@@@@@@@@@@@@@@@@@@@@@@@@@@@@@",
"@@@@@@@@@@@@@@@@@@@@@@@@@@@@@@@@@@@@@@@@@@@@@@@@@@@@@@@@@@@@@@@@@@@@@@@@@@@@@@@@@@@@@@@@@@@@@@@@@@@@@@@@@@@@@@@@@@@@@@@@@@@@@@@@@@@@@@@@@@@@@@@@@@@@@@@@@@@@@@@@@@@@@@@@@@@@@@@@@@@@@@@@@@@@@@@@@@@@@@@@@@@@@@@@@@@@@@@@@@@@@@@@@@@@@@@@@@@@@@@@@@@@@@@@@@@@@@@@@@@@@@@@@@@@@@@@@@@@@@@@@@@@@@@@@@@@@@@@@@@@@@@@@@@@@@@@@@@@@@@@",
"@@@@@@@@@@@@@@@@@@@@@@@@@@@@@@@@@@@@@@@@@@@@@@@@@@@@@@@@@@@@@@@@@@@@@@@@@@@@@@@@@@@@@@@@@@@@@@@@@@@@@@@@@@@@@@@@@@@@@@@@@@@@@@@@@@@@@@@@@@@@@@@@@@@@@@@@@@@@@@@@@@@@@@@@@@@@@@@@@@@@@@@@@@@@@@@@@@@@@@@@@@@@@@@@@@@@@@@@@@@@@@@@@@@@@@@@@@@@@@@@@@@@@@@@@@@@@@@@@@@@@@@@@@@@@@@@@@@@@@@@@@@@@@@@@@@@@@@@@@@@@@@@@@@@@@@@@@@@@@@@",
"@@@@@@@@@@@@@@@@@@@@@@@@@@@@@@@@@@@@@@@@@@@@@@@@@@@@@@@@@@@@@@@@@@@@@@@@@@@@@@@@@@@@@@@@@@@@@@@@@@@@@@@@@@@@@@@@@@@@@@@@@@@@@@@@@@@@@@@@@@@@@@@@@@@@@@@@@@@@@@@@@@@@@@@@@@@@@@@@@@@@@@@@@@@@@@@@@@@@@@@@@@@@@@@@@@@@@@@@@@@@@@@@@@@@@@@@@@@@@@@@@@@@@@@@@@@@@@@@@@@@@@@@@@@@@@@@@@@@@@@@@@@@@@@@@@@@@@@@@@@@@@@@@@@@@@@@@@@@@@@@",
"@@@@@@@@@@@@@@@@@@@@@@@@@@@@@@@@@@@@@@@@@@@@@@@@@@@@@@@@@@@@@@@@@@@@@@@@@@@@@@@@@@@@@@@@@@@@@@@@@@@@@@@@@@@@@@@@@@@@@@@@@@@@@@@@@@@@@@@@@@@@@@@@@@@@@@@@@@@@@@@@@@@@@@@@@@@@@@@@@@@@@@@@@@@@@@@@@@@@@@@@@@@@@@@@@@@@@@@@@@@@@@@@@@@@@@@@@@@@@@@@@@@@@@@@@@@@@@@@@@@@@@@@@@@@@@@@@@@@@@@@@@@@@@@@@@@@@@@@@@@@@@@@@@@@@@@@@@@@@@@@",
"@@@@@@@@@@@@@@@@@@@@@@@@@@@@@@@@@@@@@@@@@@@@@@@@@@@@@@@@@@@@@@@@@@@@@@@@@@@@@@@@@@@@@@@@@@@@@@@@@@@@@@@@@@@@@@@@@@@@@@@@@@@@@@@@@@@@@@@@@@@@@@@@@@@@@@@@@@@@@@@@@@@@@@@@@@@@@@@@@@@@@@@@@@@@@@@@@@@@@@@@@@@@@@@@@@@@@@@@@@@@@@@@@@@@@@@@@@@@@@@@@@@@@@@@@@@@@@@@@@@@@@@@@@@@@@@@@@@@@@@@@@@@@@@@@@@@@@@@@@@@@@@@@@@@@@@@@@@@@@@@",
"@@@@@@@@@@@@@@@@@@@@@@@@@@@@@@@@@@@@@@@@@@@@@@@@@@@@@@@@@@@@@@@@@@@@@@@@@@@@@@@@@@@@@@@@@@@@@@@@@@@@@@@@@@@@@@@@@@@@@@@@@@@@@@@@@@@@@@@@@@@@@@@@@@@@@@@@@@@@@@@@@@@@@@@@@@@@@@@@@@@@@@@@@@@@@@@@@@@@@@@@@@@@@@@@@@@@@@@@@@@@@@@@@@@@@@@@@@@@@@@@@@@@@@@@@@@@@@@@@@@@@@@@@@@@@@@@@@@@@@@@@@@@@@@@@@@@@@@@@@@@@@@@@@@@@@@@@@@@@@@@",
"@@@@@@@@@@@@@@@@@@@@@@@@@@@@@@@@@@@@@@@@@@@@@@@@@@@@@@@@@@@@@@@@@@@@@@@@@@@@@@@@@@@@@@@@@@@@@@@@@@@@@@@@@@@@@@@@@@@@@@@@@@@@@@@@@@@@@@@@@@@@@@@@@@@@@@@@@@@@@@@@@@@@@@@@@@@@@@@@@@@@@@@@@@@@@@@@@@@@@@@@@@@@@@@@@@@@@@@@@@@@@@@@@@@@@@@@@@@@@@@@@@@@@@@@@@@@@@@@@@@@@@@@@@@@@@@@@@@@@@@@@@@@@@@@@@@@@@@@@@@@@@@@@@@@@@@@@@@@@@@@",
"@@@@@@@@@@@@@@@@@@@@@@@@@@@@@@@@@@@@@@@@@@@@@@@@@@@@@@@@@@@@@@@@@@@@@@@@@@@@@@@@@@@@@@@@@@@@@@@@@@@@@@@@@@@@@@@@@@@@@@@@@@@@@@@@@@@@@@@@@@@@@@@@@@@@@@@@@@@@@@@@@@@@@@@@@@@@@@@@@@@@@@@@@@@@@@@@@@@@@@@@@@@@@@@@@@@@@@@@@@@@@@@@@@@@@@@@@@@@@@@@@@@@@@@@@@@@@@@@@@@@@@@@@@@@@@@@@@@@@@@@@@@@@@@@@@@@@@@@@@@@@@@@@@@@@@@@@@@@@@@@",
"@@@@@@@@@@@@@@@@@@@@@@@@@@@@@@@@@@@@@@@@@@@@@@@@@@@@@@@@@@@@@@@@@@@@@@@@@@@@@@@@@@@@@@@@@@@@@@@@@@@@@@@@@@@@@@@@@@@@@@@@@@@@@@@@@@@@@@@@@@@@@@@@@@@@@@@@@@@@@@@@@@@@@@@@@@@@@@@@@@@@@@@@@@@@@@@@@@@@@@@@@@@@@@@@@@@@@@@@@@@@@@@@@@@@@@@@@@@@@@@@@@@@@@@@@@@@@@@@@@@@@@@@@@@@@@@@@@@@@@@@@@@@@@@@@@@@@@@@@@@@@@@@@@@@@@@@@@@@@@@@",
"@@@@@@@@@@@@@@@@@@@@@@@@@@@@@@@@@@@@@@@@@@@@@@@@@@@@@@@@@@@@@@@@@@@@@@@@@@@@@@@@@@@@@@@@@@@@@@@@@@@@@@@@@@@@@@@@@@@@@@@@@@@@@@@@@@@@@@@@@@@@@@@@@@@@@@@@@@@@@@@@@@@@@@@@@@@@@@@@@@@@@@@@@@@@@@@@@@@@@@@@@@@@@@@@@@@@@@@@@@@@@@@@@@@@@@@@@@@@@@@@@@@@@@@@@@@@@@@@@@@@@@@@@@@@@@@@@@@@@@@@@@@@@@@@@@@@@@@@@@@@@@@@@@@@@@@@@@@@@@@@",
"@@@@@@@@@@@@@@@@@@@@@@@@@@@@@@@@@@@@@@@@@@@@@@@@@@@@@@@@@@@@@@@@@@@@@@@@@@@@@@@@@@@@@@@@@@@@@@@@@@@@@@@@@@@@@@@@@@@@@@@@@@@@@@@@@@@@@@@@@@@@@@@@@@@@@@@@@@@@@@@@@@@@@@@@@@@@@@@@@@@@@@@@@@@@@@@@@@@@@@@@@@@@@@@@@@@@@@@@@@@@@@@@@@@@@@@@@@@@@@@@@@@@@@@@@@@@@@@@@@@@@@@@@@@@@@@@@@@@@@@@@@@@@@@@@@@@@@@@@@@@@@@@@@@@@@@@@@@@@@@@",
"@@@@@@@@@@@@@@@@@@@@@@@@@@@@@@@@@@@@@@@@@@@@@@@@@@@@@@@@@@@@@@@@@@@@@@@@@@@@@@@@@@@@@@@@@@@@@@@@@@@@@@@@@@@@@@@@@@@@@@@@@@@@@@@@@@@@@@@@@@@@@@@@@@@@@@@@@@@@@@@@@@@@@@@@@@@@@@@@@@@@@@@@@@@@@@@@@@@@@@@@@@@@@@@@@@@@@@@@@@@@@@@@@@@@@@@@@@@@@@@@@@@@@@@@@@@@@@@@@@@@@@@@@@@@@@@@@@@@@@@@@@@@@@@@@@@@@@@@@@@@@@@@@@@@@@@@@@@@@@@@",
"@@@@@@@@@@@@@@@@@@@@@@@@@@@@@@@@@@@@@@@@@@@@@@@@@@@@@@@@@@@@@@@@@@@@@@@@@@@@@@@@@@@@@@@@@@@@@@@@@@@@@@@@@@@@@@@@@@@@@@@@@@@@@@@@@@@@@@@@@@@@@@@@@@@@@@@@@@@@@@@@@@@@@@@@@@@@@@@@@@@@@@@@@@@@@@@@@@@@@@@@@@@@@@@@@@@@@@@@@@@@@@@@@@@@@@@@@@@@@@@@@@@@@@@@@@@@@@@@@@@@@@@@@@@@@@@@@@@@@@@@@@@@@@@@@@@@@@@@@@@@@@@@@@@@@@@@@@@@@@@@",
"@@@@@@@@@@@@@@@@@@@@@@@@@@@@@@@@@@@@@@@@@@@@@@@@@@@@@@@@@@@@@@@@@@@@@@@@@@@@@@@@@@@@@@@@@@@@@@@@@@@@@@@@@@@@@@@@@@@@@@@@@@@@@@@@@@@@@@@@@@@@@@@@@@@@@@@@@@@@@@@@@@@@@@@@@@@@@@@@@@@@@@@@@@@@@@@@@@@@@@@@@@@@@@@@@@@@@@@@@@@@@@@@@@@@@@@@@@@@@@@@@@@@@@@@@@@@@@@@@@@@@@@@@@@@@@@@@@@@@@@@@@@@@@@@@@@@@@@@@@@@@@@@@@@@@@@@@@@@@@@@",
"@@@@@@@@@@@@@@@@@@@@@@@@@@@@@@@@@@@@@@@@@@@@@@@@@@@@@@@@@@@@@@@@@@@@@@@@@@@@@@@@@@@@@@@@@@@@@@@@@@@@@@@@@@@@@@@@@@@@@@@@@@@@@@@@@@@@@@@@@@@@@@@@@@@@@@@@@@@@@@@@@@@@@@@@@@@@@@@@@@@@@@@@@@@@@@@@@@@@@@@@@@@@@@@@@@@@@@@@@@@@@@@@@@@@@@@@@@@@@@@@@@@@@@@@@@@@@@@@@@@@@@@@@@@@@@@@@@@@@@@@@@@@@@@@@@@@@@@@@@@@@@@@@@@@@@@@@@@@@@@@",
"@@@@@@@@@@@@@@@@@@@@@@@@@@@@@@@@@@@@@@@@@@@@@@@@@@@@@@@@@@@@@@@@@@@@@@@@@@@@@@@@@@@@@@@@@@@@@@@@@@@@@@@@@@@@@@@@@@@@@@@@@@@@@@@@@@@@@@@@@@@@@@@@@@@@@@@@@@@@@@@@@@@@@@@@@@@@@@@@@@@@@@@@@@@@@@@@@@@@@@@@@@@@@@@@@@@@@@@@@@@@@@@@@@@@@@@@@@@@@@@@@@@@@@@@@@@@@@@@@@@@@@@@@@@@@@@@@@@@@@@@@@@@@@@@@@@@@@@@@@@@@@@@@@@@@@@@@@@@@@@@",
"@@@@@@@@@@@@@@@@@@@@@@@@@@@@@@@@@@@@@@@@@@@@@@@@@@@@@@@@@@@@@@@@@@@@@@@@@@@@@@@@@@@@@@@@@@@@@@@@@@@@@@@@@@@@@@@@@@@@@@@@@@@@@@@@@@@@@@@@@@@@@@@@@@@@@@@@@@@@@@@@@@@@@@@@@@@@@@@@@@@@@@@@@@@@@@@@@@@@@@@@@@@@@@@@@@@@@@@@@@@@@@@@@@@@@@@@@@@@@@@@@@@@@@@@@@@@@@@@@@@@@@@@@@@@@@@@@@@@@@@@@@@@@@@@@@@@@@@@@@@@@@@@@@@@@@@@@@@@@@@@",
"@@@@@@@@@@@@@@@@@@@@@@@@@@@@@@@@@@@@@@@@@@@@@@@@@@@@@@@@@@@@@@@@@@@@@@@@@@@@@@@@@@@@@@@@@@@@@@@@@@@@@@@@@@@@@@@@@@@@@@@@@@@@@@@@@@@@@@@@@@@@@@@@@@@@@@@@@@@@@@@@@@@@@@@@@@@@@@@@@@@@@@@@@@@@@@@@@@@@@@@@@@@@@@@@@@@@@@@@@@@@@@@@@@@@@@@@@@@@@@@@@@@@@@@@@@@@@@@@@@@@@@@@@@@@@@@@@@@@@@@@@@@@@@@@@@@@@@@@@@@@@@@@@@@@@@@@@@@@@@@@"
};
