/* XPM */
static char *end_floor3_005[] = {
/* columns rows colors chars-per-pixel */
"320 200 68 1 ",
"  c #000000",
". c #0B0B0B",
"X c gray8",
"o c #1B1B1B",
"O c #00002C",
"+ c #00003C",
"@ c gray14",
"# c #2C2C2C",
"$ c #343434",
"% c #3C3C3C",
"& c #600000",
"* c #402810",
"= c #603814",
"- c #004400",
"; c #005C00",
": c #007400",
"> c #000050",
", c #000064",
"< c #244870",
"1 c #444444",
"2 c #4C4C4C",
"3 c #545454",
"4 c #5C5C5C",
"5 c #646464",
"6 c #6C6C6C",
"7 c #747474",
"8 c #7C7C7C",
"9 c #C01010",
"0 c #F80000",
"q c #AC580C",
"w c #C4701C",
"e c #008C00",
"r c #00A400",
"t c #CC8038",
"y c #D09050",
"u c #DCAC7C",
"i c #040488",
"p c #0C0CAC",
"a c #2C5480",
"s c #346090",
"d c #3C6CA0",
"f c #4C78A8",
"g c #1010C0",
"h c #4040D0",
"j c #7878E0",
"k c #5884B0",
"l c #6C90BC",
"z c #848484",
"x c #8C8C8C",
"c c #939393",
"v c #989898",
"b c #A0A0A0",
"n c #A8A8A8",
"m c #B0B0B0",
"M c #BCBCBC",
"N c #E4C098",
"B c #ECD0B4",
"V c #80A0C4",
"C c #C4C4C4",
"Z c #CCCCCC",
"A c #D4D4D4",
"S c #DADADA",
"D c #ECF4D8",
"F c #D8D8F4",
"G c #E0E0E0",
"H c #E8E8E8",
"J c #F1F1F1",
"K c #FCFCFC",
/* pixels */
"@@@@@@@@@@@@@@@@@@@@@@@@@@@@@@@@@@@@@@@@@@@@@@@@@@@@@@@@@@@@@@@@@@@@@@@@@@@@@@@@@@@@@@@@@@@@@@@@@@@@@@@@@@@@@@@@@@@@@@@@@@@@@@@@@@@@@@@@@@@@@@@@@@@@@@@@@@@@@@@@@@@@@@@@@@@@@@@@@@@@@@@@@@@@@@@@@@@@@@@@@@@@@@@@@@@@@@@@@@@@@@@@@@@@@@@@@@@@@@@@@@@@@@@@@@@@@@@@@@@@@@@@@@@@@@@@@@@@@@@@@@@@@@@@@@@@@@@@@@@@@@@@@@@@@@@@@@@@@@@@",
"@@@@@@@@@@@@@@@@@@@@@@@@@@@@@@@@@@@@@@@@@@@@@@@@@@@@@@@@@@@@@@@@@@@@@@@@@@@@@@@@@@@@@@@@@@@@@@@@@@@@@@@@@@@@@@@@@@@@@@@@@@@@@@@@@@@@@@@@@@@@@@@@@@@@@@@@@@@@@@@@@@@@@@@@@@@@@@@@@@@@@@@@@@@@@@@@@@@@@@@@@@@@@@@@@@@@@@@@@@@@@@@@@@@@@@@@@@@@@@@@@@@@@@@@@@@@@@@@@@@@@@@@@@@@@@@@@@@@@@@@@@@@@@@@@@@@@@@@@@@@@@@@@@@@@@@@@@@@@@@@",
"@@@@@@@@@@@@@@@@@@@@@@@@@@@@@@@@@@@@@@@@@@@@@@@@@@@@@@@@@@@@@@@@@@@@@@@@@@@@@@@@@@@@@@@@@@@@@@@@@@@@@@@@@@@@@@@@@@@@@@@@@@@@@@@@@@@@@@@@@@@@@@@@@@@@@@@@@@@@@@@@@@@@@@@@@@@@@@@@@@@@@@@@@@@@@@@@@@@@@@@@@@@@@@@@@@@@@@@@@@@@@@@@@@@@@@@@@@@@@@@@@@@@@@@@@@@@@@@@@@@@@@@@@@@@@@@@@@@@@@@@@@@@@@@@@@@@@@@@@@@@@@@@@@@@@@@@@@@@@@@@",
"@@@@@@@@@@@@@@@@@@@@@@@@@@@@@@@@@@@@@@@@@@@@@@@@@@@@@@@@@@@@@@@@@@@@@@@@@@@@@@@@@@@@@@@@@@@@@@@@@@@@@@@@@@@@@@@@@@@@@@@@@@@@@@@@@@@@@@@@@@@@@@@@@@@@@@@@@@@@@@@@@@@@@@@@@@@@@@@@@@@@@@@@@@@@@@@@@@@@@@@@@@@@@@@@@@@@@@@@@@@@@@@@@@@@@@@@@@@@@@@@@@@@@@@@@@@@@@@@@@@@@@@@@@@@@@@@@@@@@@@@@@@@@@@@@@@@@@@@@@@@@@@@@@@@@@@@@@@@@@@@",
"@@@@@@@@@@@@@@@@@@@@@@@@@@@@@@@@@@@@@@@@@@@@@@@@@@@@@@@@@@@@@@@@@@@@@@@@@@@@@@@@@@@@@@@@@@@@@@@@@@@@@@@@@@@@@@@@@@@@@@@@@@@@@@@@@@@@@@@@@@@@@@@@@@@@@@@@@@@@@@@@@@@@@@@@@@@@@@@@@@@@@@@@@@@@@@@@@@@@@@@@@@@@@@@@@@@@@@@@@@@@@@@@@@@@@@@@@@@@@@@@@@@@@@@@@@@@@@@@@@@@@@@@@@@@@@@@@@@@@@@@@@@@@@@@@@@@@@@@@@@@@@@@@@@@@@@@@@@@@@@@",
"@@@@@@@@@@@@@@@@@@@@@@@@@@@@@@@@@@@@@@@@@@@@@@@@@@@@@@@@@@@@@@@@@@@@@@@@@@@@@@@@@@@@@@@@@@@@@@@@@@@@@@@@@@@@@@@@@@@@@@@@@@@@@@@@@@@@@@@@@@@@@@@@@@@@@@@@@@@@@@@@@@@@@@@@@@@@@@@@@@@@@@@@@@@@@@@@@@@@@@@@@@@@@@@@@@@@@@@@@@@@@@@@@@@@@@@@@@@@@@@@@@@@@@@@@@@@@@@@@@@@@@@@@@@@@@@@@@@@@@@@@@@@@@@@@@@@@@@@@@@@@@@@@@@@@@@@@@@@@@@@",
"@@@@@@@@@@@@@@@@@@@@@@@@@@@@@@@@@@@@@@@@@@@@@@@@@@@@@@@@@@@@@@@@@@@@@@@@@@@@@@@@@@@@@@@@@@@@@@@@@@@@@@@@@@@@@@@@@@@@@@@@@@@@@@@@@@@@@@@@@@@@@@@@@@@@@@@@@@@@@@@@@@@@@@@@@@@@@@@@@@@@@@@@@@@@@@@@@@@@@@@@@@@@@@@@@@@@@@@@@@@@@@@@@@@@@@@@@@@@@@@@@@@@@@@@@@@@@@@@@@@@@@@@@@@@@@@@@@@@@@@@@@@@@@@@@@@@@@@@@@@@@@@@@@@@@@@@@@@@@@@@",
"@@@@@@@@@@@@@@@@@@@@@@@@@@@@@@@@@@@@@@@@@@@@@@@@@@@@@@@@@@@@@@@@@@@@@@@@@@@@@@@@@@@@@@@@@@@@@@@@@@@@@@@@@@@@@@@@@@@@@@@@@@@@@@@@@@@@@@@@@@@@@@@@@@@@@@@@@@@@@@@@@@@@@@@@@@@@@@@@@@@@@@@@@@@@@@@@@@@@@@@@@@@@@@@@@@@@@@@@@@@@@@@@@@@@@@@@@@@@@@@@@@@@@@@@@@@@@@@@@@@@@@@@@@@@@@@@@@@@@@@@@@@@@@@@@@@@@@@@@@@@@@@@@@@@@@@@@@@@@@@@",
"@@@@@@@@@@@@@@@@@@@@@@@@@@@@@@@@@@@@@@@@@@@@@@@@@@@@@@@@@@@@@@@@@@@@@@@@@@@@@@@@@@@@@@@@@@@@@@@@@@@@@@@@@@@@@@@@@@@@@@@@@@@@@@@@@@@@@@@@@@@@@@@@@@@@@@@@@@@@@@@@@@@@@@@@@@@@@@@@@@@@@@@@@@@@@@@@@@@@@@@@@@@@@@@@@@@@@@@@@@@@@@@@@@@@@@@@@@@@@@@@@@@@@@@@@@@@@@@@@@@@@@@@@@@@@@@@@@@@@@@@@@@@@@@@@@@@@@@@@@@@@@@@@@@@@@@@@@@@@@@@",
"@@@@@@@@@@@@@@@@@@@@@@@@@@@@@@@@@@@@@@@@@@@@@@@@@@@@@@@@@@@@@@@@@@@@@@@@@@@@@@@@@@@@@@@@@@@@@@@@@@@@@@@@@@@@@@@@@@@@@@@@@@@@@@@@@@@@@@@@@@@@@@@@@@@@@@@@@@@@@@@@@@@@@@@@@@@@@@@@@@@@@@@@@@@@@@@@@@@@@@@@@@@@@@@@@@@@@@@@@@@@@@@@@@@@@@@@@@@@@@@@@@@@@@@@@@@@@@@@@@@@@@@@@@@@@@@@@@@@@@@@@@@@@@@@@@@@@@@@@@@@@@@@@@@@@@@@@@@@@@@@",
"@@@@@@@@@@@@@@@@@@@@@@@@@@@@@@@@@@@@@@@@@@@@@@@@@@@@@@@@@@@@@@@@@@@@@@@@@@@@@@@@@@@@@@@@@@@@@@@@@@@@@@@@@@@@@@@@@@@@@@@@@@@@@@@@@@@@@@@@@@@@@@@@@@@@@@@@@@@@@@@@@@@@@@@@@@@@@@@@@@@@@@@@@@@@@@@@@@@@@@@@@@@@@@@@@@@@@@@@@@@@@@@@@@@@@@@@@@@@@@@@@@@@@@@@@@@@@@@@@@@@@@@@@@@@@@@@@@@@@@@@@@@@@@@@@@@@@@@@@@@@@@@@@@@@@@@@@@@@@@@@",
"@@@@@@@@@@@@@@@@@@@@@@@@@@@@@@@@@@@@@@@@@@@@@@@@@@@@@@@@@@@@@@@@@@@@@@@@@@@@@@@@@@@@@@@@@@@@@@@@@@@@@@@@@@@@@@@@@@@@@@@@@@@@@@@@@@@@@@@@@@@@@@@@@@@@@@@@@@@@@@@@@@@@@@@@@@@@@@@@@@@@@@@@@@@@@@@@@@@@@@@@@@@@@@@@@@@@@@@@@@@@@@@@@@@@@@@@@@@@@@@@@@@@@@@@@@@@@@@@@@@@@@@@@@@@@@@@@@@@@@@@@@@@@@@@@@@@@@@@@@@@@@@@@@@@@@@@@@@@@@@@",
"@@@@@@@@@@@@@@@@@@@@@@@@@@@@@@@@@@@@@@@@@@@@@@@@@@@@@@@@@@@@@@@@@@@@@@@@@@@@@@@@@@@@@@@@@@@@@@@@@@@@@@@@@@@@@@@@@@@@@@@@@@@@@@@@@@@@@@@@@@@@@@@@@@@@@@@@@@@@@@@@@@@@@@@@@@@@@@@@@@@@@@@@@@@@@@@@@@@@@@@@@@@@@@@@@@@@@@@@@@@@@@@@@@@@@@@@@@@@@@@@@@@@@@@@@@@@@@@@@@@@@@@@@@@@@@@@@@@@@@@@@@@@@@@@@@@@@@@@@@@@@@@@@@@@@@@@@@@@@@@@",
"@@@@@@@@@@@@@@@@@@@@@@@@@@@@@@@@@@@@@@@@@@@@@@@@@@@@@@@@@@@@@@@@@@@@@@@@@@@@@@@@@@@@@@@@@@@@@@@@@@@@@@@@@@@@@@@@@@@@@@@@@@@@@@@@@@@@@@@@@@@@@@@@@@@@@@@@@@@@@@@@@@@@@@@@@@@@@@@@@@@@@@@@@@@@@@@@@@@@@@@@@@@@@@@@@@@@@@@@@@@@@@@@@@@@@@@@@@@@@@@@@@@@@@@@@@@@@@@@@@@@@@@@@@@@@@@@@@@@@@@@@@@@@@@@@@@@@@@@@@@@@@@@@@@@@@@@@@@@@@@@",
"@@@@@@@@@@@@@@@@@@@@@@@@@@@@@@@@@@@@@@@@@@@@@@@@@@@@@@@@@@@@@@@@@@@@@@@@@@@@@@@@@@@@@@@@@@@@@@@@@@@@@@@@@@@@@@@@@@@@@@@@@@@@@@@@@@@@@@@@@@@@@@@@@@@@@@@@@@@@@@@@@@@@@@@@@@@@@@@@@@@@@@@@@@@@@@@@@@@@@@@@@@@@@@@@@@@@@@@@@@@@@@@@@@@@@@@@@@@@@@@@@@@@@@@@@@@@@@@@@@@@@@@@@@@@@@@@@@@@@@@@@@@@@@@@@@@@@@@@@@@@@@@@@@@@@@@@@@@@@@@@",
"@@@@@@@@@@@@@@@@@@@@@@@@@@@@@@@@@@@@@@@@@@@@@@@@@@@@@@@@@@@@@@@@@@@@@@@@@@@@@@@@@@@@@@@@@@@@@@@@@@@@@@@@@@@@@@@@@@@@@@@@@@@@@@@@@@@@@@@@@@@@@@@@@@@@@@@@@@@@@@@@@@@@@@@@@@@@@@@@@@@@@@@@@@@@@@@@@@@@@@@@@@@@@@@@@@@@@@@@@@@@@@@@@@@@@@@@@@@@@@@@@@@@@@@@@@@@@@@@@@@@@@@@@@@@@@@@@@@@@@@@@@@@@@@@@@@@@@@@@@@@@@@@@@@@@@@@@@@@@@@@",
"@@@@@@@@@@@@@@@@@@@@@@@@@@@@@@@@@@@@@@@@@@@@@@@@@@@@@@@@@@@@@@@@@@@@@@@@@@@@@@@@@@@@@@@@@@@@@@@@@@@@@@@@@@@@@@@@@@@@@@@@@@@@@@@@@@@@@@@@@@@@@@@@@@@@@@@@@@@@@@@@@@@@@@@@@@@@@@@@@@@@@@@@@@@@@@@@@@@@@@@@@@@@@@@@@@@@@@@@@@@@@@@@@@@@@@@@@@@@@@@@@@@@@@@@@@@@@@@@@@@@@@@@@@@@@@@@@@@@@@@@@@@@@@@@@@@@@@@@@@@@@@@@@@@@@@@@@@@@@@@@",
"@@@@@@@@@@@@@@@@@@@@@@@@@@@@@@@@@@@@@@@@@@@@@@@@@@@@@@@@@@@@@@@@@@@@@@@@@@@@@@@@@@@@@@@@@@@@@@@@@@@@@@@@@@@@@@@@@@@@@@@@@@@@@@@@@@@@@@@@@@@@@@@@@@@@@@@@@@@@@@@@@@@@@@@@@@@@@@@@@@@@@@@@@@@@@@@@@@@@@@@@@@@@@@@@@@@@@@@@@@@@@@@@@@@@@@@@@@@@@@@@@@@@@@@@@@@@@@@@@@@@@@@@@@@@@@@@@@@@@@@@@@@@@@@@@@@@@@@@@@@@@@@@@@@@@@@@@@@@@@@@",
"@@@@@@@@@@@@@@@@@@@@@@@@@@@@@@@@@@@@@@@@@@@@@@@@@@@@@@@@@@@@@@@@@@@@@@@@@@@@@@@@@@@@@@@@@@@@@@@@@@@@@@@@@@@@@@@@@@@@@@@@@@@@@@@@@@@@@@@@@@@@@@@@@@@@@@@@@@@@@@@@@@@@@@@@@@@@@@@@@@@@@@@@@@@@@@@@@@@@@@@@@@@@@@@@@@@@@@@@@@@@@@@@@@@@@@@@@@@@@@@@@@@@@@@@@@@@@@@@@@@@@@@@@@@@@@@@@@@@@@@@@@@@@@@@@@@@@@@@@@@@@@@@@@@@@@@@@@@@@@@@",
"@@@@@@@@@@@@@@@@@@@@@@@@@@@@@@@@@@@@@@@@@@@@@@@@@@@@@@@@@@@@@@@@@@@@@@@@@@@@@@@@@@@@@@@@@@@@@@@@@@@@@@@@@@@@@@@@@@@@@@@@@@@@@@@@@@@@@@@@@@@@@@@@@@@@@@@@@@@@@@@@@@@@@@@@@@@@@@@@@@@@@@@@@@@@@@@@@@@@@@@@@@@@@@@@@@@@@@@@@@@@@@@@@@@@@@@@@@@@@@@@@@@@@@@@@@@@@@@@@@@@@@@@@@@@@@@@@@@@@@@@@@@@@@@@@@@@@@@@@@@@@@@@@@@@@@@@@@@@@@@@",
"@@@@@@@@@@@@@@@@@@@@@@@@@@@@@@@@@@@@@@@@@@@@@@@@@@@@@@@@@@@@@@@@@@@@@@@@@@@@@@@@@@@@@@@@@@@@@@@@@@@@@@@@@@@@@@@@@@@@@@@@@@@@@@@@@@@@@@@@@@@@@@@@@@@@@@@@@@@@@@@@@@@@@@@@@@@@@@@@@@@@@@@@@@@@@@@@@@@@@@@@@@@@@@@@@@@@@@@@@@@@@@@@@@@@@@@@@@@@@@@@@@@@@@@@@@@@@@@@@@@@@@@@@@@@@@@@@@@@@@@@@@@@@@@@@@@@@@@@@@@@@@@@@@@@@@@@@@@@@@@@",
"@@@@@@@@@@@@@@@@@@@@@@@@@@@@@@@@@@@@@@@@@@@@@@@@@@@@@@@@@@@@@@@@@@@@@@@@@@@@@@@@@@@@@@@@@@@@@@@@@@@@@@@@@@@@@@@@@@@@@@@@@@@@@@@@@@@@@@@@@@@@@@@@@@@@@@@@@@@@@@@@@@@@@@@@@@@@@@@@@@@@@@@@@@@@@@@@@@@@@@@@@@@@@@@@@@@@@@@@@@@@@@@@@@@@@@@@@@@@@@@@@@@@@@@@@@@@@@@@@@@@@@@@@@@@@@@@@@@@@@@@@@@@@@@@@@@@@@@@@@@@@@@@@@@@@@@@@@@@@@@@",
"@@@@@@@@@@@@@@@@@@@@@@@@@@@@@@@@@@@@@@@@@@@@@@@@@@@@@@@@@@@@@@@@@@@@@@@@@@@@@@@@@@@@@@@@@@@@@@@@@@@@@@@@@@@@@@@@@@@@@@@@@@@@@@@@@@@@@@@@@@@@@@@@@@@@@@@@@@@@@@@@@@@@@@@@@@@@@@@@@@@@@@@@@@@@@@@@@@@@@@@@@@@@@@@@@@@@@@@@@@@@@@@@@@@@@@@@@@@@@@@@@@@@@@@@@@@@@@@@@@@@@@@@@@@@@@@@@@@@@@@@@@@@@@@@@@@@@@@@@@@@@@@@@@@@@@@@@@@@@@@@",
"@@@@@@@@@@@@@@@@@@@@@@@@@@@@@@@@@@@@@@@@@@@@@@@@@@@@@@@@@@@@@@@@@@@@@@@@@@@@@@@@@@@@@@@@@@@@@@@@@@@@@@@@@@@@@@@@@@@@@@@@@@@@@@@@@@@@@@@@@@@@@@@@@@@@@@@@@@@@@@@@@@@@@@@@@@@@@@@@@@@@@@@@@@@@@@@@@@@@@@@@@@@@@@@@@@@@@@@@@@@@@@@@@@@@@@@@@@@@@@@@@@@@@@@@@@@@@@@@@@@@@@@@@@@@@@@@@@@@@@@@@@@@@@@@@@@@@@@@@@@@@@@@@@@@@@@@@@@@@@@@",
"@@@@@@@@@@@@@@@@@@@@@@@@@@@@@@@@@@@@@@@@@@@@@@@@@@@@@@@@@@@@@@@@@@@@@@@@@@@@@@@@@@@@@@@@@@@@@@@@@@@@@@@@@@@@@@@@@@@@@@@@@@@@@@@@@@@@@@@@@@@@@@@@@@@@@@@@@@@@@@@@@@@@@@@@@@@@@@@@@@@@@@@@@@@@@@@@@@@@@@@@@@@@@@@@@@@@@@@@@@@@@@@@@@@@@@@@@@@@@@@@@@@@@@@@@@@@@@@@@@@@@@@@@@@@@@@@@@@@@@@@@@@@@@@@@@@@@@@@@@@@@@@@@@@@@@@@@@@@@@@@",
"@@@@@@@@@@@@@@@@@@@@@@@@@@@@@@@@@@@@@@@@@@@@@@@@@@@@@@@@@@@@@@@@@@@@@@@@@@@@@@@@@@@@@@@@@@@@@@@@@@@@@@@@@@@@@@@@@@@@@@@@@@@@@@@@@@@@@@@@@@@@@@@@@@@@@@@@@@@@@@@@@@@@@@@@@@@@@@@@@@@@@@@@@@@@@@@@@@@@@@@@@@@@@@@@@@@@@@@@@@@@@@@@@@@@@@@@@@@@@@@@@@@@@@@@@@@@@@@@@@@@@@@@@@@@@@@@@@@@@@@@@@@@@@@@@@@@@@@@@@@@@@@@@@@@@@@@@@@@@@@@",
"@@@@@@@@@@@@@@@@@@@@@@@@@@@@@@@@@@@@@@@@@@@@@@@@@@@@@@@@@@@@@@@@@@@@@@@@@@@@@@@@@@@@@@@@@@@@@@@@@@@@@@@@@@@@@@@@@@@@@@@@@@@@@@@@@@@@@@@@@@@@@@@@@@@@@@@@@@@@@@@@@@@@@@@@@@@@@@@@@@@@@@@@@@@@@@@@@@@@@@@@@@@@@@@@@@@@@@@@@@@@@@@@@@@@@@@@@@@@@@@@@@@@@@@@@@@@@@@@@@@@@@@@@@@@@@@@@@@@@@@@@@@@@@@@@@@@@@@@@@@@@@@@@@@@@@@@@@@@@@@@",
"@@@@@@@@@@@@@@@@@@@@@@@@@@@@@@@@@@@@@@@@@@@@@@@@@@@@@@@@@@@@@@@@@@@@@@@@@@@@@@@@@@@@@@@@@@@@@@@@@@@@@@@@@@@@@@@@@@@@@@@@@@@@@@@@@@@@@@@@@@@@@@@@@@@@@@@@@@@@@@@@@@@@@@@@@@@@@@@@@@@@@@@@@@@@@@@@@@@@@@@@@@@@@@@@@@@@@@@@@@@@@@@@@@@@@@@@@@@@@@@@@@@@@@@@@@@@@@@@@@@@@@@@@@@@@@@@@@@@@@@@@@@@@@@@@@@@@@@@@@@@@@@@@@@@@@@@@@@@@@@@",
"@@@@@@@@@@@@@@@@@@@@@@@@@@@@@@@@@@@@@@@@@@@@@@@@@@@@@@@@@@@@@@@@@@@@@@@@@@@@@@@@@@@@@@@@@@@@@@@@@@@@@@@@@@@@@@@@@@@@@@@@@@@@@@@@@@@@@@@@@@@@@@@@@@@@@@@@@@@@@@@@@@@@@@@@@@@@@@@@@@@@@@@@@@@@@@@@@@@@@@@@@@@@@@@@@@@@@@@@@@@@@@@@@@@@@@@@@@@@@@@@@@@@@@@@@@@@@@@@@@@@@@@@@@@@@@@@@@@@@@@@@@@@@@@@@@@@@@@@@@@@@@@@@@@@@@@@@@@@@@@@",
"@@@@@@@@@@@@@@@@@@@@@@@@@@@@@@@@@@@@@@@@@@@@@@@@@@@@@@@@@@@@@@@@@@@@@@@@@@@@@@@@@@@@@@@@@@@@@@@@@@@@@@@@@@@@@@@@@@@@@@@@@@@@@@@@@@@@@@@@@@@@@@@@@@@@@@@@@@@@@@@@@@@@@@@@@@@@@@@@@@@@@@@@@@@@@@@@@@@@@@@@@@@@@@@@@@@@@@@@@@@@@@@@@@@@@@@@@@@@@@@@@@@@@@@@@@@@@@@@@@@@@@@@@@@@@@@@@@@@@@@@@@@@@@@@@@@@@@@@@@@@@@@@@@@@@@@@@@@@@@@@",
"@@@@@@@@@@@@@@@@@@@@@@@@@@@@@@@@@@@@@@@@@@@@@@@@@@@@@@@@@@@@@@@@@@@@@@@@@@@@@@@@@@@@@@@@@@@@@@@@@@@@@@@@@@@@@@@@@@@@@@@@@@@@@@@@@@@@@@@@@@@@@@@@@@@@@@@@@@@@@@@@@@@@@@@@@@@@@@@@@@@@@@@@@@@@@@@@@@@@@@@@@@@@@@@@@@@@@@@@@@@@@@@@@@@@@@@@@@@@@@@@@@@@@@@@@@@@@@@@@@@@@@@@@@@@@@@@@@@@@@@@@@@@@@@@@@@@@@@@@@@@@@@@@@@@@@@@@@@@@@@@",
"@@@@@@@@@@@@@@@@@@@@@@@@@@@@@@@@@@@@@@@@@@@@@@@@@@@@@@@@@@@@@@@@@@@@@@@@@@@@@@@@@@@@@@@@@@@@@@@@@@@@@@@@@@@@@@@@@@@@@@@@@@@@@@@@@@@@@@@@@@@@@@@@@@@@@@@@@@@@@@@@@@@@@@@@@@@@@@@@@@@@@@@@@@@@@@@@@@@@@@@@@@@@@@@@@@@@@@@@@@@@@@@@@@@@@@@@@@@@@@@@@@@@@@@@@@@@@@@@@@@@@@@@@@@@@@@@@@@@@@@@@@@@@@@@@@@@@@@@@@@@@@@@@@@@@@@@@@@@@@@@",
"@@@@@@@@@@@@@@@@@@@@@@@@@@@@@@@@@@@@@@@@@@@@@@@@@@@@@@@@@@@@@@@@@@@@@@@@@@@@@@@@@@@@@@@@@@@@@@@@@@@@@@@@@@@@@@@@@@@@@@@@@@@@@@@@@@@@@@@@@@@@@@@@@@@@@@@@@@@@@@@@@@@@@@@@@@@@@@@@@@@@@@@@@@@@@@@@@@@@@@@@@@@@@@@@@@@@@@@@@@@@@@@@@@@@@@@@@@@@@@@@@@@@@@@@@@@@@@@@@@@@@@@@@@@@@@@@@@@@@@@@@@@@@@@@@@@@@@@@@@@@@@@@@@@@@@@@@@@@@@@@",
"@@@@@@@@@@@@@@@@@@@@@@@@@@@@@@@@@@@@@@@@@@@@@@@@@@@@@@@@@@@@@@@@@@@@@@@@@@@@@@@@@@@@@@@@@@@@@@@@@@@@@@@@@@@@@@@@@@@@@@@@@@@@@@@@@@@@@@@@@@@@@@@@@@@@@@@@@@@@@@@@@@@@@@@@@@@@@@@@@@@@@@@@@@@@@@@@@@@@@@@@@@@@@@@@@@@@@@@@@@@@@@@@@@@@@@@@@@@@@@@@@@@@@@@@@@@@@@@@@@@@@@@@@@@@@@@@@@@@@@@@@@@@@@@@@@@@@@@@@@@@@@@@@@@@@@@@@@@@@@@@",
"@@@@@@@@@@@@@@@@@@@@@@@@@@@@@@@@@@@@@@@@@@@@@@@@@@@@@@@@@@@@@@@@@@@@@@@@@@@@@@@@@@@@@@@@@@@@@@@@@@@@@@@@@@@@@@@@@@@@@@@@@@@@@@@@@@@@@@@@@@@@@@@@@@@@@@@@@@@@@@@@@@@@@@@@@@@@@@@@@@@@@@@@@@@@@@@@@@@@@@@@@@@@@@@@@@@@@@@@@@@@@@@@@@@@@@@@@@@@@@@@@@@@@@@@@@@@@@@@@@@@@@@@@@@@@@@@@@@@@@@@@@@@@@@@@@@@@@@@@@@@@@@@@@@@@@@@@@@@@@@@",
"@@@@@@@@@@@@@@@@@@@@@@@@@@@@@@@@@@@@@@@@@@@@@@@@@@@@@@@@@@@@@@@@@@@@@@@@@@@@@@@@@@@@@@@@@@@@@@@@@@@@@@@@@@@@@@@@@@@@@@@@@@@@@@@@@@@@@@@@@@@@@@@@@@@@@@@@@@@@@@@@@@@@@@@@@@@@@@@@@@@@@@@@@@@@@@@@@@@@@@@@@@@@@@@@@@@@@@@@@@@@@@@@@@@@@@@@@@@@@@@@@@@@@@@@@@@@@@@@@@@@@@@@@@@@@@@@@@@@@@@@@@@@@@@@@@@@@@@@@@@@@@@@@@@@@@@@@@@@@@@@",
"@@@@@@@@@@@@@@@@@@@@@@@@@@@@@@@@@@@@@@@@@@@@@@@@@@@@@@@@@@@@@@@@@@@@@@@@@@@@@@@@@@@@@@@@@@@@@@@@@@@@@@@@@@@@@@@@@@@@@@@@@@@@@@@@@@@@@@@@@@@@@@@@@@@@@@@@@@@@@@@@@@@@@@@@@@@@@@@@@@@@@@@@@@@@@@@@@@@@@@@@@@@@@@@@@@@@@@@@@@@@@@@@@@@@@@@@@@@@@@@@@@@@@@@@@@@@@@@@@@@@@@@@@@@@@@@@@@@@@@@@@@@@@@@@@@@@@@@@@@@@@@@@@@@@@@@@@@@@@@@@",
"                          535345778zxvbnmMCZCMmnbvxz8767xvx4                             O     O                                                            g                                                                                                +                                          O                       ",
"                         %535345778zxvbnmMCZCMmnbvxz8767xvx4%                                                                       O                        >                                                                                                                                                              >O  ",
"                         1535345778zxvbnmMCZCMmnbvxz8767xvx41     >                                                                                                                                               >                                                                Cn      CC                                   ",
"                         2535345778zxvbnmMCZCMmnbvxz8767xvx42                                                                                                                                                                                                                     CnMC    Cnnn                                  ",
"     F                   3535345778zxvbnmMCZCMmnbvxz8767xvx43                                      O                    O                                                                   O                                                                       g            CnMC8   CnnM8           >                      ",
"                         4535345778zxvbnmMCZCMmnbvxz8767xvx44                                                                                                                                                                                                                   CnMC8   CnnM8  >                                ",
"       O    >            5535345778zxvbnmMCZCMmnbvxz8767xvx44              F                                                                                                                           O                                                                       CnMC8   CnnM8>                                   ",
"          O              5535345778zxvbnmMCZCMmnbvxz8767xvx44                F                                                                    O                                                        O                         F            +                           CnMC8   CnnM8                                     ",
"                 >       4535345778zxvvnmMCZCMmnbvxz8767xvx44  g     >                                                                      O                                   F O                                                 g                          1zzzzzzzzzzzzzzzzC8   CnnM8                                   >  ",
"                         4535345778zxvbnmMCZCMmnbvxz8767xvx44                                                O                g     >                                                                                       +                              1zzzz6666666666666666zzzzCnnM8    >                    >             ",
"                         4535345778zxvbnmMCZCMmnbvxz8767xvx44          O                           O           O                                                                                                                          >     O        1zz666666666666666666666666zzM8                                        ",
"                         4365345778zxvbnmMCZCMmnbvxz8767xvx44                                                                                                               O                                                                           1z666666444444444444444466666681                                        ",
"                         4365345778zxvbnmMCZCMmnbvxz8767xvx74                           >                                                      >                                O                                                                      1z6664444                4444666z1                      FO              O",
"        O                4365345778zxvbnmMCZCMmnbvxz8767xvx74                                                                                                                            >                                                             z6644   377777777777777773   4466z                                       ",
"                         4365345778zxvbnmMCZCMmnbvxz8767xvx84       O                                                                               >                                                                                                  664  377777vbnmMCZCMmnbv77773  466                                       ",
"                         4365345778zxvbnmMCZCMmnbvxz87678xvx4                                                                        O                                         >                          >                                     O      64 775778zxvbnmMCZCMmnbvxz86777 46                                   O   ",
"               O        O4365345778zxvbnmMCZCMmnbvxz87677xvx4         >                       >             >                               O                    O                                                                                     4 6534578zxvbnmMCZCMmnbvxz867xv7 4                                       ",
"                     F   4365345778zxvbnmMCZCMmnbvxz87677xvx4                                                            O                          >         O       >             O                                                          O        56534578zxvbnmMCZCMmnbvxz867xvx4                                        ",
"                        %4365345778zxvbnmMCZCMmnbvxz87677xvx4%                                            O                        O                         O             >                                                                           %56534578zxvbnmMCZCMmnbvxz867xvx4%                                       ",
"                        14365345778zxvbnmMCZCMmnbvxz87677xvx41                                     >                                                      >                                       +                                            +       156534578zxvbnmMCZCMmnbvxz867xvx41   F                                   ",
"        >          >    25365345778zxvbnmMCZCMmnbvxz87677xvx42                                                                                              >               g   O                            >                                     O   256534578zxvbnmMCZCMmnbvxz867xvx42                  O     >              ",
"                        34365345778zxvbnmMCZCMmnbvxz87677xvx43              O                                                                                                                        O                                                 356534578zxvbnmMCZCMmnvvxz867xvx43            O       >       Og         ",
"              g         44365345778zxvbnmMCZCMmnbvxz87677xvx44                                   >            O            F           O O                         >     O                                               O                             456534578zxvbnmMCZCMmnbvxz867xvx44                                       ",
"         >              54365345778zxvbnmMCZCMmnbvxz87677xvx44       >        O                                                                                                                      >                                                 556534578zxvbnmMCZCMmnbvxz867xvx44                                       ",
"                        54365345778zxvvnmMCZCMmnbvxz87677xvx44                                                O                 >      >       O                  O                                                                                  g 556534578zxvbnmMCZCMmnbvxz867xvx44                                       ",
"            O           44365345778zxvbnmMCZCMnnbvxz87677xvx44                                                                                                                                                                                         456534578zxvbnmMCZCMmnbvxz867xvx44                                       ",
"                        44365345778zxvbnmMCZCMmnbvxz87677xvx44                                                            O     O                         O                                                   O          >                             456534578zxvbnmMCZCMmnbvxz867xvx84                                       ",
"                        44365345778zxvbnmMCZCMmnbvxz87677xvx44                                                                                                                       >     +               7vZZ2                                       456534578zxvbnmMCZCMmnbvxz8678xvx4                                       ",
"                        44365345778zxvbnmMCZCMmnbvxz87677xvx44                                          OO                                                    >           +                              7nZZ%%Z2         vZZ2              O          456534578zxvbnmMCZCMmnbvxz8677xvx4        O                              ",
"                        44365345778zxvbnmMCZCMmnbvxz87677xvx44                 >                  >                                                        O                  +                        7nZnnZ  %Z   >   nZZ%%Z2                        456534578zxvbnmMCZCMmnbvxz8677xvx4                                       ",
"      >                 44365345778zxvbnmMCZCMmnbvxz87677xvx44                          O                               O                                                                            7nZnnZmZb %Z     nZnnZ  %Z    O                   456534578zxvbnnMCZCMmnbvxz8677xvx4                                       ",
"                        44365345778zxvvnmMCZCMmnbvxz87677xvx44             g                                                           O   O                             >                         7nZnnZZZmvZZZv   nZnnZmZv 1Z      O                 456534578zxvbnmMCZCMmnbvxz8677xvx4               > O                     ",
"     O                  43564345778zxvbnmMCZCMmnbvxz87767xvx44                                                        >                                                              +           7nZnnZZZm88n884  nZnnZZZmvZZZv                        456534578zxvbnmMCZCMmnbvxz8767xvx4                                       ",
"                        43653456778zxvbnmMCZCMmnbvxz87767xvx44                                                          O                                                   By                 7nZnnZZZm88n884  nZnnZZZm88n884                         455345678zxvbnmMCZCMmnbvxz8767xvx4                                       ",
"                        43653457778zxvbnmMCZCMmnbvxz87767xvx74                                                                                                             yyyy              7nZnnZZZm88n884  nZnnZZAn88n884                           565345778zxvbnmMCZCMmnbvxz8767xvx4                                       ",
"                       %43653457778zxvbnmMCZCMmnbvxz87767xvx84%                                                                                        >           1zCCCCCCCCCCCCCCCz1     7nZnnZZZm88n884  nZnnZZZm88n884                            %565345778zxvbnmMCZCMmnbvxz8767xvx4%     >                       >        ",
"       >               143653457778zxvbnmMCZCMmnbvxz877678xvx41             >                                                             O                   1zCCCCCmmmmnmmmmmmmmmnCCCCvznZnnZZZm88n884 >nZnnZZZm88n884O                             1565345778zxvbnmMCZCMmnbvxz8767xvx41           >                          ",
"           >           243653457778zxvbnmMCZCMmnbvxz877677xvx42                                                                                           1zCCCCmmmmmnnnnnnnnnnnnnnnmmvvnZnnZZZm88n884  nZnnZAZn88n884  FO                            2565345778zxvbnmMCZCMmnbvxz8767xvx42                                      ",
"                       443653457778zxvbnmMCZCMmnbvxz877677xvx43                                                                         O              1zCCCmmmmnnnnnvvvvvvvvvvvvvvvvvnZnnZZZm88n884  nZnnZZZn8zn884                                  3565345778zxvbnmMCZCMmnbvxz8767xvx43                                     g",
"                       443653457778zxvb741%#%2148vxz877677xvx44                                         h   >  O                   O                 1zCCmmmnnnnvvvvvvvvvvvvvvvvvvvvnZnnZZZm88n8841 nZnnZZZm88n884                     O              4565345778zxvbnmMCZCMmnvvxz8767xvx44                                      ",
"                       443653457778zx42@$522$@31$24z877677xvx44                                        gjg             >         >                 1zCCmnnnnvvvvvvvvvvvvvvvvvvvvvvnZnnZZZm88n88mmmnZnnZZZm88n884      O                              >5565345778zxvbnmMCZCMmnbvxz8767xvx44                           O          ",
"                       44365345777861%#7@8%x1 82##12777677xvx44                                       hjFjh                                       zCCmmnvvvvvvvvvvvvvvvvvvvvvvvvv%nnZZZm88n88vvvnZnnZZZm88n884                                      > 5565345778zxvbnmMCZCMmnbvxz8767xvx44                                      ",
"                       443653457773$$2#Zz     o%S6o#%57677xvx44                                        gjg                                      1zCmmnvvvvvvvvvvvvvvvvvvvvvvvvvvv%mZZm88n88vvvv%nnZZZm88n884               >                          4565345778zxvbnmMCZCMmnbvxz8767xvx44               F                      ",
"                      %4436534577312$x6o#15675$X6x112%6677xvx44                      >                  h                                      4CCmvvvvvvvvvvvvvzzzzzzzzzzzzzzzzz%zvvvn88vvvvvv%nZZm88n884                                            4565345778zxvbnmMCZCMnnbvxz8767xvx44                  O                   ",
"         >            144365345761X5b@#4MJKKKKHm$ 6b@#%677xvx44      >       CC      nC                                                       4Cmvvvvvvzzzzzzzzz888888888z88888zxv%zv88%zzzzzzz%zvvvn88vC4                                            4565345778zxvb741%#%2248vxz8767xvx44       O                              ",
"                      2443653457%% X$ nKHSSAASSKKzo%  2%77xvx44             nnnC    CMnC                                                     4mvvvzzzzz888888z88888888888z88888zxv5%%%%8z8888888%8v88%zvvm4                 O                         4565345778zx52@$522$@4%$24z8767xvx44                                      ",
"                      34436534532    AKAAHKKSSKHKKM   o167xvx44             8MnnC   8CMnC                                                   4v8zzz8z887888888z88888888888z88888zxvx55558z88888885%%%%88zz8v4                                          456534577861$#7@8%x1 82##227767xvx44                                      ",
"                      444365345%$   nKAAKMx7ZZx8vxC6   1%7xvx44              8MnnC   8CMnC        >                    O                    v678888z887888888z88888888888z88888zxvx75557z88888888555588z876v                 >              >         4565345774$$2#Zz     o%S6X#%567xvx44                                      ",
"                      4443653431.  2KAAKC  $Kz 63  A%  @17xvx44               8MnnC   8CMnC                                        O        6678888z887888888z88888888888z88888zxvxz5555z88888888755578z8766                         O                45653457212$x6X#15675$.6c112%47xvx84                                      ",
"   g                  44436534%$   mKAKC  2KK5%K6  Sv   %3xvx44                8MnnC   8CMnC                                                6678888z887888888666666666666666666666665555666888888855558z8766      >                      g            456534551X6n@#4MJKKKKHm% 5n@#%78xvx4                                      ",
"                      444365341#  XHSKC  3KHSMJK# .HA   %1xvx44                 8MnnC   8Czzzzzzzzzzzzz1                                    6678888z666666666                              666666655558z8766                                          4565345%% .$ nKHSSASSSKKzo%  217xvx4                         >         >  ",
"                      44436534#z. 8HKC  3KKSZKK% .AKA3 #8%xvx44                  8MnnCzzzz6666666666666zzzz1                                66786666       28nnnnnnnnnnnnnnnnnnnnnnnn7777nn82        5668766      O               O  >                45653412    AKAAHKKSSKHKKM   o15xvx4                                      ",
"            >         44436434#vx7nHC  4KJSGGH1 oZKGCv7cz$xvx44     >             8Mzz666666666666666666666zz1                              6666   28nnnnnnnnbvvvvvvvvvvbnbvvvnmMZMmn55558vnnnnnnnn77   6666       O                                 %456534%$   mKAAKMx7ZZx8vxC6   11xvx4%                                     ",
"                      44356344#zMvxK#  $$@@@nn  zKvmAzmn6$xvx44                   186666664444444444444666666z1                             6  28nnnnxzxvvvvvvvvvvvvvvvvbnbvvbnmMZMmn85555vvvvvvvvv557782  6           O                         O   14565321.  2KAAKC  #Kz 53  A%  @%xvx41      >                              ",
"                      44356344@8bvxHo       cn  vn nS8bb5%xvx44                  1z6664444             4444666z1                >            4nnbbvbvxzxvvvvvbvvvvvvvvvvbnbvvbnmMZMmnb5555vvvvvvvvv85558nn4                                          245653%$   nKAKC  2KK5%K6  Sv   %5vx42                                     ",
"                      44356344#z63xCnzxzv5  vMoo7@XSC72x42xvx44                  z6644   377777777777773   4466z                           3xvxvbbvbvxzxvvvvvbvvvvvvvvvvbnbvvbnmMZMmnb55558vvvvvvvvv5555vxvx3                               >        345653%$  XHSKC  3KHSMJK$ .HA   %3vx43             >                       ",
"                      4435634413xvxcKKKKKm  6KSSCZSGxvcx$5xvx44                  664  377777vbnmMMmnbv77773  466                          7zxvxvbbvbvxzxvvvvvbvvvvvvvvvvbnbvvbnmMZMmnv85555vvvvvvvvv5555vxvxz7              O             O  >       445653#z. 8HKC. 3KJSAKK% .ZKS3 #81vx44                             O       ",
"          >        g  443563444@vv77CHAAKv  7KHGSSKm67nz@7xvx44                  64 775778zxvbnmMMmnbvxz86777 46                 O       47zxvxvbbvbvxzxvvvvvvvvvvvvvvvvbnbvvbnmMZMmnbv5555vvvvvvvvv85558xvxz74                    O  O              545653@vx6nJM  4KJSGGG1 oZKSZb7cz1vx44                        >            ",
"                      443563445$7z2x8HHASZMmZSAAAJZ8z2v237xvx44%     F           4 6534578zxvbnmMMmnbvxz867xv7 4              g          47zxvxvbbvbvxzxvvvvxzzzzzzzzzzzzzzzzzzzzzzzzzzzzzzxvvvvvvvvv5555xvxz74                            O         545653#zMvxK#  $$@#@nn  xKcmAzmn6%vx44                                     ",
"                      4435634456@cnnz8SJASHJGAASJA8xnn8o77xvx441          >       56534578zxvbnmMMnnbvxz867xvx4       O       O          47zxvxvbbxzzzzzzzzz73%%%%%%%%%%%%%%%%%%%%%%%%%%%%37zzzzzzzzzx855xvxz74                                      445653@8bvzJ@       cn  vn nG8bv52vx44       ,                             ",
"                      443563445722bb%4xMGJHGGHHSn737nc$477xvx442                 %56534578zxvbnnCMmnbvxz867xvx4%                      $$ 47zxzzzzz73%%%%%%%%%%$$$$$$$$$$$$$$$$$$$$$$$$$$$$%%%%%%%%%%37zzzzzxz74  O                                   445653#z63xCnzxxv5  vMoo7@XSC72x43vx44      >i>                            ",
"                     %44356344577#684536vMCCCMmc8513821677xvx743                 156534578zxvbnmMMmnbvxz867xvx41                      8z$47zb2%%%%%%$$$57xbmMMMMMMMMMMMMMMMMMMMMMMMMMMMMMMMMmbx75$$$%%%%%%27z74          O     O                     445653%3xcxcKKKKKn  6KSSCZSGxvxc$8vx44     ,ipi,                           ",
"                     1443563445777#4n432%338z515$2z62%7677xvx844                 256534578zxvbnmMMmnbvxz867xvx42                     8zxz$$nbx$bMMMMMMMMMmbnmnbbnvbbbbbbnmnbnmMCSGHJHGSCMmnbbbbmMMMMMMMmbx75 24    g                               > 4456534@vv77CHAAKv  7KGGHSKm68nz@xvx44      >i>                            ",
"                     24435634457778%268324437n2717z12777677xvx44                 356534578zxvbnmMMmnbvxz867xvx43                     zxxzbnbxz$zbnbxz8zxvbbnmnbbbbbbbbbbnmnbnmMCSSHJHSSCMmnbbbbreeeerbvbvxz872                    O                  4456534#782c8GHASZMmZSASAHA8x2v23xvx44       ,    O                        ",
"                     34435634457778z5%47vzv67nzc82$68777677xvx44                 456534578zxvbnmMMmnbvxz867xvx44                 $$8 xxzbnbxx$$bn4xz8zxvbbbnmnbbbbbbbbbbnmnbbnmMCSGHJHGSCMmnbbbbreeeerbvbvxz872                                      44565345@vnnx8SJASHJGASSJZ7xnn8o7xvx44                                     ",
"g                    44435634457778zxv5$%356643$$7xz8777677xvx44                 556534578zxvbnmMMmnbvxz867xvx44                 78zxxzxbnbxz$xx494z8zxvbbnmnbbbbbbbbbbbnmnbbnmMCSGHJHGSCMmnbbbbreeeerbbvbvxz872                                     4456534512vb%4xMGHHGGHHSm747bx#57xvx44                                     ",
" >                   44435634457778zxvb7778zz8778vxz8777677xvx44                 556534578zxvbnmMMmnbvxz867xvx44           F   $$ zxxzxbnbxxz$zxv99499vbbbnmnbbbbbbbbbbbvnmnbnmMCSGHJHSSCMmnbbbbbreeeerbbvbvxz872                                    445653457#684536vMCZMMmx8523z2167xvx44                 >         g         ",
"                     44435634457778zxvvn778zz877bvxz8777677xvx44                 456534578zxvbnmMMmnbvxz867xvx44              $78z xxzbnbxxz8zxvbb$wz99bb$mnbbbbbbbbbbbbbnmnbnmMCSSHJHGSCMmnvnvbbbreeeerbbvbvxz872          O                        4565345677#4n432%338z515$1z52%767xvx44           O                         ",
"                     44435634457778zxvbn778zz878bvxz8777677xvx44                 456534578zxvbnmMMmnbvxz867xvx84             $78zxxxzxbnxxxz8$xv$$N44vb$$b$nbbbbbbbbbbbbbnmnbbnmMCSGHJHGSCMmnbbbbbreeeerbbbvbvxz872                                  45653457778%268224438b2717z127767xvx44                                     ",
"               >     44435634457778zxvbnn78zz87nbvxz8777677xvx44             >   456534578zxvbnmMMmnbvxz8678xvx4             $8zxxxzxbnbxxz8$K$$KKKKt4$vbbb$bvbbbbbbbbbbbnmnbbnmMCSGHHHGACMmnbbbbbbreeeerbbvbbvxz872   F                            %45653457778z5%47vzv67nxxz2%687767xvx84%               >    O               ",
"                     44435634457778zxvbnm78zz88nbvxz8777677xvx44                 456534578zxvbnmMMmnbvxz8677xvx4             $zxxxzxbnbxxxz$KKKKKKKKy$xvbbbn$nvbbbbbbbbbbnmnbbnmMCSGHJHGSCCnnbbbbbbbreeeerbbvbbvxz872                 O             145653457778zxv6$%356642$$7xz877678xvx41                                    ",
"      O              44435634457778zxvbnmM8zz8mnbvxz8777677xvx44             >   456534578zxvbnmMMmnbvxz8677xvx4               xx$zx$$bx$z8z$KKKKKKKt4$bbb$$bbbbbbbbbbbbbnmnbbnmMCSGHHHGSCMmnbbbbbbbreeeerbbbvbbvxz872                            > 245653457778zxvb7778zz8778vxz877677xvx42 O                           O      ",
"                     44436344567778zxvbnmM8zz8mnbvxz8777677xvx44                 456534578zxvbnmMMmnbvxz8677xvx4             $xx$2x$  $$Kz8z$KKKKz4Ky4$bbb$bbbbbbbbbbbbbbnmnbbbnmMCSGHJHSSCMmnbbbbbbbreeeerbbbvbbvxz872   >                         345653457778zxvbn778zz877bvxz877677xvx43                                    ",
"                     44356344577778zxvbnmMCzzMmnbvxz8777677xvx44                 456534578zxvbnmMMmnbvxz8677xvx4             $xxz7$44 9Nz8z$KKKKK4KKy*9$b$$bbbbbbbbbbbbbbvnmnbbnmMCAGHJHGSCMmnbbbvbbbbreeeerbbbvbbvxz872                            445653457778zxvbn778zz878bvxz877677xvx44                                    ",
"           >         44356344577778zxvbnmMCZCMmnbvxz8777677xvx44                 456534578zxvbnmMMmnbvxz8767xvx4             $xz$ z444*yB8z$KKKK4x4D999n$nbbbbbbbbbbbbbbbnnnnbbnmMCSGHJHGSCMmnbbvnbbbbreeeerbbbbvbbvxz872                           545653457778zxvbnn78zz87nbvxz877677xvx44                                    ",
"                     44356344577878zxvvnmMCZCMmnbvxz8777677xvx44                 455345678zxvbnmMMmnbvxz8767xvx4          O   x$  x499*qunx$4KKK4xv49 nmnbbbbbbbbbbbbbbbbbnmnbbbnmMCSGHJHGSCMmnbbbbbbbbreeeerbbbbvbbvxz872             F       O    545653457778zxvbnm78zz88nbvxz877677xvx44                                    ",
"                     44356344577778zxvbnmMCZCMmnbvxz8777677xvx44                 565345778zxvbnmMMmnbvxz8767xvx4             2$8zx99999b*u$$4BBNxvbb bnmnbbbbbbbbbbbbbbbbbnmnbbbnmMCSSHJHGSCMmnbbbbbbbbbreeeerbbbbvbvvxz872                         445653457778zxvbnmM8zz8mnbvxz877677xvx44                                    ",
"       F             44356344577778zxvbnmMCZCMmnbvxz8777677xvx44                %565345778zxvbnmMMmnbvxz8767xvx4%           278zxxx49x9bnbx=xz*=xvbbb nmnbbbbbbbbbvbbbbbbbnmnvbbnmMCSSHJHSACMmnbbbbbbbbbreeeerbbbbbvbbvxz872                 >      445653457778zxvbnmM8zz8mnbvxz877677xvx44                   O    >           ",
"           >        %44356344577778zxvbnmMCZCMmnbvxz8777677xvx44                1565345778zxvbnmMMmnbvxz8767xvx41          278zxxx999xbnbxx z8z9vbbbbn nvbbbbbbbbvnbbbbbbbnmnbbbnmMCSGHJHGSCMmnbbbbbbbbbbreeeerbbbbbvbbvxz872                       445653457778zxvvnmMCzzMmnbvxz877677xvx44                         O          ",
"                    144356344577778zxvbnmMC555mnbvxz8777677xvx44  g   >         2565345778zxvnnmMMmnbvxz8767xvx42         378zxxx xz9bnbxxxxz8z9vbbbbnmnbbbbbbbbbbbbbbbbbbnmnbbbbnmMCSSHJHGSCMmnbeeeeebbbbreeeerbbbbvbbbvxz872      O               445653457778zxvnnmMCZCMm555xz877677xvx44         >                          ",
"           O        244356344577778zxvbnmM5&&&5nbvxz8777677xvx44                3565345778zxvvnmMMmnbvxz8767xvx43        278zxxxxxzxxbnbxxxz8zxv bbbbnmnbbbbbbbbbbbbbbbbbbnmnbbbbnmMCSGHJHSSCMmnbreeeerbbbreeeerbbbbbvbbbvxz872                     445653457778zxvvnmMCZCM50005z877677xvx44                                    ",
"                    344356344577778zxvbnmM5&&&5nbvxz8777677xvx44                4565345778zxvvnmMMmnbvxz8767xvx44       278zxxxxxzxxbnbxxxxz8zxv bbbnmnbbbbbbbbbbbbbbbbbbbbnmnbbbnmMCSSHJHGSCMmnbbeeeeebbbbreeeerbbbbbvbbbvxz872                    445653457778zxvbnmMCZCM50005z877677xvx44                                    ",
"                    444356344577778zxvbnmM55555nbvxz8777677xvx44         >      5565345778zxvbnmMMmnvvxz8767xvx44      278zxxxxxxzxbnbxxxxz8zxv bbbbnmnbbbbbbbbbbbbbbbbbbbbnmnbbbnmMCSGHJHGSCMmnbbbbbbbbbbbbreeeerbbbbbvbbbvxz872                   445653457778zxvbnmMCZCM55555z877677xvx44                                    ",
"                    444356344577778zxvbnmM5&&&5nbvxz8777677xvx44         O      5565345778zxvbnmMMmnbvxz8767xvx44     278zxxxxxxzxxbnbxxxxz8zx bbbbnmnbbbbbbbbbbbbbbbbbbbbbnmnbbbbnmMCSSHHHGSCMmnbbbbbbbbbbbreeeerbbbbbbvbbbvxz872                  445653457778zxvbnmMCZCM50005z877677xvx44                                    ",
"                    444356344577778zxvbnmM5&&&5nbvxz8777677xvx44                4565345778zxvbnmMMmnbvxz8767xvx44    278zxxxxxxzxxbnbxxxxz8zxvbbbbbnmnbbbbbbbbbbbbbbbbbbbbbnmnbbbbnmMCSGHJHGSCMmnbbbbbbbbbbbbreeeerbbbbbbvbbbvxz872                 445653457778zxvbnmMCZCM50005z877777xvx44                                    ",
"                    444356344577778KKKKKKKKKKKKKKKKKKKKKKKKKKKKKKKKKKKKKKKKKKKKKKKKKKKKKKKKKKKKKKKKKKKKKKKKKKKKKKKKKKKKKKKKKKKKKKKKKKKKKKKKKKKKKKKKKKKKKKKKKKKKKKKKKKKKKKKKKKKKKKKKKKKKKKKKKKKKKKKKKKKKKKKKKKKKKKKKKKKKKKKKKKKKKKKKKKKKKKKKKKKKKKKKKKKKKKKKKKKKKKKKKKKKKKKKKKKKKKKKKKKKKvx44                                    ",
"                    444356344577778KKKKKKKKKKKKKKKKKKKKKKKKKKKKKKKKKKKKKKKKKKKKKKKKKKKKKKKKKKKKKKKKKKKKKKKKKKKKKKKKKKKKKKKKKKKKKKKKKKKKKKKKKKKKKKKKKKKKKKKKKKKKKKKKKKKKKKKKKKKKKKKKKKKKKKKKKKKKKKKKKKKKKKKKKKKKKKKKKKKKKKKKKKKKKKKKKKKKKKKKKKKKKKKKKKKKKKKKKKKKKKKKKKKKKKKKKKKKKKKKKKKKKvx44%                                   ",
"                    444356344577778HZZZZZZZZZZZZZZZZZZZZZZZZZZZZZZZZZZZZZZZZZZZZZZZZZZZZZZZZZZZZZZZZZZZZZZZZZZZZZZZZZZZZZZZZZZZZZZZZZZZZZZZZZZZZZZZZZZZZZZZZZZZZZZZZZZZZZZZZZZZZZZZZZZZZZZZZZZZZZZZZZZZZZZZZZZZZZZZZZZZZZZZZZZZZZZZZZZZZZZZZZZZZZZZZZZZZZZZZZZZZZZZZZZZZZZZZZZZZZZZZZZZHvx441                                   ",
"                    444356344577778HZZZZZZZZZZZZZZZZZZZZZZZZZZZZZZZZZZZZZZZZZZZZZZZZZZZZZZZZZZZZZZZZZZZZZZZZZZZZZZZZZZZZZZZZZZZZZZZZZZZZZZZZZZZZZZZZZZZZZZZZZZZZZZZZZZZZZZZZZZZZZZZZZZZZZZZZZZZZZZZZZZZZZZZZZZZZZZZZZZZZZZZZZZZZZZZZZZZZZZZZZZZZZZZZZZZZZZZZZZZZZZZZZZZZZZZZZZZZZZZZZZZHvx442      O                            ",
"                    444356344577778xxxxxxxxxxxxxxxxxxxxxxxxxxxxxxxxxxxxxxxxxxxxxxxxxxxxxxxxxxxxxxxxxxxxxxxxxxxxxxxxxxxxxxxxxxxxxxxxxxxxxxxxxxxxxxxxxxxxxxxxxxxxxxxxxxxxxxxxxxxxxxxxxxxxxxxxxxxxxxxxxxxxxxxxxxxxxxxxxxxxxxxxxxxxxxxxxxxxxxxxxxxxxxxxxxxxxxxxxxxxxxxxxxxxxxxxxxxxxxxxxxxxxvx443                                   ",
"                    444356344577778zxvCn44444444444bmb44444444444bmb44444444444bmb44444444444bmb44444444444bmb44444444444bmb44444444444bmb44444444444bmb44444444444bmb44444444444bmb44444444444bmb44444444444bmb44444444444bmb44444444444bmb44444444444bmb44444444444bmb44444444444nC77xvx444      g                            ",
"                    444356344577778zxvHC41111111114bCb41111111114vCb41111111114bCb41111111114bCb41111111114bCb41111111114bCb41111111114bCb41111111114bCb41111111114bCb41111111114bCb41111111114bCb41111111114bCb41111111114bCb41111111114bCb41111111114bCb41111111114vCb41111111114CH77xvx844          >                        ",
"                    444356344577778zxvHC44444444444bCb44444444444bCb44444444444bCv44444444444bCb44444444444bCb44444444444bCb44444444444bCb44444444444vCb44444444444vCb44444444444bCb44444444444bCb44444444444bCb44444444444bCb44444444444bCb44444444444bCb44444444444bCb44444444444CH778xvx44                           F       ",
"             g      444356344577778zxvHCKKKKKKKKKKKCCKKKKKKKKKKKKCCKKKKKKKKKKKKCCKKKKKKKKKKKKCCKKKKKKKKKKKKCCKKKKKKKKKKKKCCKKKKKKKKKKKKCCKKKKKKKKKKKKCCKKKKKKKKKKKKCCKKKKKKKKKKKKCCKKKKKKKKKKKKCCKKKKKKKKKKKKCCKKKKKKKKKKKKCCKKKKKKKKKKKKCCKKKKKKKKKKKKCCKKKKKKKKKKKKCCKKKKKKKKKKKKCH777xvx44                              >    ",
"                    443456344577778zxvHCCCCCCCCCCCCCCCCCCCCCCCCCCCCCCCCCCCCCCCCCCCCCCCCCCCCCCCCCCCCCCCCCCCCCCCCCCCCCCCCCCCCCCCCCCCCCCCCCCCCCCCCCCCCCCCCCCCCCCCCCCCCCCCCCCCCCCCCCCCCCCCCCCCCCCCCCCCCCCCCCCCCCCCCCCCCCCCCCCCCCCCCCCCCCCCCCCCCCCCCCCCCCCCCCCCCCCCCCCCCCCCCCCCCCCCCCCCCCH777xvx44                                   ",
"                   %443456344577778zxvHCCCCCCCCCCCCCCCCCCCCCCCCCCCCCCCCCCCCCCCCCCCCCCCCCCCCCCCCCCCCCCCCCCCCCCCCCCCCCCCCCCCCCCCCCCCCCCCCCCCCCCCCCCCCCCCCCCCCCCCCCCCCCCCCCCCCCCCCCCCCCCCCCCCCCCCCCCCCCCCCCCCCCCCCCCCCCCCCCCCCCCCCCCCCCCCCCCCCCCCCCCCCCCCCCCCCCCCCCCCCCCCCCCCCCCCCCCCCCH777xvx44                                   ",
"                   1443456344577778zxvHCCCCCCCCCCCCCCCCCCCCCCCCCCCCCCCCCCCCCCCCCCCCCCCCCCCCCCCCCCCCCCCCCCCCCCCCCCCCCCCCCCCCCCCCCCCCCCCCCCCCCCCCCCCCCCCCCCCCCCCCCCCCCCCCCCCCCCCCCCCCCCCCCCCCCCCCCCCCCCCCCCCCCCCCCCCCCCCCCCCCCCCCCCCCCCCCCCCCCCCCCCCCCCCCCCCCCCCCCCCCCCCCCCCCCCCCCCCCCH777xvx44  O                                ",
"                   2443456344577778zxvHCCCCCCCCCCCCCCCCCCCCCCCCCCCCCCCCCCCCCCCCCCCCCCCCCCCCCCCCCCCCCCCCCCCCCCCCCCCCCCCCCCCCCCCCCCCCCCCCCCCCCCCCCCCCCCCCCCCCCCCCCCCCCCCCCCCCCCCCCCCCCCCCCCCCCCCCCCCCCCCCCCCCCCCCCCCCCCCMCCCCCCCCCCCCCCCCCCCCCCCCCCCCCCCCCCCMCCCCCCCCCCCCCCCCCCCCCCCCCH777xvx44                                   ",
"%%%%%%%%%%%%%%%%%%%3443563445777778zxvHHHHHHHHHHHHHHHHHHHHHHHHHHHHHHHHHHHHHHHHHHHHHHHHHHKKKKKKKKKKKKKKKKKKKKKKKKKKKKKKKKCmHHHHHHHHHHHHHHHHHHHHHHHHHHHHHHHHHHHHHHHHHHHHHHHHHHHHHHHHHHHHHHHHHHHHHHHmCKKKKKKKKKKKKKKKKKKKKKKKKKKKKKKKKHHHHHHHHHHHHHHHHHHHHHHHHHHHHHHHHHHHHHHHHHHHHHHHHHH777xvx44%%%%%%%%%%%%%%%%%%%%%%%%%%%%%%%%%%%",
"%%%%%%%%%%%%%%%%%%%4443563445777778zxHSGGGGGGGGGGGGGGGGGGGGGGGGGGGGGGGGGGGGGGGGGGGGGGGGGKKKKKKKKKKKKKKKKKKKKKKKKKKKKKKKKnmGGGGGGSGGGGGGGGGGGGGGGGGGGGGGGGGGGGGGGGGGGGGGGGGGGGGGGGGGGGGGGGGGGGGGGGmnKKKKKKKKKKKKKKKKKKKKKKKKKKKKKKKKGGGGGGGGGGGGGGGGGGGGGGGGGGGGGGGGGGGGGGGGGGGGGGGGGGH77xvx44%%%%%%%%%%%%%%%%%%%%%%%%%%%%%%%%%%%",
"%%%%%%%%%%%%%%%%%%%4443563445777778zHGGGGGGGGGGGGGGGGGGGGGGGGGGGGGGGGGGGGGGGGGGGGGGGGGGKKKKKKKKKKKKKKKKKKKKKKKKKKKKKKKKKbmGGGGGGGGGGGGGGGGGGGGGGGGGGGGGGGGGGGGGGGGGGGGGGGGGGGGGGGGGGGGGGGGGGGGGGSmbKKKKKKKKKKKKKKKKKKKKKKKKKKKKKKKKKGGGGGGGGGGGGGGGGGGGGGGGGGGGGGGGGGGGGGGGGGGGGGGGGGGH7xvx44%%%%%1%%%%%%%%%%%%%%%%%%%%%%1%%%%%%",
"%%%%%%%1%%%%%%%1%%%4443563445777778HGGGGGGGGGGGGGGGGGGGGGGGGGGGGGGGGGGGGGGGGGGGGGGGGGGGKKKKKKKKKKKKKKKKKKKKKKKKKKKKKKKKKbmGGGGGGGGGGGGGGGGGGGGGGGGGGGGGGGGGGGGGGGGGGGGGGGGGGGGGGGGGGGGGGGGGGGGGGGmbKKKKKKKKKKKKKKKKKKKKKKKKKKKKKKKKKGGGGGGGGGGGGGGGGGGGGGGGGGGGGGGGGGGGGGGGGGGGGGGGGGGGHxvx44%%%1%%%%%%%%1%%%%%%%%%1%%1%%%%1%%1%",
"%%%%11%%111%%%%%1%%444356344577777HGGGGGGGGGGGGGGGGGGGGGGGGGGGGGGGGGGGGGGGGGGGGGGGGGGGKKKKKKKKKKKKKKKKKKKKKKKKKKKKKKKKKZvmGGGGGGGGGGGGGGGGGGGGGGGGGGGGGGGGGGGGGGGGGGGGGGGGGGGGGGGGGGGGGGGGGGGGGGGmbZKKKKKKKKKKKKKKKKKKKKKKKKKKKKKKKKKSGGGGGGGGGGGGGGGGGGGGGGGGGGGGGGGGGGGGGGGGGGGGGGGGGGHvx44%%1%1111%%1%%%%1%%%%1111%%%1%%%%11%",
"1%%%%1%1%11111%1%1%44435634457777HGGGGGGGGGGGGGGGGSGGGGGGGGGGGGGGGGGGGGGGGGGGGGGGGGGGGKKKKKKKKKKKKKKKKKKKKKKKKKKKKKKKKKnbmGGGGGGGGGGGGGGGGGGGGGGGGGGGGGGGGGGGGGGGGGGGGGGGGGGGGGGGGGGGGGGGGGGGGSGGmbnKKKKKKKKKKKKKKKKKKKKKKKKKKKKKKKKKGGGGGGGGGGGGGGGGGGGGGGGGGGGGGGGGGGGGGGGGGGGGGGGGGGGSHx44%%1111111%1%%11%1%1%1111%1111%%1111",
"12%11111211111211124443563445777HGGGGGGGGGGGGGGGGGGGGGGGGGGGGGGGGGGGGGGGGGGGGGGGGGGGGKKKKKKKKKKKKKKKKKKKKKKKKKKKKKKKKKKnbmGGGGGGGGGGGGGGGGGGGGGGGGGGGGGGGGGGGGGGGGGGGGGGGGGGGGGGGGGGGGGGGGGGGGGGGmbnKKKKKKKKKKKKKKKKKKKKKKKKKKKKKKKKKKGGGGGGGGGGGGGGGGGGGGGGGGGGGGGGGGGGGGGGGGGGGGGGGGGGGGH4421111111121211222%11122121%%1212211",
"1111122212111121112444356344577HGGGGGGGGGGGGGGGGGGGGGGGGGGGGGGGGGGGGGGGGGGGGGGGGGGGGGKKKKKKKKKKKKKKKKKKKKKKKKKKKKKKKKKKbmGGGGGGGGGGGGGGGGGGGGGGGGGGGGGGGGGGGGGGGGGGGGGGGGGGGGGGGGGGGGGGGGGGGGGGGGGmbKKKKKKKKKKKKKKKKKKKKKKKKKKKKKKKKKKGGGGGGGGGGGGGGGGGGGGGGGGGGGGGGGGGGGGGGGGGGGGGGGGGGGGGH411211212111211121112121212211112112",
"122112222221222222144435634457HGGGGGGGGGGGGGGGGGGGGGGGGGGGGGGGGGGGGGGGGGGGGGGGGGGGGGKKKKKKKKKKKKKKKKKKKKKKKKKKKKKKKKKKZbmGGGGGGGGGGGGGGGGGGGGGGGGGGGGGGGGGGGGGGGGGGGGGGGGGGGGGGGGGGGGGGGGGGGGGGGGGmbZKKKKKKKKKKKKKKKKKKKKKKKKKKKKKKKKKKGGGGGGGGGGGGGGGGGGGGGGGGGGGGGGGGGGGGGGGGGGGGGGGGGGGGGH22211121112121112212221222111222211",
"21131222122222222324443563445HGGGGGGGGGGGGGGGGGGGGGGGGGGGGGGGGSGGGGGGGGGGGGGGGGGGGGGKKKKKKKKKKKKKKKKKKKKKKKKKKKKKKKKKKnbmGGGGGGGGGGGGGGGGGGGGGGGGGGGGGGGGGGGGGGGGGGGGGGGGGGGGGGGGGGGGGGSGGGGGGGGGGmbnKKKKKKKKKKKKKKKKKKKKKKKKKKKKKKKKKKGGGGGGGGGGGGGGGGGGGGGGGGGGGGGGGGGGGGGGGGGGGGGGGGGGGGGGH1222222122322222122222122212322332",
"2223233222322322222444356344HGGGGGGGGGGGGGGGGGGGGGGGGGGGGGGGGGGGGGGGGGGGGGGGGGGGGGGKKKKKKKKKKKKKKKKKKKKKKKKKKKKKKKKKKKnbmGGGGGGGGGGGGGGGGGGGGGGGGGGGGGGGGGGGGGGGGGGGGGSGGGGGGGGGGGGGGGGGGGGGGGGGGGmbnKKKKKKKKKKKKKKKKKKKKKKKKKKKKKKKKKKKGGGGGGGGGGGGGGGGGGGGGGGGGGGGGGGGGGGGGGGGGGGGGGGGGGGGGGH322222233222223222332332332222332",
"222232332323223232244435634HGGGGGGGGGGGGGGGGGGGGGGGGGGGGGGGGGGGGGGGGGGGGGGGGGGGGGGGKKKKKKKKKKKKKKKKKKKKKKKKKKKKKKKKKKKnbmGGGGGGGGGGGGGGGGGGGGGGGGGGGGGGGGGGGGGGGGGGGGGGGGGGGGGGGGGGGGGGGGGGGGGGGGGmbnKKKKKKKKKKKKKKKKKKKKKKKKKKKKKKKKKKKGGGGGGGGGGGGGGGGGGGGGGGGGGGGGGGGGGGGGGGGGGGGGGGGGGGGGGGH33333322323322223233232233332232",
"22333323243333223344443563HGGGGGGGGGGGGGGGGGGGGGGGGGGGGGGGGGGGGGGGGGGGGGGGGGGGGGGGKKKKKKKKKKKKKKKKKKKKKKKKKKKKKKKKKKKZnvmGGGGGGGGGGGGGGGGGGGGGGGGGGGGGGGGGGGGGGGGGGGGGGGGGGGGGGGGGGGGGGGGGGGGGGGGGmbnZKKKKKKKKKKKKKKKKKKKKKKKKKKKKKKKKKKKGGGGGGGGGGGGGGGGGGGGGGGGGGGGSGGGGGGGGGGGGGGGGGGGGSGGGGGH3334333433333333323332233322333",
"3343343332343434423444356HGGGGGGGGGGGGGGGSGGGGGGGGGGGGGGGGGGGGGGGGGGGGGGGGGSGGGGSGKKKKKKKKKKKKKKKKKKKKKKKKKKKKKKKKKKKnnbmGGGGGGGGGGGSGGGGGGGGGGGGGGGGGSGGGGGGGGGGGGGGGGGGGGGGGGGGGGGGGGGGGGGGGGGGGmbnnKKKKKKKKKKKKKKKKKKKKKKKKKKKKKKKKKKKGGGGGGGGGGGGGGGGGGGGSGGGGGGGGGGGGGGGGGGGGGGGGGGGGGGGGGGGH444233233434333424344234334333",
"434334344344343333444435HHHHHHHHHHHHHHHHHHHHHHHHHHHHHHHHHHHHHHHHHHHHHHHHHHHHHHHHHKKKKKKKKKKKKKKKKKKKKKKKKKKKKKKKKKKKKnnbmHHHHHHHHHHHHHHHHHHHHHHHHHHHHHHHHHHHHHHHHHHHHHHHHHHHHHHHHHHHHHHHHHHHHHHHHHmbnnKKKKKKKKKKKKKKKKKKKKKKKKKKKKKKKKKKKKHHHHHHHHHHHHHHHHHHHHHHHHHHHHHHHHHHHHHHHHHHHHHHHHHHHHHHHHH44344434434343433333443343334",
"444443433434434433444435HCCCCCCCCCCCCCCCCCCCCCCCCCCCCCCCCCCCCCCCCCCCCCCCCCCCCCCCCKKKKKKKKKKKKKKKKKKKKKKKKKKKKKKKKKKKKnnnbmCCCCCCCCCCCCCCCCCCCCCCCG<<<<<<<<<<<<<<<<<<<<<<<GCCCCCCCCCCCCCCCCCCCCCCCmbnnnKKKKKKKKKKKKKKKKKKKKKKKKKKKKKKKKKKKKCCCCCCCCCCCCCCCCCCCCCCCCCCCCCCCCCCCCCCCCCCCCCCCCCCCCCCCCH54344344444344544434443344335",
"463434544344534444444435HCCCCCCCCCCCCCCCCCCCCCCCCCCCCCCCCCCCCCCCCCCCCCCCCCCCCCCCKKKKKKKKKKKKKKKKKKKKKKKKKKKKKKKKKKKKZnnnbmCCCCCCCCCCCCCCCCCCCn84CG<<<<<<<<<<<<<<<<<<<<<<<GCn84CCCCCCCCCCCCCCCCCCCnbnnnZKKKKKKKKKKKKKKKKKKKKKKKKKKKKKKKKKKKKCCCCCCCCCCCCCCCCCCCCCCCCCCCCCCCCCCCCCCCCCCCCCCCCCCCCCCCH64434444444445435554544444654",
"455454455544454555544345HCCCCCCCCCCCCCCCCCCCCCCCCCCCCCCCCCCCCCCCCCCCCCCCCCCCCCCCKKKKKKKKKKKKKKKKKKKKKKKKKKKKKKKKKKKKnnnnbmCCCCCCCCCCCCCCCCCCCn84CG<<aaaaaaaaaaaaaaaaaaa<<GCn84CCCCCCCCCCCCCCCCCCCmbnnnnKKKKKKKKKKKKKKKKKKKKKKKKKKKKKKKKKKKKCCCCCCCCCCCCCCCCCCCCCCCCCCCCCCCCCCCCCCCCCCCCCCCCCCCCCCCH55554445554545455545554554554",
"554455555545455555444345HCCCCCCCCCCCCCCCCCCCCCCCCCCCCCCCCCCCCCCCCCCCCCCCCCCCCCCKKKKKKKKKKKKKKKKKKKKKKKKKKKKKKKKKKKKKnnnnbmCCCCCCCCCCCCCCCCCCCn84CG<<adddddddsasddddddda<<GCn84CCCCCCCCCCCCCCCCCCCmbnnnnKKKKKKKKKKKKKKKKKKKKKKKKKKKKKKKKKKKKKCCCCCCCCCCCCCCCCCCCCCCCCCCCCCCCCCCCCCCCCCCCCCCCCCCCCCCH55554555554554455555545555455",
"545666565565556555444345HCCCCCCCCCCCCCCCCCCCCCCCCCCCCCCCCCCCCCCCCCCCCCCCCCCCCCCKKKKKKKKKKKKKKKKKKKKKKKKKKKKKKKKKKKKKnnnnbmCCCCCCCCCCCCCCCCCCCKKKCG<<addVVVVdsasdVVVVdda<<GCKKKCCCCCCCCCCCCCCCCCCCmbnnnnKKKKKKKKKKKKKKKKKKKKKKKKKKKKKKKKKKKKKCCCCCCCCCCCCCCCCCCCCCCCCCCCCCCCCCCCCCCCCCCCCCCCCCCCCCCH55445455554555555655556545565",
"565555555666665556444345HCCCCCCCCCCCCCCCCCCCCCCCCCCCCCCCCCCCCCCCCCCCCCCCCCCCCCKKKKKKKKKKKKKKKKKKKKKKKKKKKKKKKKKKKKKZnnnnbmCCCCCCCCCCCCCCCCCCHJJJJG<<addlllldsasdlllldda<<GJJHJJCCCCCCCCCCCCCCCCCCmbnnnnZKKKKKKKKKKKKKKKKKKKKKKKKKKKKKKKKKKKKKCCCCCCCCCCCCCCCCCCCCCCCCCCCCCCCCCCCCCCCCCCCCCCCCCCCCCH55566665556555555656565565555",
"556666566666555566444345HCCCCCCCCCCCCCCCCCCCCCCCCCCCCCCCCCCCCCCCCCCCCCCCCCCCCCKKKKKKKKKKKKKKKKKKKKKKKKKKKKKKKKKKKKKnnnnnbmCCCCCCCCCCCCCCCCCJHHJHHG<<addkkkkdsasdkkkkdda<<GHHJHHJCCCCCCCCCCCCCCCCCmbnnnnnKKKKKKKKKKKKKKKKKKKKKKKKKKKKKKKKKKKKKCCCCCCCCCCCCCCCCCCCCCCCCCCCCCCCCCCCCCCCCCCCCCCCCCCCCCH65666556666666656655656566565",
"765667666666676666444345e::::::::::::::::::::::::::::::::::::::::::::::::::::KKKKKKKKKKKKKKKKKKKKKKKKKKKKKKKKKKKKKKnnnn;-;::::::::::::::::eeeeeeeGaasddffffdsasdffffddsaaGeeeeeee::::::::::::::::;-nnnnnKKKKKKKKKKKKKKKKKKKKKKKKKKKKKKKKKKKKKK::::::::::::::::::::::::::::::::::::::::::::::::::::r67666676666566676676566767656",
"666777666676666677444345e::::::::::::::::::::::::::::::::::::::::::::::::::::KKKKKKKKKKKKKKKKKKKKKKKKKKKKKKKKKKKKKKnn;;;-;:::::::::::::::eeeeeeeeGssddddddddsasddddddddssGeeeeeeee:::::::::::::::;-;;;nnKKKKKKKKKKKKKKKKKKKKKKKKKKKKKKKKKKKKKK::::::::::::::::::::::::::::::::::::::::::::::::::::r67776666667766667766666776667",
"676676667676676677444345e:::::::::::::::::::::::::::::::::::::::::::::::::::eeeeeeeeeeeeeeeeeeeeeeeeeeeee:eeeeeeeer;;;;;-;::::::::::::::eeeeeeeeeGddddddddddsasddddddddddGeeeeeeeee::::::::::::::;-;;;;;reeeeeeeeeeeeeeeeeeeeeeeeeeeeeeeeeeeeer:::::::::::::::::::::::::::::::::::::::::::::::::::r66666766667667776777776677766",
"677666677676677767444345HCCCCCCCCCCCCCCCCCCCCCCCCCCCCCCCCCCCCCCCCCCCCCCCCCCCeeeeeeeeeeeeeeeeeeeeeeeeeeeeeeeeeeeeer;;;;;nbmCCCCCCCCCCCCCCCCCCCCCCCGddddddddddsasddddddddddGCCCCCCCCCCCCCCCCCCCCCCCmb;;;;;;reeeeeeeeeeeeeeeeeeeeeeeeeeeeeeeeeeeerCCCCCCCCCCCCCCCCCCCCCCCCCCCCCCCCCCCCCCCCCCCCCCCCCCCH77677767677667766777777677777",
"777777777777767777444345HCCCCCCCCCCCCCCCCCCCCCCCCCCCCCCCCCCCCCCCCCCCCCCCCCCeeeeeeeeeeeeeeeeeeeeeeeeeeeeeeeeeeeeeer;;nnnnbmCCCCCCCCCCCCCCCCCCCCCCCGddddddddddsasddddddddddGCCCCCCCCCCCCCCCCCCCCCCCmbnnnn;;reeeeeeeeeeeeeeeeeeeeeeeeeeeeeeeeeeeeerCCCCCCCCCCCCCCCCCCCCCCCCCCCCCCCCCCCCCCCCCCCCCCCCCCH77777777777776777777777777777",
"777777777777777777444346HCCCCCCCCCCCCCCCCCCCCCCCCCCCCCCCCCCCCCCCCCCCCCCCCCCKKKKKKKKKKKKKKKKKKKKKKKKKKKKKKKKKKKKKKKnnnnnnvmCCCCCCCCCCCCCCCCCCCCCCCGddddddddddsasddddddddddGCCCCCCCCCCCCCCCCCCCCCCCmbnnnnnnKKKKKKKKKKKKKKKKKKKKKKKKKKKKKKKKKKKKKKKCCCCCCCCCCCCCCCCCCCCCCCCCCCCCCCCCCCCCCCCCCCCCCCCCCH77777777777777777777777777777",
"@@@@@@@@@@@@@@@@@@@@@@@@@@@@@@@@@@@@@@@@@@@@@@@@@@@@@@@@@@@@@@@@@@@@@@@@@@@@@@@@@@@@@@@@@@@@@@@@@@@@@@@@@@@@@@@@@@@@@@@@@@@@@@@@@@@@@@@@@@@@@@@@@@@@@@@@@@@@@@@@@@@@@@@@@@@@@@@@@@@@@@@@@@@@@@@@@@@@@@@@@@@@@@@@@@@@@@@@@@@@@@@@@@@@@@@@@@@@@@@@@@@@@@@@@@@@@@@@@@@@@@@@@@@@@@@@@@@@@@@@@@@@@@@@@@@@@@@@@@@@@@@@@@@@@@@@@@@@@@@@",
"@@@@@@@@@@@@@@@@@@@@@@@@@@@@@@@@@@@@@@@@@@@@@@@@@@@@@@@@@@@@@@@@@@@@@@@@@@@@@@@@@@@@@@@@@@@@@@@@@@@@@@@@@@@@@@@@@@@@@@@@@@@@@@@@@@@@@@@@@@@@@@@@@@@@@@@@@@@@@@@@@@@@@@@@@@@@@@@@@@@@@@@@@@@@@@@@@@@@@@@@@@@@@@@@@@@@@@@@@@@@@@@@@@@@@@@@@@@@@@@@@@@@@@@@@@@@@@@@@@@@@@@@@@@@@@@@@@@@@@@@@@@@@@@@@@@@@@@@@@@@@@@@@@@@@@@@@@@@@@@@",
"@@@@@@@@@@@@@@@@@@@@@@@@@@@@@@@@@@@@@@@@@@@@@@@@@@@@@@@@@@@@@@@@@@@@@@@@@@@@@@@@@@@@@@@@@@@@@@@@@@@@@@@@@@@@@@@@@@@@@@@@@@@@@@@@@@@@@@@@@@@@@@@@@@@@@@@@@@@@@@@@@@@@@@@@@@@@@@@@@@@@@@@@@@@@@@@@@@@@@@@@@@@@@@@@@@@@@@@@@@@@@@@@@@@@@@@@@@@@@@@@@@@@@@@@@@@@@@@@@@@@@@@@@@@@@@@@@@@@@@@@@@@@@@@@@@@@@@@@@@@@@@@@@@@@@@@@@@@@@@@@",
"@@@@@@@@@@@@@@@@@@@@@@@@@@@@@@@@@@@@@@@@@@@@@@@@@@@@@@@@@@@@@@@@@@@@@@@@@@@@@@@@@@@@@@@@@@@@@@@@@@@@@@@@@@@@@@@@@@@@@@@@@@@@@@@@@@@@@@@@@@@@@@@@@@@@@@@@@@@@@@@@@@@@@@@@@@@@@@@@@@@@@@@@@@@@@@@@@@@@@@@@@@@@@@@@@@@@@@@@@@@@@@@@@@@@@@@@@@@@@@@@@@@@@@@@@@@@@@@@@@@@@@@@@@@@@@@@@@@@@@@@@@@@@@@@@@@@@@@@@@@@@@@@@@@@@@@@@@@@@@@@",
"@@@@@@@@@@@@@@@@@@@@@@@@@@@@@@@@@@@@@@@@@@@@@@@@@@@@@@@@@@@@@@@@@@@@@@@@@@@@@@@@@@@@@@@@@@@@@@@@@@@@@@@@@@@@@@@@@@@@@@@@@@@@@@@@@@@@@@@@@@@@@@@@@@@@@@@@@@@@@@@@@@@@@@@@@@@@@@@@@@@@@@@@@@@@@@@@@@@@@@@@@@@@@@@@@@@@@@@@@@@@@@@@@@@@@@@@@@@@@@@@@@@@@@@@@@@@@@@@@@@@@@@@@@@@@@@@@@@@@@@@@@@@@@@@@@@@@@@@@@@@@@@@@@@@@@@@@@@@@@@@",
"@@@@@@@@@@@@@@@@@@@@@@@@@@@@@@@@@@@@@@@@@@@@@@@@@@@@@@@@@@@@@@@@@@@@@@@@@@@@@@@@@@@@@@@@@@@@@@@@@@@@@@@@@@@@@@@@@@@@@@@@@@@@@@@@@@@@@@@@@@@@@@@@@@@@@@@@@@@@@@@@@@@@@@@@@@@@@@@@@@@@@@@@@@@@@@@@@@@@@@@@@@@@@@@@@@@@@@@@@@@@@@@@@@@@@@@@@@@@@@@@@@@@@@@@@@@@@@@@@@@@@@@@@@@@@@@@@@@@@@@@@@@@@@@@@@@@@@@@@@@@@@@@@@@@@@@@@@@@@@@@",
"@@@@@@@@@@@@@@@@@@@@@@@@@@@@@@@@@@@@@@@@@@@@@@@@@@@@@@@@@@@@@@@@@@@@@@@@@@@@@@@@@@@@@@@@@@@@@@@@@@@@@@@@@@@@@@@@@@@@@@@@@@@@@@@@@@@@@@@@@@@@@@@@@@@@@@@@@@@@@@@@@@@@@@@@@@@@@@@@@@@@@@@@@@@@@@@@@@@@@@@@@@@@@@@@@@@@@@@@@@@@@@@@@@@@@@@@@@@@@@@@@@@@@@@@@@@@@@@@@@@@@@@@@@@@@@@@@@@@@@@@@@@@@@@@@@@@@@@@@@@@@@@@@@@@@@@@@@@@@@@@",
"@@@@@@@@@@@@@@@@@@@@@@@@@@@@@@@@@@@@@@@@@@@@@@@@@@@@@@@@@@@@@@@@@@@@@@@@@@@@@@@@@@@@@@@@@@@@@@@@@@@@@@@@@@@@@@@@@@@@@@@@@@@@@@@@@@@@@@@@@@@@@@@@@@@@@@@@@@@@@@@@@@@@@@@@@@@@@@@@@@@@@@@@@@@@@@@@@@@@@@@@@@@@@@@@@@@@@@@@@@@@@@@@@@@@@@@@@@@@@@@@@@@@@@@@@@@@@@@@@@@@@@@@@@@@@@@@@@@@@@@@@@@@@@@@@@@@@@@@@@@@@@@@@@@@@@@@@@@@@@@@",
"@@@@@@@@@@@@@@@@@@@@@@@@@@@@@@@@@@@@@@@@@@@@@@@@@@@@@@@@@@@@@@@@@@@@@@@@@@@@@@@@@@@@@@@@@@@@@@@@@@@@@@@@@@@@@@@@@@@@@@@@@@@@@@@@@@@@@@@@@@@@@@@@@@@@@@@@@@@@@@@@@@@@@@@@@@@@@@@@@@@@@@@@@@@@@@@@@@@@@@@@@@@@@@@@@@@@@@@@@@@@@@@@@@@@@@@@@@@@@@@@@@@@@@@@@@@@@@@@@@@@@@@@@@@@@@@@@@@@@@@@@@@@@@@@@@@@@@@@@@@@@@@@@@@@@@@@@@@@@@@@",
"@@@@@@@@@@@@@@@@@@@@@@@@@@@@@@@@@@@@@@@@@@@@@@@@@@@@@@@@@@@@@@@@@@@@@@@@@@@@@@@@@@@@@@@@@@@@@@@@@@@@@@@@@@@@@@@@@@@@@@@@@@@@@@@@@@@@@@@@@@@@@@@@@@@@@@@@@@@@@@@@@@@@@@@@@@@@@@@@@@@@@@@@@@@@@@@@@@@@@@@@@@@@@@@@@@@@@@@@@@@@@@@@@@@@@@@@@@@@@@@@@@@@@@@@@@@@@@@@@@@@@@@@@@@@@@@@@@@@@@@@@@@@@@@@@@@@@@@@@@@@@@@@@@@@@@@@@@@@@@@@",
"@@@@@@@@@@@@@@@@@@@@@@@@@@@@@@@@@@@@@@@@@@@@@@@@@@@@@@@@@@@@@@@@@@@@@@@@@@@@@@@@@@@@@@@@@@@@@@@@@@@@@@@@@@@@@@@@@@@@@@@@@@@@@@@@@@@@@@@@@@@@@@@@@@@@@@@@@@@@@@@@@@@@@@@@@@@@@@@@@@@@@@@@@@@@@@@@@@@@@@@@@@@@@@@@@@@@@@@@@@@@@@@@@@@@@@@@@@@@@@@@@@@@@@@@@@@@@@@@@@@@@@@@@@@@@@@@@@@@@@@@@@@@@@@@@@@@@@@@@@@@@@@@@@@@@@@@@@@@@@@@",
"@@@@@@@@@@@@@@@@@@@@@@@@@@@@@@@@@@@@@@@@@@@@@@@@@@@@@@@@@@@@@@@@@@@@@@@@@@@@@@@@@@@@@@@@@@@@@@@@@@@@@@@@@@@@@@@@@@@@@@@@@@@@@@@@@@@@@@@@@@@@@@@@@@@@@@@@@@@@@@@@@@@@@@@@@@@@@@@@@@@@@@@@@@@@@@@@@@@@@@@@@@@@@@@@@@@@@@@@@@@@@@@@@@@@@@@@@@@@@@@@@@@@@@@@@@@@@@@@@@@@@@@@@@@@@@@@@@@@@@@@@@@@@@@@@@@@@@@@@@@@@@@@@@@@@@@@@@@@@@@@",
"@@@@@@@@@@@@@@@@@@@@@@@@@@@@@@@@@@@@@@@@@@@@@@@@@@@@@@@@@@@@@@@@@@@@@@@@@@@@@@@@@@@@@@@@@@@@@@@@@@@@@@@@@@@@@@@@@@@@@@@@@@@@@@@@@@@@@@@@@@@@@@@@@@@@@@@@@@@@@@@@@@@@@@@@@@@@@@@@@@@@@@@@@@@@@@@@@@@@@@@@@@@@@@@@@@@@@@@@@@@@@@@@@@@@@@@@@@@@@@@@@@@@@@@@@@@@@@@@@@@@@@@@@@@@@@@@@@@@@@@@@@@@@@@@@@@@@@@@@@@@@@@@@@@@@@@@@@@@@@@@",
"@@@@@@@@@@@@@@@@@@@@@@@@@@@@@@@@@@@@@@@@@@@@@@@@@@@@@@@@@@@@@@@@@@@@@@@@@@@@@@@@@@@@@@@@@@@@@@@@@@@@@@@@@@@@@@@@@@@@@@@@@@@@@@@@@@@@@@@@@@@@@@@@@@@@@@@@@@@@@@@@@@@@@@@@@@@@@@@@@@@@@@@@@@@@@@@@@@@@@@@@@@@@@@@@@@@@@@@@@@@@@@@@@@@@@@@@@@@@@@@@@@@@@@@@@@@@@@@@@@@@@@@@@@@@@@@@@@@@@@@@@@@@@@@@@@@@@@@@@@@@@@@@@@@@@@@@@@@@@@@@",
"@@@@@@@@@@@@@@@@@@@@@@@@@@@@@@@@@@@@@@@@@@@@@@@@@@@@@@@@@@@@@@@@@@@@@@@@@@@@@@@@@@@@@@@@@@@@@@@@@@@@@@@@@@@@@@@@@@@@@@@@@@@@@@@@@@@@@@@@@@@@@@@@@@@@@@@@@@@@@@@@@@@@@@@@@@@@@@@@@@@@@@@@@@@@@@@@@@@@@@@@@@@@@@@@@@@@@@@@@@@@@@@@@@@@@@@@@@@@@@@@@@@@@@@@@@@@@@@@@@@@@@@@@@@@@@@@@@@@@@@@@@@@@@@@@@@@@@@@@@@@@@@@@@@@@@@@@@@@@@@@",
"@@@@@@@@@@@@@@@@@@@@@@@@@@@@@@@@@@@@@@@@@@@@@@@@@@@@@@@@@@@@@@@@@@@@@@@@@@@@@@@@@@@@@@@@@@@@@@@@@@@@@@@@@@@@@@@@@@@@@@@@@@@@@@@@@@@@@@@@@@@@@@@@@@@@@@@@@@@@@@@@@@@@@@@@@@@@@@@@@@@@@@@@@@@@@@@@@@@@@@@@@@@@@@@@@@@@@@@@@@@@@@@@@@@@@@@@@@@@@@@@@@@@@@@@@@@@@@@@@@@@@@@@@@@@@@@@@@@@@@@@@@@@@@@@@@@@@@@@@@@@@@@@@@@@@@@@@@@@@@@@",
"@@@@@@@@@@@@@@@@@@@@@@@@@@@@@@@@@@@@@@@@@@@@@@@@@@@@@@@@@@@@@@@@@@@@@@@@@@@@@@@@@@@@@@@@@@@@@@@@@@@@@@@@@@@@@@@@@@@@@@@@@@@@@@@@@@@@@@@@@@@@@@@@@@@@@@@@@@@@@@@@@@@@@@@@@@@@@@@@@@@@@@@@@@@@@@@@@@@@@@@@@@@@@@@@@@@@@@@@@@@@@@@@@@@@@@@@@@@@@@@@@@@@@@@@@@@@@@@@@@@@@@@@@@@@@@@@@@@@@@@@@@@@@@@@@@@@@@@@@@@@@@@@@@@@@@@@@@@@@@@@",
"@@@@@@@@@@@@@@@@@@@@@@@@@@@@@@@@@@@@@@@@@@@@@@@@@@@@@@@@@@@@@@@@@@@@@@@@@@@@@@@@@@@@@@@@@@@@@@@@@@@@@@@@@@@@@@@@@@@@@@@@@@@@@@@@@@@@@@@@@@@@@@@@@@@@@@@@@@@@@@@@@@@@@@@@@@@@@@@@@@@@@@@@@@@@@@@@@@@@@@@@@@@@@@@@@@@@@@@@@@@@@@@@@@@@@@@@@@@@@@@@@@@@@@@@@@@@@@@@@@@@@@@@@@@@@@@@@@@@@@@@@@@@@@@@@@@@@@@@@@@@@@@@@@@@@@@@@@@@@@@@",
"@@@@@@@@@@@@@@@@@@@@@@@@@@@@@@@@@@@@@@@@@@@@@@@@@@@@@@@@@@@@@@@@@@@@@@@@@@@@@@@@@@@@@@@@@@@@@@@@@@@@@@@@@@@@@@@@@@@@@@@@@@@@@@@@@@@@@@@@@@@@@@@@@@@@@@@@@@@@@@@@@@@@@@@@@@@@@@@@@@@@@@@@@@@@@@@@@@@@@@@@@@@@@@@@@@@@@@@@@@@@@@@@@@@@@@@@@@@@@@@@@@@@@@@@@@@@@@@@@@@@@@@@@@@@@@@@@@@@@@@@@@@@@@@@@@@@@@@@@@@@@@@@@@@@@@@@@@@@@@@@",
"@@@@@@@@@@@@@@@@@@@@@@@@@@@@@@@@@@@@@@@@@@@@@@@@@@@@@@@@@@@@@@@@@@@@@@@@@@@@@@@@@@@@@@@@@@@@@@@@@@@@@@@@@@@@@@@@@@@@@@@@@@@@@@@@@@@@@@@@@@@@@@@@@@@@@@@@@@@@@@@@@@@@@@@@@@@@@@@@@@@@@@@@@@@@@@@@@@@@@@@@@@@@@@@@@@@@@@@@@@@@@@@@@@@@@@@@@@@@@@@@@@@@@@@@@@@@@@@@@@@@@@@@@@@@@@@@@@@@@@@@@@@@@@@@@@@@@@@@@@@@@@@@@@@@@@@@@@@@@@@@",
"@@@@@@@@@@@@@@@@@@@@@@@@@@@@@@@@@@@@@@@@@@@@@@@@@@@@@@@@@@@@@@@@@@@@@@@@@@@@@@@@@@@@@@@@@@@@@@@@@@@@@@@@@@@@@@@@@@@@@@@@@@@@@@@@@@@@@@@@@@@@@@@@@@@@@@@@@@@@@@@@@@@@@@@@@@@@@@@@@@@@@@@@@@@@@@@@@@@@@@@@@@@@@@@@@@@@@@@@@@@@@@@@@@@@@@@@@@@@@@@@@@@@@@@@@@@@@@@@@@@@@@@@@@@@@@@@@@@@@@@@@@@@@@@@@@@@@@@@@@@@@@@@@@@@@@@@@@@@@@@@",
"@@@@@@@@@@@@@@@@@@@@@@@@@@@@@@@@@@@@@@@@@@@@@@@@@@@@@@@@@@@@@@@@@@@@@@@@@@@@@@@@@@@@@@@@@@@@@@@@@@@@@@@@@@@@@@@@@@@@@@@@@@@@@@@@@@@@@@@@@@@@@@@@@@@@@@@@@@@@@@@@@@@@@@@@@@@@@@@@@@@@@@@@@@@@@@@@@@@@@@@@@@@@@@@@@@@@@@@@@@@@@@@@@@@@@@@@@@@@@@@@@@@@@@@@@@@@@@@@@@@@@@@@@@@@@@@@@@@@@@@@@@@@@@@@@@@@@@@@@@@@@@@@@@@@@@@@@@@@@@@@",
"@@@@@@@@@@@@@@@@@@@@@@@@@@@@@@@@@@@@@@@@@@@@@@@@@@@@@@@@@@@@@@@@@@@@@@@@@@@@@@@@@@@@@@@@@@@@@@@@@@@@@@@@@@@@@@@@@@@@@@@@@@@@@@@@@@@@@@@@@@@@@@@@@@@@@@@@@@@@@@@@@@@@@@@@@@@@@@@@@@@@@@@@@@@@@@@@@@@@@@@@@@@@@@@@@@@@@@@@@@@@@@@@@@@@@@@@@@@@@@@@@@@@@@@@@@@@@@@@@@@@@@@@@@@@@@@@@@@@@@@@@@@@@@@@@@@@@@@@@@@@@@@@@@@@@@@@@@@@@@@@",
"@@@@@@@@@@@@@@@@@@@@@@@@@@@@@@@@@@@@@@@@@@@@@@@@@@@@@@@@@@@@@@@@@@@@@@@@@@@@@@@@@@@@@@@@@@@@@@@@@@@@@@@@@@@@@@@@@@@@@@@@@@@@@@@@@@@@@@@@@@@@@@@@@@@@@@@@@@@@@@@@@@@@@@@@@@@@@@@@@@@@@@@@@@@@@@@@@@@@@@@@@@@@@@@@@@@@@@@@@@@@@@@@@@@@@@@@@@@@@@@@@@@@@@@@@@@@@@@@@@@@@@@@@@@@@@@@@@@@@@@@@@@@@@@@@@@@@@@@@@@@@@@@@@@@@@@@@@@@@@@@",
"@@@@@@@@@@@@@@@@@@@@@@@@@@@@@@@@@@@@@@@@@@@@@@@@@@@@@@@@@@@@@@@@@@@@@@@@@@@@@@@@@@@@@@@@@@@@@@@@@@@@@@@@@@@@@@@@@@@@@@@@@@@@@@@@@@@@@@@@@@@@@@@@@@@@@@@@@@@@@@@@@@@@@@@@@@@@@@@@@@@@@@@@@@@@@@@@@@@@@@@@@@@@@@@@@@@@@@@@@@@@@@@@@@@@@@@@@@@@@@@@@@@@@@@@@@@@@@@@@@@@@@@@@@@@@@@@@@@@@@@@@@@@@@@@@@@@@@@@@@@@@@@@@@@@@@@@@@@@@@@@",
"@@@@@@@@@@@@@@@@@@@@@@@@@@@@@@@@@@@@@@@@@@@@@@@@@@@@@@@@@@@@@@@@@@@@@@@@@@@@@@@@@@@@@@@@@@@@@@@@@@@@@@@@@@@@@@@@@@@@@@@@@@@@@@@@@@@@@@@@@@@@@@@@@@@@@@@@@@@@@@@@@@@@@@@@@@@@@@@@@@@@@@@@@@@@@@@@@@@@@@@@@@@@@@@@@@@@@@@@@@@@@@@@@@@@@@@@@@@@@@@@@@@@@@@@@@@@@@@@@@@@@@@@@@@@@@@@@@@@@@@@@@@@@@@@@@@@@@@@@@@@@@@@@@@@@@@@@@@@@@@@",
"@@@@@@@@@@@@@@@@@@@@@@@@@@@@@@@@@@@@@@@@@@@@@@@@@@@@@@@@@@@@@@@@@@@@@@@@@@@@@@@@@@@@@@@@@@@@@@@@@@@@@@@@@@@@@@@@@@@@@@@@@@@@@@@@@@@@@@@@@@@@@@@@@@@@@@@@@@@@@@@@@@@@@@@@@@@@@@@@@@@@@@@@@@@@@@@@@@@@@@@@@@@@@@@@@@@@@@@@@@@@@@@@@@@@@@@@@@@@@@@@@@@@@@@@@@@@@@@@@@@@@@@@@@@@@@@@@@@@@@@@@@@@@@@@@@@@@@@@@@@@@@@@@@@@@@@@@@@@@@@@",
"@@@@@@@@@@@@@@@@@@@@@@@@@@@@@@@@@@@@@@@@@@@@@@@@@@@@@@@@@@@@@@@@@@@@@@@@@@@@@@@@@@@@@@@@@@@@@@@@@@@@@@@@@@@@@@@@@@@@@@@@@@@@@@@@@@@@@@@@@@@@@@@@@@@@@@@@@@@@@@@@@@@@@@@@@@@@@@@@@@@@@@@@@@@@@@@@@@@@@@@@@@@@@@@@@@@@@@@@@@@@@@@@@@@@@@@@@@@@@@@@@@@@@@@@@@@@@@@@@@@@@@@@@@@@@@@@@@@@@@@@@@@@@@@@@@@@@@@@@@@@@@@@@@@@@@@@@@@@@@@@",
"@@@@@@@@@@@@@@@@@@@@@@@@@@@@@@@@@@@@@@@@@@@@@@@@@@@@@@@@@@@@@@@@@@@@@@@@@@@@@@@@@@@@@@@@@@@@@@@@@@@@@@@@@@@@@@@@@@@@@@@@@@@@@@@@@@@@@@@@@@@@@@@@@@@@@@@@@@@@@@@@@@@@@@@@@@@@@@@@@@@@@@@@@@@@@@@@@@@@@@@@@@@@@@@@@@@@@@@@@@@@@@@@@@@@@@@@@@@@@@@@@@@@@@@@@@@@@@@@@@@@@@@@@@@@@@@@@@@@@@@@@@@@@@@@@@@@@@@@@@@@@@@@@@@@@@@@@@@@@@@@",
"@@@@@@@@@@@@@@@@@@@@@@@@@@@@@@@@@@@@@@@@@@@@@@@@@@@@@@@@@@@@@@@@@@@@@@@@@@@@@@@@@@@@@@@@@@@@@@@@@@@@@@@@@@@@@@@@@@@@@@@@@@@@@@@@@@@@@@@@@@@@@@@@@@@@@@@@@@@@@@@@@@@@@@@@@@@@@@@@@@@@@@@@@@@@@@@@@@@@@@@@@@@@@@@@@@@@@@@@@@@@@@@@@@@@@@@@@@@@@@@@@@@@@@@@@@@@@@@@@@@@@@@@@@@@@@@@@@@@@@@@@@@@@@@@@@@@@@@@@@@@@@@@@@@@@@@@@@@@@@@@",
"@@@@@@@@@@@@@@@@@@@@@@@@@@@@@@@@@@@@@@@@@@@@@@@@@@@@@@@@@@@@@@@@@@@@@@@@@@@@@@@@@@@@@@@@@@@@@@@@@@@@@@@@@@@@@@@@@@@@@@@@@@@@@@@@@@@@@@@@@@@@@@@@@@@@@@@@@@@@@@@@@@@@@@@@@@@@@@@@@@@@@@@@@@@@@@@@@@@@@@@@@@@@@@@@@@@@@@@@@@@@@@@@@@@@@@@@@@@@@@@@@@@@@@@@@@@@@@@@@@@@@@@@@@@@@@@@@@@@@@@@@@@@@@@@@@@@@@@@@@@@@@@@@@@@@@@@@@@@@@@@",
"@@@@@@@@@@@@@@@@@@@@@@@@@@@@@@@@@@@@@@@@@@@@@@@@@@@@@@@@@@@@@@@@@@@@@@@@@@@@@@@@@@@@@@@@@@@@@@@@@@@@@@@@@@@@@@@@@@@@@@@@@@@@@@@@@@@@@@@@@@@@@@@@@@@@@@@@@@@@@@@@@@@@@@@@@@@@@@@@@@@@@@@@@@@@@@@@@@@@@@@@@@@@@@@@@@@@@@@@@@@@@@@@@@@@@@@@@@@@@@@@@@@@@@@@@@@@@@@@@@@@@@@@@@@@@@@@@@@@@@@@@@@@@@@@@@@@@@@@@@@@@@@@@@@@@@@@@@@@@@@@",
"@@@@@@@@@@@@@@@@@@@@@@@@@@@@@@@@@@@@@@@@@@@@@@@@@@@@@@@@@@@@@@@@@@@@@@@@@@@@@@@@@@@@@@@@@@@@@@@@@@@@@@@@@@@@@@@@@@@@@@@@@@@@@@@@@@@@@@@@@@@@@@@@@@@@@@@@@@@@@@@@@@@@@@@@@@@@@@@@@@@@@@@@@@@@@@@@@@@@@@@@@@@@@@@@@@@@@@@@@@@@@@@@@@@@@@@@@@@@@@@@@@@@@@@@@@@@@@@@@@@@@@@@@@@@@@@@@@@@@@@@@@@@@@@@@@@@@@@@@@@@@@@@@@@@@@@@@@@@@@@@",
"@@@@@@@@@@@@@@@@@@@@@@@@@@@@@@@@@@@@@@@@@@@@@@@@@@@@@@@@@@@@@@@@@@@@@@@@@@@@@@@@@@@@@@@@@@@@@@@@@@@@@@@@@@@@@@@@@@@@@@@@@@@@@@@@@@@@@@@@@@@@@@@@@@@@@@@@@@@@@@@@@@@@@@@@@@@@@@@@@@@@@@@@@@@@@@@@@@@@@@@@@@@@@@@@@@@@@@@@@@@@@@@@@@@@@@@@@@@@@@@@@@@@@@@@@@@@@@@@@@@@@@@@@@@@@@@@@@@@@@@@@@@@@@@@@@@@@@@@@@@@@@@@@@@@@@@@@@@@@@@@",
"@@@@@@@@@@@@@@@@@@@@@@@@@@@@@@@@@@@@@@@@@@@@@@@@@@@@@@@@@@@@@@@@@@@@@@@@@@@@@@@@@@@@@@@@@@@@@@@@@@@@@@@@@@@@@@@@@@@@@@@@@@@@@@@@@@@@@@@@@@@@@@@@@@@@@@@@@@@@@@@@@@@@@@@@@@@@@@@@@@@@@@@@@@@@@@@@@@@@@@@@@@@@@@@@@@@@@@@@@@@@@@@@@@@@@@@@@@@@@@@@@@@@@@@@@@@@@@@@@@@@@@@@@@@@@@@@@@@@@@@@@@@@@@@@@@@@@@@@@@@@@@@@@@@@@@@@@@@@@@@@",
"@@@@@@@@@@@@@@@@@@@@@@@@@@@@@@@@@@@@@@@@@@@@@@@@@@@@@@@@@@@@@@@@@@@@@@@@@@@@@@@@@@@@@@@@@@@@@@@@@@@@@@@@@@@@@@@@@@@@@@@@@@@@@@@@@@@@@@@@@@@@@@@@@@@@@@@@@@@@@@@@@@@@@@@@@@@@@@@@@@@@@@@@@@@@@@@@@@@@@@@@@@@@@@@@@@@@@@@@@@@@@@@@@@@@@@@@@@@@@@@@@@@@@@@@@@@@@@@@@@@@@@@@@@@@@@@@@@@@@@@@@@@@@@@@@@@@@@@@@@@@@@@@@@@@@@@@@@@@@@@@",
"@@@@@@@@@@@@@@@@@@@@@@@@@@@@@@@@@@@@@@@@@@@@@@@@@@@@@@@@@@@@@@@@@@@@@@@@@@@@@@@@@@@@@@@@@@@@@@@@@@@@@@@@@@@@@@@@@@@@@@@@@@@@@@@@@@@@@@@@@@@@@@@@@@@@@@@@@@@@@@@@@@@@@@@@@@@@@@@@@@@@@@@@@@@@@@@@@@@@@@@@@@@@@@@@@@@@@@@@@@@@@@@@@@@@@@@@@@@@@@@@@@@@@@@@@@@@@@@@@@@@@@@@@@@@@@@@@@@@@@@@@@@@@@@@@@@@@@@@@@@@@@@@@@@@@@@@@@@@@@@@"
};
