/* XPM */
static char *end_floor3_010[] = {
/* columns rows colors chars-per-pixel */
"320 200 71 1 ",
"  c #000000",
". c #0B0B0B",
"X c gray8",
"o c #1C1C1C",
"O c #00002C",
"+ c #00003C",
"@ c gray14",
"# c #2C2C2C",
"$ c #343434",
"% c #3C3C3C",
"& c #600000",
"* c #402810",
"= c #743804",
"- c #603814",
"; c #004400",
": c #005C00",
"> c #007400",
", c #000050",
"< c #000064",
"1 c #244870",
"2 c #444444",
"3 c #4C4C4C",
"4 c #545454",
"5 c #5C5C5C",
"6 c #646464",
"7 c #6C6C6C",
"8 c #747474",
"9 c #7C7C7C",
"0 c #AC0C0C",
"q c #F80000",
"w c #984C08",
"e c #AC580C",
"r c #C4701C",
"t c #008C00",
"y c #00A400",
"u c #CC8038",
"i c #D09050",
"p c #D89C64",
"a c #DCAC7C",
"s c #040488",
"d c #0C0CAC",
"f c #2C5480",
"g c #346090",
"h c #3C6CA0",
"j c #4C78A8",
"k c #1010C0",
"l c #4040D0",
"z c #7878E0",
"x c #5884B0",
"c c #6C90BC",
"v c #848484",
"b c #8C8C8C",
"n c #939393",
"m c #989898",
"M c #A0A0A0",
"N c #A8A8A8",
"B c #B0B0B0",
"V c #BCBCBC",
"C c #E4C098",
"Z c #ECD0B4",
"A c #80A0C4",
"S c #C4C4C4",
"D c #CCCCCC",
"F c #D4D4D4",
"G c #DADADA",
"H c #ECF4D8",
"J c #D8D8F4",
"K c #E0E0E0",
"L c #E8E8E8",
"P c #F1F1F1",
"I c #FCFCFC",
/* pixels */
"@@@@@@@@@@@@@@@@@@@@@@@@@@@@@@@@@@@@@@@@@@@@@@@@@@@@@@@@@@@@@@@@@@@@@@@@@@@@@@@@@@@@@@@@@@@@@@@@@@@@@@@@@@@@@@@@@@@@@@@@@@@@@@@@@@@@@@@@@@@@@@@@@@@@@@@@@@@@@@@@@@@@@@@@@@@@@@@@@@@@@@@@@@@@@@@@@@@@@@@@@@@@@@@@@@@@@@@@@@@@@@@@@@@@@@@@@@@@@@@@@@@@@@@@@@@@@@@@@@@@@@@@@@@@@@@@@@@@@@@@@@@@@@@@@@@@@@@@@@@@@@@@@@@@@@@@@@@@@@@@",
"@@@@@@@@@@@@@@@@@@@@@@@@@@@@@@@@@@@@@@@@@@@@@@@@@@@@@@@@@@@@@@@@@@@@@@@@@@@@@@@@@@@@@@@@@@@@@@@@@@@@@@@@@@@@@@@@@@@@@@@@@@@@@@@@@@@@@@@@@@@@@@@@@@@@@@@@@@@@@@@@@@@@@@@@@@@@@@@@@@@@@@@@@@@@@@@@@@@@@@@@@@@@@@@@@@@@@@@@@@@@@@@@@@@@@@@@@@@@@@@@@@@@@@@@@@@@@@@@@@@@@@@@@@@@@@@@@@@@@@@@@@@@@@@@@@@@@@@@@@@@@@@@@@@@@@@@@@@@@@@@",
"@@@@@@@@@@@@@@@@@@@@@@@@@@@@@@@@@@@@@@@@@@@@@@@@@@@@@@@@@@@@@@@@@@@@@@@@@@@@@@@@@@@@@@@@@@@@@@@@@@@@@@@@@@@@@@@@@@@@@@@@@@@@@@@@@@@@@@@@@@@@@@@@@@@@@@@@@@@@@@@@@@@@@@@@@@@@@@@@@@@@@@@@@@@@@@@@@@@@@@@@@@@@@@@@@@@@@@@@@@@@@@@@@@@@@@@@@@@@@@@@@@@@@@@@@@@@@@@@@@@@@@@@@@@@@@@@@@@@@@@@@@@@@@@@@@@@@@@@@@@@@@@@@@@@@@@@@@@@@@@@",
"@@@@@@@@@@@@@@@@@@@@@@@@@@@@@@@@@@@@@@@@@@@@@@@@@@@@@@@@@@@@@@@@@@@@@@@@@@@@@@@@@@@@@@@@@@@@@@@@@@@@@@@@@@@@@@@@@@@@@@@@@@@@@@@@@@@@@@@@@@@@@@@@@@@@@@@@@@@@@@@@@@@@@@@@@@@@@@@@@@@@@@@@@@@@@@@@@@@@@@@@@@@@@@@@@@@@@@@@@@@@@@@@@@@@@@@@@@@@@@@@@@@@@@@@@@@@@@@@@@@@@@@@@@@@@@@@@@@@@@@@@@@@@@@@@@@@@@@@@@@@@@@@@@@@@@@@@@@@@@@@",
"@@@@@@@@@@@@@@@@@@@@@@@@@@@@@@@@@@@@@@@@@@@@@@@@@@@@@@@@@@@@@@@@@@@@@@@@@@@@@@@@@@@@@@@@@@@@@@@@@@@@@@@@@@@@@@@@@@@@@@@@@@@@@@@@@@@@@@@@@@@@@@@@@@@@@@@@@@@@@@@@@@@@@@@@@@@@@@@@@@@@@@@@@@@@@@@@@@@@@@@@@@@@@@@@@@@@@@@@@@@@@@@@@@@@@@@@@@@@@@@@@@@@@@@@@@@@@@@@@@@@@@@@@@@@@@@@@@@@@@@@@@@@@@@@@@@@@@@@@@@@@@@@@@@@@@@@@@@@@@@@",
"@@@@@@@@@@@@@@@@@@@@@@@@@@@@@@@@@@@@@@@@@@@@@@@@@@@@@@@@@@@@@@@@@@@@@@@@@@@@@@@@@@@@@@@@@@@@@@@@@@@@@@@@@@@@@@@@@@@@@@@@@@@@@@@@@@@@@@@@@@@@@@@@@@@@@@@@@@@@@@@@@@@@@@@@@@@@@@@@@@@@@@@@@@@@@@@@@@@@@@@@@@@@@@@@@@@@@@@@@@@@@@@@@@@@@@@@@@@@@@@@@@@@@@@@@@@@@@@@@@@@@@@@@@@@@@@@@@@@@@@@@@@@@@@@@@@@@@@@@@@@@@@@@@@@@@@@@@@@@@@@",
"@@@@@@@@@@@@@@@@@@@@@@@@@@@@@@@@@@@@@@@@@@@@@@@@@@@@@@@@@@@@@@@@@@@@@@@@@@@@@@@@@@@@@@@@@@@@@@@@@@@@@@@@@@@@@@@@@@@@@@@@@@@@@@@@@@@@@@@@@@@@@@@@@@@@@@@@@@@@@@@@@@@@@@@@@@@@@@@@@@@@@@@@@@@@@@@@@@@@@@@@@@@@@@@@@@@@@@@@@@@@@@@@@@@@@@@@@@@@@@@@@@@@@@@@@@@@@@@@@@@@@@@@@@@@@@@@@@@@@@@@@@@@@@@@@@@@@@@@@@@@@@@@@@@@@@@@@@@@@@@@",
"@@@@@@@@@@@@@@@@@@@@@@@@@@@@@@@@@@@@@@@@@@@@@@@@@@@@@@@@@@@@@@@@@@@@@@@@@@@@@@@@@@@@@@@@@@@@@@@@@@@@@@@@@@@@@@@@@@@@@@@@@@@@@@@@@@@@@@@@@@@@@@@@@@@@@@@@@@@@@@@@@@@@@@@@@@@@@@@@@@@@@@@@@@@@@@@@@@@@@@@@@@@@@@@@@@@@@@@@@@@@@@@@@@@@@@@@@@@@@@@@@@@@@@@@@@@@@@@@@@@@@@@@@@@@@@@@@@@@@@@@@@@@@@@@@@@@@@@@@@@@@@@@@@@@@@@@@@@@@@@@",
"@@@@@@@@@@@@@@@@@@@@@@@@@@@@@@@@@@@@@@@@@@@@@@@@@@@@@@@@@@@@@@@@@@@@@@@@@@@@@@@@@@@@@@@@@@@@@@@@@@@@@@@@@@@@@@@@@@@@@@@@@@@@@@@@@@@@@@@@@@@@@@@@@@@@@@@@@@@@@@@@@@@@@@@@@@@@@@@@@@@@@@@@@@@@@@@@@@@@@@@@@@@@@@@@@@@@@@@@@@@@@@@@@@@@@@@@@@@@@@@@@@@@@@@@@@@@@@@@@@@@@@@@@@@@@@@@@@@@@@@@@@@@@@@@@@@@@@@@@@@@@@@@@@@@@@@@@@@@@@@@",
"@@@@@@@@@@@@@@@@@@@@@@@@@@@@@@@@@@@@@@@@@@@@@@@@@@@@@@@@@@@@@@@@@@@@@@@@@@@@@@@@@@@@@@@@@@@@@@@@@@@@@@@@@@@@@@@@@@@@@@@@@@@@@@@@@@@@@@@@@@@@@@@@@@@@@@@@@@@@@@@@@@@@@@@@@@@@@@@@@@@@@@@@@@@@@@@@@@@@@@@@@@@@@@@@@@@@@@@@@@@@@@@@@@@@@@@@@@@@@@@@@@@@@@@@@@@@@@@@@@@@@@@@@@@@@@@@@@@@@@@@@@@@@@@@@@@@@@@@@@@@@@@@@@@@@@@@@@@@@@@@",
"@@@@@@@@@@@@@@@@@@@@@@@@@@@@@@@@@@@@@@@@@@@@@@@@@@@@@@@@@@@@@@@@@@@@@@@@@@@@@@@@@@@@@@@@@@@@@@@@@@@@@@@@@@@@@@@@@@@@@@@@@@@@@@@@@@@@@@@@@@@@@@@@@@@@@@@@@@@@@@@@@@@@@@@@@@@@@@@@@@@@@@@@@@@@@@@@@@@@@@@@@@@@@@@@@@@@@@@@@@@@@@@@@@@@@@@@@@@@@@@@@@@@@@@@@@@@@@@@@@@@@@@@@@@@@@@@@@@@@@@@@@@@@@@@@@@@@@@@@@@@@@@@@@@@@@@@@@@@@@@@",
"@@@@@@@@@@@@@@@@@@@@@@@@@@@@@@@@@@@@@@@@@@@@@@@@@@@@@@@@@@@@@@@@@@@@@@@@@@@@@@@@@@@@@@@@@@@@@@@@@@@@@@@@@@@@@@@@@@@@@@@@@@@@@@@@@@@@@@@@@@@@@@@@@@@@@@@@@@@@@@@@@@@@@@@@@@@@@@@@@@@@@@@@@@@@@@@@@@@@@@@@@@@@@@@@@@@@@@@@@@@@@@@@@@@@@@@@@@@@@@@@@@@@@@@@@@@@@@@@@@@@@@@@@@@@@@@@@@@@@@@@@@@@@@@@@@@@@@@@@@@@@@@@@@@@@@@@@@@@@@@@",
"@@@@@@@@@@@@@@@@@@@@@@@@@@@@@@@@@@@@@@@@@@@@@@@@@@@@@@@@@@@@@@@@@@@@@@@@@@@@@@@@@@@@@@@@@@@@@@@@@@@@@@@@@@@@@@@@@@@@@@@@@@@@@@@@@@@@@@@@@@@@@@@@@@@@@@@@@@@@@@@@@@@@@@@@@@@@@@@@@@@@@@@@@@@@@@@@@@@@@@@@@@@@@@@@@@@@@@@@@@@@@@@@@@@@@@@@@@@@@@@@@@@@@@@@@@@@@@@@@@@@@@@@@@@@@@@@@@@@@@@@@@@@@@@@@@@@@@@@@@@@@@@@@@@@@@@@@@@@@@@@",
"@@@@@@@@@@@@@@@@@@@@@@@@@@@@@@@@@@@@@@@@@@@@@@@@@@@@@@@@@@@@@@@@@@@@@@@@@@@@@@@@@@@@@@@@@@@@@@@@@@@@@@@@@@@@@@@@@@@@@@@@@@@@@@@@@@@@@@@@@@@@@@@@@@@@@@@@@@@@@@@@@@@@@@@@@@@@@@@@@@@@@@@@@@@@@@@@@@@@@@@@@@@@@@@@@@@@@@@@@@@@@@@@@@@@@@@@@@@@@@@@@@@@@@@@@@@@@@@@@@@@@@@@@@@@@@@@@@@@@@@@@@@@@@@@@@@@@@@@@@@@@@@@@@@@@@@@@@@@@@@@",
"@@@@@@@@@@@@@@@@@@@@@@@@@@@@@@@@@@@@@@@@@@@@@@@@@@@@@@@@@@@@@@@@@@@@@@@@@@@@@@@@@@@@@@@@@@@@@@@@@@@@@@@@@@@@@@@@@@@@@@@@@@@@@@@@@@@@@@@@@@@@@@@@@@@@@@@@@@@@@@@@@@@@@@@@@@@@@@@@@@@@@@@@@@@@@@@@@@@@@@@@@@@@@@@@@@@@@@@@@@@@@@@@@@@@@@@@@@@@@@@@@@@@@@@@@@@@@@@@@@@@@@@@@@@@@@@@@@@@@@@@@@@@@@@@@@@@@@@@@@@@@@@@@@@@@@@@@@@@@@@@",
"@@@@@@@@@@@@@@@@@@@@@@@@@@@@@@@@@@@@@@@@@@@@@@@@@@@@@@@@@@@@@@@@@@@@@@@@@@@@@@@@@@@@@@@@@@@@@@@@@@@@@@@@@@@@@@@@@@@@@@@@@@@@@@@@@@@@@@@@@@@@@@@@@@@@@@@@@@@@@@@@@@@@@@@@@@@@@@@@@@@@@@@@@@@@@@@@@@@@@@@@@@@@@@@@@@@@@@@@@@@@@@@@@@@@@@@@@@@@@@@@@@@@@@@@@@@@@@@@@@@@@@@@@@@@@@@@@@@@@@@@@@@@@@@@@@@@@@@@@@@@@@@@@@@@@@@@@@@@@@@@",
"@@@@@@@@@@@@@@@@@@@@@@@@@@@@@@@@@@@@@@@@@@@@@@@@@@@@@@@@@@@@@@@@@@@@@@@@@@@@@@@@@@@@@@@@@@@@@@@@@@@@@@@@@@@@@@@@@@@@@@@@@@@@@@@@@@@@@@@@@@@@@@@@@@@@@@@@@@@@@@@@@@@@@@@@@@@@@@@@@@@@@@@@@@@@@@@@@@@@@@@@@@@@@@@@@@@@@@@@@@@@@@@@@@@@@@@@@@@@@@@@@@@@@@@@@@@@@@@@@@@@@@@@@@@@@@@@@@@@@@@@@@@@@@@@@@@@@@@@@@@@@@@@@@@@@@@@@@@@@@@@",
"@@@@@@@@@@@@@@@@@@@@@@@@@@@@@@@@@@@@@@@@@@@@@@@@@@@@@@@@@@@@@@@@@@@@@@@@@@@@@@@@@@@@@@@@@@@@@@@@@@@@@@@@@@@@@@@@@@@@@@@@@@@@@@@@@@@@@@@@@@@@@@@@@@@@@@@@@@@@@@@@@@@@@@@@@@@@@@@@@@@@@@@@@@@@@@@@@@@@@@@@@@@@@@@@@@@@@@@@@@@@@@@@@@@@@@@@@@@@@@@@@@@@@@@@@@@@@@@@@@@@@@@@@@@@@@@@@@@@@@@@@@@@@@@@@@@@@@@@@@@@@@@@@@@@@@@@@@@@@@@@",
"@@@@@@@@@@@@@@@@@@@@@@@@@@@@@@@@@@@@@@@@@@@@@@@@@@@@@@@@@@@@@@@@@@@@@@@@@@@@@@@@@@@@@@@@@@@@@@@@@@@@@@@@@@@@@@@@@@@@@@@@@@@@@@@@@@@@@@@@@@@@@@@@@@@@@@@@@@@@@@@@@@@@@@@@@@@@@@@@@@@@@@@@@@@@@@@@@@@@@@@@@@@@@@@@@@@@@@@@@@@@@@@@@@@@@@@@@@@@@@@@@@@@@@@@@@@@@@@@@@@@@@@@@@@@@@@@@@@@@@@@@@@@@@@@@@@@@@@@@@@@@@@@@@@@@@@@@@@@@@@@",
"@@@@@@@@@@@@@@@@@@@@@@@@@@@@@@@@@@@@@@@@@@@@@@@@@@@@@@@@@@@@@@@@@@@@@@@@@@@@@@@@@@@@@@@@@@@@@@@@@@@@@@@@@@@@@@@@@@@@@@@@@@@@@@@@@@@@@@@@@@@@@@@@@@@@@@@@@@@@@@@@@@@@@@@@@@@@@@@@@@@@@@@@@@@@@@@@@@@@@@@@@@@@@@@@@@@@@@@@@@@@@@@@@@@@@@@@@@@@@@@@@@@@@@@@@@@@@@@@@@@@@@@@@@@@@@@@@@@@@@@@@@@@@@@@@@@@@@@@@@@@@@@@@@@@@@@@@@@@@@@@",
"@@@@@@@@@@@@@@@@@@@@@@@@@@@@@@@@@@@@@@@@@@@@@@@@@@@@@@@@@@@@@@@@@@@@@@@@@@@@@@@@@@@@@@@@@@@@@@@@@@@@@@@@@@@@@@@@@@@@@@@@@@@@@@@@@@@@@@@@@@@@@@@@@@@@@@@@@@@@@@@@@@@@@@@@@@@@@@@@@@@@@@@@@@@@@@@@@@@@@@@@@@@@@@@@@@@@@@@@@@@@@@@@@@@@@@@@@@@@@@@@@@@@@@@@@@@@@@@@@@@@@@@@@@@@@@@@@@@@@@@@@@@@@@@@@@@@@@@@@@@@@@@@@@@@@@@@@@@@@@@@",
"@@@@@@@@@@@@@@@@@@@@@@@@@@@@@@@@@@@@@@@@@@@@@@@@@@@@@@@@@@@@@@@@@@@@@@@@@@@@@@@@@@@@@@@@@@@@@@@@@@@@@@@@@@@@@@@@@@@@@@@@@@@@@@@@@@@@@@@@@@@@@@@@@@@@@@@@@@@@@@@@@@@@@@@@@@@@@@@@@@@@@@@@@@@@@@@@@@@@@@@@@@@@@@@@@@@@@@@@@@@@@@@@@@@@@@@@@@@@@@@@@@@@@@@@@@@@@@@@@@@@@@@@@@@@@@@@@@@@@@@@@@@@@@@@@@@@@@@@@@@@@@@@@@@@@@@@@@@@@@@@",
"@@@@@@@@@@@@@@@@@@@@@@@@@@@@@@@@@@@@@@@@@@@@@@@@@@@@@@@@@@@@@@@@@@@@@@@@@@@@@@@@@@@@@@@@@@@@@@@@@@@@@@@@@@@@@@@@@@@@@@@@@@@@@@@@@@@@@@@@@@@@@@@@@@@@@@@@@@@@@@@@@@@@@@@@@@@@@@@@@@@@@@@@@@@@@@@@@@@@@@@@@@@@@@@@@@@@@@@@@@@@@@@@@@@@@@@@@@@@@@@@@@@@@@@@@@@@@@@@@@@@@@@@@@@@@@@@@@@@@@@@@@@@@@@@@@@@@@@@@@@@@@@@@@@@@@@@@@@@@@@@",
"@@@@@@@@@@@@@@@@@@@@@@@@@@@@@@@@@@@@@@@@@@@@@@@@@@@@@@@@@@@@@@@@@@@@@@@@@@@@@@@@@@@@@@@@@@@@@@@@@@@@@@@@@@@@@@@@@@@@@@@@@@@@@@@@@@@@@@@@@@@@@@@@@@@@@@@@@@@@@@@@@@@@@@@@@@@@@@@@@@@@@@@@@@@@@@@@@@@@@@@@@@@@@@@@@@@@@@@@@@@@@@@@@@@@@@@@@@@@@@@@@@@@@@@@@@@@@@@@@@@@@@@@@@@@@@@@@@@@@@@@@@@@@@@@@@@@@@@@@@@@@@@@@@@@@@@@@@@@@@@@",
"@@@@@@@@@@@@@@@@@@@@@@@@@@@@@@@@@@@@@@@@@@@@@@@@@@@@@@@@@@@@@@@@@@@@@@@@@@@@@@@@@@@@@@@@@@@@@@@@@@@@@@@@@@@@@@@@@@@@@@@@@@@@@@@@@@@@@@@@@@@@@@@@@@@@@@@@@@@@@@@@@@@@@@@@@@@@@@@@@@@@@@@@@@@@@@@@@@@@@@@@@@@@@@@@@@@@@@@@@@@@@@@@@@@@@@@@@@@@@@@@@@@@@@@@@@@@@@@@@@@@@@@@@@@@@@@@@@@@@@@@@@@@@@@@@@@@@@@@@@@@@@@@@@@@@@@@@@@@@@@@",
"@@@@@@@@@@@@@@@@@@@@@@@@@@@@@@@@@@@@@@@@@@@@@@@@@@@@@@@@@@@@@@@@@@@@@@@@@@@@@@@@@@@@@@@@@@@@@@@@@@@@@@@@@@@@@@@@@@@@@@@@@@@@@@@@@@@@@@@@@@@@@@@@@@@@@@@@@@@@@@@@@@@@@@@@@@@@@@@@@@@@@@@@@@@@@@@@@@@@@@@@@@@@@@@@@@@@@@@@@@@@@@@@@@@@@@@@@@@@@@@@@@@@@@@@@@@@@@@@@@@@@@@@@@@@@@@@@@@@@@@@@@@@@@@@@@@@@@@@@@@@@@@@@@@@@@@@@@@@@@@@",
"@@@@@@@@@@@@@@@@@@@@@@@@@@@@@@@@@@@@@@@@@@@@@@@@@@@@@@@@@@@@@@@@@@@@@@@@@@@@@@@@@@@@@@@@@@@@@@@@@@@@@@@@@@@@@@@@@@@@@@@@@@@@@@@@@@@@@@@@@@@@@@@@@@@@@@@@@@@@@@@@@@@@@@@@@@@@@@@@@@@@@@@@@@@@@@@@@@@@@@@@@@@@@@@@@@@@@@@@@@@@@@@@@@@@@@@@@@@@@@@@@@@@@@@@@@@@@@@@@@@@@@@@@@@@@@@@@@@@@@@@@@@@@@@@@@@@@@@@@@@@@@@@@@@@@@@@@@@@@@@@",
"@@@@@@@@@@@@@@@@@@@@@@@@@@@@@@@@@@@@@@@@@@@@@@@@@@@@@@@@@@@@@@@@@@@@@@@@@@@@@@@@@@@@@@@@@@@@@@@@@@@@@@@@@@@@@@@@@@@@@@@@@@@@@@@@@@@@@@@@@@@@@@@@@@@@@@@@@@@@@@@@@@@@@@@@@@@@@@@@@@@@@@@@@@@@@@@@@@@@@@@@@@@@@@@@@@@@@@@@@@@@@@@@@@@@@@@@@@@@@@@@@@@@@@@@@@@@@@@@@@@@@@@@@@@@@@@@@@@@@@@@@@@@@@@@@@@@@@@@@@@@@@@@@@@@@@@@@@@@@@@@",
"@@@@@@@@@@@@@@@@@@@@@@@@@@@@@@@@@@@@@@@@@@@@@@@@@@@@@@@@@@@@@@@@@@@@@@@@@@@@@@@@@@@@@@@@@@@@@@@@@@@@@@@@@@@@@@@@@@@@@@@@@@@@@@@@@@@@@@@@@@@@@@@@@@@@@@@@@@@@@@@@@@@@@@@@@@@@@@@@@@@@@@@@@@@@@@@@@@@@@@@@@@@@@@@@@@@@@@@@@@@@@@@@@@@@@@@@@@@@@@@@@@@@@@@@@@@@@@@@@@@@@@@@@@@@@@@@@@@@@@@@@@@@@@@@@@@@@@@@@@@@@@@@@@@@@@@@@@@@@@@@",
"@@@@@@@@@@@@@@@@@@@@@@@@@@@@@@@@@@@@@@@@@@@@@@@@@@@@@@@@@@@@@@@@@@@@@@@@@@@@@@@@@@@@@@@@@@@@@@@@@@@@@@@@@@@@@@@@@@@@@@@@@@@@@@@@@@@@@@@@@@@@@@@@@@@@@@@@@@@@@@@@@@@@@@@@@@@@@@@@@@@@@@@@@@@@@@@@@@@@@@@@@@@@@@@@@@@@@@@@@@@@@@@@@@@@@@@@@@@@@@@@@@@@@@@@@@@@@@@@@@@@@@@@@@@@@@@@@@@@@@@@@@@@@@@@@@@@@@@@@@@@@@@@@@@@@@@@@@@@@@@@",
"@@@@@@@@@@@@@@@@@@@@@@@@@@@@@@@@@@@@@@@@@@@@@@@@@@@@@@@@@@@@@@@@@@@@@@@@@@@@@@@@@@@@@@@@@@@@@@@@@@@@@@@@@@@@@@@@@@@@@@@@@@@@@@@@@@@@@@@@@@@@@@@@@@@@@@@@@@@@@@@@@@@@@@@@@@@@@@@@@@@@@@@@@@@@@@@@@@@@@@@@@@@@@@@@@@@@@@@@@@@@@@@@@@@@@@@@@@@@@@@@@@@@@@@@@@@@@@@@@@@@@@@@@@@@@@@@@@@@@@@@@@@@@@@@@@@@@@@@@@@@@@@@@@@@@@@@@@@@@@@@",
"@@@@@@@@@@@@@@@@@@@@@@@@@@@@@@@@@@@@@@@@@@@@@@@@@@@@@@@@@@@@@@@@@@@@@@@@@@@@@@@@@@@@@@@@@@@@@@@@@@@@@@@@@@@@@@@@@@@@@@@@@@@@@@@@@@@@@@@@@@@@@@@@@@@@@@@@@@@@@@@@@@@@@@@@@@@@@@@@@@@@@@@@@@@@@@@@@@@@@@@@@@@@@@@@@@@@@@@@@@@@@@@@@@@@@@@@@@@@@@@@@@@@@@@@@@@@@@@@@@@@@@@@@@@@@@@@@@@@@@@@@@@@@@@@@@@@@@@@@@@@@@@@@@@@@@@@@@@@@@@@",
"@@@@@@@@@@@@@@@@@@@@@@@@@@@@@@@@@@@@@@@@@@@@@@@@@@@@@@@@@@@@@@@@@@@@@@@@@@@@@@@@@@@@@@@@@@@@@@@@@@@@@@@@@@@@@@@@@@@@@@@@@@@@@@@@@@@@@@@@@@@@@@@@@@@@@@@@@@@@@@@@@@@@@@@@@@@@@@@@@@@@@@@@@@@@@@@@@@@@@@@@@@@@@@@@@@@@@@@@@@@@@@@@@@@@@@@@@@@@@@@@@@@@@@@@@@@@@@@@@@@@@@@@@@@@@@@@@@@@@@@@@@@@@@@@@@@@@@@@@@@@@@@@@@@@@@@@@@@@@@@@",
"@@@@@@@@@@@@@@@@@@@@@@@@@@@@@@@@@@@@@@@@@@@@@@@@@@@@@@@@@@@@@@@@@@@@@@@@@@@@@@@@@@@@@@@@@@@@@@@@@@@@@@@@@@@@@@@@@@@@@@@@@@@@@@@@@@@@@@@@@@@@@@@@@@@@@@@@@@@@@@@@@@@@@@@@@@@@@@@@@@@@@@@@@@@@@@@@@@@@@@@@@@@@@@@@@@@@@@@@@@@@@@@@@@@@@@@@@@@@@@@@@@@@@@@@@@@@@@@@@@@@@@@@@@@@@@@@@@@@@@@@@@@@@@@@@@@@@@@@@@@@@@@@@@@@@@@@@@@@@@@@",
"@@@@@@@@@@@@@@@@@@@@@@@@@@@@@@@@@@@@@@@@@@@@@@@@@@@@@@@@@@@@@@@@@@@@@@@@@@@@@@@@@@@@@@@@@@@@@@@@@@@@@@@@@@@@@@@@@@@@@@@@@@@@@@@@@@@@@@@@@@@@@@@@@@@@@@@@@@@@@@@@@@@@@@@@@@@@@@@@@@@@@@@@@@@@@@@@@@@@@@@@@@@@@@@@@@@@@@@@@@@@@@@@@@@@@@@@@@@@@@@@@@@@@@@@@@@@@@@@@@@@@@@@@@@@@@@@@@@@@@@@@@@@@@@@@@@@@@@@@@@@@@@@@@@@@@@@@@@@@@@@",
"@@@@@@@@@@@@@@@@@@@@@@@@@@@@@@@@@@@@@@@@@@@@@@@@@@@@@@@@@@@@@@@@@@@@@@@@@@@@@@@@@@@@@@@@@@@@@@@@@@@@@@@@@@@@@@@@@@@@@@@@@@@@@@@@@@@@@@@@@@@@@@@@@@@@@@@@@@@@@@@@@@@@@@@@@@@@@@@@@@@@@@@@@@@@@@@@@@@@@@@@@@@@@@@@@@@@@@@@@@@@@@@@@@@@@@@@@@@@@@@@@@@@@@@@@@@@@@@@@@@@@@@@@@@@@@@@@@@@@@@@@@@@@@@@@@@@@@@@@@@@@@@@@@@@@@@@@@@@@@@@",
"@@@@@@@@@@@@@@@@@@@@@@@@@@@@@@@@@@@@@@@@@@@@@@@@@@@@@@@@@@@@@@@@@@@@@@@@@@@@@@@@@@@@@@@@@@@@@@@@@@@@@@@@@@@@@@@@@@@@@@@@@@@@@@@@@@@@@@@@@@@@@@@@@@@@@@@@@@@@@@@@@@@@@@@@@@@@@@@@@@@@@@@@@@@@@@@@@@@@@@@@@@@@@@@@@@@@@@@@@@@@@@@@@@@@@@@@@@@@@@@@@@@@@@@@@@@@@@@@@@@@@@@@@@@@@@@@@@@@@@@@@@@@@@@@@@@@@@@@@@@@@@@@@@@@@@@@@@@@@@@@",
"                          646456889vbmMNBVSDSVBNMmbv9878bmb5                             O     O                                                            k                                                                                                +                                          O                       ",
"                         %646456889vbmMNBVSDSVBNMmbv9878bmb5%                                                                       O                        ,                                                                                                                                                              ,O  ",
"                         2646456889vbmMNBVSDSVBNMmbv9878bmb52     ,                                                                                                                                               ,                                                                SN      SS                                   ",
"                         3646456889vbmMNBVSDSVBNMmbv9878bmb53                                                                                                                                                                                                                     SNVS    SNNN                                  ",
"     J                   4646456889vbmMNBVSDSVBNMmbv9878bmb54                                      O                    O                                                                   O                                                                       k            SNVS9   SNNV9           ,                      ",
"                         5646456889vbmMNBVSDSVBNMmbv9878bmb55                                                                                                                                                                                                                   SNVS9   SNNV9  ,                                ",
"       O    ,            6646456889vbmMNBVSDSVBNMmbv9878bmb55              J                                                                                                                           O                                                                       SNVS9   SNNV9,                                   ",
"          O              6646456889vbmMNBVSDSVBNMmbv9878bmb55                J                                                                    O                                                        O                         J            +                           SNVS9   SNNV9                                     ",
"                 ,       5646456889vbmmNBVSDSVBNMmbv9878bmb55  k     ,                                                                      O                                   J O                                                 k                          2vvvvvvvvvvvvvvvvS9   SNNV9                                   ,  ",
"                         5646456889vbmMNBVSDSVBNMmbv9878bmb55                                                O                k     ,                                                                                       +                              2vvvv7777777777777777vvvvSNNV9    ,                    ,             ",
"                         5646456889vbmMNBVSDSVBNMmbv9878bmb55          O                           O           O                                                                                                                          ,     O        2vv777777777777777777777777vvV9                                        ",
"                         5476456889vbmMNBVSDSVBNMmbv9878bmb55                                                                                                               O                                                                           2v777777555555555555555577777792                                        ",
"                         5476456889vbmMNBVSDSVBNMmbv9878bmb85                           ,                                                      ,                                O                                                                      2v7775555                5555777v2                      JO              O",
"        O                5476456889vbmMNBVSDSVBNMmbv9878bmb85                                                                                                                            ,                                                             v7755   488888888888888884   5577v                                       ",
"                         5476456889vbmMNBVSDSVBNMmbv9878bmb95       O                                                                               ,                                                                                                  775  488888mMNBVSDSVBNMm88884  577                                       ",
"                         5476456889vbmMNBVSDSVBNMmbv98789bmb5                                                                        O                                         ,                          ,                                     O      75 886889vbmMNBVSDSVBNMmbv97888 57                                   O   ",
"               O        O5476456889vbmMNBVSDSVBNmmbv98788bmb5         ,                       ,             ,                               O                    O                                                                                     5 7645689vbmMNBVSDSVBNMmbv978bm8 5                                       ",
"                     J   5476456889vbmMNBVSDSVBNNmbv98798bmb5                                                            O                          ,         O       ,             O                                                          O        67645689vbmMNBVSDSVBNMmbv978bmb5                                        ",
"                        %5476456889vbmMNBVSDSVBNmmbv98788bmb5%                                            O                        O                         O             ,                                                                           %67645689vbmMNBVSDSVBNMmbv978bmb5%                                       ",
"                        25476456889vbmMNBVSDSVBNMmbv98788bmb52                                     ,                                                      ,                                       +                                            +       267645689vbmMNBVSDSVBNMmbv978bmb52   J                                   ",
"        ,          ,    35476456889vbmMNBVSDSVBNMmbv98788bmb53                                                                                              ,               k   O                            ,                                     O   367645689vbmMNBVSDSVBNMmbv978bmb53                  O     ,              ",
"                        45476456889vbmMNBVSDSVBNMmbv98788bmb54              O                                                                                                                        O                                                 467645689vbmMNBVSDSVBNmmbv978bmb54            O       ,       Ok         ",
"              k         55476456889vbmMNBVSDSVBNMmbv98788bmb55                                   ,            O            J           O O                         ,     O                                               O                             567645689vbmMNBVSDSVBNMmbv978bmb55                                       ",
"         ,              65476456889vbmmNBVSDSVBNMmbv98788bmb55       ,        O                                                                                                                      ,                                                 667645689vbmMNBVSDSVBNMmbv978bmb55                                       ",
"                        65486456889vbmMNBVSDSVBNMmbv98788bmb55                                                O                 ,      ,       O                  O                                                                                  k 667645689vbmMNBVSDSVBNMmbv978bmb55                                       ",
"            O           55476456889vbmMNBVSDSVNNMmbv98788bmb55                                                                                                                                                                                         567645689vbmMNBVSDSVBNMmbv978bmb55                                       ",
"                        55476456889vbmMNBVSDSVBNMmbv98788bmb55                                                            O     O                         O                                                   O          ,                             567645689vbmMNBVSDSVBNMmbv978bmb95                                       ",
"                        55476456889bbmMNBVSDSVBNMmbv98788bmb55                                                                                                                       ,     +               8mDD3                                       567645689vbmMNNVSDSVBNMmbv9789bmb5                                       ",
"                        55476456889vbmMNBVSDSVBNMmbv98788bmb55                                          OO                                                    ,           +                              8NDD%%D3         mDD3              O          567645689vbmMNBVSDSVBNMmbv9788bmb5        O                              ",
"                        55476456889vbmmNBVSDSVBNMmbv98788bmb55                 ,                  ,                                                        O                  +                        8NDNND  %D   ,   NDD%%D3                        567645689vbmMNBVSDSVBNMmbv9788bmb5                                       ",
"      ,                 55476456889vbmMNBVSDSVBNMmbv98788bmb55                          O                               O                                                                            8NDNNDBDM %D     NDNND  %D    O                   567645689vbmMNBVSDSVBNMmbv9788bmb5                                       ",
"                        55476456889vbmmNBVSDSVBNMmbv98788bmb55             k                                                           O   O                             ,                         8NDNNDDDBmDDDm   NDNNDBDm %D      O                 567645689vbmMNBVSDSVBNMmbv9788bmb5               , O                     ",
"     O                  54675456889vbmMNBVSDSVBNMmbv98878bmb55                                                        ,                                                              +           8NDNNDDDB99N995  NDNNDDDBmDFDm                        567645689vbmMNBVSDSVBNMmbv9878bmb5                                       ",
"                        54764567889vbmMNBVSDSVBNMmbv98878bmb55                                                          O                                                   Zi                 8NDNNDDDB99N995  NDNNDDDB99N995                         566456789vbmMNBVSDSVBNMmbv9878bmb5                                       ",
"                        54764568889vbmMNBVSDSVBNMmbv98878bmb85                                                                                                             iiii              8NDNNDDDB99N995  NDNNDDFN99N995                           676456889vbmMNBVSDSVBNMmbv9878bmb5                                       ",
"                       %54764568889vbmMNBVSDSVBNMmbv98878bmb95%                                                                                        ,           2vSSSSSSSSSSSSSSSv2     8NDNNDDDB99N995  NDNNDDDB99N995                            %676456889vbmMNBVSDSVBNMmbv9878bmb5%     ,                       ,        ",
"       ,               254764568889vbmMNBVSDSVBNMmbv988789bmb52             ,                                                             O                   2vSSSSSBBBBNBBBBBBBBBNSSSSmvNDNNDDDB99N995 ,NDNNDDDB99N995O                             2676456889vbmMNBVSDSVBNMmbv9878bmb52           ,                          ",
"           ,           354764568889vbmMNBVSDSVBNMmbv988788bmb53                                                                                           2vSSSSBBBBBNNNNNNNNNNNNNNNBBmmNDNNDDDB99N995  NDNNFDDN99N995  JO                            3676456889vbmMNBVSDSVBNMmbv9878bmb53                                      ",
"                       554764568889vbmMNBVSDSVBNMmbv988788bmb54                                                                         O              2vSSSBBBBNNNNNmmmmmmmmmmmmmmmmmNDNNDDDB99N995  NDNNDDDN9vN995                                  4676456889vbmMNBVSDSVBNMmbv9878bmb54                                     k",
"                       554764568889vbmM852%#%3259mbv988788bmb55                                         l   ,  O                   O                 2vSSBBBNNNNmmmmmmmmmmmmmmmmmmmmNDNNDDDB99N9952 NDNNDDDB99N995                     O              5676456889vbmMNBVSDSVBNmmbv9878bmb55                                      ",
"                       554764568889vb53@$633$@42$35v988788bmb55                                        kzk             ,         ,                 2vSSBBNNNmmmmmmmmmmmmmmmmmmmmmmNDNNDDDB99N99BBBNDNNDDDB99N995      O                              ,6676456889vbmMNBVSDSVBNMmbv9878bmb55                           O          ",
"                       55476456888972%#8@9%b2 93##23888788bmb55                                       lzJzl                                       vSSBBNmmmmmmmmmmmmmmmmmmmmmmmmm%NNDDDB99N99mmmNDNNDDDB99N995                                      , 6676456889vbmMNBVSDSVBNMmbv9878bmb55                                      ",
"                       554764568884$$3#Dv     o%G7o#%68788bmb55                                        kzk                                      2vSBBNmmmmmmmmmmmmmmmmmmmmmmmmmmm%BDDB99N99mmmm%NNDDDB99N995               ,                          5676456889vbmMNBVSDSVBNMmbv9878bmb55               J                      ",
"                      %5547645688423$b7o#26786$X7b223%7788bmb55                      ,                  l                                      5SSBmmmmmmmmmmmmmvvvvvvvvvvvvvvvvv%vmmmN99mmmmmm%NDDB99N995                                            5676456889vbmMNBVSDSVBNMmbv9878bmb55                  O                   ",
"         ,            255476456872X6M@#5VPIIIILB$ 7M@#%788bmb55      ,       SS      NS                                                       5SBmmmmmmvvvvvvvvv999999999v99999vbm%vm99%vvvvvvv%vmmmN99mS5                                            5676456889vbmM852%#%3259mbv9878bmb55       O                              ",
"                      3554764568%% X$ NILGGFFGGIIvo%  3%88bmb55             NNNS    SVNS                                                     5Bmmmvvvvv999999v99999999999v99999vbm6%%%%9v9999999%9m99%vmmB5                 O                         5676456889vb63@$633$@5%$36v9878bmb55                                      ",
"                      45547645643    FIFFLIIGGILPIV   o278bmb55             9VNNS   9SVNS                                                   5m9vvv9v998999999v99999999999v99999vbmb66669v99999996%%%%99vv9m5                                          567645688972$#8@9%b2 93##238878bmb55                                      ",
"                      555476456%$   NIFFIVb8DDb9mnS7   2%8bmb55              9VNNS   9SVNS        ,                    O                    m789999v998999999v99999999999v99999vbmb86668v99999999666699v987m                 ,              ,         5676456885$$3#Dv     o%G7X#%678bmb55                                      ",
"                      5554764542.  3IFFIS  $Pv 74  F%  @28bmb55               9VNNS   9SVNS                                        O        7789999v998999999v99999999999v99999vbmbv6666v99999999866689v9877                         O                56764568323$b7X#26786$.7n223%58bmb95                                      ",
"   k                  55547645%$   BIFIS  3II6%I7  Gm   %4bmb55                9VNNS   9SVNS                                                7789999v998999999777777777777777777777776666777999999966669v9877      ,                      k            567645662X7N@#5VPIIIILB% 6N@#%89bmb5                                      ",
"                      555476452#  XLGIS  4ILGSPI# .LF   %2bmb55                 9VNNS   9Svvvvvvvvvvvvv2                                    7789999v777777777                              777777766669v9877                                          5676456%% .$ NILGGFGGGIIvo%  328bmb5                         ,         ,  ",
"                      55547645#v. 9LIS  5IPGFPI% .FPG4 #9%bmb55                  9VNNSvvvv7777777777777vvvv2                                77897777      .3jNNNNNNNNNNNNNNNNNNNNNNNN8888NN93        6779877      O               O  ,                56764523    FIFFLIIGGIPPIV   o26bmb5                                      ",
"            ,         55547545#mv8NLV. 5IPGKLL2 oDIKDm8nv$bmb55     ,             9Vvv777777777777777777777vv2                              7777   39NNNNNNNNMmmmmmmmmmmMNMmmmNBVDVBN66669mNNNNNNNN88   7777       O                                 %567645%$   BIFFIVb8DDb9mbS7   22bmb5%                                     ",
"                      55467455#vVmbI@  $$@@@NN  vImBG9BN7$bmb55                   297777775555555555555777777v2                          == 7  39NNNNbvbmmmmmMmmmmmmmmmmMNMmmMNBVDVBN96666mmmmmmmmm668893  7           O                         O   25676432.  3IFFIS  #Iv 73  F%  @%vmb52      ,                              ",
"                      55467455@9MmbL@       mM  mN NGvMm6%bmb55                  2v7775555             5555777v2                ,        **  5NNMMmMmbvbmmmmmMmmmmmmmmmmMNMmmMNBVDVBNM6666mmmmmmmmm96669NN5                                          356764%$   BPFIS  3II6%I7  Gm   %7mb53                                     ",
"                      55467455#v74bSNvvvm6  mVoo8@XGS83b53bmb55                  v7755   488888888888884   5577v                           4bmbmMMmMmbvbmmmmmMmmmmmmmmmmMNMmmMNBVDVBNM66669mmmmmmmmm6666mbmb4                               ,        456764%$  XLGIS  4ILGVPI$ .LF   %4mb54             ,                       ",
"                      5546745524bmbnIIIIIB  7IGGSDGKbmnb$6bmb55                  775  488888mMNBVVBNMm88884  577                          8vbmbmMMmMmbvbmmmmmMmmmmmmmmmmMNMmmMNBVDVBNm96666mmmmmmmmm6666mbmbv8              O             O  ,       556764#v. 9LIS. 4IPGFII% .DPG4 #92mb55                             O       ",
"          ,        k  554674555@mM88DLFFIm  8IKLKGIB78Nv@8bmb55                  75 886889vbmMNBVVBNMmbv97888 57                 O       58vbmbmMMmMmbv.mmm*r@mmmmmmmmmmMNMmmMNBVDVBNMm6666mmmmmmmmm96669bmbv85                    O  O              656764@mb7NPV  5IPGKKK2 oDIKDM8nv2mb55                        ,            ",
"                      554674556$893b9LLFGDVBDGFFGLD9v3n348bmb55%     J           5 7645689vbmMNBVVBNMmbv978bm8 5              k          58vbmbmMomMmbvbmmoerovvvvvvvvvvvvvvvvvvvvvvvvvvvvvbmmmmmmmmm6666bmbv85                            O         656764#vVmbI#  $$@#@NN  bImNGvBN7%mb55                                     ",
"                      5546745567@nNNv9GPFGLPKFFGPF9bNN9o88bmb552          ,       67645689vbmMNBVVBNMmbv978bmb5       O       O     *rr  58vbmbm-pevv-ruvv-ro4%%%%%%%%%%%%%%%%%%%%%%%%%%%%48vvvvvvvvvb966bmbv85                                      556764@9MmvP@       nN  mN NK9Mm62mb55       <                             ",
"                      554674556833MM%5bVKPLKKLLGN848Nn$588bmb553                 %67645689vbmMNNVVBNMmbv978bmb5%                    *C-- 58vbvvv*CC4%pap%%**%%$$$$$$$$$$$$$$$$$$$$$$$$$$$$%%%%%%%%%%48vvvvvbv85  O                                   556764#v74bSNvbbm6  mVoo8@XGS83b55mb55      ,s,                            ",
"                     %55467455688#795647mVSSSVBn9624932788bmb854                 267645689vbmMNBVVBNMmbv978bmb52                     ruu 5rv83%%opZ*-apr8bMBVVSVVVVVVVVVVVVVVVVVVVVVVVVVVVVVBMb86$$$%%%%%%38v85          O     O                     556764%4bnbnIPIIIN  7IGGSDGKbmbn$9mb55     <sds<                           ",
"                     2554674556888#5N543%449v626$3v73%8788bmb955                 367645689vbmMNBVVBNMmbv978bmb53                      -**5re68b**erwwe=-*oMNNNMMMMMMMMMMNBNMNBVSGKLPLKGSVBNMMMMBVVVVVVVBMb86 35    k                               , 5567645@mm88DLFFIm  8IKLKGIB79Nv@bmb55      ,s,                            ",
"                     35546745568889%379435548N3828v23888788bmb55                 467645689vbmMNBVVBNMmbv978bmb54                          *=**-reriupweriiMNBNMMMMMMMMMMNBNMNBVSGKLPLKGSVBNMMMMyttttyMmMmbv983                    O                  5567645#893b9LLFGDVBDGFGFLF9v3m34bmb55       <    O                        ",
"                     45546745568889v6%58mvm78Nvn93$79888788bmb55                 567645689vbmMNBVVBNMmbv978bmb55                         38*wiaaiaCaaCCHZioNBNMMMMMMMMMMNBNMMNBVSGKLLLKGSVBNNMMMyttttyMmMmbv983                                      55676456@mNNb9GLFGPPKFGGPD8nNN9o8bmb55                                     ",
"k                    55546745568889vbm6$%467754$$8bv9888788bmb55                 667645689vbmMNBVVBNMmbv978bmb55                        o**wrZaCCCapipCaZZ*Bo-piMMMMMMMMNBNMMNBVSGKLPLKGSVBNMMMMyttttyMMmMmbv983                                     5567645623mM%5bSKLLKKLLGB858Mb$68bmb55                                     ",
" ,                   55546745568889vbmM8889vv9889mbv9888788bmb55                 667645689vbmMNBVVBNMmbv978bmb55           J           3iZuuCCCHppppiCCaaCw=wwoMMMMMMMMMMNBNMNBVSFKLLLKGSVBMbMMMMyttttyMMmMmbv983                                    556764568#795647mBDDVVBb9634v3%78bmb55                 ,         k         ",
"                     55546745568889vbmmN889vv988Mmbv9888788bmb55                 567645689vbmMNBVVBNMmbv978bmb5N                      3 uCiaZCaHHCipZCZZZCw-ioMMMMMMMMMMMNBNMNBVSGKLLLKGSVBbbMMMMMyttttyMMmMmbv983          O                        5676456788#5N543%449v726$2v63%878bmb55           O                         ",
"                     55546745568889vbmMN889vv989Mmbv9888788bmb55                 567645689vbmMNBVVBNMmbv978bmb9M                     35ouuaZZZHHHCCZZCHaauuiau*oMMMMNmMMMNBNMMNBVSGKLPLKGSVBNMMMMMyttttyMMMmMmbv983                                  56764568889%379335549m3828v238878bmb55                                     ",
"               ,     55546745568889vbmMNN89vv98NMmbv9888788bmb55             ,   567645689vbmMNBVVBNMmbv9789bmMb                    35ueCZaCZHHHHZZHHHCCaauururrNMMMmMMMMNBNMMNBVSGGLPLKGSVBNMMMMMMyttttyMMmMMmbv983   J                            %56764568889v6%58mvm78Nbbv3%798878bmb95%               ,    O               ",
"                     55546745568889vbmMNB89vv99NMmbv9888788bmb55                 567645689vbmMNBVVBNMmbv9N88bmbb               O   3o=uouuZIHHHHIHHHHHZCCuuCuuue MMMMMMMMNBNMMNBVSGKLPLKGSVBNMMMMMMMyttttyMMmMMmbv983                 O             256764568889vbm7$%467753$$8bv988789bmb52                                    ",
"      O              55546745568889vbmMNBV9vv9BNMmbv9888788bmb55             ,   567645689vbmMNBVVBNMmbvNMb8bmb5                  35500 aZZCZZZHHHZHHHHZCCuei00oMMMMMMmNMNBNMMNBVSFKLPLKGSVNNMMMMMMMyttttyMMMmMMmbv983                            , 356764568889vbmM8889vv9889mbv988788bmb53 O                           O      ",
"                     55547455678889vbmMNBV9vv9BNMmbv9888788bmb55                 567645689vbmMNBVVBNMmbv9788bmb5                 385  ouaZZZCZZHHv5HHHHHZaaCCiMMMMMMMMMmMNBNMMMNBVSGKLPLKFSVBNMMMmMMMyttttyMMMmMMmbv983   ,                         456764568889vbmMN889vv988Mmbv988788bmb54                                    ",
"                     55467455688889vbmMNBVSvvVBNMmbv9888788bmb55                 567645689vbmMNBVVBNMmbv9788bmb5               O38955 oweZZZZIIIH5IIHHHZZZCppwMMMMMMMMMMMMNBNMmNBVSGKLPLKGSVBNMMMMMMMMyttttyMMMmMMmbv983                            556764568889vbmMN889vv989Mmbv988788bmb55                                    ",
"           ,         55467455688889bbmMNBVSDSVBNMmbv9888788bmb55                 567645689vbmMNBVVBNMmbv9878bmb5               38 v555=urMN5HIII5b5HZIIHZCZuru=MMMMMMMMMMMNBNmNNBVSGKLLLKGSVBNMMMMMMMMyttttyMMMMmMMmbv983                           656764568889vbmMNN89vv98NMmbv988788bmb55                                    ",
"                     55467455688889vbmmNBVSDSVBNMmbv9888788bmb55                 566456789vbmMNBVVBNmmbv9878bmb5          O   38  b50-uapNMb5HII5bm5ZHHZHHr-MMMMMMMMMMMMMMNBNMMMNBVSGKLPLKGSVBNMMMMMMMMyttttyMMMMmmMmbv983             J       O    656764568889vbmMNB89vv99NMmbv988788bmb55                                    ",
"                     55467455688889vbmMNBVSDSVBNMmbv9888788bmb55                 676456889vbmMNBVVBNNmbv9878bmb5             38vvb000=uMiabb5HHHbmMMHHHZaa=MMMMMMMMMMMMmMMNBNMMMNNVSGGLPLKGSVBNMMMMMMMMMyttttyMMMMmMMmbv983                         556764568889vbmMNBV9vv9BNMmbv988788bmb55                                    ",
"       J             55467455688889vbmMNBVSDSVBNMmbv9888788bmb55                %676456889vbmMNBVVBNmmbv9878bmb5%           389vbbb50b*MNMbibvZZbmMMCCCr=wpa*MMMMMMMMMMNMMNBNMMMNBVSGKLPLGFSVBNMMMMMMMMMyttttyMMMMMmMMmbv983                 ,      556764568889vbmMNBV9vv9BNMmbv988788bmb55                   O    ,           ",
"           ,        %55467455688889vbmMNBVSDSVBNMmbv9888788bmb55                2676456889vbmMNBVVBNMmbv9878bmb9vb         389vbbb000bMNMbb=v9vZmMMMpuu*MoeCC*MMMMMMMMMmMMNBNMMMNBVSGKLPLKGSVBNMMMMMMMMMMyttttyMMMMMmMMmbv983                       556764568889vbmmNBVSvvVBNMmbv988788bmb55                         O          ",
"                    255467455688889vbmMNBVS666BNMmbv9888788bmb55  k   ,         3676456889vbmMNBVVBNMmbv9878bmb5$b        389vbbb bv0MNMbbbbv9vumMMMMNBpmNMMoMMMMMMMMMMMMMNBNMMMMNBVSGGLPLKGSVBNMtttttMMMMyttttyMMMMmMMMmbv983      O               556764568889vbmNNBVSDSVB666bv988788bmb55         ,                          ",
"           O        355467455688889vbmMNBV6&&&6NMmbv9888788bmb55                4676456889vbmmNBVVBNMmbv9878bmb54        389vbbbbbvbbMNMbbbv9vbm=MMMMNB*MmMMMMMMMMMMMMMMMMNBNMMMMNBVSGKLPLGGSVBNMyttttyMMMyttttyMMMMMmMMMmbv983                     556764568889vbmmNBVSDSV6qqq6v988788bmb55                                    ",
"                    455467455688889vbmMNBV6&&&6NMmbv9888788bmb55                5676456889vbmMNBVVBNMmbv9878bmb55       389vbbbbbvbbMNMbbbbv9vbm0MMMNBNMMMMMMMMMMMMMMMMMMMMNBNMMMNBVSGGLPLKGSVBNMMtttttMMMMyttttyMMMMMmMMMmbv983                    556764568889vbmMNBVSDSV6qqq6v988788bmb55                                    ",
"                    555467455688889vbmMNBV66666NMmbv9888788bmb55         ,      6676456889vbmMNBVVBNMmbv9878bmb55      389vbbbbbbvbMNMbbbbv9vbm MMMMNBNMMMMMMMMMMMMMMMMMMMMNBNMMMNBVSGKLPLKGSVBNMMMMMMMMMMMMyttttyMMMMMmMMMmbv983                   556764568889vbmMNBVSDSV66666v988788bmb55                                    ",
"                    555467455688889vbmMNBV6&&&6NMmbv9888788bmb55         O      6676456889vbmMNBVVBNMmbv9878bmb55     389vbbbbbbvbbMNMbbbbv9vb MMMMNBNMMMMMMMMMMMMMMMMMMMMMNNNMMMMNBVSGKLLLKGSVBNMMMMMMMMMMMyttttyMMMMMMmMMMmbv983                  556764568889vbmMNBVSDSV6qqq6v988788bmb55                                    ",
"                    555467455688889vbmMNBV6&&&6NMmbv9888788bmb55                5676456889vbmMNBVVBNMmbv9878bmb55    389vbbbbbbvbbMNMbbbbv9vbmMMMMMNBNMMMMMMMMMMMMMMMMMMMMMNBNMMMMNBVSGKLPLKGSVBNMMMMMMMMMMMMyttttyMMMMMMmMMMmbv983                 556764568889vbmMNBVSDSV6qqq6v988888bmb55                                    ",
"                    555467455688889IIIIIIIIIIIIIIIIIIIIIIIIIIIIIIIIIIIIIIIIIIIIIIIIIIIIIIIIIIIIIIIIIIIIIIIIIIIIIIIIIIIIIIIIIIIIIIIIIIIIIIIIIIIIIIIIIIIIIIIIIIIIIIIIIIIIIIIIIIIIIIIIIIIIIIIIIIIIIIIIIIIIIIIIIIIIIIIIIIIIIIIIIIIIIIIIIIIIIIIIIIIIIIIIIIIIIIIIIIIIIIIIIIIIIIIIIIIIIIIIIIIIImb55                                    ",
"                    555467455688889IIIIIIIIIIIIIIIIIIIIIIIIIIIIIIIIIIIIIIIIIIIIIIIIIIIIIIIIIIIIIIIIIIIIIIIIIIIIIIIIIIIIIIIIIIIIIIIIIIIIIIIIIIIIIIIIIIIIIIIIIIIIIIIIIIIIIIIIIIIIIIIIIIIIIIIIIIIIIIIIIIIIIIIIIIIIIIIIIIIIIIIIIIIIIIIIIIIIIIIIIIIIIIIIIIIIIIIIIIIIIIIIIIIIIIIIIIIIIIIIIIIIImb55%                                   ",
"                    555467455688889LDDDDDDDDDDDDDDDDDDDDDDDDDDDDDDDDDDDDDDDDDDDDDDDDDDDDDDDDDDDDDDDDDDDDDDDDDDDDDDDDDDDDDDDDDDDDDDDDDDDDDDDDDDDDDDDDDDDDDDDDDDDDDDDDDDDDDDDDDDDDDDDDDDDDDDDDDDDDDDDDDDDDDDDDDDDDDDDDDDDDDDDDDDDDDDDDDDDDDDDDDDDDDDDDDDDDDDDDDDDDDDDDDDDDDDDDDDDDDDDDDDDLmb552                                   ",
"                    555467455688889LDDDDDDDDDDDDDDDDDDDDDDDDDDDDDDDDDDDDDDDDDDDDDDDDDDDDDDDDDDDDDDDDDDDDDDDDDDDDDDDDDDDDDDDDDDDDDDDDDDDDDDDDDDDDDDDDDDDDDDDDDDDDDDDDDDDDDDDDDDDDDDDDDDDDDDDDDDDDDDDDDDDDDDDDDDDDDDDDDDDDDDDDDDDDDDDDDDDDDDDDDDDDDDDDDDDDDDDDDDDDDDDDDDDDDDDDDDDDDDDDDDDLmb553      O                            ",
"                    555467455688889bbbbbbbbbbbbbbbbbbbbbbbbbbbbbbbbbbbbbbbbbbbbbbbbbbbbbbbbbbbbbbbbbbbbbbbbbbbbbbbbbbbbbbbbbbbbbbbbbbbbbbbbbbbbbbbbbbbbbbbbbbbbbbbbbbbbbbbbbbbbbbbbbbbbbbbbbbbbbbnbbbbbbbbbbbbbbbbbbbbbbbbbbbbbbbbbbbbbbbbbbbbbbbbbbbbbbbbbbbbbbbbbbbbbbbbbbbbbbbbbbbbbbmb554                                   ",
"                    555467455688889vbmSN55555555555MBM55555555555MBM55555555555MBM55555555555MBM55555555555MBM55555555555MBM55555555555MBM55555555555MBM55555555555MBM55555555555MBM55555555555MBm55555555555MBM55555555555MBM55555555555MBM55555555555MBM55555555555MBM55555555555NS88bmb555      k                            ",
"                    555467455688889vbmLS52222222225MSM52222222225MSM52222222225MSM52222222225MSM52222222225MSM52222222225MSM52222222225MSM52222222225MSM52222222225MSM52222222225MSM52222222225MSM52222222225MSM52222222225MSM52222222225MSM52222222225MSM52222222225mSM52222222225SL88bmb955          ,                        ",
"                    555467455688889vbmLS55555555555MSM55555555555MSM55555555555MSM55555555555MSM55555555555MSM55555555555MSM55555555555MSM55555555555MSM55555555555mSM55555555555MSM55555555555MSM55555555555MSM55555555555MSM55555555555MSM55555555555MSM55555555555MSM55555555555SL889bmb55                           J       ",
"             k      555467455688889vbmLSIIIIIIIIIIISSIIIIIIIIIIIISSIIIIIIIIIIIISSIIIIIIIIIIIISSIIIIIIIIIIIISSIIIIIIIIIIIISSIIIIIIIIIIIISSIIIIIIIIIIIISSIIIIIIIIIIIISSIIIIIIIIIIIISSIIIIIIIIIIIISSIIIIIIIIIIIISSIIIIIIIIIIIISSIIIIIIIIIIIISSIIIIIIIIIIIISSIIIIIIIIIIIISSIIIIIIIIIIIISL888bmb55                              ,    ",
"                    554567455688889vbmLSSSSSSSSSSSSSSSSSSSSSSSSSSSSSSSSSSSSSSSSSSSSSSSSSSSSSSSSSSSSSSSSSSSSSSSSSSSSSSSSSSSSSSSSSSSSSSSSSSSSSSSSSSSSSSSSSSSSSSSSSSSSSSSSSSSSSSSSSSSSSSSSSSSSSSSSSSSSSSSSSSSSSSSSSSSSSSSSSSSSSSSSSSSSSSSSSSSSSSSSSSSSSSSSSSSSSSSSSSSSSSSSSSSSSSSSSSSSSL888bmb55                                   ",
"                   %554567455688889vbmLSSSSSSSSSSSSSSSSSSSSSSSSSSSSSSSSSSSSSSSSSSSSSSSSSSSSSSSSSSSSSSSSSSSSSSSSSSSSSSSSSSSSSSSSSSSSSSSSSSSSSSSSSSSSSSSSSSSSSSSSSSSSSSSSSSSSSSSSSSSSSSSSSSSSSSSSSSSSSSSSSSSSSSSSSSSSSSSSSSSSSSSSSSSSSSSSSSSSSSSSSSSSSSSSSSSSSSSSSSSSSSSSSSSSSSSSSSSSSL888bmb55                                   ",
"                   2554567455688889vbmLSSSSSSSSSSSSSSSSSSSSSSSSSSSSSSSSSSSSSSSSSSSSSSSSSSSSSSSSSSSSSSSSSSSSSSSSSSSSSSSSSSSSSSSSSSSSSSSSSSSSSSSSSSSSSSSSSSSSSSSSSSSSSSSSSSSSSSSSSSSSSSSSSSSSSSSSSSSSSSSSSSSSSSSSSSSSSSSSSSSSSSSSSSSSSSSSSSSSSSSSSSSSSSSSSSSSSSSSSSSSSSSSSSSSSSSSSSSSSL888bmb55  O                                ",
"                   3554567455688889vbmLSSSSSSSSSSSSSSSSSSSSSSSSSSSSSSSSSSSSSSSSSSVSSSSSSSSSSSSSSSSSSSSSSSSSSSSSVSSSSSSSSSSSSSSSSSSSSSSSSSSSSSSSSSSSSSSSSSSSSSSSSSSSSSSSSSSSSSSSSSSSSSSSSSSSSSSSSSSSSSSSSSSSSSSSSSSSSSSVSSSSSSSSSSSSSSSSSSSSSSSSSSSSSSSSSSSSSSSSSSSSSSSSSSSSSSSSSSSSSL888bmb55                                   ",
"%%%%%%%%%%%%%%%%%%%4554674556888889vbmLLLLLLLLLLLLLLLLLLLLLLLLLLLLLLLLLLLLLLLLLLLLLLLLLLIIIIIIIIIIIIIIIIIIIIIIIIIIIIIIIISBLLLLLLLLLLLLLLLLLLLLLLLLLLLLLLLLLLLLLLLLLLLLLLLLLLLLLLLLLLLLLLLLLLLLLLLBSIIIIIIIIIIIIIIIIIIIIIIIIIIIIIIIILLLLLLLLLLLLLLLLLLLLLKLLLLLLLLLLLLLLLLLLLLLLLLLLLL888bmb55%%%%%%%%%%%%%%%%%%%%%%%%%%%%%%%%%%%",
"%%%%%%%%%%%%%%%%%%%5554674556888889vbLKKKKKKKKKKGKKKKKKKKKKKKKKKGKKKKKKKKKKKKKKKKKKKKKKKIIIIIIIIIIIIIIIIIIIIIIIIIIIIIIIINBKKKKKKKKKKKKKKKKKKKKKKKKKKKKKKKGKKKKKKKKKKKKKKKKKKKKKKKKKKKKKKKKKKKKKKKNNIIIIIIIIIIIIIIIIIIIIIIIIIIIIIIIIKKKKKKKKKKKKKKKKKKKKKKKKKKKKKKKKKKKKKKKKKKKKKKKKKKL88bmb55%%%%%%%%%%%%%%%%%%%%%%%%%%%%%%%%%%%",
"%%%%%%%%%%%%%%%%%%%5554674556888889vLKKKKKKKKKKKKKKKKKKKKKKKKKKKKKKKKKKKKKKKKKKKKKKKKKKIIIIIIIIIIIIIIIIIIIIIIIIIIIIIIIIIMBKKKKKKKKKKKKKKKKKKKKKKKKKKKKKKKKKKKKKKKKKKKKKKKKKKKKKKKKKKKKKKKKKKKKKKKBMIIIIIIIIIIIIIIIIIIIIIIIIIIIIIIIIIKKKKKKKKKKKKKKKKKKKKKKKKKKKKKKKKKKKKKKKKKKKKKKKKKKL8bmb55%%%%%2%%%%%%%%%%%%%%%%%%%%%%2%%%%%%",
"%%%%%%%2%%%%%%%2%%%5554674556888889LKKKKKKKKKKKKKKKKKKKKKKKKKKKKKKKKKKKKKKKKKKKKKKKKKKKIIIIIIIIIIIIIIIIIIIIIIIIIIIIIIIIIMBKKKKKKKKKKKKKKKKKKKKKKKKKKKKKKKKKKKKKKKKKKKKKKKKKKKKKKKKKKKKKKKKKKKKKKKBMIIIIIIIIIIIIIIIIIIIIIIIIIIIIIIIIIKKGKKKKKKKKKKKKKKKKKKKKKKKKKKKKKKKKKKKKKKKKKKKKKKKKLbmb55%%%2%%%%%%%%2%%%%%%%%%2%%2%%%%2%%2%",
"%%%%22%%222%%%%%2%%555467455688888LGKKKKKKKKKKKKKKKKKKKKKKKKKKKKKKKKKKKKKKKKKKKKKKKKKKIIIIIIIIIIIIIIIIIIIIIIIIIIIIIIIIIDMBKKKKKKKKKKKKKKKKKKKKKKKKKKKKKKKKKKKKKKKKKKKKKKKKKKKKKKKKKKKKKKKKKKKKKKKBMDIIIIIIIIIIIIIIIIIIIIIIIIIIIIIIIIIKKKKKKKKKKKKKKKKKKKKKKKKKKKKKKKKKKKKKKKKKKKKKKKKKKKLmb55%%2%2222%%2%%%%2%%%%2222%%%2%%%%22%",
"2%%%%2%2%22222%2%2%55546745568888LKKKKKKKKKKKKKKKKKKKKKKKKKKKKKKKKKKKKKKKKKKKKKKKKKKKKIIIIIIIIIIIIIIIIIIIIIIIIIIIIIIIIINMBKKKKKKKKKKKKKKKKKGKKKKKKKKKKKKKKKKKKKKKKKKKKKKKKKKKKKKKKKKKKKKKKKKKKKKKBMNIIIIIIIIIIIIIIIIIIIIIIIIIIIIIIIIIKKKKKKKKKKKKKKKKKKKKKKKKKKKKKKKKKKKKKKKKKKKKKKKKKKKGLb55%%2222222%2%%22%2%2%2222%2222%%2222",
"23%22222322222322235554674556888LKKKKKKKKKKKKKKKKKKKKKKKKKKKKKKKKKKKKKKKKKKKKKKKKKKKKIIIIIIIIIIIIIIIIIIIIIIIIIIIIIIIIIINMBKKKKKKKKKKKKKKKKKKKKKKKKKKKKKKKKKKKKKKKKKKKKKKKKKKKKKKKKKKKKKKKKKKKKKKKBMNIIIIIIIIIIIIIIIIIIIIIIIIIIIIIIIIIIKKKKKKKKKKKKKKKKKKKKKKKKKKKKKKKKKKKKKKKKKKKKKKKKKKKKL5532222222232322333%22233232%%2323322",
"2222233323222232223555467455688LKKKKKKKKKKKKKKKKKKKKKKKKKKKKKKKKKKKKKKKKKKKKKKKKKKKKKIIIIIIIIIIIIIIIIIIIIIIIIIIIIIIIIIIMBGKKKKKKKKKKKKKKKKKKKKKKKKKKKKKKKKKKKKKKKKKKKKKKKKKKKKKKKKKKKKKKKKKKKKKKKKBMIIIIIIIIIIIIIIIIIIIIIIIIIIIIIIIIIIKKKKKKKKKKKKKKKKKKKKKKKKKKKKKKKKKKKKKKKKKKKKKKKKKKKKKL522322323222322232223232323322223223",
"233223333332333333255546745568LKKKKKKKKKKKKKKKKKKKKKKKKKKKKKKKKKKKKKKKKKKKKKKKKKKKKKIIIIIIIIIIIIIIIIIIIIIIIIIIIIIIIIIIDMBKKKKKKKKKKKKKKKKKKKKKKKKKKKKKKKKKKKKKKKKKKKKKKKKKKKKKKKKKKKKKKKKKKKKKKGKKBMDIIIIIIIIIIIIIIIIIIIIIIIIIIIIIIIIIIKKKKKKKKKKKKKKKKKKKKKKKKKKKKKKKKKKKKKKKKKKKKKKKKKKKKKL33322232223232223323332333222333322",
"32242333233333333435554674556LKKKKKKKKKKKKKKKKKKKKKKKKKKKKGKKKKKKKKKKKKKKKKKKKKKKKKKIIIIIIIIIIIIIIIIIIIIIIIIIIIIIIIIIINMBKKKKKKKKKKKKKKKKKKKKKKKKKKKKKKKKKKKKKKKKKKKKKKKKKKKKKKKKKKKKKKKKKKKKKKKKKBMNIIIIIIIIIIIIIIIIIIIIIIIIIIIIIIIIIIKKKKKKKKKKKKKKKKKKKKKKKKKKKKKKKKKKKGKKKKKKKKKKKKKKKKKKL2333333233433333233333233323433443",
"3334344333433433333555467455LKKKKKKKKKKKKKKKKKKKKKKKKKKKKKKKKKKKKKKKKKKKKKKKKKKKKKKIIIIIIIIIIIIIIIIIIIIIIIIIIIIIIIIIIINMBKKKKKKKKKKKKKKKKKKKKKKKKKKKKKKKKKKKKKKKKKKKKKKGKKKKKKKKKKKKKKKGKKKKKKKKKKBMNIIIIIIIIIIIIIIIIIIIIIIIIIIIIIIIIIIIKKKKKKKKKKKKKKKKKKKKKKKKKKKKKKKKKKKKKKKKKKKKKKKKKKKKKKL433333344333334333443443443333443",
"333343443434334343355546745LKKKKKKKKKKKKKKKKKKKKKKKKKKKKKKKKKKKKKKKKKKKKKKKKKKKKKKKIIIIIIIIIIIIIIIIIIIIIIIIIIIIIIIIIIINMBKKKKKKKKKKKKKKKKKKKKKKKKKKKKKKKKKKKGKKKKKKKKKKKKKKKKKKKKKKKKKKKKKKKKKKKKKBMNIIIIIIIIIIIIIIIIIIIIIIIIIIIIIIIIIIIKKKKKKKKKKKKKKKKKKKKKKKKKKKKKKKKKKKKKKKKKKKKKKKKKKKKKKKL44444433434433334344343344443343",
"33444434354444334455554674LKKKKKKKKKKKKKKKKKKKKKKKKKKKKKKKKKKKKKKKKKKKKKKKKKKKKKKKIIIIIIIIIIIIIIIIIIIIIIIIIIIIIIIIIIIDNMBKKKKKKKKKKKKKKKKKKKKKKKKKKKKKKKKKKKKKKKKKKKKKKKKKKKKKKKKKKKKKKKKKKKKKKKKKBMNDIIIIIIIIIIIIIIIIIIIIIIIIIIIIIIIIIIIKKKKKKKKKKKKKKKKKKKKKKKKKKKKKKKKKKKKKKKKKKKKKKKGKKKKKKKL4446444544444444434443344433444",
"4454454443454545534555467LKKKKKKKKKKKKGKKKKKKKKKKKKKKKKKKKKKKKKKKKKKKKGKKKKKKKKKKKIIIIIIIIIIIIIIIIIIIIIIIIIIIIIIIIIIINNMBKKKKKKKKKKKGKKKKKKKKKKKKKKKKKKKKKKKKKKKKKKKKKKKKKKKKKKKKKKKKKKKKKKKKKKKKKBMNNIIIIIIIIIIIIIIIIIIIIIIIIIIIIIIIIIIIKKKKKKKKKKKKKKKKKKKKKGKKKKKKKKKKKKKKKKKKKKKKKKKKKKKKKKKKL555344344545444535455345445444",
"645445455455454444555546LLLLLLLLLLLLLLLLLLLLLLLLLLLLLLLLLLLLLLLLLLLLLLLLLLLLLLLLLIIIIIIIIIIIIIIIIIIIIIIIIIIIIIIIIIIIIMNMBLLLLLLLLLLLLLLLLLLLLLLLLLLLLLLLLLLLLLLLLLLLLLLLLLLLLLLLLLLLLLLLLLLLLLLLLLBMNNIIIIIIIIIIIIIIIIIIIIIIIIIIIIIIIIIIIILLLLLLLLLLLLLLLLLLLLLLLLLLLLLLLLLLLLLLLLLLLLLLLLLLLLLLLLL55455545545454544444554454445",
"555554544545545544555546LSSSSSSSSSSSSSSSSSSSSSSSSSSSSSSSSSSSSSSSSSSSSSSSSSSSSSSSVIIIIIIIIIIIIIIIIIIIIIIIIIIIIIIIIIIIINNNMBSSSSSSSSSSSSSSSSSSSSSSSK11111111111111111111111KSSSSSSSSSSSSSSSSSSSSSSSBMNNNIIIIIIIIIIIIIIIIIIIIIIIIIIIIIIIIIIIISSSSSSSSSSSSSSSSSSSSSSSSSSSSSSSSSSSSSSSSSSSSSSSSSSSSSSSSL65455455555455655545554456446",
"564545655455645555555546LSSSSSSSSSSSSSSSSSSSSSSSSSSSSSSSSSSSSSSSSSSSSSSSSSSSSSSSIIIIIIIIIIIIIIIIIIIIIIIIIIIIIIIIIIIIDNNNMBSSSSSSSSSSSSSSSSSSSN95SK11111111111111111111111KSN95SSSSSSSSSSSSSSSSSSSBMNNNDIIIIIIIIIIIIIIIIIIIIIIIIIIIIIIIIIIIISSSSSSSSSSSSSSSSSSSSSSSSSSSSSSSSSSSSSSSSSSSSSSSSSSSSSSSL65545555555556546665655555665",
"566565566655565666655456LSSSSSSSSSSSSSSSSSSSSSSSSSSSSSSSSSSSSSSSSSSSSSSSSSSSSSSSIIIIIIIIIIIIIIIIIIIIIIIIIIIIIIIIIIIINNNNMBSSSSSSSSSSSSSSSSSSSN95SK11fffffffffffffffffff11KSN95SSSSSSSSSSSSSSSSSSSBMNNNNIIIIIIIIIIIIIIIIIIIIIIIIIIIIIIIIIIIISSSSSSSSSSSSSSSSSSSSSSSSSSSSSSSSSSSSSSSSSSSSSSSSSSSSSSSL66665556665656566656665665665",
"665566666656566666555456LSSSSSSSSSSSSSSSSSSSSSSSSSSSSSSSSSSSSSSSSSSSSSSSSSSSSSSIIIIIIIIIIIIIIIIIIIIIIIIIIIIIIIIIIIIINNNNMBSSSSSSSSSSSSSSSSSSSN95SK11fhhhhhhhgfghhhhhhhf11KSN95SSSSSSSSSSSSSSSSSSSBMNNNNIIIIIIIIIIIIIIIIIIIIIIIIIIIIIIIIIIIIISSSSSSSSSSSSSSSSSSSSSSSSSSSSSSSSSSSSSSSSSSSSSSSSSSSSSSL66665666665665566666656666566",
"656777676676667666555456LSSSSSSSSSSSSSSSSSSSSSSSSSSSSSSSSSSSSSSSSSSSSSSSSSSSSSSIIIIIIIIIIIIIIIIIIIIIIIIIIIIIIIIIIIIINNNNMBSSSSSSSSSSSSSSSSSSSIIISK11fhhAAAAhgfghAAAAhhf11KSIIISSSSSSSSSSSSSSSSSSSBMNNNNIIIIIIIIIIIIIIIIIIIIIIIIIIIIIIIIIIIIISSSSSSSSSSSSSSSSSSSSSSSSSSSSSSSSSSSSSSSSSSSSSSSSSSSSSSL66556566665666666766667656676",
"676666666777776667555456LSSSSSSSSSSSSSSSSSSSSSSSSSSSSSSSSSSSSSSSSSSSSSSSSSSSSSIIIIIIIIIIIIIIIIIIIIIIIIIIIIIIIIIIIIIDNNNNMBSSSSSSSSSSSSSSSSSSLPPPPK11fhhcccchgfghcccchhf11KPPLPPSSSSSSSSSSSSSSSSSSBmNNNNDIIIIIIIIIIIIIIIIIIIIIIIIIIIIIIIIIIIIISSSSSSSSSSSSSSSSSSSSSSSSSSSSSSSSSSSSSSSSSSSSSSSSSSSSSL66677776667666666767676676666",
"667777677777666677555456LSSSSSSSSSSSSSSSSSSSSSSSSSSSSSSSSSSSSSSSSSSSSSSSSSSSSSIIIIIIIIIIIIIIIIIIIIIIIIIIIIIIIIIIIIINNNNNMBSSSSSSSSSSSSSSSSSPLLPLLK11fhhxxxxhgfghxxxxhhf11KLLPLLPSSSSSSSSSSSSSSSSSBMNNNNNIIIIIIIIIIIIIIIIIIIIIIIIIIIIIIIIIIIIISSSSSSSSSSSSSSSSSSSSSSSSSSSSSSSSSSSSSSSSSSSSSSSSSSSSSL76777667777777767766767677676",
"876778777777787777555456t>>>>>>>>>>>>>>>>>>>>>>>>>>>>>>>>>>>>>>>>>>>>>>>>>>>>IIIIIIIIIIIIIIIIIIIIIIIIIIIIIIIIIIIIIINNNN:;:>>>>>>>>>>>>>>>>tttttttKffghhjjjjhgfghjjjjhhgffKttttttt>>>>>>>>>>>>>>>>:;NNNNNIIIIIIIIIIIIIIIIIIIIIIIIIIIIIIIIIIIIII>>>>>>>>>>>>>>>>>>>>>>>>>>>>>>>>>>>>>>>>>>>>>>>>>>>>y78777787777677787787677878767",
"777888777787777788555456t>>>>>>>>>>>>>>>>>>>>>>>>>>>>>>>>>>>>>>>>>>>>>>>>>>>>IIIIIIIIIIIIIIIIIIIIIIIIIIIIIIIIIIIIIINN:::;:>>>>>>>>>>>>>>>ttttttttKgghhhhhhhhgfghhhhhhhhggKtttttttt>>>>>>>>>>>>>>>:;:::NNIIIIIIIIIIIIIIIIIIIIIIIIIIIIIIIIIIIIII>>>>>>>>>>>>>>>>>>>>>>>>>>>>>>>>>>>>>>>>>>>>>>>>>>>>y78887777778877778877777887778",
"787787778787787788555456t>>>>>>>>>>>>>>>>>>>>>>>>>>>>>>>>>>>>>>>>>>>>>>>>>>>tttttttttttttttttttttttttttttttttttttty:::::;:>>>>>>>>>>>>>>tttttttttKhhhhhhhhhhgfghhhhhhhhhhKttttttttt>>>>>>>>>>>>>>:;:::::yttttttttttttttttttttttttttttttttttttty>>>>>>>>>>>>>>>>>>>>>>>>>>>>>>>>>>>>>>>>>>>>>>>>>>>y77777877778778887888887788877",
"788777788787788878655456LSSSSSSSSSSSSSSSSSSSSSSSSSSSSSSSSSSSSSSSSSSSSSSSSSSSttttttttttttttttttttttttttttttttttttty:::::NMBSSSSSSSSSSSSSSSSSSSSSSSKhhhhhhhhhhgfghhhhhhhhhhKSSSSSSSSSSSSSSSSSSSSSSSBM::::::yttttttttttttttttttttttttttttttttttttySSSSSSSSSSSSSSSSSSSSSSSSSSSSSSSSSSSSSSSSSSSSSSSSSSSL88788878788778877888888788888",
"888888888888878888555456LSSSSSSSSSSSSSSSSSSSSSSSSSSSSSSSSSSSSSSSSSSSSSSSSSStttttttttttttttttttttttttttttttttttttty::NNNNMBSSSSSSSSSSSSSSSSSSSSSSSKhhhhhhhhhhgfghhhhhhhhhhKSSSSSSSSSSSSSSSSSSSSSSSBMNNNN::ytttttttttttttttttttttttttttttttttttttySSSSSSSSSSSSSSSSSSSSSSSSSSSSSSSSSSSSSSSSSSSSSSSSSSL88888888888887888888888888888",
"888888888888888888555456LSSSSSSSSSSSSSSSSSSSSSSSSSSSSSSSSSSSSSSSSSSSSSSSSSSIIIIIIIIIIIIIIIIIIIIIIIIIIIIIIIIIIIIIIINNMNNNMBSSSSSSSSSSSSSSSSSSSSSSSKhhhhhhhhhhgfghhhhhhhhhhKSSSSSSSSSSSSSSSSSSSSSSSBMNNNNNNIIIIIIIIIIIIIIIIIIIIIIIIIIIIIIIIIIIIIIISSSSSSSSSSSSSSSSSSSSSSSSSSSSSSSSSSSSSSSSSSSSSSSSSSL88888888888888888888888888888",
"@@@@@@@@@@@@@@@@@@@@@@@@@@@@@@@@@@@@@@@@@@@@@@@@@@@@@@@@@@@@@@@@@@@@@@@@@@@@@@@@@@@@@@@@@@@@@@@@@@@@@@@@@@@@@@@@@@@@@@@@@@@@@@@@@@@@@@@@@@@@@@@@@@@@@@@@@@@@@@@@@@@@@@@@@@@@@@@@@@@@@@@@@@@@@@@@@@@@@@@@@@@@@@@@@@@@@@@@@@@@@@@@@@@@@@@@@@@@@@@@@@@@@@@@@@@@@@@@@@@@@@@@@@@@@@@@@@@@@@@@@@@@@@@@@@@@@@@@@@@@@@@@@@@@@@@@@@@@@@@@",
"@@@@@@@@@@@@@@@@@@@@@@@@@@@@@@@@@@@@@@@@@@@@@@@@@@@@@@@@@@@@@@@@@@@@@@@@@@@@@@@@@@@@@@@@@@@@@@@@@@@@@@@@@@@@@@@@@@@@@@@@@@@@@@@@@@@@@@@@@@@@@@@@@@@@@@@@@@@@@@@@@@@@@@@@@@@@@@@@@@@@@@@@@@@@@@@@@@@@@@@@@@@@@@@@@@@@@@@@@@@@@@@@@@@@@@@@@@@@@@@@@@@@@@@@@@@@@@@@@@@@@@@@@@@@@@@@@@@@@@@@@@@@@@@@@@@@@@@@@@@@@@@@@@@@@@@@@@@@@@@@",
"@@@@@@@@@@@@@@@@@@@@@@@@@@@@@@@@@@@@@@@@@@@@@@@@@@@@@@@@@@@@@@@@@@@@@@@@@@@@@@@@@@@@@@@@@@@@@@@@@@@@@@@@@@@@@@@@@@@@@@@@@@@@@@@@@@@@@@@@@@@@@@@@@@@@@@@@@@@@@@@@@@@@@@@@@@@@@@@@@@@@@@@@@@@@@@@@@@@@@@@@@@@@@@@@@@@@@@@@@@@@@@@@@@@@@@@@@@@@@@@@@@@@@@@@@@@@@@@@@@@@@@@@@@@@@@@@@@@@@@@@@@@@@@@@@@@@@@@@@@@@@@@@@@@@@@@@@@@@@@@@",
"@@@@@@@@@@@@@@@@@@@@@@@@@@@@@@@@@@@@@@@@@@@@@@@@@@@@@@@@@@@@@@@@@@@@@@@@@@@@@@@@@@@@@@@@@@@@@@@@@@@@@@@@@@@@@@@@@@@@@@@@@@@@@@@@@@@@@@@@@@@@@@@@@@@@@@@@@@@@@@@@@@@@@@@@@@@@@@@@@@@@@@@@@@@@@@@@@@@@@@@@@@@@@@@@@@@@@@@@@@@@@@@@@@@@@@@@@@@@@@@@@@@@@@@@@@@@@@@@@@@@@@@@@@@@@@@@@@@@@@@@@@@@@@@@@@@@@@@@@@@@@@@@@@@@@@@@@@@@@@@@",
"@@@@@@@@@@@@@@@@@@@@@@@@@@@@@@@@@@@@@@@@@@@@@@@@@@@@@@@@@@@@@@@@@@@@@@@@@@@@@@@@@@@@@@@@@@@@@@@@@@@@@@@@@@@@@@@@@@@@@@@@@@@@@@@@@@@@@@@@@@@@@@@@@@@@@@@@@@@@@@@@@@@@@@@@@@@@@@@@@@@@@@@@@@@@@@@@@@@@@@@@@@@@@@@@@@@@@@@@@@@@@@@@@@@@@@@@@@@@@@@@@@@@@@@@@@@@@@@@@@@@@@@@@@@@@@@@@@@@@@@@@@@@@@@@@@@@@@@@@@@@@@@@@@@@@@@@@@@@@@@@",
"@@@@@@@@@@@@@@@@@@@@@@@@@@@@@@@@@@@@@@@@@@@@@@@@@@@@@@@@@@@@@@@@@@@@@@@@@@@@@@@@@@@@@@@@@@@@@@@@@@@@@@@@@@@@@@@@@@@@@@@@@@@@@@@@@@@@@@@@@@@@@@@@@@@@@@@@@@@@@@@@@@@@@@@@@@@@@@@@@@@@@@@@@@@@@@@@@@@@@@@@@@@@@@@@@@@@@@@@@@@@@@@@@@@@@@@@@@@@@@@@@@@@@@@@@@@@@@@@@@@@@@@@@@@@@@@@@@@@@@@@@@@@@@@@@@@@@@@@@@@@@@@@@@@@@@@@@@@@@@@@",
"@@@@@@@@@@@@@@@@@@@@@@@@@@@@@@@@@@@@@@@@@@@@@@@@@@@@@@@@@@@@@@@@@@@@@@@@@@@@@@@@@@@@@@@@@@@@@@@@@@@@@@@@@@@@@@@@@@@@@@@@@@@@@@@@@@@@@@@@@@@@@@@@@@@@@@@@@@@@@@@@@@@@@@@@@@@@@@@@@@@@@@@@@@@@@@@@@@@@@@@@@@@@@@@@@@@@@@@@@@@@@@@@@@@@@@@@@@@@@@@@@@@@@@@@@@@@@@@@@@@@@@@@@@@@@@@@@@@@@@@@@@@@@@@@@@@@@@@@@@@@@@@@@@@@@@@@@@@@@@@@",
"@@@@@@@@@@@@@@@@@@@@@@@@@@@@@@@@@@@@@@@@@@@@@@@@@@@@@@@@@@@@@@@@@@@@@@@@@@@@@@@@@@@@@@@@@@@@@@@@@@@@@@@@@@@@@@@@@@@@@@@@@@@@@@@@@@@@@@@@@@@@@@@@@@@@@@@@@@@@@@@@@@@@@@@@@@@@@@@@@@@@@@@@@@@@@@@@@@@@@@@@@@@@@@@@@@@@@@@@@@@@@@@@@@@@@@@@@@@@@@@@@@@@@@@@@@@@@@@@@@@@@@@@@@@@@@@@@@@@@@@@@@@@@@@@@@@@@@@@@@@@@@@@@@@@@@@@@@@@@@@@",
"@@@@@@@@@@@@@@@@@@@@@@@@@@@@@@@@@@@@@@@@@@@@@@@@@@@@@@@@@@@@@@@@@@@@@@@@@@@@@@@@@@@@@@@@@@@@@@@@@@@@@@@@@@@@@@@@@@@@@@@@@@@@@@@@@@@@@@@@@@@@@@@@@@@@@@@@@@@@@@@@@@@@@@@@@@@@@@@@@@@@@@@@@@@@@@@@@@@@@@@@@@@@@@@@@@@@@@@@@@@@@@@@@@@@@@@@@@@@@@@@@@@@@@@@@@@@@@@@@@@@@@@@@@@@@@@@@@@@@@@@@@@@@@@@@@@@@@@@@@@@@@@@@@@@@@@@@@@@@@@@",
"@@@@@@@@@@@@@@@@@@@@@@@@@@@@@@@@@@@@@@@@@@@@@@@@@@@@@@@@@@@@@@@@@@@@@@@@@@@@@@@@@@@@@@@@@@@@@@@@@@@@@@@@@@@@@@@@@@@@@@@@@@@@@@@@@@@@@@@@@@@@@@@@@@@@@@@@@@@@@@@@@@@@@@@@@@@@@@@@@@@@@@@@@@@@@@@@@@@@@@@@@@@@@@@@@@@@@@@@@@@@@@@@@@@@@@@@@@@@@@@@@@@@@@@@@@@@@@@@@@@@@@@@@@@@@@@@@@@@@@@@@@@@@@@@@@@@@@@@@@@@@@@@@@@@@@@@@@@@@@@@",
"@@@@@@@@@@@@@@@@@@@@@@@@@@@@@@@@@@@@@@@@@@@@@@@@@@@@@@@@@@@@@@@@@@@@@@@@@@@@@@@@@@@@@@@@@@@@@@@@@@@@@@@@@@@@@@@@@@@@@@@@@@@@@@@@@@@@@@@@@@@@@@@@@@@@@@@@@@@@@@@@@@@@@@@@@@@@@@@@@@@@@@@@@@@@@@@@@@@@@@@@@@@@@@@@@@@@@@@@@@@@@@@@@@@@@@@@@@@@@@@@@@@@@@@@@@@@@@@@@@@@@@@@@@@@@@@@@@@@@@@@@@@@@@@@@@@@@@@@@@@@@@@@@@@@@@@@@@@@@@@@",
"@@@@@@@@@@@@@@@@@@@@@@@@@@@@@@@@@@@@@@@@@@@@@@@@@@@@@@@@@@@@@@@@@@@@@@@@@@@@@@@@@@@@@@@@@@@@@@@@@@@@@@@@@@@@@@@@@@@@@@@@@@@@@@@@@@@@@@@@@@@@@@@@@@@@@@@@@@@@@@@@@@@@@@@@@@@@@@@@@@@@@@@@@@@@@@@@@@@@@@@@@@@@@@@@@@@@@@@@@@@@@@@@@@@@@@@@@@@@@@@@@@@@@@@@@@@@@@@@@@@@@@@@@@@@@@@@@@@@@@@@@@@@@@@@@@@@@@@@@@@@@@@@@@@@@@@@@@@@@@@@",
"@@@@@@@@@@@@@@@@@@@@@@@@@@@@@@@@@@@@@@@@@@@@@@@@@@@@@@@@@@@@@@@@@@@@@@@@@@@@@@@@@@@@@@@@@@@@@@@@@@@@@@@@@@@@@@@@@@@@@@@@@@@@@@@@@@@@@@@@@@@@@@@@@@@@@@@@@@@@@@@@@@@@@@@@@@@@@@@@@@@@@@@@@@@@@@@@@@@@@@@@@@@@@@@@@@@@@@@@@@@@@@@@@@@@@@@@@@@@@@@@@@@@@@@@@@@@@@@@@@@@@@@@@@@@@@@@@@@@@@@@@@@@@@@@@@@@@@@@@@@@@@@@@@@@@@@@@@@@@@@@",
"@@@@@@@@@@@@@@@@@@@@@@@@@@@@@@@@@@@@@@@@@@@@@@@@@@@@@@@@@@@@@@@@@@@@@@@@@@@@@@@@@@@@@@@@@@@@@@@@@@@@@@@@@@@@@@@@@@@@@@@@@@@@@@@@@@@@@@@@@@@@@@@@@@@@@@@@@@@@@@@@@@@@@@@@@@@@@@@@@@@@@@@@@@@@@@@@@@@@@@@@@@@@@@@@@@@@@@@@@@@@@@@@@@@@@@@@@@@@@@@@@@@@@@@@@@@@@@@@@@@@@@@@@@@@@@@@@@@@@@@@@@@@@@@@@@@@@@@@@@@@@@@@@@@@@@@@@@@@@@@@",
"@@@@@@@@@@@@@@@@@@@@@@@@@@@@@@@@@@@@@@@@@@@@@@@@@@@@@@@@@@@@@@@@@@@@@@@@@@@@@@@@@@@@@@@@@@@@@@@@@@@@@@@@@@@@@@@@@@@@@@@@@@@@@@@@@@@@@@@@@@@@@@@@@@@@@@@@@@@@@@@@@@@@@@@@@@@@@@@@@@@@@@@@@@@@@@@@@@@@@@@@@@@@@@@@@@@@@@@@@@@@@@@@@@@@@@@@@@@@@@@@@@@@@@@@@@@@@@@@@@@@@@@@@@@@@@@@@@@@@@@@@@@@@@@@@@@@@@@@@@@@@@@@@@@@@@@@@@@@@@@@",
"@@@@@@@@@@@@@@@@@@@@@@@@@@@@@@@@@@@@@@@@@@@@@@@@@@@@@@@@@@@@@@@@@@@@@@@@@@@@@@@@@@@@@@@@@@@@@@@@@@@@@@@@@@@@@@@@@@@@@@@@@@@@@@@@@@@@@@@@@@@@@@@@@@@@@@@@@@@@@@@@@@@@@@@@@@@@@@@@@@@@@@@@@@@@@@@@@@@@@@@@@@@@@@@@@@@@@@@@@@@@@@@@@@@@@@@@@@@@@@@@@@@@@@@@@@@@@@@@@@@@@@@@@@@@@@@@@@@@@@@@@@@@@@@@@@@@@@@@@@@@@@@@@@@@@@@@@@@@@@@@",
"@@@@@@@@@@@@@@@@@@@@@@@@@@@@@@@@@@@@@@@@@@@@@@@@@@@@@@@@@@@@@@@@@@@@@@@@@@@@@@@@@@@@@@@@@@@@@@@@@@@@@@@@@@@@@@@@@@@@@@@@@@@@@@@@@@@@@@@@@@@@@@@@@@@@@@@@@@@@@@@@@@@@@@@@@@@@@@@@@@@@@@@@@@@@@@@@@@@@@@@@@@@@@@@@@@@@@@@@@@@@@@@@@@@@@@@@@@@@@@@@@@@@@@@@@@@@@@@@@@@@@@@@@@@@@@@@@@@@@@@@@@@@@@@@@@@@@@@@@@@@@@@@@@@@@@@@@@@@@@@@",
"@@@@@@@@@@@@@@@@@@@@@@@@@@@@@@@@@@@@@@@@@@@@@@@@@@@@@@@@@@@@@@@@@@@@@@@@@@@@@@@@@@@@@@@@@@@@@@@@@@@@@@@@@@@@@@@@@@@@@@@@@@@@@@@@@@@@@@@@@@@@@@@@@@@@@@@@@@@@@@@@@@@@@@@@@@@@@@@@@@@@@@@@@@@@@@@@@@@@@@@@@@@@@@@@@@@@@@@@@@@@@@@@@@@@@@@@@@@@@@@@@@@@@@@@@@@@@@@@@@@@@@@@@@@@@@@@@@@@@@@@@@@@@@@@@@@@@@@@@@@@@@@@@@@@@@@@@@@@@@@@",
"@@@@@@@@@@@@@@@@@@@@@@@@@@@@@@@@@@@@@@@@@@@@@@@@@@@@@@@@@@@@@@@@@@@@@@@@@@@@@@@@@@@@@@@@@@@@@@@@@@@@@@@@@@@@@@@@@@@@@@@@@@@@@@@@@@@@@@@@@@@@@@@@@@@@@@@@@@@@@@@@@@@@@@@@@@@@@@@@@@@@@@@@@@@@@@@@@@@@@@@@@@@@@@@@@@@@@@@@@@@@@@@@@@@@@@@@@@@@@@@@@@@@@@@@@@@@@@@@@@@@@@@@@@@@@@@@@@@@@@@@@@@@@@@@@@@@@@@@@@@@@@@@@@@@@@@@@@@@@@@@",
"@@@@@@@@@@@@@@@@@@@@@@@@@@@@@@@@@@@@@@@@@@@@@@@@@@@@@@@@@@@@@@@@@@@@@@@@@@@@@@@@@@@@@@@@@@@@@@@@@@@@@@@@@@@@@@@@@@@@@@@@@@@@@@@@@@@@@@@@@@@@@@@@@@@@@@@@@@@@@@@@@@@@@@@@@@@@@@@@@@@@@@@@@@@@@@@@@@@@@@@@@@@@@@@@@@@@@@@@@@@@@@@@@@@@@@@@@@@@@@@@@@@@@@@@@@@@@@@@@@@@@@@@@@@@@@@@@@@@@@@@@@@@@@@@@@@@@@@@@@@@@@@@@@@@@@@@@@@@@@@@",
"@@@@@@@@@@@@@@@@@@@@@@@@@@@@@@@@@@@@@@@@@@@@@@@@@@@@@@@@@@@@@@@@@@@@@@@@@@@@@@@@@@@@@@@@@@@@@@@@@@@@@@@@@@@@@@@@@@@@@@@@@@@@@@@@@@@@@@@@@@@@@@@@@@@@@@@@@@@@@@@@@@@@@@@@@@@@@@@@@@@@@@@@@@@@@@@@@@@@@@@@@@@@@@@@@@@@@@@@@@@@@@@@@@@@@@@@@@@@@@@@@@@@@@@@@@@@@@@@@@@@@@@@@@@@@@@@@@@@@@@@@@@@@@@@@@@@@@@@@@@@@@@@@@@@@@@@@@@@@@@@",
"@@@@@@@@@@@@@@@@@@@@@@@@@@@@@@@@@@@@@@@@@@@@@@@@@@@@@@@@@@@@@@@@@@@@@@@@@@@@@@@@@@@@@@@@@@@@@@@@@@@@@@@@@@@@@@@@@@@@@@@@@@@@@@@@@@@@@@@@@@@@@@@@@@@@@@@@@@@@@@@@@@@@@@@@@@@@@@@@@@@@@@@@@@@@@@@@@@@@@@@@@@@@@@@@@@@@@@@@@@@@@@@@@@@@@@@@@@@@@@@@@@@@@@@@@@@@@@@@@@@@@@@@@@@@@@@@@@@@@@@@@@@@@@@@@@@@@@@@@@@@@@@@@@@@@@@@@@@@@@@@",
"@@@@@@@@@@@@@@@@@@@@@@@@@@@@@@@@@@@@@@@@@@@@@@@@@@@@@@@@@@@@@@@@@@@@@@@@@@@@@@@@@@@@@@@@@@@@@@@@@@@@@@@@@@@@@@@@@@@@@@@@@@@@@@@@@@@@@@@@@@@@@@@@@@@@@@@@@@@@@@@@@@@@@@@@@@@@@@@@@@@@@@@@@@@@@@@@@@@@@@@@@@@@@@@@@@@@@@@@@@@@@@@@@@@@@@@@@@@@@@@@@@@@@@@@@@@@@@@@@@@@@@@@@@@@@@@@@@@@@@@@@@@@@@@@@@@@@@@@@@@@@@@@@@@@@@@@@@@@@@@@",
"@@@@@@@@@@@@@@@@@@@@@@@@@@@@@@@@@@@@@@@@@@@@@@@@@@@@@@@@@@@@@@@@@@@@@@@@@@@@@@@@@@@@@@@@@@@@@@@@@@@@@@@@@@@@@@@@@@@@@@@@@@@@@@@@@@@@@@@@@@@@@@@@@@@@@@@@@@@@@@@@@@@@@@@@@@@@@@@@@@@@@@@@@@@@@@@@@@@@@@@@@@@@@@@@@@@@@@@@@@@@@@@@@@@@@@@@@@@@@@@@@@@@@@@@@@@@@@@@@@@@@@@@@@@@@@@@@@@@@@@@@@@@@@@@@@@@@@@@@@@@@@@@@@@@@@@@@@@@@@@@",
"@@@@@@@@@@@@@@@@@@@@@@@@@@@@@@@@@@@@@@@@@@@@@@@@@@@@@@@@@@@@@@@@@@@@@@@@@@@@@@@@@@@@@@@@@@@@@@@@@@@@@@@@@@@@@@@@@@@@@@@@@@@@@@@@@@@@@@@@@@@@@@@@@@@@@@@@@@@@@@@@@@@@@@@@@@@@@@@@@@@@@@@@@@@@@@@@@@@@@@@@@@@@@@@@@@@@@@@@@@@@@@@@@@@@@@@@@@@@@@@@@@@@@@@@@@@@@@@@@@@@@@@@@@@@@@@@@@@@@@@@@@@@@@@@@@@@@@@@@@@@@@@@@@@@@@@@@@@@@@@@",
"@@@@@@@@@@@@@@@@@@@@@@@@@@@@@@@@@@@@@@@@@@@@@@@@@@@@@@@@@@@@@@@@@@@@@@@@@@@@@@@@@@@@@@@@@@@@@@@@@@@@@@@@@@@@@@@@@@@@@@@@@@@@@@@@@@@@@@@@@@@@@@@@@@@@@@@@@@@@@@@@@@@@@@@@@@@@@@@@@@@@@@@@@@@@@@@@@@@@@@@@@@@@@@@@@@@@@@@@@@@@@@@@@@@@@@@@@@@@@@@@@@@@@@@@@@@@@@@@@@@@@@@@@@@@@@@@@@@@@@@@@@@@@@@@@@@@@@@@@@@@@@@@@@@@@@@@@@@@@@@@",
"@@@@@@@@@@@@@@@@@@@@@@@@@@@@@@@@@@@@@@@@@@@@@@@@@@@@@@@@@@@@@@@@@@@@@@@@@@@@@@@@@@@@@@@@@@@@@@@@@@@@@@@@@@@@@@@@@@@@@@@@@@@@@@@@@@@@@@@@@@@@@@@@@@@@@@@@@@@@@@@@@@@@@@@@@@@@@@@@@@@@@@@@@@@@@@@@@@@@@@@@@@@@@@@@@@@@@@@@@@@@@@@@@@@@@@@@@@@@@@@@@@@@@@@@@@@@@@@@@@@@@@@@@@@@@@@@@@@@@@@@@@@@@@@@@@@@@@@@@@@@@@@@@@@@@@@@@@@@@@@@",
"@@@@@@@@@@@@@@@@@@@@@@@@@@@@@@@@@@@@@@@@@@@@@@@@@@@@@@@@@@@@@@@@@@@@@@@@@@@@@@@@@@@@@@@@@@@@@@@@@@@@@@@@@@@@@@@@@@@@@@@@@@@@@@@@@@@@@@@@@@@@@@@@@@@@@@@@@@@@@@@@@@@@@@@@@@@@@@@@@@@@@@@@@@@@@@@@@@@@@@@@@@@@@@@@@@@@@@@@@@@@@@@@@@@@@@@@@@@@@@@@@@@@@@@@@@@@@@@@@@@@@@@@@@@@@@@@@@@@@@@@@@@@@@@@@@@@@@@@@@@@@@@@@@@@@@@@@@@@@@@@",
"@@@@@@@@@@@@@@@@@@@@@@@@@@@@@@@@@@@@@@@@@@@@@@@@@@@@@@@@@@@@@@@@@@@@@@@@@@@@@@@@@@@@@@@@@@@@@@@@@@@@@@@@@@@@@@@@@@@@@@@@@@@@@@@@@@@@@@@@@@@@@@@@@@@@@@@@@@@@@@@@@@@@@@@@@@@@@@@@@@@@@@@@@@@@@@@@@@@@@@@@@@@@@@@@@@@@@@@@@@@@@@@@@@@@@@@@@@@@@@@@@@@@@@@@@@@@@@@@@@@@@@@@@@@@@@@@@@@@@@@@@@@@@@@@@@@@@@@@@@@@@@@@@@@@@@@@@@@@@@@@",
"@@@@@@@@@@@@@@@@@@@@@@@@@@@@@@@@@@@@@@@@@@@@@@@@@@@@@@@@@@@@@@@@@@@@@@@@@@@@@@@@@@@@@@@@@@@@@@@@@@@@@@@@@@@@@@@@@@@@@@@@@@@@@@@@@@@@@@@@@@@@@@@@@@@@@@@@@@@@@@@@@@@@@@@@@@@@@@@@@@@@@@@@@@@@@@@@@@@@@@@@@@@@@@@@@@@@@@@@@@@@@@@@@@@@@@@@@@@@@@@@@@@@@@@@@@@@@@@@@@@@@@@@@@@@@@@@@@@@@@@@@@@@@@@@@@@@@@@@@@@@@@@@@@@@@@@@@@@@@@@@",
"@@@@@@@@@@@@@@@@@@@@@@@@@@@@@@@@@@@@@@@@@@@@@@@@@@@@@@@@@@@@@@@@@@@@@@@@@@@@@@@@@@@@@@@@@@@@@@@@@@@@@@@@@@@@@@@@@@@@@@@@@@@@@@@@@@@@@@@@@@@@@@@@@@@@@@@@@@@@@@@@@@@@@@@@@@@@@@@@@@@@@@@@@@@@@@@@@@@@@@@@@@@@@@@@@@@@@@@@@@@@@@@@@@@@@@@@@@@@@@@@@@@@@@@@@@@@@@@@@@@@@@@@@@@@@@@@@@@@@@@@@@@@@@@@@@@@@@@@@@@@@@@@@@@@@@@@@@@@@@@@",
"@@@@@@@@@@@@@@@@@@@@@@@@@@@@@@@@@@@@@@@@@@@@@@@@@@@@@@@@@@@@@@@@@@@@@@@@@@@@@@@@@@@@@@@@@@@@@@@@@@@@@@@@@@@@@@@@@@@@@@@@@@@@@@@@@@@@@@@@@@@@@@@@@@@@@@@@@@@@@@@@@@@@@@@@@@@@@@@@@@@@@@@@@@@@@@@@@@@@@@@@@@@@@@@@@@@@@@@@@@@@@@@@@@@@@@@@@@@@@@@@@@@@@@@@@@@@@@@@@@@@@@@@@@@@@@@@@@@@@@@@@@@@@@@@@@@@@@@@@@@@@@@@@@@@@@@@@@@@@@@@",
"@@@@@@@@@@@@@@@@@@@@@@@@@@@@@@@@@@@@@@@@@@@@@@@@@@@@@@@@@@@@@@@@@@@@@@@@@@@@@@@@@@@@@@@@@@@@@@@@@@@@@@@@@@@@@@@@@@@@@@@@@@@@@@@@@@@@@@@@@@@@@@@@@@@@@@@@@@@@@@@@@@@@@@@@@@@@@@@@@@@@@@@@@@@@@@@@@@@@@@@@@@@@@@@@@@@@@@@@@@@@@@@@@@@@@@@@@@@@@@@@@@@@@@@@@@@@@@@@@@@@@@@@@@@@@@@@@@@@@@@@@@@@@@@@@@@@@@@@@@@@@@@@@@@@@@@@@@@@@@@@",
"@@@@@@@@@@@@@@@@@@@@@@@@@@@@@@@@@@@@@@@@@@@@@@@@@@@@@@@@@@@@@@@@@@@@@@@@@@@@@@@@@@@@@@@@@@@@@@@@@@@@@@@@@@@@@@@@@@@@@@@@@@@@@@@@@@@@@@@@@@@@@@@@@@@@@@@@@@@@@@@@@@@@@@@@@@@@@@@@@@@@@@@@@@@@@@@@@@@@@@@@@@@@@@@@@@@@@@@@@@@@@@@@@@@@@@@@@@@@@@@@@@@@@@@@@@@@@@@@@@@@@@@@@@@@@@@@@@@@@@@@@@@@@@@@@@@@@@@@@@@@@@@@@@@@@@@@@@@@@@@@",
"@@@@@@@@@@@@@@@@@@@@@@@@@@@@@@@@@@@@@@@@@@@@@@@@@@@@@@@@@@@@@@@@@@@@@@@@@@@@@@@@@@@@@@@@@@@@@@@@@@@@@@@@@@@@@@@@@@@@@@@@@@@@@@@@@@@@@@@@@@@@@@@@@@@@@@@@@@@@@@@@@@@@@@@@@@@@@@@@@@@@@@@@@@@@@@@@@@@@@@@@@@@@@@@@@@@@@@@@@@@@@@@@@@@@@@@@@@@@@@@@@@@@@@@@@@@@@@@@@@@@@@@@@@@@@@@@@@@@@@@@@@@@@@@@@@@@@@@@@@@@@@@@@@@@@@@@@@@@@@@@",
"@@@@@@@@@@@@@@@@@@@@@@@@@@@@@@@@@@@@@@@@@@@@@@@@@@@@@@@@@@@@@@@@@@@@@@@@@@@@@@@@@@@@@@@@@@@@@@@@@@@@@@@@@@@@@@@@@@@@@@@@@@@@@@@@@@@@@@@@@@@@@@@@@@@@@@@@@@@@@@@@@@@@@@@@@@@@@@@@@@@@@@@@@@@@@@@@@@@@@@@@@@@@@@@@@@@@@@@@@@@@@@@@@@@@@@@@@@@@@@@@@@@@@@@@@@@@@@@@@@@@@@@@@@@@@@@@@@@@@@@@@@@@@@@@@@@@@@@@@@@@@@@@@@@@@@@@@@@@@@@@",
"@@@@@@@@@@@@@@@@@@@@@@@@@@@@@@@@@@@@@@@@@@@@@@@@@@@@@@@@@@@@@@@@@@@@@@@@@@@@@@@@@@@@@@@@@@@@@@@@@@@@@@@@@@@@@@@@@@@@@@@@@@@@@@@@@@@@@@@@@@@@@@@@@@@@@@@@@@@@@@@@@@@@@@@@@@@@@@@@@@@@@@@@@@@@@@@@@@@@@@@@@@@@@@@@@@@@@@@@@@@@@@@@@@@@@@@@@@@@@@@@@@@@@@@@@@@@@@@@@@@@@@@@@@@@@@@@@@@@@@@@@@@@@@@@@@@@@@@@@@@@@@@@@@@@@@@@@@@@@@@@"
};
