/* XPM */
static char *end_floor3_019[] = {
/* columns rows colors chars-per-pixel */
"320 200 91 1 ",
"  c #000000",
". c #0B0B0B",
"X c gray8",
"o c #1B1B1B",
"O c #00002C",
"+ c #00003C",
"@ c gray14",
"# c #2C2C2C",
"$ c #343434",
"% c #3C3C3C",
"& c #600000",
"* c #700404",
"= c #502400",
"- c #643000",
"; c #004400",
": c #005C00",
"> c #007400",
", c #000050",
"< c #000064",
"1 c #244870",
"2 c #444444",
"3 c #4C4C4C",
"4 c #545454",
"5 c #5C5C5C",
"6 c #646464",
"7 c #6C6C6C",
"8 c #747474",
"9 c #7C7C7C",
"0 c #840404",
"q c #980808",
"w c #C01010",
"e c #F80000",
"r c #C42424",
"t c #CC3838",
"y c #884404",
"u c #984C08",
"i c #AC580C",
"p c #94602C",
"a c #A06C3C",
"s c #C45018",
"d c #C06410",
"f c #C47024",
"g c #A8784C",
"h c #DC7C7C",
"j c #008C00",
"k c #00A400",
"l c #CC8038",
"z c #BC906C",
"x c #D09050",
"c c #D89C64",
"v c #DCAC7C",
"b c #D0D450",
"n c #D8D868",
"m c #040488",
"M c #0C0CAC",
"N c #2C5480",
"B c #346090",
"V c #3C6CA0",
"C c #4C78A8",
"Z c #1010C0",
"A c #4040D0",
"S c #7878E0",
"D c #5884B0",
"F c #6C90BC",
"G c #848484",
"H c #8C8C8C",
"J c #939393",
"K c #989898",
"L c #A0A0A0",
"P c #A8A8A8",
"I c #B0B0B0",
"U c #BCBCBC",
"Y c #D0B094",
"T c #ECB4B4",
"R c #E4C098",
"E c #E0E080",
"W c #ECD0B4",
"Q c #E0ECB4",
"! c #ECECB8",
"~ c #80A0C4",
"^ c #ECB4D0",
"/ c #C4C4C4",
"( c #CCCCCC",
") c #D4D4D4",
"_ c #DADADA",
"` c #E4D0C0",
"' c #D8D8F4",
"] c #E0E0E0",
"[ c #E8E8E8",
"{ c #F1F1F1",
"} c #FCFCFC",
/* pixels */
"@@@@@@@@@@@@@@@@@@@@@@@@@@@@@@@@@@@@@@@@@@@@@@@@@@@@@@@@@@@@@@@@@@@@@@@@@@@@@@@@@@@@@@@@@@@@@@@@@@@@@@@@@@@@@@@@@@@@@@@@@@@@@@@@@@@@@@@@@@@@@@@@@@@@@@@@@@@@@@@@@@@@@@@@@@@@@@@@@@@@@@@@@@@@@@@@@@@@@@@@@@@@@@@@@@@@@@@@@@@@@@@@@@@@@@@@@@@@@@@@@@@@@@@@@@@@@@@@@@@@@@@@@@@@@@@@@@@@@@@@@@@@@@@@@@@@@@@@@@@@@@@@@@@@@@@@@@@@@@@@",
"@@@@@@@@@@@@@@@@@@@@@@@@@@@@@@@@@@@@@@@@@@@@@@@@@@@@@@@@@@@@@@@@@@@@@@@@@@@@@@@@@@@@@@@@@@@@@@@@@@@@@@@@@@@@@@@@@@@@@@@@@@@@@@@@@@@@@@@@@@@@@@@@@@@@@@@@@@@@@@@@@@@@@@@@@@@@@@@@@@@@@@@@@@@@@@@@@@@@@@@@@@@@@@@@@@@@@@@@@@@@@@@@@@@@@@@@@@@@@@@@@@@@@@@@@@@@@@@@@@@@@@@@@@@@@@@@@@@@@@@@@@@@@@@@@@@@@@@@@@@@@@@@@@@@@@@@@@@@@@@@",
"@@@@@@@@@@@@@@@@@@@@@@@@@@@@@@@@@@@@@@@@@@@@@@@@@@@@@@@@@@@@@@@@@@@@@@@@@@@@@@@@@@@@@@@@@@@@@@@@@@@@@@@@@@@@@@@@@@@@@@@@@@@@@@@@@@@@@@@@@@@@@@@@@@@@@@@@@@@@@@@@@@@@@@@@@@@@@@@@@@@@@@@@@@@@@@@@@@@@@@@@@@@@@@@@@@@@@@@@@@@@@@@@@@@@@@@@@@@@@@@@@@@@@@@@@@@@@@@@@@@@@@@@@@@@@@@@@@@@@@@@@@@@@@@@@@@@@@@@@@@@@@@@@@@@@@@@@@@@@@@@",
"@@@@@@@@@@@@@@@@@@@@@@@@@@@@@@@@@@@@@@@@@@@@@@@@@@@@@@@@@@@@@@@@@@@@@@@@@@@@@@@@@@@@@@@@@@@@@@@@@@@@@@@@@@@@@@@@@@@@@@@@@@@@@@@@@@@@@@@@@@@@@@@@@@@@@@@@@@@@@@@@@@@@@@@@@@@@@@@@@@@@@@@@@@@@@@@@@@@@@@@@@@@@@@@@@@@@@@@@@@@@@@@@@@@@@@@@@@@@@@@@@@@@@@@@@@@@@@@@@@@@@@@@@@@@@@@@@@@@@@@@@@@@@@@@@@@@@@@@@@@@@@@@@@@@@@@@@@@@@@@@",
"@@@@@@@@@@@@@@@@@@@@@@@@@@@@@@@@@@@@@@@@@@@@@@@@@@@@@@@@@@@@@@@@@@@@@@@@@@@@@@@@@@@@@@@@@@@@@@@@@@@@@@@@@@@@@@@@@@@@@@@@@@@@@@@@@@@@@@@@@@@@@@@@@@@@@@@@@@@@@@@@@@@@@@@@@@@@@@@@@@@@@@@@@@@@@@@@@@@@@@@@@@@@@@@@@@@@@@@@@@@@@@@@@@@@@@@@@@@@@@@@@@@@@@@@@@@@@@@@@@@@@@@@@@@@@@@@@@@@@@@@@@@@@@@@@@@@@@@@@@@@@@@@@@@@@@@@@@@@@@@@",
"@@@@@@@@@@@@@@@@@@@@@@@@@@@@@@@@@@@@@@@@@@@@@@@@@@@@@@@@@@@@@@@@@@@@@@@@@@@@@@@@@@@@@@@@@@@@@@@@@@@@@@@@@@@@@@@@@@@@@@@@@@@@@@@@@@@@@@@@@@@@@@@@@@@@@@@@@@@@@@@@@@@@@@@@@@@@@@@@@@@@@@@@@@@@@@@@@@@@@@@@@@@@@@@@@@@@@@@@@@@@@@@@@@@@@@@@@@@@@@@@@@@@@@@@@@@@@@@@@@@@@@@@@@@@@@@@@@@@@@@@@@@@@@@@@@@@@@@@@@@@@@@@@@@@@@@@@@@@@@@@",
"@@@@@@@@@@@@@@@@@@@@@@@@@@@@@@@@@@@@@@@@@@@@@@@@@@@@@@@@@@@@@@@@@@@@@@@@@@@@@@@@@@@@@@@@@@@@@@@@@@@@@@@@@@@@@@@@@@@@@@@@@@@@@@@@@@@@@@@@@@@@@@@@@@@@@@@@@@@@@@@@@@@@@@@@@@@@@@@@@@@@@@@@@@@@@@@@@@@@@@@@@@@@@@@@@@@@@@@@@@@@@@@@@@@@@@@@@@@@@@@@@@@@@@@@@@@@@@@@@@@@@@@@@@@@@@@@@@@@@@@@@@@@@@@@@@@@@@@@@@@@@@@@@@@@@@@@@@@@@@@@",
"@@@@@@@@@@@@@@@@@@@@@@@@@@@@@@@@@@@@@@@@@@@@@@@@@@@@@@@@@@@@@@@@@@@@@@@@@@@@@@@@@@@@@@@@@@@@@@@@@@@@@@@@@@@@@@@@@@@@@@@@@@@@@@@@@@@@@@@@@@@@@@@@@@@@@@@@@@@@@@@@@@@@@@@@@@@@@@@@@@@@@@@@@@@@@@@@@@@@@@@@@@@@@@@@@@@@@@@@@@@@@@@@@@@@@@@@@@@@@@@@@@@@@@@@@@@@@@@@@@@@@@@@@@@@@@@@@@@@@@@@@@@@@@@@@@@@@@@@@@@@@@@@@@@@@@@@@@@@@@@@",
"@@@@@@@@@@@@@@@@@@@@@@@@@@@@@@@@@@@@@@@@@@@@@@@@@@@@@@@@@@@@@@@@@@@@@@@@@@@@@@@@@@@@@@@@@@@@@@@@@@@@@@@@@@@@@@@@@@@@@@@@@@@@@@@@@@@@@@@@@@@@@@@@@@@@@@@@@@@@@@@@@@@@@@@@@@@@@@@@@@@@@@@@@@@@@@@@@@@@@@@@@@@@@@@@@@@@@@@@@@@@@@@@@@@@@@@@@@@@@@@@@@@@@@@@@@@@@@@@@@@@@@@@@@@@@@@@@@@@@@@@@@@@@@@@@@@@@@@@@@@@@@@@@@@@@@@@@@@@@@@@",
"@@@@@@@@@@@@@@@@@@@@@@@@@@@@@@@@@@@@@@@@@@@@@@@@@@@@@@@@@@@@@@@@@@@@@@@@@@@@@@@@@@@@@@@@@@@@@@@@@@@@@@@@@@@@@@@@@@@@@@@@@@@@@@@@@@@@@@@@@@@@@@@@@@@@@@@@@@@@@@@@@@@@@@@@@@@@@@@@@@@@@@@@@@@@@@@@@@@@@@@@@@@@@@@@@@@@@@@@@@@@@@@@@@@@@@@@@@@@@@@@@@@@@@@@@@@@@@@@@@@@@@@@@@@@@@@@@@@@@@@@@@@@@@@@@@@@@@@@@@@@@@@@@@@@@@@@@@@@@@@@",
"@@@@@@@@@@@@@@@@@@@@@@@@@@@@@@@@@@@@@@@@@@@@@@@@@@@@@@@@@@@@@@@@@@@@@@@@@@@@@@@@@@@@@@@@@@@@@@@@@@@@@@@@@@@@@@@@@@@@@@@@@@@@@@@@@@@@@@@@@@@@@@@@@@@@@@@@@@@@@@@@@@@@@@@@@@@@@@@@@@@@@@@@@@@@@@@@@@@@@@@@@@@@@@@@@@@@@@@@@@@@@@@@@@@@@@@@@@@@@@@@@@@@@@@@@@@@@@@@@@@@@@@@@@@@@@@@@@@@@@@@@@@@@@@@@@@@@@@@@@@@@@@@@@@@@@@@@@@@@@@@",
"@@@@@@@@@@@@@@@@@@@@@@@@@@@@@@@@@@@@@@@@@@@@@@@@@@@@@@@@@@@@@@@@@@@@@@@@@@@@@@@@@@@@@@@@@@@@@@@@@@@@@@@@@@@@@@@@@@@@@@@@@@@@@@@@@@@@@@@@@@@@@@@@@@@@@@@@@@@@@@@@@@@@@@@@@@@@@@@@@@@@@@@@@@@@@@@@@@@@@@@@@@@@@@@@@@@@@@@@@@@@@@@@@@@@@@@@@@@@@@@@@@@@@@@@@@@@@@@@@@@@@@@@@@@@@@@@@@@@@@@@@@@@@@@@@@@@@@@@@@@@@@@@@@@@@@@@@@@@@@@@",
"@@@@@@@@@@@@@@@@@@@@@@@@@@@@@@@@@@@@@@@@@@@@@@@@@@@@@@@@@@@@@@@@@@@@@@@@@@@@@@@@@@@@@@@@@@@@@@@@@@@@@@@@@@@@@@@@@@@@@@@@@@@@@@@@@@@@@@@@@@@@@@@@@@@@@@@@@@@@@@@@@@@@@@@@@@@@@@@@@@@@@@@@@@@@@@@@@@@@@@@@@@@@@@@@@@@@@@@@@@@@@@@@@@@@@@@@@@@@@@@@@@@@@@@@@@@@@@@@@@@@@@@@@@@@@@@@@@@@@@@@@@@@@@@@@@@@@@@@@@@@@@@@@@@@@@@@@@@@@@@@",
"@@@@@@@@@@@@@@@@@@@@@@@@@@@@@@@@@@@@@@@@@@@@@@@@@@@@@@@@@@@@@@@@@@@@@@@@@@@@@@@@@@@@@@@@@@@@@@@@@@@@@@@@@@@@@@@@@@@@@@@@@@@@@@@@@@@@@@@@@@@@@@@@@@@@@@@@@@@@@@@@@@@@@@@@@@@@@@@@@@@@@@@@@@@@@@@@@@@@@@@@@@@@@@@@@@@@@@@@@@@@@@@@@@@@@@@@@@@@@@@@@@@@@@@@@@@@@@@@@@@@@@@@@@@@@@@@@@@@@@@@@@@@@@@@@@@@@@@@@@@@@@@@@@@@@@@@@@@@@@@@",
"@@@@@@@@@@@@@@@@@@@@@@@@@@@@@@@@@@@@@@@@@@@@@@@@@@@@@@@@@@@@@@@@@@@@@@@@@@@@@@@@@@@@@@@@@@@@@@@@@@@@@@@@@@@@@@@@@@@@@@@@@@@@@@@@@@@@@@@@@@@@@@@@@@@@@@@@@@@@@@@@@@@@@@@@@@@@@@@@@@@@@@@@@@@@@@@@@@@@@@@@@@@@@@@@@@@@@@@@@@@@@@@@@@@@@@@@@@@@@@@@@@@@@@@@@@@@@@@@@@@@@@@@@@@@@@@@@@@@@@@@@@@@@@@@@@@@@@@@@@@@@@@@@@@@@@@@@@@@@@@@",
"@@@@@@@@@@@@@@@@@@@@@@@@@@@@@@@@@@@@@@@@@@@@@@@@@@@@@@@@@@@@@@@@@@@@@@@@@@@@@@@@@@@@@@@@@@@@@@@@@@@@@@@@@@@@@@@@@@@@@@@@@@@@@@@@@@@@@@@@@@@@@@@@@@@@@@@@@@@@@@@@@@@@@@@@@@@@@@@@@@@@@@@@@@@@@@@@@@@@@@@@@@@@@@@@@@@@@@@@@@@@@@@@@@@@@@@@@@@@@@@@@@@@@@@@@@@@@@@@@@@@@@@@@@@@@@@@@@@@@@@@@@@@@@@@@@@@@@@@@@@@@@@@@@@@@@@@@@@@@@@@",
"@@@@@@@@@@@@@@@@@@@@@@@@@@@@@@@@@@@@@@@@@@@@@@@@@@@@@@@@@@@@@@@@@@@@@@@@@@@@@@@@@@@@@@@@@@@@@@@@@@@@@@@@@@@@@@@@@@@@@@@@@@@@@@@@@@@@@@@@@@@@@@@@@@@@@@@@@@@@@@@@@@@@@@@@@@@@@@@@@@@@@@@@@@@@@@@@@@@@@@@@@@@@@@@@@@@@@@@@@@@@@@@@@@@@@@@@@@@@@@@@@@@@@@@@@@@@@@@@@@@@@@@@@@@@@@@@@@@@@@@@@@@@@@@@@@@@@@@@@@@@@@@@@@@@@@@@@@@@@@@@",
"@@@@@@@@@@@@@@@@@@@@@@@@@@@@@@@@@@@@@@@@@@@@@@@@@@@@@@@@@@@@@@@@@@@@@@@@@@@@@@@@@@@@@@@@@@@@@@@@@@@@@@@@@@@@@@@@@@@@@@@@@@@@@@@@@@@@@@@@@@@@@@@@@@@@@@@@@@@@@@@@@@@@@@@@@@@@@@@@@@@@@@@@@@@@@@@@@@@@@@@@@@@@@@@@@@@@@@@@@@@@@@@@@@@@@@@@@@@@@@@@@@@@@@@@@@@@@@@@@@@@@@@@@@@@@@@@@@@@@@@@@@@@@@@@@@@@@@@@@@@@@@@@@@@@@@@@@@@@@@@@",
"@@@@@@@@@@@@@@@@@@@@@@@@@@@@@@@@@@@@@@@@@@@@@@@@@@@@@@@@@@@@@@@@@@@@@@@@@@@@@@@@@@@@@@@@@@@@@@@@@@@@@@@@@@@@@@@@@@@@@@@@@@@@@@@@@@@@@@@@@@@@@@@@@@@@@@@@@@@@@@@@@@@@@@@@@@@@@@@@@@@@@@@@@@@@@@@@@@@@@@@@@@@@@@@@@@@@@@@@@@@@@@@@@@@@@@@@@@@@@@@@@@@@@@@@@@@@@@@@@@@@@@@@@@@@@@@@@@@@@@@@@@@@@@@@@@@@@@@@@@@@@@@@@@@@@@@@@@@@@@@@",
"@@@@@@@@@@@@@@@@@@@@@@@@@@@@@@@@@@@@@@@@@@@@@@@@@@@@@@@@@@@@@@@@@@@@@@@@@@@@@@@@@@@@@@@@@@@@@@@@@@@@@@@@@@@@@@@@@@@@@@@@@@@@@@@@@@@@@@@@@@@@@@@@@@@@@@@@@@@@@@@@@@@@@@@@@@@@@@@@@@@@@@@@@@@@@@@@@@@@@@@@@@@@@@@@@@@@@@@@@@@@@@@@@@@@@@@@@@@@@@@@@@@@@@@@@@@@@@@@@@@@@@@@@@@@@@@@@@@@@@@@@@@@@@@@@@@@@@@@@@@@@@@@@@@@@@@@@@@@@@@@",
"@@@@@@@@@@@@@@@@@@@@@@@@@@@@@@@@@@@@@@@@@@@@@@@@@@@@@@@@@@@@@@@@@@@@@@@@@@@@@@@@@@@@@@@@@@@@@@@@@@@@@@@@@@@@@@@@@@@@@@@@@@@@@@@@@@@@@@@@@@@@@@@@@@@@@@@@@@@@@@@@@@@@@@@@@@@@@@@@@@@@@@@@@@@@@@@@@@@@@@@@@@@@@@@@@@@@@@@@@@@@@@@@@@@@@@@@@@@@@@@@@@@@@@@@@@@@@@@@@@@@@@@@@@@@@@@@@@@@@@@@@@@@@@@@@@@@@@@@@@@@@@@@@@@@@@@@@@@@@@@@",
"@@@@@@@@@@@@@@@@@@@@@@@@@@@@@@@@@@@@@@@@@@@@@@@@@@@@@@@@@@@@@@@@@@@@@@@@@@@@@@@@@@@@@@@@@@@@@@@@@@@@@@@@@@@@@@@@@@@@@@@@@@@@@@@@@@@@@@@@@@@@@@@@@@@@@@@@@@@@@@@@@@@@@@@@@@@@@@@@@@@@@@@@@@@@@@@@@@@@@@@@@@@@@@@@@@@@@@@@@@@@@@@@@@@@@@@@@@@@@@@@@@@@@@@@@@@@@@@@@@@@@@@@@@@@@@@@@@@@@@@@@@@@@@@@@@@@@@@@@@@@@@@@@@@@@@@@@@@@@@@@",
"@@@@@@@@@@@@@@@@@@@@@@@@@@@@@@@@@@@@@@@@@@@@@@@@@@@@@@@@@@@@@@@@@@@@@@@@@@@@@@@@@@@@@@@@@@@@@@@@@@@@@@@@@@@@@@@@@@@@@@@@@@@@@@@@@@@@@@@@@@@@@@@@@@@@@@@@@@@@@@@@@@@@@@@@@@@@@@@@@@@@@@@@@@@@@@@@@@@@@@@@@@@@@@@@@@@@@@@@@@@@@@@@@@@@@@@@@@@@@@@@@@@@@@@@@@@@@@@@@@@@@@@@@@@@@@@@@@@@@@@@@@@@@@@@@@@@@@@@@@@@@@@@@@@@@@@@@@@@@@@@",
"@@@@@@@@@@@@@@@@@@@@@@@@@@@@@@@@@@@@@@@@@@@@@@@@@@@@@@@@@@@@@@@@@@@@@@@@@@@@@@@@@@@@@@@@@@@@@@@@@@@@@@@@@@@@@@@@@@@@@@@@@@@@@@@@@@@@@@@@@@@@@@@@@@@@@@@@@@@@@@@@@@@@@@@@@@@@@@@@@@@@@@@@@@@@@@@@@@@@@@@@@@@@@@@@@@@@@@@@@@@@@@@@@@@@@@@@@@@@@@@@@@@@@@@@@@@@@@@@@@@@@@@@@@@@@@@@@@@@@@@@@@@@@@@@@@@@@@@@@@@@@@@@@@@@@@@@@@@@@@@@",
"@@@@@@@@@@@@@@@@@@@@@@@@@@@@@@@@@@@@@@@@@@@@@@@@@@@@@@@@@@@@@@@@@@@@@@@@@@@@@@@@@@@@@@@@@@@@@@@@@@@@@@@@@@@@@@@@@@@@@@@@@@@@@@@@@@@@@@@@@@@@@@@@@@@@@@@@@@@@@@@@@@@@@@@@@@@@@@@@@@@@@@@@@@@@@@@@@@@@@@@@@@@@@@@@@@@@@@@@@@@@@@@@@@@@@@@@@@@@@@@@@@@@@@@@@@@@@@@@@@@@@@@@@@@@@@@@@@@@@@@@@@@@@@@@@@@@@@@@@@@@@@@@@@@@@@@@@@@@@@@@",
"@@@@@@@@@@@@@@@@@@@@@@@@@@@@@@@@@@@@@@@@@@@@@@@@@@@@@@@@@@@@@@@@@@@@@@@@@@@@@@@@@@@@@@@@@@@@@@@@@@@@@@@@@@@@@@@@@@@@@@@@@@@@@@@@@@@@@@@@@@@@@@@@@@@@@@@@@@@@@@@@@@@@@@@@@@@@@@@@@@@@@@@@@@@@@@@@@@@@@@@@@@@@@@@@@@@@@@@@@@@@@@@@@@@@@@@@@@@@@@@@@@@@@@@@@@@@@@@@@@@@@@@@@@@@@@@@@@@@@@@@@@@@@@@@@@@@@@@@@@@@@@@@@@@@@@@@@@@@@@@@",
"@@@@@@@@@@@@@@@@@@@@@@@@@@@@@@@@@@@@@@@@@@@@@@@@@@@@@@@@@@@@@@@@@@@@@@@@@@@@@@@@@@@@@@@@@@@@@@@@@@@@@@@@@@@@@@@@@@@@@@@@@@@@@@@@@@@@@@@@@@@@@@@@@@@@@@@@@@@@@@@@@@@@@@@@@@@@@@@@@@@@@@@@@@@@@@@@@@@@@@@@@@@@@@@@@@@@@@@@@@@@@@@@@@@@@@@@@@@@@@@@@@@@@@@@@@@@@@@@@@@@@@@@@@@@@@@@@@@@@@@@@@@@@@@@@@@@@@@@@@@@@@@@@@@@@@@@@@@@@@@@",
"@@@@@@@@@@@@@@@@@@@@@@@@@@@@@@@@@@@@@@@@@@@@@@@@@@@@@@@@@@@@@@@@@@@@@@@@@@@@@@@@@@@@@@@@@@@@@@@@@@@@@@@@@@@@@@@@@@@@@@@@@@@@@@@@@@@@@@@@@@@@@@@@@@@@@@@@@@@@@@@@@@@@@@@@@@@@@@@@@@@@@@@@@@@@@@@@@@@@@@@@@@@@@@@@@@@@@@@@@@@@@@@@@@@@@@@@@@@@@@@@@@@@@@@@@@@@@@@@@@@@@@@@@@@@@@@@@@@@@@@@@@@@@@@@@@@@@@@@@@@@@@@@@@@@@@@@@@@@@@@@",
"@@@@@@@@@@@@@@@@@@@@@@@@@@@@@@@@@@@@@@@@@@@@@@@@@@@@@@@@@@@@@@@@@@@@@@@@@@@@@@@@@@@@@@@@@@@@@@@@@@@@@@@@@@@@@@@@@@@@@@@@@@@@@@@@@@@@@@@@@@@@@@@@@@@@@@@@@@@@@@@@@@@@@@@@@@@@@@@@@@@@@@@@@@@@@@@@@@@@@@@@@@@@@@@@@@@@@@@@@@@@@@@@@@@@@@@@@@@@@@@@@@@@@@@@@@@@@@@@@@@@@@@@@@@@@@@@@@@@@@@@@@@@@@@@@@@@@@@@@@@@@@@@@@@@@@@@@@@@@@@@",
"@@@@@@@@@@@@@@@@@@@@@@@@@@@@@@@@@@@@@@@@@@@@@@@@@@@@@@@@@@@@@@@@@@@@@@@@@@@@@@@@@@@@@@@@@@@@@@@@@@@@@@@@@@@@@@@@@@@@@@@@@@@@@@@@@@@@@@@@@@@@@@@@@@@@@@@@@@@@@@@@@@@@@@@@@@@@@@@@@@@@@@@@@@@@@@@@@@@@@@@@@@@@@@@@@@@@@@@@@@@@@@@@@@@@@@@@@@@@@@@@@@@@@@@@@@@@@@@@@@@@@@@@@@@@@@@@@@@@@@@@@@@@@@@@@@@@@@@@@@@@@@@@@@@@@@@@@@@@@@@@",
"@@@@@@@@@@@@@@@@@@@@@@@@@@@@@@@@@@@@@@@@@@@@@@@@@@@@@@@@@@@@@@@@@@@@@@@@@@@@@@@@@@@@@@@@@@@@@@@@@@@@@@@@@@@@@@@@@@@@@@@@@@@@@@@@@@@@@@@@@@@@@@@@@@@@@@@@@@@@@@@@@@@@@@@@@@@@@@@@@@@@@@@@@@@@@@@@@@@@@@@@@@@@@@@@@@@@@@@@@@@@@@@@@@@@@@@@@@@@@@@@@@@@@@@@@@@@@@@@@@@@@@@@@@@@@@@@@@@@@@@@@@@@@@@@@@@@@@@@@@@@@@@@@@@@@@@@@@@@@@@@",
"@@@@@@@@@@@@@@@@@@@@@@@@@@@@@@@@@@@@@@@@@@@@@@@@@@@@@@@@@@@@@@@@@@@@@@@@@@@@@@@@@@@@@@@@@@@@@@@@@@@@@@@@@@@@@@@@@@@@@@@@@@@@@@@@@@@@@@@@@@@@@@@@@@@@@@@@@@@@@@@@@@@@@@@@@@@@@@@@@@@@@@@@@@@@@@@@@@@@@@@@@@@@@@@@@@@@@@@@@@@@@@@@@@@@@@@@@@@@@@@@@@@@@@@@@@@@@@@@@@@@@@@@@@@@@@@@@@@@@@@@@@@@@@@@@@@@@@@@@@@@@@@@@@@@@@@@@@@@@@@@",
"@@@@@@@@@@@@@@@@@@@@@@@@@@@@@@@@@@@@@@@@@@@@@@@@@@@@@@@@@@@@@@@@@@@@@@@@@@@@@@@@@@@@@@@@@@@@@@@@@@@@@@@@@@@@@@@@@@@@@@@@@@@@@@@@@@@@@@@@@@@@@@@@@@@@@@@@@@@@@@@@@@@@@@@@@@@@@@@@@@@@@@@@@@@@@@@@@@@@@@@@@@@@@@@@@@@@@@@@@@@@@@@@@@@@@@@@@@@@@@@@@@@@@@@@@@@@@@@@@@@@@@@@@@@@@@@@@@@@@@@@@@@@@@@@@@@@@@@@@@@@@@@@@@@@@@@@@@@@@@@@",
"@@@@@@@@@@@@@@@@@@@@@@@@@@@@@@@@@@@@@@@@@@@@@@@@@@@@@@@@@@@@@@@@@@@@@@@@@@@@@@@@@@@@@@@@@@@@@@@@@@@@@@@@@@@@@@@@@@@@@@@@@@@@@@@@@@@@@@@@@@@@@@@@@@@@@@@@@@@@@@@@@@@@@@@@@@@@@@@@@@@@@@@@@@@@@@@@@@@@@@@@@@@@@@@@@@@@@@@@@@@@@@@@@@@@@@@@@@@@@@@@@@@@@@@@@@@@@@@@@@@@@@@@@@@@@@@@@@@@@@@@@@@@@@@@@@@@@@@@@@@@@@@@@@@@@@@@@@@@@@@@",
"@@@@@@@@@@@@@@@@@@@@@@@@@@@@@@@@@@@@@@@@@@@@@@@@@@@@@@@@@@@@@@@@@@@@@@@@@@@@@@@@@@@@@@@@@@@@@@@@@@@@@@@@@@@@@@@@@@@@@@@@@@@@@@@@@@@@@@@@@@@@@@@@@@@@@@@@@@@@@@@@@@@@@@@@@@@@@@@@@@@@@@@@@@@@@@@@@@@@@@@@@@@@@@@@@@@@@@@@@@@@@@@@@@@@@@@@@@@@@@@@@@@@@@@@@@@@@@@@@@@@@@@@@@@@@@@@@@@@@@@@@@@@@@@@@@@@@@@@@@@@@@@@@@@@@@@@@@@@@@@@",
"@@@@@@@@@@@@@@@@@@@@@@@@@@@@@@@@@@@@@@@@@@@@@@@@@@@@@@@@@@@@@@@@@@@@@@@@@@@@@@@@@@@@@@@@@@@@@@@@@@@@@@@@@@@@@@@@@@@@@@@@@@@@@@@@@@@@@@@@@@@@@@@@@@@@@@@@@@@@@@@@@@@@@@@@@@@@@@@@@@@@@@@@@@@@@@@@@@@@@@@@@@@@@@@@@@@@@@@@@@@@@@@@@@@@@@@@@@@@@@@@@@@@@@@@@@@@@@@@@@@@@@@@@@@@@@@@@@@@@@@@@@@@@@@@@@@@@@@@@@@@@@@@@@@@@@@@@@@@@@@@",
"@@@@@@@@@@@@@@@@@@@@@@@@@@@@@@@@@@@@@@@@@@@@@@@@@@@@@@@@@@@@@@@@@@@@@@@@@@@@@@@@@@@@@@@@@@@@@@@@@@@@@@@@@@@@@@@@@@@@@@@@@@@@@@@@@@@@@@@@@@@@@@@@@@@@@@@@@@@@@@@@@@@@@@@@@@@@@@@@@@@@@@@@@@@@@@@@@@@@@@@@@@@@@@@@@@@@@@@@@@@@@@@@@@@@@@@@@@@@@@@@@@@@@@@@@@@@@@@@@@@@@@@@@@@@@@@@@@@@@@@@@@@@@@@@@@@@@@@@@@@@@@@@@@@@@@@@@@@@@@@@",
"                          646456889GHKLPIU/(/UIPLKHG9878HKH5                       777777377777O                                                            Z                                                                                              LLGGLLGG8888889LLL8899999995559999           O                       ",
"                         %646456889GHKLPIU/(/UIPLKHG9878HKH5%                          777777                                       O                        ,                                                                                            LLLLGGGG888888888888999999955999999                               ,O  ",
"                         2646456889GHKLPIU/(/UIPLKHG9878HKH52     ,                      777                                                                                                                      ,                                       LLLLGGG8899988889889999995555559999                                   ",
"                         3646456889GHKLPIU/(/UIPLKHG9878HKH53                            777                                                                                                                                                             99LL5G5589999999999989555555555599999                                  ",
"     '                   4646456889GHKLPIU/(/UIPLKHG9878HKH54                                      O                    O                                                                   O                                                            99LL5G5589999999999989555555555599999           ,                      ",
"                         5646456889GHKLPIU/(/UIPLKHG9878HKH55                                                                                                                                                                                            9   5 55599999  999999555555 55559999 ,                                ",
"       O    ,            6646456889GHKLPIU/(/UIPLKHG9878HKH55              '                                                                                                                           O                                                           999    599GGGG55GG  555599                                   ",
"          O              6646456889GHKLPIU/(/UIPLKHG9878HKH55                '                                                                    O                                                        y                         '            +                55    5555GGGGGGGG /PP55GGG                                  ",
"                 ,       5646456889GHKKPIU/(/UIPLKHG9878HKH55  Z     ,                                                                      O                                   ' O                         y                       Z                          2GGG55GGGG5555GGHGGGGG/PPU55GGG                               ,  ",
"                         5646456889GHKLPIU/(/UIPLKHG9878HKH55                                                O                Z     ,                                                              .   . 5y                 +                              2GGGG77799977755555GGG5GG/PPU9 GGGG                    ,             ",
"                         5646456889GHKLPIU/(/UIPLKHG9878HKH55          O                           O           O                                                                                      =yy u y                             ,     O        2GG77777777777777777777777GGGU9 5   G                                  ",
"                         5476456889GHKLPIU/(/UIPLKHG9878HKH55                                                                                                               O              ,       5==y5yyyyy6                                          2G777777555555555555555577777792                                        ",
"                         5476456889GHKLPIU/(/UIPLKHG9878HKH85                           ,                                                      ,                                O         55=  ===66655uuagay    zu.                                   2G7775555                5555777G2                      'O              O",
"        O                5476456889GHKLPIU/(/UIPKKHG9878HKH85                                                                                                                           y555yyyy=z56665uazz5z6a5zzz5                                   G7755   488888888888888884   5577G                                       ",
"                         5476456889GHKLPIU/(/UIPPKHG9878HKH95       O                                                                               ,       = g               =X    z5y =5565y6666a66z6pgz6agzz65g  =    X                             775  488888KLPIU/(/UIPKK88884  577                                       ",
"                         5476456889GHKKPIU/(/UIPKKHG98789HKH5                                                                        O                        Y5              y=  y6555655656666zz6zYYca56Y6cccxau5=     =                      O      75 886889GHKLPIU/(/UIPLKHG97888 57                                   O   ",
"               O        O5476456889GHKLPIU/(/UIPLKHG98788HKH5         ,                       ,             ,                               O                uu  O          5 5556ya6`z56556zzz66aYYcRgKRR`RYYYYYK6u==                                 5 7645689GHKLPIU/(/UIPLKHG978HK8 5                                       ",
"                     '   5476456889GHKLPIU/(/UIPLKHG98788HKH5                                                            O                          ,        yO       ,  a y 6=6K6K6R5zzKK6zzKzzzzRRxxYYR```R`````RKa5 ==                      O        67645689GHKLPIU/(/UIPLKHG978HKH5                                        ",
"                        %5476456889GHKLPIU/(/UIPLKHG98788HKH5%                                            O                        O                         O            y6z5y56`66R66``RRYKzgKY``YYYRR```R```R````Y5y55                              %67645689GHKLPIU/(/UIPLKHG978HKH5%                                       ",
"                        25476456889GHKLPIU/(/UIPLKHG98788HKH52                                     ,                                                      ,          -    ,a y6z6azR``R`````RRRRRRYYRR````R``YRR````Yz65y                      +       267645689GHKLPIU/(/UIPLKHG978HKH52   '                                   ",
"        ,          ,    35476456889GHKLPIU/(/UIPLKHG98788HKH53                                                                                                    -     , gz5RaaRgzR`R`````````````Y````````R`R``````Yzy=                          O   367645689GHKLPIU/(/UIPLKHG978HKH53                  O     ,              ",
"                        45476456889GHKLPIU/(/UIPLKHG98788HKH54              O                                                                                u =          6g56agxYa`YR``````````YYYYYYRR```````RRY^``R`65yy                            467645689GHKLPIU/(/UIPKKHG978HKH54            O       ,       OZ         ",
"              Z         55476456889GHKLPIU/(/UIPLKHG98788HKH55                                   ,            O            '           O O                     =        y-aya5u6caR```^``^R``RYYYY`R`````^`^``RRR``RRY`zu5y=                           567645689GHKLPIU/(/UIPLKHG978HKH55                                       ",
"         ,              65476456889GHKLPIU/(/UIPLKHG98788HKH55       ,        O                                                                                y pp  --#-yu5y5pazxc^`^^^^`TRRRRRR````````````RYYYR`RRRYzpa5                            667645689GHKLPIU/(/UIPLKHG978HKH55                                       ",
"                        65476456889GHKLPIU/(/UIPLKHG98788HKH55                                                O                 ,      ,       O              u 5=y==pyuupaxaRczcccYR^^^^^```RRR`````````````RYYRRRvRR`g5z=                          Z 667645689GHKLPIU/(/UIPLKHG978HKH55                                       ",
"            O           55476456889GHKLPIU/(/UIPLKHG98788HKH55                                                                                                 y5yp paa5pgccR``cccvR`^^^^`````RR``````````````RYYRvRRRYzpapyy                          567645689GHKLPIU/(/UIPLKHG978HKH55                                       ",
"                        55476456889GHKLPIU/(/UIPLKHG98788HKH55                                                            O     O                         O    --p6pyau6paaz`^`^cYR``^^^^``RRR````````````````RYRRR`RRYczzzz                           567645689GHKLPIU/(/UIPLKHG978HKH95                                       ",
"                        55476456889GHKLPIU/(/UIPLKHG98788HKH55                                                                                                   -a-yuup5paccx^xcR`^`^^^^^``````````````````RRRYRRRRR`RRYY`zp                          567645689GHKLPIU/(/UPPLKHG9789HKH5                                       ",
"                        55476456889GHKLPIU/(/UIPLKHG98788HKH55                                          OO                                                    ,  uy-uupaaac^cgcacv`^^^^^`````````T````````RRRYYYRRRv````R```  py=           O          567645689GHKLPIU/(/UIPLKHG9788HKH5        O                              ",
"                        55476456889GHKKPIU/(/UIPLKHG98788HKH55                 ,                  ,                                                        O    X=yuppppaggcggg^cR^^^`^`RTTT````TT````````RR`YYRRRRRR``````gyz  =                      567645689GHKLPUU/(/UIPLKHG9788HKH5                                       ",
"      ,                 55476456889GHKLPIU/(/UIPLKHG98788HKH55                          O                               O                                       qp5upppaaaxgfx^^^x^^`^`RYTTT`````T```````RR```RYYYRRRRR```Rz`Ya    O                   567645689GHKLPPU/(/UIPLKHG9788HKH5                                       ",
"                        55476456889GHKKPIU/(/UIPLKHG98788HKH55             Z                                                           O   O                  pp upaapawfggxcg`Y^^^cYRv``TTTT```T``RRYRRR``RRRRRRRRRRRR````YaY       O                 567645689GHKLPIU/(/UIPLKHG9788HKH5               , O                     ",
"     O                  54675456889GHKPPIU/(/UIPLKHG98878HKH55                                                        ,                                          ==p.wg*gcgxcg^c^cccbcccc^RRT``TTTRRRRYY``RR`RYRRRRR``R`Y``Yzp=                        567645689GHKLPIU/(/UIPLKHG9878HKH5                                       ",
"                        54764567889GHKLPIU/(/UIPLKHG98878HKH55                                                          O                                     --w=-papw*xqqgq`g^f^cccccvcT^TT```YRTTTRRRRRRRRRYYRRRRvRRvY```Yay                        566456789GHKLPIU/(/UIPLKHG9878HKH5                                       ",
"                        54764568889GHKLPIU/(/UIPLKHG98878HKH85                                                                                             8 *qcq**q*aqwwcq*wcTccccYvTcvvRxYcTT```TTRRRRRRRRRRYYYRRYRvR0Y`*`Ya                         676456889GHKLPIU/(/UIPLKHG9878HKH5                                       ",
"                       %54764568889GHKLPIU/(/UIPLKHG98878HKH95%                                                                                        , 337qq* *5*ww*ccx*cccccccxxhTvTcchccRTTW``RRRRRYRRRRRRYYYYRYvwcc0```Yg=Ky=                    %676456889GHKLPPU/(/UIPLKHG9878HKH5%     ,                       ,        ",
"       ,               254764568889GHKLPIU/(/UIPLKHG988789HKH52             ,                                                             O           3337777wlwc*qlwqwccxlvqccchxxccRvvTcRw*svTTRRRRRYYRRRRR*RYY0vvYcwRr*rrRKYzzz                    2676456889GHKLPUU/(/UIPLKHG9878HKH52           ,                          ",
"           ,           354764568889GHKLPIU/(/UIPLKHG988788HKH53                                                                                     333779877l.ccclcccqwqclvrw0*xxxcYcTcvYYcfsTRRRRRRYYYYYYR0wRRR0vcwc*w0Rw`R`Ya=--                   3676456889GHKLPIU/(/UIPLKHG9878HKH53                                      ",
"                       554764568889GHKLPIU/(/UIPLKHG988788HKH54                                                                         O        333337999877ccccclllllcclb0lbxccccrcc*YvYcgcscRRRRRYYwYRYRRRRwRRRY00*v0RR`RYgYpuy                    4676456889GHKLPPU/(/UIPLKHG9878HKH54                                     Z",
"                       554764568889GHKL852%#%3259KHG988788HKH55                                         A   ,  O                   O          3333777G999987795RR7YccvRvcRvlbcxwcRfwwcY*YKzwcfw*sRRRYvYYYRYYR0RwRYYw0*r0R```YK6uyuu-   O              5676456889GHKLPIU/(/UIPLKHG9878HKH55                                      ",
"                       554764568889GH53@$633$@5%$35G988788HKH55                                        ZSZ             ,         ,        333333779899G999987K556bbbbbbbRlcdbfwvwr*whYYYYcgcwc0f**Rwv*w*f*RR*RwwwY**00rv00RYYqYpu- =                 ,6676456889GHKLPIU/(/UIPLKHG9878HKH55                           O          ",
"                       55476456888972%#8@9%H2 92##23888788HKH55                                       AS'SA                           3333333399999899G99999K5n56!nnvbbvYcfrcwwc*wwcYYYYYYxxqwf0w00ww*YwfR*RRwrfw0*wfffrwrYrYYYpu=                  , 6676456889GHKLPIU/(/UIPLKHG9878HKH55                                      ",
"                       554764568884$$3#(G     o2_7o#%68788HKH55                                        ZSZ                         3333333777999999899G99zDI5nn66Q!Rvlvvf0fccwqdYR*YYRYwY*0crwfwwrwrr*wwwwRRwwfw000rfffwqwrYwaguu= uu                 5676456889GHKLPIU/(/UIPLKHG9878HKH55               '                      ",
"                      %5547645688423$H7o#%6887$.7H223%7788HKH55                      ,                  A                      3333333777799G999999899z9JKK95nn5nnEERnblcllvllYr0w**RRw0ccrc0fc*rwr00**qfRfRwfww*ww*ffrw*wfwrr**pu  y                 5676456889GHKLPPU/(/UPPKKHG9878HKH55                  O                   ",
"         ,            255476456863X6P@#5U{}}}}[I$ 7L@#%788HKH55      ,       //      P/                                     3333377777999999G999999GGGDKKI/lv5R5bnnbbncvvcccnllfrww*YYYqcccwwqw0qffffwr0*wfrwww0rwwrrwrr*f**wq0*0u-                   5676456889GHKL862%#%3359KHG9878HKH55       O                              ",
"                      3554764568$% .$ P}{))_))_}}Go%  3%88HKH55             PPP/    /UP/                                333337777G99999999999G99999zJKKKI//9c5v6RbbbbRRRRvvvvcclfww**YcY*r*0wwwrwrwrftflrvrvrv*wwwwrwwwfrrr*r0u*uy-y=-                5676456889GH63@$633$@52$36G9878HKH55                                      ",
"                      45547645643.   )}))[}}__}[}}U   o268HKH55             9UPP/   9/UP/                             33377779999G99999999999GGGGGJKKKKI/G25n56vbbbccRbnnnnRRvclwfYwYfwwqr0wwwrrrddrlwfrwffww*wfrrlfftncffwfwq*uryyyyy                567645688972$#8@9%H2 92##238878HKH55                                      ",
"                      555476456%$   P}))}UH8((H9KH/7   228HKH55              9UPP/   9/UP/        ,               3366677KHG99999G999999999GGGKKKKKKJPPUGvvnn555nnbRvRbnEEnnbRvlff*wYYccrqwqwrrfffftlffffwrfffflrvfflfllfwwqlq0uyyuyy O     ,         5676456885$$3#(G     o%_7X#%678HKH55                                      ",
"                      5554764542.  3}))}U. $}G 74  )%  @%8HKH55               9UPP/   9/UP/                     7776666GHKHG99999G99999999GKKKKKKKKPII/zcvbbEnEEnbRvvvRnnEnnbRKlfYwfwcc**wqwrrffllllflfffwvvfrrvdRfnccllffww0*quy*yyyy                56764568323$H7X#26787$.7J223%58HKH95                                      ",
"   Z                  55547645%$   U})}/  3}}6%}7  _K   %4HKH55                9UPP/   9/UP/                    999G86668HKHG99999G999GGGGKKKKKKKKPII//fcvvbnn7nRYvcvvvRbbnnbvcKKYY*cc**0wwrffllllllvllfflvfvclflRfEnlcclllwq**wuyu-y                 567645662X7P@#5U{}}}}[I$ 7P@#%89HKH5                                      ",
"                      555476452#  X[_}/  3}[_U{}# .[)   %3HKH55                 9UPP/   9/GGGGGGGGGGGGG2        999G966666KHG9999GGGGGKKKKKKKKKKPPI//D2flcvvbb55ncllvccvvRvccclfrw*ccc*0qrrflllllccccclvlcvfvfvlrfffRfvllcfrr0rw0yy= -                5676456%% .$ P}[_))_)_}}Go%  328HKH5                         ,         ,  ",
"                      55547645#G. 9[}/. 4}}_)}}% .)})4 #9%HKH55                  9UPP/GGGG7777777777777GGGG2     99G9%%%%%KHGGGGGKKKKKKKKKKKKKPPII/F%*wrflc39PPPPPPPPPPPPPPPPPPPPPPPP8888PP93llccvvvcvflcvvviYvlRffEnElcllffwl*ry--  ,-               56764523.   )}))[}}__}[}}U   o26HKH5                                      ",
"            ,         55547545#KH8P[U. 5}{_]]]2 o(}]/K8JG$HKH55     ,             9UGG777777777777777777777GG2    9G%99KGG%GGKKKKKKKKKKKKKKKPPIIUU 3zPPLPPPPPLKKKKKKKKKKLPLKKLPIU(UIPKKKKKKPPPPPPPP88vccYvvvvvcvRlRffEnllclfrf*uyy--   ,             %567645%$   I}))}UH8((H9KH/7   22HKH5%                                     ",
"                      55467455#GUKH}@  $$@@@PP  G}KI)GIP7%HKH55                   297777775555555555555777777G2    G99PKK(I%KKKKKKKKKKKKKKPPPI///zPPLz9DKKKKJLKKKKKKKKKKLPLKJLPIU(UIPKKKKKKKKKKKKKKKK8893vvvvvYRREElEfnnllffqq*f*su-             O   25676432.  3}))}/. #}G 64  )%  @%HKH52      ,                              ",
"                      55467455@9LKH[o       JP  KP P_9LL6%HKH55                  2G7775555             5555777G2    P99I(PP%KKKKKKKKKKKKPPIII/2PLLKLJFDzKKKKKLKKKKKKKKKKLPLKKLPIU(UIPLKKKKKKKKKKKKKKKKKKPP5vvvvRvnnnlEcbvcfrf0dw0puy                 356764%$   I})}/  3}}6%}7  _K   %6KH53                                     ",
"                      55467455#G74G/PGGHK6  KUoo8@X_/83H52HKH55                  G7755   488888888888884   5577G   99I((((PKKKKKKKKKKKPPII///GHKLLKLJDDzKKKKKLKKKKKKKKKJLPLKKLPIU(UIPLKKKKKKKKKKKKKKKKKKKHKH4vREEnnlnlcnvbvfwq*wuuyy==      ,        456764%#  X[_}U  4}]_/{}$ .[)   %4KH54             ,                       ",
"                      5546745524HKJJ}}}}}I  7}__/(_]HKJH$7HKH55                  775  488888KLPIUUIPLK88884  577 9P9(((PPKKKKKKKKPPPPPII//8GHKHKLLKLJz9DKKKKKLKKKJKKKKKKLPLKKLPIU(UIPKKKKKKKKKKKKKKKKKKKKHKHz8EnEEEElnbbvfvdwwquupyyy     O  ,       556764#G. 9[}/. 4}{_)}}% .(})4 #92KH55                             O       ",
"          ,        Z  554674555@KL88([)_}K  8}]]__}I78PG@8HKH55                  75 886889GHKLPIUUIPLKHG97888 579P99((PP(KKKKPPPPIIIII///G8GHKHKLLKLKzzzKKKKKLJHKJKKJKJHLPLKKLPIU(UIPLKKKKKKKKKKKKKKKKKKKHKHD75RnnEbbnnbElcfwd0*yu5y                 656764@KH7P{U. 5}{_]]]2 o(}_(K9JG2KH55                        ,            ",
"                      554674556$893J9]]))/UU(__)){(9G3K348HKH55%     '           5 7645689GHKLPIUUIPLKHG978HK8 599I(PP(PKIPPPPIII/////9  58GHKHKLLKLKDDHKKKKHGGzD9zD9zDzCzCzDgFgGGGGGGGGGGGHKKKKKKKKKKKKKHKHz65nnrfnvnnRvclffrw--uu5OO     O         656764#GUKH}@  $$@#@PP  H}KP_9UP7%KH55                                     ",
"                      5546745567@JPPH9_{)_{{]))_{(9JPP9o88HKH552          ,       67645689GHKLPIUUIPLKHG978HKH9PI((((PKKI/III////xx      58GHKHKLLHGGGGGGGGG84%%%%%%%%%%%%%%%%%%%%%%%%%%%%48GGGGGGzDzFKKzDKHD85nRnnbnnnwvclfwr*--= --                556764@9LKG{@       JP  KP P]9LK62KH55       <                             ",
"                      554674556833LL%4HU][]]][[_I857PJ#588HKH553                 %67645689GHKKPIUUIPLKHG978H9P99((PPGK///G///  xxW       58GHGGGGG84%%%%%%%%%%$$$$$$$$$$$$$$$$$$$$$$$$$$$$%%%%%%%$$%27zDGzDHz85REnEnnRvd0llfr0*                      556764#983H/PGHHK6  KUoo8@X_/83H55KH55      ,m,                            ",
"                     %55467455688#795647KU///UIJ9634932788HKH854                 267645689GHKLPIUUIPLKHG978H99I(PP(PP   2       x        58G83%%%%%%$$$68HLIUUUUUUUUUUUUUUUUUUUUUUUUUUUUUUUUILH86$$$$%%%%%38975RERRnRvvcclffw0*O                     556764%4HKHJ}}}}}P  7}__((_]HKHJ$9KH55     <mMm<                           ",
"                     2554674556888#5P6332449G626$2G63%8788HKH955                 367645689GHKLPIUUIPLKHG97899I((P(P8                     53 68HLUUUUUUUUUILPIPLLLLLLLLLLPIPLPIU/_][{[]_/UflLLLLIUUURRUUILH86v35RRRRvvvvcllfrw0*                    , 5567645@KK88([))}K  8}]]]_}I79PG@HKH55      ,m,                            ",
"                     35546745568889%379435548L4828G23888788HKH55                 467645689GHKLPIUUIPLKHG99P9(((PP8                        389GHGLPLHG9GHKLKPIPLLLLLLLLLLPIPLPIU/_][[[]_/UIlLLLLvvvvRvR555Hn983RRRRvvvvvcllfrw0*   O                  5567645#893H9]])_(UU/_)_)[(9G3K34HKH55       <    O                        ",
"                     45546745568889G6%58KGK68PGJG3$79888788HKH55                 567645689GHKLPIUUIPLKHGP99I(PP(9                        3855H LP5HG9GHKLLLPIPLLLLLLLLLLPIPLLPIU/_][{]]_/Uf55LL5555vvRRR55n59gRRRRvvvvllflww0*                       55676456@JIPH9]{)_{[]))_{(9JPP9o8HKH55                                     ",
"Z                    55546745568889GHK6%%467754$$8HG9888788HKH55                 667645689GHKLPIUUIPLK999I((P(P8                        385555HL5d5G9GHKLLPIPLLLLLKLLLLLPIPLLPIU/_][{[]q/UIll55lccv555RRnLLE4n82RRRvcvlvflwq0*                       5567645623KL%5HU][]]][{_I858LH#68HKH55                                     ",
" ,                   55546745568889GHKK8889GG9889KHG9888788HKH55                 667645689GHKLPIUUIPL99PI((((P85           '           3555dfd55dxf5  KLLLPIPLLLLLLLLLLLLPIPLPIU/_][{[*0/Urtf5ffll%##5vnn55Q!DEg3RRvvlvYff.q*     7             777  556764568#795647KU/(/UPH9634G3278HKH55                 ,         Z         ",
"                     55546745568889GHKLP889GG988LKHG9888788HKH55                 567645689GHKLPIUUI99P99((PP8H55                      3855xxffd5xxffG  LLPIPLLLLLLLLLLLLLPIPLPIU/__[{[]0/U55dfffllc%vcvQEQ!QQ!GD83Rvvcvlfrwq*      777   6 6      9975676456788#5P543%449G626$2G63%878HKH55           O                         ",
"                     55546745568889GHKLP889GG989LKHG9888788HKH55                 567645689GHKLPIUUI99GP(PP(PKH95                     35555dxfxxdxfxf5KLLLPIPLLLLLLLLLLLLLPIPLLPIU/_]]{[*0/5wrrflllc%vvRRE!!!!KQGg83vvcvvlrwq*      77 9G 666699 9999956764568889%379335549L3828G238878HKH55                                     ",
"               ,     55546745568889GHKLPI89GG98PLKHG9888788HKH55             ,   567645689GHKLPIU99KP((((P89HKH5                    355dd5dffddxdfxdd5L LPIPLLLLLLLLLLLLLPIPLLPIU/_][{[]*/5wrrflclcv%%nREQ!!55QHDRR3cvvvlrwq*      7789G966668999999956764568889G6%58KGK78PHHG3%798878HKH95%               ,    O               ",
"                     55546745568889GHKLPI89GG99PLKHG9888788HKH55                 567645689GHKLPIK((L(I(PP888HKH5               O   355dxdddffffffxdxfddLPIPLLLLLLLLLLLLLLPIPLLPIU/_][{[]_5qwrffllccvvv%nE!!Q!5!5nnn93vvlllwq*      7789G986666999999256764568889GHK7$%467753$$8HG988789HKH52                                    ",
"      O              55546745568889GHKKPIU9GG9IPLKHG9888788HKH55             ,   567645689GHKLPI(%3P(PP(9788HKH5                  355dxfffxffffffxddxfLLPIPLLLLLLLLLLLLLLPIPLLPIU/_][{[]_0qwrtflllcvvbbEEEQQQQQQJzzR83lllrwq*      7789G996%%%699999356764568889GHKL8889GG9889KHG988788HKH53 O                           O      ",
"                     55547455678889GHKLPIU9GG9IPLKHG9888788HKH55                 567645689GHKLPI3%I%((P89788HKH5                 385ddfxxdddfxfddG5dff5LPIPLLLLLLLLLLLLLLPIPLLLPPU/_]]{ii*0wrP5lllcvv$bEEEbQEnnE54DCgC3ltrw0*       K79GG9999K9%%GGGG56764568889GHKLP889GG988LKHG988788HKH54                                    ",
"                     55467455688889GHKKPIU/GGUIPLKHG9888788HKH55                 567645689GHKLPI3(%(38HG9788HKH5               O38955dfdxddddfxdd5ddfxd5IPLLLLLLLLLLLLLLLLPIPLLPIU/_][ii]i/UIPKlL5cRR%nnnnnnEEEERR5zzC83trq*        5KIKKG%PKKKG%KKK556764568889GHKLP889GG989LKHG988788HKH55                                    ",
"           ,         55467455688889GHKPPIU/(/UIPLKHG9888788HKH55                 567645689GHKLPIU339LKHG9878HKH5               38 G555dddLP5ddxd5H5dfxdPPPLLLLLLLLLLLLLLLKPIPLLPIU/g][i[]_*UIPrLL55cv$vvvvvvvRRRRRRJDxg83w0*         55/K999I((I%KK 656764568889GHKLPP89GG98PLKHG988788HKH55                                    ",
"                     55467455688889GHKLPIU/(/UIPLKHG9888788HKH55                 566456789GHKLPIUUIPLKHG9878HKH5          O   38  H5dddddPLH5ddx5HK5ddPIPLLLLLLLLLLLLLLLLLPIPLLLPIU/_][{[]_/UPPLallc%%vvccvvvYR.Y5LYcll983q           599P9(((PPK   656764568889GHKLPI89GG99PLKHG988788HKH55                                    ",
"                     55467455688889GHKLPIU/(/UPPLKHG9888788HKH55                 676456889GHKLPIUUIPLKHG9878HKH5             389GHdddddLddHH5dddHKLLdLPIPLLLLLLLLLLLLLLLLLPIPLKLPPU/)][{[]_/U55LP5l%$vvvvvvvvvvvvLKKLcaz983           9P99I(PPPP    556764568889GHKLPIU9GG9IPLKHG988788HKH55                                    ",
"       '             55467455688889GHKLPIU/(/UIPLKHG9888788HKH55                %676456889GHKLPIUUIPLKHG9878HKH5%           389GHHH5dHdLPLH HGddHKLLL PIPLLLLLLLLLLLLKLLLLPIPLLLPIU/_][{[]5555##L5l$fcccccccc c5LLLKLLKHG983         5P99I(PPPP3    556764568889GHKLPIU9GG9IPLKHG988788HKH55                   O    ,           ",
"           ,        %55467455688889GHKLPIU/(/UIPLKHG9888788HKH55                2676456889GHKLPIUUIPLKHG9878HKH52          389GHHHdddHLPLHH G9GdKLLLLP PKLLLLLLLLLLLLLLLLLPIPLLLPIU/_][{[]_#####55ffllllll%#llll5LLlftwKJG983      5UU9I((((PP2     556764568889GHKLPIU/GGUIPLKHG988788HKH55                         O          ",
"                    255467455688889GHKLPIU/666IPLKHG9888788HKH55  Z   ,         3676456889GHKLPIUUIPLKHG9878HKH53         389GHHH HGdLPLHHHHG9GdKLLLLPIPLLLLLLLLLLLLLLLLLLPIPLLLLPIU/_]]{[5#/U###5t%tffff#%#fffff55t5LLqKHG983    9UP9(((PPP        556764568889GHKLPIU/(/UI666HG988788HKH55         ,                          ",
"           O        355467455688889GHKLPIU6&&&6PLKHG9888788HKH55                4676456889GHKKPIUUIPLKHG9878HKH54        389GHHHHHGHHLPLHHHG9GHK LLLLPIPLLLLLLLLLLLLLLLLLLPIPLLLLPIU/_][[[K_/UI5##%#wwttt%#ttttttttw5KLLLKHG983  5P99I(PPPP         556764568889GHKKPIU/(/U6eee6G988788HKH55                                    ",
"                    455467455688889GHKLPIU6&&&6PLKHG9888788HKH55                5676456889GHKLPIUUIPLKHG9878HKH55       389GHHHHHGHHLPLHHHHG9GHK LLLPIPLLLLLLLLLLLLLLLLLLLLPIPLLLPIU/_][z[]_/U55##%#qwwww%#wwwwwwwwqq55LLLKHG9839U9I((P(P           556764568889GHKLPIU/(/U6eee6G988788HKH55                                    ",
"                    555467455688889GHKLPIU66666PLKHG9888788HKH55         ,      6676456889GHKLPIUUIPLKHG9878HKH55      389GHHHHHHGHLPLHHHHG9GHK LLLLPIPLLLLLLLLLLLLLLLLLLLLPIPLLLPIU/_]]{[]_/U5##$#***qq%%##qqqqqq**   KLLLKHG9UP(I((((P            556764568889GHKLPIU/(/U66666G988788HKH55                                    ",
"                    555467455688889GHKLPIU6&&&6PLKHG9888788HKH55         O      6676456889GHKLPIUUIPLKHG9878HKH55     389GHHHHHHGHHLPLHHHHG9GH LLLKPIPLLLLLLLLLLLLLLLLLLLLKPIPLLLLPIU/_][{[]#######    %#####****    LL KKLLKHUPP(((PPP             556764568889GHKLPIU/(/U6eee6G988788HKH55                                    ",
"                    555467455688889GHKLPIU6&&&6PLKHG9888788HKH55                5676456889GHKLPIUUIPLKHG9878HKH55    389GHHHHHHGHHLPLHHHHG9GHKLLLLLPIPLLLLLLLLLLLLLLLLLLLLLPIPLLLLPIU/_][{[]_/U#P# LL ####L Lkjj jkL  LLLKLLLUPP((PP(P              556764568889GHKLPIU/(/U6eee6G988888HKH55                                    ",
"                    555467455688889}}}}}}}}}}}}}}}}}}}}}}}}}}}}}}}}}}}}}}}}}}}}}}}}}}}}}}}}}}}}}}}}}}}}}}}}}}}}}}}}}}}}}}}}}}}}}}}}}}}}}}}}}}}}}}}}}}}}}}}}}}}}}}}}}}}}}}}}}}}}}}}}}}}}}}}}}}}}}}}}}}}}}}}}}}}}}}}}}}}}}}}}}}}}}}}}}}}}}}}}}}}}}}}}}}}}}}}}}}}}}}}}}}}}}}}}}}}}}}}}}}}}}KH55                                    ",
"                    555467455688889}}}}}}}}}}}}}}}}}}}}}}}}}}}}}}}}}}}}}}}}}}}}}}}}}}}}}}}}}}}}}}}}}}}}}}}}}}}}}}}}}}}}}}}}}}}}}}}}}}}}}}}}}}}}}}}}}}}}}}}}}}}}}}}}}}}}}}}}}}}}}}}}}}}}}}}}}}}}}}}}}}}}}}}}}}}}}}}}}}}}}}}}}}}}}}}}}}}}}}}}}}}}}}}}}}}}}}}}}}}}}}}}}}}}}}}}}}}}}}}}}}}}}KH55%                                   ",
"                    555467455688889[(((((((((((((((((((((((((((((((((((((((((((((((((((((((((((((((((((((((((((((((((((((((((((((((((((((((((((((((((((((((((((((((((((((((((((((((((((((((((((((((((((((((((((((()(((((((((((((((((((((((((((((((((((((((((((((((((((((((((((((((((((([KH552                                   ",
"                    555467455688889[((((((((((((((((((((((((((((((((((((((((((((((((((((((((((((((((((((((((((((((((((((((((((((((((((((((((((((((((((((((((((((((((((((((((((((((((((((((((((((((((((((((((((((((((((((((((((((((((((((((((((((((((((((((((((((((((((((((((((((((((((([KH553      O                            ",
"                    555467455688889HHHHHHHHHHHHHHHHHHHHHHHHHHHHHHHHHHHHHHHHHHHHHHHHHHHHHHHHHHHHHHHHHHHHHHHHHHHHHHHHHHHHHHHHHHHHHHHHHHHHHHHHHHHHHHHHHHHHHHHHHHHHHHHHHHHHHHHHHHHHHHHHHHHHHHHHHHHHHHHHHHHHHHHHHHHHHHHHHHHHHHHHHHHHHHHHHHHHHHHHHHHHHHHHHHHHHHHHHHHHHHHHHHHHHHHHHHHHHHHHHHHHHKH554                                   ",
"                    555467455688889GHK/P55555555555LIL55555555555LIL55555555555LIL55555555555LIL55555555555LIL55555555555LIL55555555555LIL55555555555LIL55555555555LIL55555555555LIL55555555555LIL55555555555LIL55555555555LIL55555555555LIL55555555555LIL55555555555LIL55555555555P/88HKH555      Z                            ",
"                    555467455688889GHK[/52222222225L/L52222222225L/L52222222225L/L52222222225L/L52222222225L/L52222222225L/L52222222225L/L52222222225L/L52222222225L/L52222222225L/K62222222225L/L52222222225L/K52222222225L/L52222222225L/L52222222225L/L52222222225L/L52222222225/[88HKH955          ,                        ",
"                    555467455688889GHK[/55555555555L/L55555555555L/L55555555555L/L55555555555L/L55555555555L/L55555555555L/L55555555555L/L55555555555L/L55555555555L/L55555555555L(K55555555555L/L55555555555L/P55555555555L/L55555555555L/L55555555555K/L55555555555L/L55555555555/[889HKH55                           '       ",
"             Z      555467455688889GHK[/}}}}}}}}}}}//}}}}}}}}}}}}//}}}}}}}}}}}}//}}}}}}}}}}}}//}}}}}}}}}}}}//}}}}}}}}}}}}//}}}}}}}}}}}}//}}}}}}}}}}}}//}}}}}}}}}}}}//}}}}}}}}}}}}//}}}}}}}}}}}}//}}}}}}}}}}}}//}}}}}}}}}}}}//}}}}}}}}}}}}//}}}}}}}}}}}}//}}}}}}}}}}}}//}}}}}}}}}}}}/[888HKH55                              ,    ",
"                    554567455688889GHK[/////////////////////////////////////////////////////////////////////////////////////////////////////////////////////////////////////////////////////////////////////////////////////////////////////////////////////////////////////////////[888HKH55                                   ",
"                   %554567455688889GHK[/////////////////////////////////////////////////////////////////////////////////////////////////////////////////////////////////////////////////////////////////////////////////////////////////////////////////////////////////////////////[888HKH55                                   ",
"                   2554567455688889GHK[/////////////////////////////////////////////////////////////////////////////////////////////////////////////////////////////////////////////////////////////////////////////////////////////////////////////////////////////////////////////[888HKH55  O                                ",
"                   3554567455688889GHK[////////////////(///////////////////////////////////////////////////////U//////////////////////////////(////////////////////////////////(//////////////////////////////////////U/////////////////////////////////////////////////////////////[888HKH55                                   ",
"%%%%%%%%%%%%%%%%%%%4554674556888889GHK][[[[[[[[[[[[[[[]][[[[[[[[[[[[[[][[[[[[[[[][[[[[[[}}}}}}}}}}}}}}}}}}}}}}}}}}}}}}}}/I[[[[[[[[[[[[[[[[[[[]][[[[[[[[[[[[[[[[[[[[[[[[[[[[[[[[][[[[[[[][[[[[[[[[I/}}}}}}}}}}}}}}}}}}}}}}}}}}}}}}}}[[[[[[[[[[[[[[[[[[[[[[[[[[[22[3388333LL[[[[[LL8[[[888HKH55%%%%%%%%%%%%%%%%%%%%%%%%%%%%%%%%%%%",
"%%%%%%%%%%%%%%%%%%%5554674556888889GH[]]]]]]]]]]]]]]]]]]]]]]]]]]]]]]]]]]]]]]]]]]]]]]]]]]}}}}}}}}}}}}}}}}}}}}}}}}}}}}}}}}PI]]]]]]]]]]]]]]]]]]]]]]]]]]]_]]]]]]]]]]]]]]]]]]]]]]]]]]]]]]]]]]]]]]]]]]]IP}}}}}}}}}}}}}}}}}}}}}}}}}}}}}}}}]]]]]]]]]]]]]]]]]]]]]]]]]]]22]3388333LL]]]]]LL8]]][88HKH55%%%%%%%%%%%%%%%%%%%%%%%%%%%%%%%%%%%",
"%%%%%%%%%%%%%%%%%%%5554674556888889G[]]]]]]]]]]]]]]]]]]]]]]]]]]]]]]]]]]]]]]]]]]]_[]]]]]}}}}}}}}}}}}}}}}}}}}}}}}}}}}}}}}}LI]]]]]]]]]]]]]]]]]]]]]]]]]]]]]]]]]]]]]]]]]]]]]]_]]]]]]]]]]]]]]]]]]]]]]]]IL}}}}}}}}}}}}}}}}}}}}}}}}}}}}}}}}}]]]]]]]]]]]]]]]]]]L]]LLL33LL333883333333LLL3383333[8HKH55%%%%%2%%%%%%%%%%%%%%%%%%%%%%2%%%%%%",
"%%%%%%%2%%%%%%%2%%%5554674556888889[]]]]]]]]]]]]]]]]]]]]]]]]]]]]]]]]]]]]]]]]]]]]]]]]]]]}}}}}}}}}}}}}}}}}}}}}}}}}}}}}}}}}LI]]]]]]]]]]]]]]]]]]]]]]]]]]]]]]]]]]]]]]]]]]]]]]]]]]]]]]]]]]]]]]]]]]]]]]]IL}}}}}}}}}}}}}}}}}}}}}}}}}}}}}}}}}]]]]]]]]]]]]]]]]]]LLL33333333333333333333338883333][HKH55%%%2%%%%%%%%2%%%%%%%%%2%%2%%%%2%%2%",
"%%%%22%%222%%%%%2%%555467455688888[]]]]]]]]]]]]]]]]]]]]]]]]]]]]]]]]]]]]]]]]]]]]]]]]]]]}}}}}}}}}}}}}}}}}}}}}}}}}}}}}}}}}(LI]]]]]]]]]]]]]]]]]]]]]]]]]]]]]]]]]]]]]]]]]]]]]]]]]]]]]]]]]]]]]]]]]]]]]]]IK(}}}}}}}}}}}}}}}}}}}}}}}}}}}}}}}}}]]]]]]]]]]]]]]]]]LLL33333333333333333333338883333]]]KH55%%2%2222%%2%%%%2%%%%2222%%%2%%%%22%",
"2%%%%2%2%22222%2%2%55546745568888[]]]]]]]]]]]]]]]]]]]]]]]]]]]]]]]]]]]]]]]]]]]]]]]]]]]]}}}}}}}}}}}}}}}}}}}}}}}}}}}}}}}}}PLI]]]]_]]]]]]]]]]]]]]]]]]]]]]]]]]]]]]]]]]]]]]]]]]]]]]]]]]]]]]]]]]]]]]]]]]ILP}}}}}}}}}}}}}}}}}}}}}}}}}}}}}}}}}]]]]]]]]]]]]]]]]]L3333333333333333333333]]]]8]]]]]]][H55%%2222222%2%%22%2%2%2222%2222%%2232",
"23%22222322222322235554674556888[]]]]]]]]]]]]]]]]]]]]]]]]]]]]]]]]]]]]]]]]]]]]]]]]]]]]}}}}}}}}}}}}}}}}}}}}}}}}}}}}}}}}}}PLI]]]]]]]]]]]]]]]]]]]]]]]]]]]]]]]]]]]]]]]]]]]]]]]]]]]]]]]]]]]]]]]]]]]]]]]ILP}}}}}}}}}}}}}}}}}}}}}}}}}}}}}}}}}}]_]]]]]]]]]]]]]]L3333333333333333333333]]]]8]]]]]]]][5532222222232322333%22233232%%2323322",
"2222233323222232223555467455688[]]]]]]]]]]]]]]]]]]]]]]]]]]]]]]]]]]]]]]]]]]]]]]]]]]]]]}}}}}}}}}}}}}}}}}}}}}}}}}}}}}}}}}}LI]]]]]]]]]]]]]]]]]]]]]]]]]]]]]]]]]]]]]]]]]]]]]]]]]]]]]]]]]]]]]]]]]]]]]]]]]IL}}}}}}}}}}}}}}}}}}}}}}}}}}}}}}}}}}]]]]]]]]]]]]]]]]33333333333333333333555]]]]]]]]]]]]]][522323323222322232223232323322223223",
"233223333332333333255546745568[]]]]]]]]]]]]]]]]]]]]]]]]]]]]]]]]]]]]]]]]]]]]]]]]]]]]]}}}}}}}}}}}}}}}}}}}}}}}}}}}}}}}}}}(LI]]]]]]]]]]]]]]]]]]]]]]]]]]]]]]]]]]]]]]]]]]]]]]]]]]]]]]]]]]]]]]]]]]]]]]]]]IL(}}}}}}}}}}}}}}}}}}}}}}}}}}}}}}}}}}]]]]]]]]]]]]]553333333388333333335555]]]]]]]]]]]]]]]][33322232223232223323332333222333322",
"32242333233334333435554674556[]]]]]]]]]]]]]]]]]]]]]]]]]]]]]]]]]]]]]]]]]]]]_]]]]]]]]]}}}}}}}}}}}}}}}}}}}}}}}}}}}}}}}}}}PLI]]]]]]]]]]]]]]]]]]]]]]]]]]]]]]]]]]]]]]]]]]]]]]]]]]]]]]]]]]]]]]]]]]]]]]]]]ILP}}}}}}}}}}}}}}}}}}}}}}}}}}}}}}}}}}]]]]]]]]]]]]]553333333388333333435555]]]]]]]]]]]]]]]]][2333333233433333233333233323433443",
"3334344333433433333555467455[]]]]]]]]]]]]]]]]]]]]]]]]]]]]]]]]]]]]]]]]]]]]]]]]]]]]]]}}}}}}}}}}}}}}}}}}}}}}}}}}}}}}}}}}}PLI]]]]]]]]]]]]]]]]]]]]]]]]]]]]]]]]]]]]]]]]]]]]]]]]]]]]]]]]]]]]]]]]]]]]]]]]]ILP}}}}}}}}}}}}}}}}}}}}}}}}}}}}}}}}}}}]]]]]]]]]]]]]]5333338888833333335555]]]]]]]]]]]]]]]]]][433333344333334333443443443333443",
"333343443434334343355546745[]]]]]]]]]]]]]]]]]]]]]]]]]]]]]_]]]]]]]]]]]]]]]]]]]]]]]]]}}}}}}}}}}}}}}}}}}}}}}}}}}}}}}}}}}}PLI]]]]]]]]]]]]]]]]]]]]]]]]]]]]]]]]]]]]]]]]]]]]]]]]]]]]]]]]]]]]]]]]]]]]]]]]]ILP}}}}}}}}}}}}}}}}}}}}}}}}}}}}}}}}}}}]]]]]]]]]]]]]]5333338888833333335555]]]]]]]]]]]]]]]]]]][44444433434433334344343344443343",
"33444434354444334455554674[]]]]]]]]]]]]]]]]_]]]]]]]]]]]]]]]]]]]]]]]]]]]]]]]]]]]]]]}}}}}}}}}}}}}}}}}}}}}}}}}}}}}}}}}}}(PLI]]]]]]]]]]]]]]]]]]]]]]]]]]]]]]]]]]]]]]]]]]]]]]]]]]]]]]]]]]]]]]]]]]]]]]]]]ILP(}}}}}}}}}}}}}}}}}}}}}}}}}}}}}}}}}}}]]]]]]]]]]]]]33333333333333333355]_]]]]]]]]]]]]]]]]]]]]]5445444544444444434443344433444",
"4454454443454545534555467[]]]]]]]]]]]]]]]]]]]]]]]]]]]]]]]]]]]]]]]]]]]]]]]]]]]]]]]]}}}}}}}}}}}}}}}}}}}}}}}}}}}}}}}}}}}PPLI]]]]]]]]]]]_]]]]]]]]]]]]]]]]]]]]]]]]]]]_]]]]]]]]]]]]]]]]]]]]]]_]]]]]]]]]]ILPP}}}}}}}}}}}}}}}}}}}}}}}}}}}}}}}}}}}]]]]]]]]]]]]]333333888888833335]]]]]]]]]]]]]]]]]]]]]]]]][555344344545444535455345445444",
"545445455455454444555546[[[[[[[[[[[[[[[[[[[[[[[[[[[[[[[[[[[[[[[[[[[[[[[[[[[[[[[[]}}}}}}}}}}}}}}}}}}}}}}}}}}}}}}}}}}}}PPKI[[[[[[[[[[[[[[[[[[[[[[[[[[[[[[[[[[][[[[[[[[[[[[[[[[[[[[[[[[[[[[[[[[[[[[[[ILPP}}}}}}}}}}}}}}}}}}}}}}}}}}}}}}}}}}}}[[[[[[[[[[[[333333888888833335[[[[[[[[[[[[[[[][[[[[[[[[[[55455545545454544444554454445",
"555554544545545544555546[////////////////////////////////////////////////////////}}}}}}}}}}}}}}}}}}}}}}}}}}}}}}}}}}}}PPPLI///////////////////////]11111111111111111111111]///////////////////////ILPPP}}}}}}}}}}}}}}}}}}}}}}}}}}}}}}}}}}}}//////////5533333588//888//555//////////////////////////[65455455555455655545554455446",
"564545655455645555555546[///////////////////////////////////////////////////////}}}}}}}}}}}}}}}}}}}}}}}}}}}}}}}}}}}}(PPPLI///////////////////P95/]11111111111111111111111]/P95///////////////////IKPPP(}}}}}}}}}}}}}}}}}}}}}}}}}}}}}}}}}}}}/////////5533333588//888//555//////////////////////////[65545555555556546665655555665",
"566565566655565666655456[///////////////////////////////////////////////////////}}}}}}}}}}}}}}}}}}}}}}}}}}}}}}}}}}}}PPPPLI///////////////////P95/]11NNNNNNNNNNNNNNNNNNN11]/P95///////////////////ILPPPP}}}}}}}}}}}}}}}}}}}}}}}}}}}}}}}}}}}}/////////555335588888///5555///////////////////////////]76665556665656566656665665665",
"665566666656566666555456[//////////////////////////////////////////////////////}}}}}}}}}}}}}}}}}}}}}}}}}}}}}}}}}}}}}PPPPLI///////////////////P95/]11NVVVVVVVBNBVVVVVVVN11]/P95///////////////////ILPPPP}}}}}}}}}}}}}}}}}}}}}}}}}}}}}}}}}}}}}////////3333333588///55///////////////////////////////]66665666665665566666656666566",
"656777676676667666555456[//////////////////////////////////////////////////////}}}}}}}}}}}}}}}}}}}}}}}}}}}}}}}}}}}}}PPPPLI///////////////////}}}/]11NVV~~~~VBNBV~~~~VVN11]/}}}///////////////////ILPPPP}}}}}}}}}}}}}}}}}}}}}}}}}}}}}}}}}}}}}////////3333333588///55///////////////////////////////[66556566665666666766667656676",
"676666666777776667555456[/////////////////////////////////////////////////////}}}}}}}}}}}}}}}}}}}}}}}}}}}}}}}}}}}}}(PPPPLI//////////////////{[{{{]11NVVFFFFVBNBVFFFFVVN11]{{{[{//////////////////ILPPPP(}}}}}}}}}}}}}}}}}}}}}}}}}}}}}}}}}}}}}///////3333333555555/////////////////////////////////[66677776667666666767676676666",
"667777677777666677555456[/////////////////////////////////////////////////////}}}}}}}}}}}}}}}}}}}}}}}}}}}}}}}}}}}}}PPPPPLI/////////////////{[[{[[]11NVVDDDDVBNBVDDDDVVN11][[{[[{/////////////////ILPPPPP}}}}}}}}}}}}}}}}}}}}}}}}}}}}}}}}}}}}}///////3333333555555/////////////////////////////////[76777667778777767766767677676",
"876778777777787777555456j>>>>>>>>>>>>>>>>>>>>>>>>>>>>>>>>>>>>>>>>>>>>>>>>>>>>}}}}}}}}}}}}}}}}}}}}}}}}}}}}}}}}}}}}}}PPPP:;:>>>>>>>>>>>>>>>>jjjjjjj]NNBVVCCCCVBNBVCCCCVVBNN]jjjjjjj>>>>>>>>>>>>>>>>:;PPPPP}}}}}}}}}}}}}}}}}}}}}}}}}}}}}}}}}}}}}}>>>>>>3335555533555>>>>>>>>>>>>>>>>>>>>>>>>>>>>>>>>>k78777787777677787787677878767",
"777888777787777788555456j>>>>>>>>>>>>>>>>>>>>>>>>>>>>>>>>>>>>>>>>>>>>>>>>>>>>}}}}}}}}}}}}}}}}}}}}}}}}}}}}}}}}}}}}}}PP:::;:>>>>>>>>>>>>>>>jjjjjjjj]BBVVVVVVVVBNBVVVVVVVVBB]jjjjjjjj>>>>>>>>>>>>>>>:;:::PP}}}}}}}}}}}}}}}}}}}}}}}}}}}}}}}}}}}}}}>>>>>>3355555555>>>>>>>>>>>>>>>>>>>>>>>>>>>>>>>>>>>>k78887777778877778877777887778",
"787787778787787788555456j>>>>>>>>>>>>>>>>>>>>>>>>>>>>>>>>>>>>>>>>>>>>>>>>>>>jjjjjjjjj>jjjjjjjjjjjjjjjjjjjjjjjjjjjjk:::::;:>>>>>>>>>>>>>>jjjjjjjjj]VVVVVVVVVVBNBVVVVVVVVVV]jjjjjjjjj>>>>>>>>>>>>>>:;:::::kjjjjjjjjjjjjjjjjjjjjjjjjjjjjjjjjjjjjjk>>>>>3355555555>>>>>>>>>>>>>>>>>>>>>>>>>>>>>>>>>>>>k77777877778778887888887788877",
"788777788787788878555456[///////////////////////////////////////////////////jjjjjjjjjjjjjjjjjjjjjjjjjjjjjjjjjjjjjk:::::PLI///////////////////////]VVVVVVVVVVBNBVVVVVVVVVV]///////////////////////IL::::::kjjjjjjjjjjjjjjjjjjjjjjjjjjjjjjjjjjjjk///5555533555LL////////////////////////////////////[88788878788778877888888788888",
"888888888888878888555456[//////////////////////////////////////////////////jjjjjjjjjjjjjjjjjjjjjjjjjjjjjjjjjjjjjjk::PPPPLI///////////////////////]VVVVVVVVVVBNBVVVVVVVVVV]///////////////////////ILPPPP::kjjjjjjjjjjjjjjjjjjjjjjjjjjjjjjjjjjjjjk//5555533555LL////////////////////////////////////[88888888888887888888888888888",
"888888888888888888555456[//////////////////////////////////////////////////}}}}}}}}}}}}}}}}}}}}}}}}}}}}}}}}}}}}}}}PPPLPPLI///////////////////////]VVVVVVVVVVBNBVVVVVVVVVV]///////////////////////ILPPPPPP}}}}}}}}}}}}}}}}}}}}}}}}}}}}}}}}}}}}}}}////55533/////////////////////////////////////////[88888888888888888888888888888",
"@@@@@@@@@@@@@@@@@@@@@@@@@@@@@@@@@@@@@@@@@@@@@@@@@@@@@@@@@@@@@@@@@@@@@@@@@@@@@@@@@@@@@@@@@@@@@@@@@@@@@@@@@@@@@@@@@@@@@@@@@@@@@@@@@@@@@@@@@@@@@@@@@@@@@@@@@@@@@@@@@@@@@@@@@@@@@@@@@@@@@@@@@@@@@@@@@@@@@@@@@@@@@@@@@@@@@@@@@@@@@@@@@@@@@@@@@@@@@@@@@@88@@@@@@@@@@@@@@@@@@@@@@@@@@@@@@@@@@@@@@@@@@@@@@@@@@@@@@@@@@@@@@@@@@@@@@@@@@@@",
"@@@@@@@@@@@@@@@@@@@@@@@@@@@@@@@@@@@@@@@@@@@@@@@@@@@@@@@@@@@@@@@@@@@@@@@@@@@@@@@@@@@@@@@@@@@@@@@@@@@@@@@@@@@@@@@@@@@@@@@@@@@@@@@@@@@@@@@@@@@@@@@@@@@@@@@@@@@@@@@@@@@@@@@@@@@@@@@@@@@@@@@@@@@@@@@@@@@@@@@@@@@@@@@@@@@@@@@@@@@@@@@@@@@@@@@@@@@@@@@@@@88@@@@@@@@@@@@@@@@@@@@@@@@@@@@@@@@@@@@@@@@@@@@@@@@@@@@@@@@@@@@@@@@@@@@@@@@@@@@",
"@@@@@@@@@@@@@@@@@@@@@@@@@@@@@@@@@@@@@@@@@@@@@@@@@@@@@@@@@@@@@@@@@@@@@@@@@@@@@@@@@@@@@@@@@@@@@@@@@@@@@@@@@@@@@@@@@@@@@@@@@@@@@@@@@@@@@@@@@@@@@@@@@@@@@@@@@@@@@@@@@@@@@@@@@@@@@@@@@@@@@@@@@@@@@@@@@@@@@@@@@@@@@@@@@@@@@@@@@@@@@@@@@@@@@@@@@@@@@@@@@@@@@@@@@@@@@@@@@@@@@@@@@@@@@@@@@@@@@@@@@@@@@@@@@@@@@@@@@@@@@@@@@@@@@@@@@@@@@@@@",
"@@@@@@@@@@@@@@@@@@@@@@@@@@@@@@@@@@@@@@@@@@@@@@@@@@@@@@@@@@@@@@@@@@@@@@@@@@@@@@@@@@@@@@@@@@@@@@@@@@@@@@@@@@@@@@@@@@@@@@@@@@@@@@@@@@@@@@@@@@@@@@@@@@@@@@@@@@@@@@@@@@@@@@@@@@@@@@@@@@@@@@@@@@@@@@@@@@@@@@@@@@@@@@@@@@@@@@@@@@@@@@@@@@@@@@@@@@@@@@@@@@@@@@@@@@@@@@@@@@@@@@@@@@@@@@@@@@@@@@@@@@@@@@@@@@@@@@@@@@@@@@@@@@@@@@@@@@@@@@@@",
"@@@@@@@@@@@@@@@@@@@@@@@@@@@@@@@@@@@@@@@@@@@@@@@@@@@@@@@@@@@@@@@@@@@@@@@@@@@@@@@@@@@@@@@@@@@@@@@@@@@@@@@@@@@@@@@@@@@@@@@@@@@@@@@@@@@@@@@@@@@@@@@@@@@@@@@@@@@@@@@@@@@@@@@@@@@@@@@@@@@@@@@@@@@@@@@@@@@@@@@@@@@@@@@@@@@@@@@@@@@@@@@@@@@@@@@@@@@@@@@@@@@@@@@@@@@@@@@@@@@@@@@@@@@@@@@@@@@@@@@@@@@@@@@@@@@@@@@@@@@@@@@@@@@@@@@@@@@@@@@@",
"@@@@@@@@@@@@@@@@@@@@@@@@@@@@@@@@@@@@@@@@@@@@@@@@@@@@@@@@@@@@@@@@@@@@@@@@@@@@@@@@@@@@@@@@@@@@@@@@@@@@@@@@@@@@@@@@@@@@@@@@@@@@@@@@@@@@@@@@@@@@@@@@@@@@@@@@@@@@@@@@@@@@@@@@@@@@@@@@@@@@@@@@@@@@@@@@@@@@@@@@@@@@@@@@@@@@@@@@@@@@@@@@@@@@@@@@@@@@@@@@@@@@@@@@@@@@@@@@@@@@@@@@@@@@@@@@@@@@@@@@@@@@@@@@@@@@@@@@@@@@@@@@@@@@@@@@@@@@@@@@",
"@@@@@@@@@@@@@@@@@@@@@@@@@@@@@@@@@@@@@@@@@@@@@@@@@@@@@@@@@@@@@@@@@@@@@@@@@@@@@@@@@@@@@@@@@@@@@@@@@@@@@@@@@@@@@@@@@@@@@@@@@@@@@@@@@@@@@@@@@@@@@@@@@@@@@@@@@@@@@@@@@@@@@@@@@@@@@@@@@@@@@@@@@@@@@@@@@@@@@@@@@@@@@@@@@@@@@@@@@@@@@@@@@@@@@@@@@@@@@@@@@@@@@@@@@@@@@@@@@@@@@@@@@@@@@@@@@@@@@@@@@@@@@@@@@@@@@@@@@@@@@@@@@@@@@@@@@@@@@@@@",
"@@@@@@@@@@@@@@@@@@@@@@@@@@@@@@@@@@@@@@@@@@@@@@@@@@@@@@@@@@@@@@@@@@@@@@@@@@@@@@@@@@@@@@@@@@@@@@@@@@@@@@@@@@@@@@@@@@@@@@@@@@@@@@@@@@@@@@@@@@@@@@@@@@@@@@@@@@@@@@@@@@@@@@@@@@@@@@@@@@@@@@@@@@@@@@@@@@@@@@@@@@@@@@@@@@@@@@@@@@@@@@@@@@@@@@@@@@@@@@@@@@@@@@@@@@@@@@@@@@@@@@@@@@@@@@@@@@@@@@@@@@@@@@@@@@@@@@@@@@@@@@@@@@@@@@@@@@@@@@@@",
"@@@@@@@@@@@@@@@@@@@@@@@@@@@@@@@@@@@@@@@@@@@@@@@@@@@@@@@@@@@@@@@@@@@@@@@@@@@@@@@@@@@@@@@@@@@@@@@@@@@@@@@@@@@@@@@@@@@@@@@@@@@@@@@@@@@@@@@@@@@@@@@@@@@@@@@@@@@@@@@@@@@@@@@@@@@@@@@@@@@@@@@@@@@@@@@@@@@@@@@@@@@@@@@@@@@@@@@@@@@@@@@@@@@@@@@@@@@@@@@@@@@@@@@@@@@@@@@@@@@@@@@@@@@@@@@@@@@@@@@@@@@@@@@@@@@@@@@@@@@@@@@@@@@@@@@@@@@@@@@@",
"@@@@@@@@@@@@@@@@@@@@@@@@@@@@@@@@@@@@@@@@@@@@@@@@@@@@@@@@@@@@@@@@@@@@@@@@@@@@@@@@@@@@@@@@@@@@@@@@@@@@@@@@@@@@@@@@@@@@@@@@@@@@@@@@@@@@@@@@@@@@@@@@@@@@@@@@@@@@@@@@@@@@@@@@@@@@@@@@@@@@@@@@@@@@@@@@@@@@@@@@@@@@@@@@@@@@@@@@@@@@@@@@@@@@@@@@@@@@@@@@@@@@@@@@@@@@@@@@@@@@@@@@@@@@@@@@@@@@@@@@@@@@@@@@@@@@@@@@@@@@@@@@@@@@@@@@@@@@@@@@",
"@@@@@@@@@@@@@@@@@@@@@@@@@@@@@@@@@@@@@@@@@@@@@@@@@@@@@@@@@@@@@@@@@@@@@@@@@@@@@@@@@@@@@@@@@@@@@@@@@@@@@@@@@@@@@@@@@@@@@@@@@@@@@@@@@@@@@@@@@@@@@@@@@@@@@@@@@@@@@@@@@@@@@@@@@@@@@@@@@@@@@@@@@@@@@@@@@@@@@@@@@@@@@@@@@@@@@@@@@@@@@@@@@@@@@@@@@@@@@@@@@@@@@@@@@@@@@@@@@@@@@@@@@@@@@@@@@@@@@@@@@@@@@@@@@@@@@@@@@@@@@@@@@@@@@@@@@@@@@@@@",
"@@@@@@@@@@@@@@@@@@@@@@@@@@@@@@@@@@@@@@@@@@@@@@@@@@@@@@@@@@@@@@@@@@@@@@@@@@@@@@@@@@@@@@@@@@@@@@@@@@@@@@@@@@@@@@@@@@@@@@@@@@@@@@@@@@@@@@@@@@@@@@@@@@@@@@@@@@@@@@@@@@@@@@@@@@@@@@@@@@@@@@@@@@@@@@@@@@@@@@@@@@@@@@@@@@@@@@@@@@@@@@@@@@@@@@@@@@@@@@@@@@@@@@@@@@@@@@@@@@@@@@@@@@@@@@@@@@@@@@@@@@@@@@@@@@@@@@@@@@@@@@@@@@@@@@@@@@@@@@@@",
"@@@@@@@@@@@@@@@@@@@@@@@@@@@@@@@@@@@@@@@@@@@@@@@@@@@@@@@@@@@@@@@@@@@@@@@@@@@@@@@@@@@@@@@@@@@@@@@@@@@@@@@@@@@@@@@@@@@@@@@@@@@@@@@@@@@@@@@@@@@@@@@@@@@@@@@@@@@@@@@@@@@@@@@@@@@@@@@@@@@@@@@@@@@@@@@@@@@@@@@@@@@@@@@@@@@@@@@@@@@@@@@@@@@@@@@@@@@@@@@@@@@@@@@@@@@@@@@@@@@@@@@@@@@@@@@@@@@@@@@@@@@@@@@@@@@@@@@@@@@@@@@@@@@@@@@@@@@@@@@@",
"@@@@@@@@@@@@@@@@@@@@@@@@@@@@@@@@@@@@@@@@@@@@@@@@@@@@@@@@@@@@@@@@@@@@@@@@@@@@@@@@@@@@@@@@@@@@@@@@@@@@@@@@@@@@@@@@@@@@@@@@@@@@@@@@@@@@@@@@@@@@@@@@@@@@@@@@@@@@@@@@@@@@@@@@@@@@@@@@@@@@@@@@@@@@@@@@@@@@@@@@@@@@@@@@@@@@@@@@@@@@@@@@@@@@@@@@@@@@@@@@@@@@@@@@@@@@@@@@@@@@@@@@@@@@@@@@@@@@@@@@@@@@@@@@@@@@@@@@@@@@@@@@@@@@@@@@@@@@@@@@",
"@@@@@@@@@@@@@@@@@@@@@@@@@@@@@@@@@@@@@@@@@@@@@@@@@@@@@@@@@@@@@@@@@@@@@@@@@@@@@@@@@@@@@@@@@@@@@@@@@@@@@@@@@@@@@@@@@@@@@@@@@@@@@@@@@@@@@@@@@@@@@@@@@@@@@@@@@@@@@@@@@@@@@@@@@@@@@@@@@@@@@@@@@@@@@@@@@@@@@@@@@@@@@@@@@@@@@@@@@@@@@@@@@@@@@@@@@@@@@@@@@@@@@@@@@@@@@@@@@@@@@@@@@@@@@@@@@@@@@@@@@@@@@@@@@@@@@@@@@@@@@@@@@@@@@@@@@@@@@@@@",
"@@@@@@@@@@@@@@@@@@@@@@@@@@@@@@@@@@@@@@@@@@@@@@@@@@@@@@@@@@@@@@@@@@@@@@@@@@@@@@@@@@@@@@@@@@@@@@@@@@@@@@@@@@@@@@@@@@@@@@@@@@@@@@@@@@@@@@@@@@@@@@@@@@@@@@@@@@@@@@@@@@@@@@@@@@@@@@@@@@@@@@@@@@@@@@@@@@@@@@@@@@@@@@@@@@@@@@@@@@@@@@@@@@@@@@@@@@@@@@@@@@@@@@@@@@@@@@@@@@@@@@@@@@@@@@@@@@@@@@@@@@@@@@@@@@@@@@@@@@@@@@@@@@@@@@@@@@@@@@@@",
"@@@@@@@@@@@@@@@@@@@@@@@@@@@@@@@@@@@@@@@@@@@@@@@@@@@@@@@@@@@@@@@@@@@@@@@@@@@@@@@@@@@@@@@@@@@@@@@@@@@@@@@@@@@@@@@@@@@@@@@@@@@@@@@@@@@@@@@@@@@@@@@@@@@@@@@@@@@@@@@@@@@@@@@@@@@@@@@@@@@@@@@@@@@@@@@@@@@@@@@@@@@@@@@@@@@@@@@@@@@@@@@@@@@@@@@@@@@@@@@@@@@@@@@@@@@@@@@@@@@@@@@@@@@@@@@@@@@@@@@@@@@@@@@@@@@@@@@@@@@@@@@@@@@@@@@@@@@@@@@@",
"@@@@@@@@@@@@@@@@@@@@@@@@@@@@@@@@@@@@@@@@@@@@@@@@@@@@@@@@@@@@@@@@@@@@@@@@@@@@@@@@@@@@@@@@@@@@@@@@@@@@@@@@@@@@@@@@@@@@@@@@@@@@@@@@@@@@@@@@@@@@@@@@@@@@@@@@@@@@@@@@@@@@@@@@@@@@@@@@@@@@@@@@@@@@@@@@@@@@@@@@@@@@@@@@@@@@@@@@@@@@@@@@@@@@@@@@@@@@@@@@@@@@@@@@@@@@@@@@@@@@@@@@@@@@@@@@@@@@@@@@@@@@@@@@@@@@@@@@@@@@@@@@@@@@@@@@@@@@@@@@",
"@@@@@@@@@@@@@@@@@@@@@@@@@@@@@@@@@@@@@@@@@@@@@@@@@@@@@@@@@@@@@@@@@@@@@@@@@@@@@@@@@@@@@@@@@@@@@@@@@@@@@@@@@@@@@@@@@@@@@@@@@@@@@@@@@@@@@@@@@@@@@@@@@@@@@@@@@@@@@@@@@@@@@@@@@@@@@@@@@@@@@@@@@@@@@@@@@@@@@@@@@@@@@@@@@@@@@@@@@@@@@@@@@@@@@@@@@@@@@@@@@@@@@@@@@@@@@@@@@@@@@@@@@@@@@@@@@@@@@@@@@@@@@@@@@@@@@@@@@@@@@@@@@@@@@@@@@@@@@@@@",
"@@@@@@@@@@@@@@@@@@@@@@@@@@@@@@@@@@@@@@@@@@@@@@@@@@@@@@@@@@@@@@@@@@@@@@@@@@@@@@@@@@@@@@@@@@@@@@@@@@@@@@@@@@@@@@@@@@@@@@@@@@@@@@@@@@@@@@@@@@@@@@@@@@@@@@@@@@@@@@@@@@@@@@@@@@@@@@@@@@@@@@@@@@@@@@@@@@@@@@@@@@@@@@@@@@@@@@@@@@@@@@@@@@@@@@@@@@@@@@@@@@@@@@@@@@@@@@@@@@@@@@@@@@@@@@@@@@@@@@@@@@@@@@@@@@@@@@@@@@@@@@@@@@@@@@@@@@@@@@@@",
"@@@@@@@@@@@@@@@@@@@@@@@@@@@@@@@@@@@@@@@@@@@@@@@@@@@@@@@@@@@@@@@@@@@@@@@@@@@@@@@@@@@@@@@@@@@@@@@@@@@@@@@@@@@@@@@@@@@@@@@@@@@@@@@@@@@@@@@@@@@@@@@@@@@@@@@@@@@@@@@@@@@@@@@@@@@@@@@@@@@@@@@@@@@@@@@@@@@@@@@@@@@@@@@@@@@@@@@@@@@@@@@@@@@@@@@@@@@@@@@@@@@@@@@@@@@@@@@@@@@@@@@@@@@@@@@@@@@@@@@@@@@@@@@@@@@@@@@@@@@@@@@@@@@@@@@@@@@@@@@@",
"@@@@@@@@@@@@@@@@@@@@@@@@@@@@@@@@@@@@@@@@@@@@@@@@@@@@@@@@@@@@@@@@@@@@@@@@@@@@@@@@@@@@@@@@@@@@@@@@@@@@@@@@@@@@@@@@@@@@@@@@@@@@@@@@@@@@@@@@@@@@@@@@@@@@@@@@@@@@@@@@@@@@@@@@@@@@@@@@@@@@@@@@@@@@@@@@@@@@@@@@@@@@@@@@@@@@@@@@@@@@@@@@@@@@@@@@@@@@@@@@@@@@@@@@@@@@@@@@@@@@@@@@@@@@@@@@@@@@@@@@@@@@@@@@@@@@@@@@@@@@@@@@@@@@@@@@@@@@@@@@",
"@@@@@@@@@@@@@@@@@@@@@@@@@@@@@@@@@@@@@@@@@@@@@@@@@@@@@@@@@@@@@@@@@@@@@@@@@@@@@@@@@@@@@@@@@@@@@@@@@@@@@@@@@@@@@@@@@@@@@@@@@@@@@@@@@@@@@@@@@@@@@@@@@@@@@@@@@@@@@@@@@@@@@@@@@@@@@@@@@@@@@@@@@@@@@@@@@@@@@@@@@@@@@@@@@@@@@@@@@@@@@@@@@@@@@@@@@@@@@@@@@@@@@@@@@@@@@@@@@@@@@@@@@@@@@@@@@@@@@@@@@@@@@@@@@@@@@@@@@@@@@@@@@@@@@@@@@@@@@@@@",
"@@@@@@@@@@@@@@@@@@@@@@@@@@@@@@@@@@@@@@@@@@@@@@@@@@@@@@@@@@@@@@@@@@@@@@@@@@@@@@@@@@@@@@@@@@@@@@@@@@@@@@@@@@@@@@@@@@@@@@@@@@@@@@@@@@@@@@@@@@@@@@@@@@@@@@@@@@@@@@@@@@@@@@@@@@@@@@@@@@@@@@@@@@@@@@@@@@@@@@@@@@@@@@@@@@@@@@@@@@@@@@@@@@@@@@@@@@@@@@@@@@@@@@@@@@@@@@@@@@@@@@@@@@@@@@@@@@@@@@@@@@@@@@@@@@@@@@@@@@@@@@@@@@@@@@@@@@@@@@@@",
"@@@@@@@@@@@@@@@@@@@@@@@@@@@@@@@@@@@@@@@@@@@@@@@@@@@@@@@@@@@@@@@@@@@@@@@@@@@@@@@@@@@@@@@@@@@@@@@@@@@@@@@@@@@@@@@@@@@@@@@@@@@@@@@@@@@@@@@@@@@@@@@@@@@@@@@@@@@@@@@@@@@@@@@@@@@@@@@@@@@@@@@@@@@@@@@@@@@@@@@@@@@@@@@@@@@@@@@@@@@@@@@@@@@@@@@@@@@@@@@@@@@@@@@@@@@@@@@@@@@@@@@@@@@@@@@@@@@@@@@@@@@@@@@@@@@@@@@@@@@@@@@@@@@@@@@@@@@@@@@@",
"@@@@@@@@@@@@@@@@@@@@@@@@@@@@@@@@@@@@@@@@@@@@@@@@@@@@@@@@@@@@@@@@@@@@@@@@@@@@@@@@@@@@@@@@@@@@@@@@@@@@@@@@@@@@@@@@@@@@@@@@@@@@@@@@@@@@@@@@@@@@@@@@@@@@@@@@@@@@@@@@@@@@@@@@@@@@@@@@@@@@@@@@@@@@@@@@@@@@@@@@@@@@@@@@@@@@@@@@@@@@@@@@@@@@@@@@@@@@@@@@@@@@@@@@@@@@@@@@@@@@@@@@@@@@@@@@@@@@@@@@@@@@@@@@@@@@@@@@@@@@@@@@@@@@@@@@@@@@@@@@",
"@@@@@@@@@@@@@@@@@@@@@@@@@@@@@@@@@@@@@@@@@@@@@@@@@@@@@@@@@@@@@@@@@@@@@@@@@@@@@@@@@@@@@@@@@@@@@@@@@@@@@@@@@@@@@@@@@@@@@@@@@@@@@@@@@@@@@@@@@@@@@@@@@@@@@@@@@@@@@@@@@@@@@@@@@@@@@@@@@@@@@@@@@@@@@@@@@@@@@@@@@@@@@@@@@@@@@@@@@@@@@@@@@@@@@@@@@@@@@@@@@@@@@@@@@@@@@@@@@@@@@@@@@@@@@@@@@@@@@@@@@@@@@@@@@@@@@@@@@@@@@@@@@@@@@@@@@@@@@@@@",
"@@@@@@@@@@@@@@@@@@@@@@@@@@@@@@@@@@@@@@@@@@@@@@@@@@@@@@@@@@@@@@@@@@@@@@@@@@@@@@@@@@@@@@@@@@@@@@@@@@@@@@@@@@@@@@@@@@@@@@@@@@@@@@@@@@@@@@@@@@@@@@@@@@@@@@@@@@@@@@@@@@@@@@@@@@@@@@@@@@@@@@@@@@@@@@@@@@@@@@@@@@@@@@@@@@@@@@@@@@@@@@@@@@@@@@@@@@@@@@@@@@@@@@@@@@@@@@@@@@@@@@@@@@@@@@@@@@@@@@@@@@@@@@@@@@@@@@@@@@@@@@@@@@@@@@@@@@@@@@@@",
"@@@@@@@@@@@@@@@@@@@@@@@@@@@@@@@@@@@@@@@@@@@@@@@@@@@@@@@@@@@@@@@@@@@@@@@@@@@@@@@@@@@@@@@@@@@@@@@@@@@@@@@@@@@@@@@@@@@@@@@@@@@@@@@@@@@@@@@@@@@@@@@@@@@@@@@@@@@@@@@@@@@@@@@@@@@@@@@@@@@@@@@@@@@@@@@@@@@@@@@@@@@@@@@@@@@@@@@@@@@@@@@@@@@@@@@@@@@@@@@@@@@@@@@@@@@@@@@@@@@@@@@@@@@@@@@@@@@@@@@@@@@@@@@@@@@@@@@@@@@@@@@@@@@@@@@@@@@@@@@@",
"@@@@@@@@@@@@@@@@@@@@@@@@@@@@@@@@@@@@@@@@@@@@@@@@@@@@@@@@@@@@@@@@@@@@@@@@@@@@@@@@@@@@@@@@@@@@@@@@@@@@@@@@@@@@@@@@@@@@@@@@@@@@@@@@@@@@@@@@@@@@@@@@@@@@@@@@@@@@@@@@@@@@@@@@@@@@@@@@@@@@@@@@@@@@@@@@@@@@@@@@@@@@@@@@@@@@@@@@@@@@@@@@@@@@@@@@@@@@@@@@@@@@@@@@@@@@@@@@@@@@@@@@@@@@@@@@@@@@@@@@@@@@@@@@@@@@@@@@@@@@@@@@@@@@@@@@@@@@@@@@",
"@@@@@@@@@@@@@@@@@@@@@@@@@@@@@@@@@@@@@@@@@@@@@@@@@@@@@@@@@@@@@@@@@@@@@@@@@@@@@@@@@@@@@@@@@@@@@@@@@@@@@@@@@@@@@@@@@@@@@@@@@@@@@@@@@@@@@@@@@@@@@@@@@@@@@@@@@@@@@@@@@@@@@@@@@@@@@@@@@@@@@@@@@@@@@@@@@@@@@@@@@@@@@@@@@@@@@@@@@@@@@@@@@@@@@@@@@@@@@@@@@@@@@@@@@@@@@@@@@@@@@@@@@@@@@@@@@@@@@@@@@@@@@@@@@@@@@@@@@@@@@@@@@@@@@@@@@@@@@@@@",
"@@@@@@@@@@@@@@@@@@@@@@@@@@@@@@@@@@@@@@@@@@@@@@@@@@@@@@@@@@@@@@@@@@@@@@@@@@@@@@@@@@@@@@@@@@@@@@@@@@@@@@@@@@@@@@@@@@@@@@@@@@@@@@@@@@@@@@@@@@@@@@@@@@@@@@@@@@@@@@@@@@@@@@@@@@@@@@@@@@@@@@@@@@@@@@@@@@@@@@@@@@@@@@@@@@@@@@@@@@@@@@@@@@@@@@@@@@@@@@@@@@@@@@@@@@@@@@@@@@@@@@@@@@@@@@@@@@@@@@@@@@@@@@@@@@@@@@@@@@@@@@@@@@@@@@@@@@@@@@@@",
"@@@@@@@@@@@@@@@@@@@@@@@@@@@@@@@@@@@@@@@@@@@@@@@@@@@@@@@@@@@@@@@@@@@@@@@@@@@@@@@@@@@@@@@@@@@@@@@@@@@@@@@@@@@@@@@@@@@@@@@@@@@@@@@@@@@@@@@@@@@@@@@@@@@@@@@@@@@@@@@@@@@@@@@@@@@@@@@@@@@@@@@@@@@@@@@@@@@@@@@@@@@@@@@@@@@@@@@@@@@@@@@@@@@@@@@@@@@@@@@@@@@@@@@@@@@@@@@@@@@@@@@@@@@@@@@@@@@@@@@@@@@@@@@@@@@@@@@@@@@@@@@@@@@@@@@@@@@@@@@@",
"@@@@@@@@@@@@@@@@@@@@@@@@@@@@@@@@@@@@@@@@@@@@@@@@@@@@@@@@@@@@@@@@@@@@@@@@@@@@@@@@@@@@@@@@@@@@@@@@@@@@@@@@@@@@@@@@@@@@@@@@@@@@@@@@@@@@@@@@@@@@@@@@@@@@@@@@@@@@@@@@@@@@@@@@@@@@@@@@@@@@@@@@@@@@@@@@@@@@@@@@@@@@@@@@@@@@@@@@@@@@@@@@@@@@@@@@@@@@@@@@@@@@@@@@@@@@@@@@@@@@@@@@@@@@@@@@@@@@@@@@@@@@@@@@@@@@@@@@@@@@@@@@@@@@@@@@@@@@@@@@",
"@@@@@@@@@@@@@@@@@@@@@@@@@@@@@@@@@@@@@@@@@@@@@@@@@@@@@@@@@@@@@@@@@@@@@@@@@@@@@@@@@@@@@@@@@@@@@@@@@@@@@@@@@@@@@@@@@@@@@@@@@@@@@@@@@@@@@@@@@@@@@@@@@@@@@@@@@@@@@@@@@@@@@@@@@@@@@@@@@@@@@@@@@@@@@@@@@@@@@@@@@@@@@@@@@@@@@@@@@@@@@@@@@@@@@@@@@@@@@@@@@@@@@@@@@@@@@@@@@@@@@@@@@@@@@@@@@@@@@@@@@@@@@@@@@@@@@@@@@@@@@@@@@@@@@@@@@@@@@@@@",
"@@@@@@@@@@@@@@@@@@@@@@@@@@@@@@@@@@@@@@@@@@@@@@@@@@@@@@@@@@@@@@@@@@@@@@@@@@@@@@@@@@@@@@@@@@@@@@@@@@@@@@@@@@@@@@@@@@@@@@@@@@@@@@@@@@@@@@@@@@@@@@@@@@@@@@@@@@@@@@@@@@@@@@@@@@@@@@@@@@@@@@@@@@@@@@@@@@@@@@@@@@@@@@@@@@@@@@@@@@@@@@@@@@@@@@@@@@@@@@@@@@@@@@@@@@@@@@@@@@@@@@@@@@@@@@@@@@@@@@@@@@@@@@@@@@@@@@@@@@@@@@@@@@@@@@@@@@@@@@@@",
"@@@@@@@@@@@@@@@@@@@@@@@@@@@@@@@@@@@@@@@@@@@@@@@@@@@@@@@@@@@@@@@@@@@@@@@@@@@@@@@@@@@@@@@@@@@@@@@@@@@@@@@@@@@@@@@@@@@@@@@@@@@@@@@@@@@@@@@@@@@@@@@@@@@@@@@@@@@@@@@@@@@@@@@@@@@@@@@@@@@@@@@@@@@@@@@@@@@@@@@@@@@@@@@@@@@@@@@@@@@@@@@@@@@@@@@@@@@@@@@@@@@@@@@@@@@@@@@@@@@@@@@@@@@@@@@@@@@@@@@@@@@@@@@@@@@@@@@@@@@@@@@@@@@@@@@@@@@@@@@@"
};
