/* XPM */
static char *end_floor3_066[] = {
/* columns rows colors chars-per-pixel */
"320 200 72 1 ",
"  c #000000",
". c #0B0B0B",
"X c gray8",
"o c #1C1C1C",
"O c #3C240D",
"+ c #3F2813",
"@ c #00002C",
"# c #00003C",
"$ c gray14",
"% c #2C2C2C",
"& c #343434",
"* c #3C3C3C",
"= c #600000",
"- c #502400",
"; c #643000",
": c #743804",
"> c #004400",
", c #005C00",
"< c #007400",
"1 c #000050",
"2 c #000064",
"3 c #244870",
"4 c #444444",
"5 c #4C4C4C",
"6 c #545454",
"7 c #5C5C5C",
"8 c #646464",
"9 c #6C6C6C",
"0 c #747474",
"q c #7C7C7C",
"w c #F80000",
"e c #884404",
"r c #8D480A",
"t c #984C08",
"y c #AC580C",
"u c #C47024",
"i c #008C00",
"p c #00A400",
"a c #CC8038",
"s c #D09050",
"d c #D89C64",
"f c #DCAC7C",
"g c #040488",
"h c #0C0CAC",
"j c #2C5480",
"k c #346090",
"l c #3C6CA0",
"z c #4C78A8",
"x c #1010C0",
"c c #4040D0",
"v c #7878E0",
"b c #5884B0",
"n c #6C90BC",
"m c #848484",
"M c #8C8C8C",
"N c #939393",
"B c #989898",
"V c #A0A0A0",
"C c #A8A8A8",
"Z c #B0B0B0",
"A c #BCBCBC",
"S c #ECD0B4",
"D c #80A0C4",
"F c #C4C4C4",
"G c #CCCCCC",
"H c #D4D4D4",
"J c #DADADA",
"K c #D8D8F4",
"L c #E0E0E0",
"P c #E8E8E8",
"I c #F1F1F1",
"U c #FCFCFC",
/* pixels */
"$$$$$$$$$$$$$$$$$$$$$$$$$$$$$$$$$$$$$$$$$$$$$$$$$$$$$$$$$$$$$$$$$$$$$$$$$$$$$$$$$$$$$$$$$$$$$$$$$$$$$$$$$$$$$$$$$$$$$$$$$$$$$$$$$$$$$$$$$$$$$$$$$$$$$$$$$$$$$$$$$$$$$$$$$$$$$$$$$$$$$$$$$$$$$$$$$$$$$$$$$$$$$$$$$$$$$$$$$$$$$$$$$$$$$$$$$$$$$$$$$$$$$$$$$$$$$$$$$$$$$$$$$$$$$$$$$$$$$$$$$$$$$$$$$$$$$$$$$$$$$$$$$$$$$$$$$$$$$$$$",
"$$$$$$$$$$$$$$$$$$$$$$$$$$$$$$$$$$$$$$$$$$$$$$$$$$$$$$$$$$$$$$$$$$$$$$$$$$$$$$$$$$$$$$$$$$$$$$$$$$$$$$$$$$$$$$$$$$$$$$$$$$$$$$$$$$$$$$$$$$$$$$$$$$$$$$$$$$$$$$$$$$$$$$$$$$$$$$$$$$$$$$$$$$$$$$$$$$$$$$$$$$$$$$$$$$$$$$$$$$$$$$$$$$$$$$$$$$$$$$$$$$$$$$$$$$$$$$$$$$$$$$$$$$$$$$$$$$$$$$$$$$$$$$$$$$$$$$$$$$$$$$$$$$$$$$$$$$$$$$$$",
"$$$$$$$$$$$$$$$$$$$$$$$$$$$$$$$$$$$$$$$$$$$$$$$$$$$$$$$$$$$$$$$$$$$$$$$$$$$$$$$$$$$$$$$$$$$$$$$$$$$$$$$$$$$$$$$$$$$$$$$$$$$$$$$$$$$$$$$$$$$$$$$$$$$$$$$$$$$$$$$$$$$$$$$$$$$$$$$$$$$$$$$$$$$$$$$$$$$$$$$$$$$$$$$$$$$$$$$$$$$$$$$$$$$$$$$$$$$$$$$$$$$$$$$$$$$$$$$$$$$$$$$$$$$$$$$$$$$$$$$$$$$$$$$$$$$$$$$$$$$$$$$$$$$$$$$$$$$$$$$$",
"$$$$$$$$$$$$$$$$$$$$$$$$$$$$$$$$$$$$$$$$$$$$$$$$$$$$$$$$$$$$$$$$$$$$$$$$$$$$$$$$$$$$$$$$$$$$$$$$$$$$$$$$$$$$$$$$$$$$$$$$$$$$$$$$$$$$$$$$$$$$$$$$$$$$$$$$$$$$$$$$$$$$$$$$$$$$$$$$$$$$$$$$$$$$$$$$$$$$$$$$$$$$$$$$$$$$$$$$$$$$$$$$$$$$$$$$$$$$$$$$$$$$$$$$$$$$$$$$$$$$$$$$$$$$$$$$$$$$$$$$$$$$$$$$$$$$$$$$$$$$$$$$$$$$$$$$$$$$$$$$",
"$$$$$$$$$$$$$$$$$$$$$$$$$$$$$$$$$$$$$$$$$$$$$$$$$$$$$$$$$$$$$$$$$$$$$$$$$$$$$$$$$$$$$$$$$$$$$$$$$$$$$$$$$$$$$$$$$$$$$$$$$$$$$$$$$$$$$$$$$$$$$$$$$$$$$$$$$$$$$$$$$$$$$$$$$$$$$$$$$$$$$$$$$$$$$$$$$$$$$$$$$$$$$$$$$$$$$$$$$$$$$$$$$$$$$$$$$$$$$$$$$$$$$$$$$$$$$$$$$$$$$$$$$$$$$$$$$$$$$$$$$$$$$$$$$$$$$$$$$$$$$$$$$$$$$$$$$$$$$$$$",
"$$$$$$$$$$$$$$$$$$$$$$$$$$$$$$$$$$$$$$$$$$$$$$$$$$$$$$$$$$$$$$$$$$$$$$$$$$$$$$$$$$$$$$$$$$$$$$$$$$$$$$$$$$$$$$$$$$$$$$$$$$$$$$$$$$$$$$$$$$$$$$$$$$$$$$$$$$$$$$$$$$$$$$$$$$$$$$$$$$$$$$$$$$$$$$$$$$$$$$$$$$$$$$$$$$$$$$$$$$$$$$$$$$$$$$$$$$$$$$$$$$$$$$$$$$$$$$$$$$$$$$$$$$$$$$$$$$$$$$$$$$$$$$$$$$$$$$$$$$$$$$$$$$$$$$$$$$$$$$$$",
"$$$$$$$$$$$$$$$$$$$$$$$$$$$$$$$$$$$$$$$$$$$$$$$$$$$$$$$$$$$$$$$$$$$$$$$$$$$$$$$$$$$$$$$$$$$$$$$$$$$$$$$$$$$$$$$$$$$$$$$$$$$$$$$$$$$$$$$$$$$$$$$$$$$$$$$$$$$$$$$$$$$$$$$$$$$$$$$$$$$$$$$$$$$$$$$$$$$$$$$$$$$$$$$$$$$$$$$$$$$$$$$$$$$$$$$$$$$$$$$$$$$$$$$$$$$$$$$$$$$$$$$$$$$$$$$$$$$$$$$$$$$$$$$$$$$$$$$$$$$$$$$$$$$$$$$$$$$$$$$$",
"$$$$$$$$$$$$$$$$$$$$$$$$$$$$$$$$$$$$$$$$$$$$$$$$$$$$$$$$$$$$$$$$$$$$$$$$$$$$$$$$$$$$$$$$$$$$$$$$$$$$$$$$$$$$$$$$$$$$$$$$$$$$$$$$$$$$$$$$$$$$$$$$$$$$$$$$$$$$$$$$$$$$$$$$$$$$$$$$$$$$$$$$$$$$$$$$$$$$$$$$$$$$$$$$$$$$$$$$$$$$$$$$$$$$$$$$$$$$$$$$$$$$$$$$$$$$$$$$$$$$$$$$$$$$$$$$$$$$$$$$$$$$$$$$$$$$$$$$$$$$$$$$$$$$$$$$$$$$$$$$",
"$$$$$$$$$$$$$$$$$$$$$$$$$$$$$$$$$$$$$$$$$$$$$$$$$$$$$$$$$$$$$$$$$$$$$$$$$$$$$$$$$$$$$$$$$$$$$$$$$$$$$$$$$$$$$$$$$$$$$$$$$$$$$$$$$$$$$$$$$$$$$$$$$$$$$$$$$$$$$$$$$$$$$$$$$$$$$$$$$$$$$$$$$$$$$$$$$$$$$$$$$$$$$$$$$$$$$$$$$$$$$$$$$$$$$$$$$$$$$$$$$$$$$$$$$$$$$$$$$$$$$$$$$$$$$$$$$$$$$$$$$$$$$$$$$$$$$$$$$$$$$$$$$$$$$$$$$$$$$$$$",
"$$$$$$$$$$$$$$$$$$$$$$$$$$$$$$$$$$$$$$$$$$$$$$$$$$$$$$$$$$$$$$$$$$$$$$$$$$$$$$$$$$$$$$$$$$$$$$$$$$$$$$$$$$$$$$$$$$$$$$$$$$$$$$$$$$$$$$$$$$$$$$$$$$$$$$$$$$$$$$$$$$$$$$$$$$$$$$$$$$$$$$$$$$$$$$$$$$$$$$$$$$$$$$$$$$$$$$$$$$$$$$$$$$$$$$$$$$$$$$$$$$$$$$$$$$$$$$$$$$$$$$$$$$$$$$$$$$$$$$$$$$$$$$$$$$$$$$$$$$$$$$$$$$$$$$$$$$$$$$$$",
"$$$$$$$$$$$$$$$$$$$$$$$$$$$$$$$$$$$$$$$$$$$$$$$$$$$$$$$$$$$$$$$$$$$$$$$$$$$$$$$$$$$$$$$$$$$$$$$$$$$$$$$$$$$$$$$$$$$$$$$$$$$$$$$$$$$$$$$$$$$$$$$$$$$$$$$$$$$$$$$$$$$$$$$$$$$$$$$$$$$$$$$$$$$$$$$$$$$$$$$$$$$$$$$$$$$$$$$$$$$$$$$$$$$$$$$$$$$$$$$$$$$$$$$$$$$$$$$$$$$$$$$$$$$$$$$$$$$$$$$$$$$$$$$$$$$$$$$$$$$$$$$$$$$$$$$$$$$$$$$$",
"$$$$$$$$$$$$$$$$$$$$$$$$$$$$$$$$$$$$$$$$$$$$$$$$$$$$$$$$$$$$$$$$$$$$$$$$$$$$$$$$$$$$$$$$$$$$$$$$$$$$$$$$$$$$$$$$$$$$$$$$$$$$$$$$$$$$$$$$$$$$$$$$$$$$$$$$$$$$$$$$$$$$$$$$$$$$$$$$$$$$$$$$$$$$$$$$$$$$$$$$$$$$$$$$$$$$$$$$$$$$$$$$$$$$$$$$$$$$$$$$$$$$$$$$$$$$$$$$$$$$$$$$$$$$$$$$$$$$$$$$$$$$$$$$$$$$$$$$$$$$$$$$$$$$$$$$$$$$$$$$",
"$$$$$$$$$$$$$$$$$$$$$$$$$$$$$$$$$$$$$$$$$$$$$$$$$$$$$$$$$$$$$$$$$$$$$$$$$$$$$$$$$$$$$$$$$$$$$$$$$$$$$$$$$$$$$$$$$$$$$$$$$$$$$$$$$$$$$$$$$$$$$$$$$$$$$$$$$$$$$$$$$$$$$$$$$$$$$$$$$$$$$$$$$$$$$$$$$$$$$$$$$$$$$$$$$$$$$$$$$$$$$$$$$$$$$$$$$$$$$$$$$$$$$$$$$$$$$$$$$$$$$$$$$$$$$$$$$$$$$$$$$$$$$$$$$$$$$$$$$$$$$$$$$$$$$$$$$$$$$$$$",
"$$$$$$$$$$$$$$$$$$$$$$$$$$$$$$$$$$$$$$$$$$$$$$$$$$$$$$$$$$$$$$$$$$$$$$$$$$$$$$$$$$$$$$$$$$$$$$$$$$$$$$$$$$$$$$$$$$$$$$$$$$$$$$$$$$$$$$$$$$$$$$$$$$$$$$$$$$$$$$$$$$$$$$$$$$$$$$$$$$$$$$$$$$$$$$$$$$$$$$$$$$$$$$$$$$$$$$$$$$$$$$$$$$$$$$$$$$$$$$$$$$$$$$$$$$$$$$$$$$$$$$$$$$$$$$$$$$$$$$$$$$$$$$$$$$$$$$$$$$$$$$$$$$$$$$$$$$$$$$$$",
"$$$$$$$$$$$$$$$$$$$$$$$$$$$$$$$$$$$$$$$$$$$$$$$$$$$$$$$$$$$$$$$$$$$$$$$$$$$$$$$$$$$$$$$$$$$$$$$$$$$$$$$$$$$$$$$$$$$$$$$$$$$$$$$$$$$$$$$$$$$$$$$$$$$$$$$$$$$$$$$$$$$$$$$$$$$$$$$$$$$$$$$$$$$$$$$$$$$$$$$$$$$$$$$$$$$$$$$$$$$$$$$$$$$$$$$$$$$$$$$$$$$$$$$$$$$$$$$$$$$$$$$$$$$$$$$$$$$$$$$$$$$$$$$$$$$$$$$$$$$$$$$$$$$$$$$$$$$$$$$$",
"$$$$$$$$$$$$$$$$$$$$$$$$$$$$$$$$$$$$$$$$$$$$$$$$$$$$$$$$$$$$$$$$$$$$$$$$$$$$$$$$$$$$$$$$$$$$$$$$$$$$$$$$$$$$$$$$$$$$$$$$$$$$$$$$$$$$$$$$$$$$$$$$$$$$$$$$$$$$$$$$$$$$$$$$$$$$$$$$$$$$$$$$$$$$$$$$$$$$$$$$$$$$$$$$$$$$$$$$$$$$$$$$$$$$$$$$$$$$$$$$$$$$$$$$$$$$$$$$$$$$$$$$$$$$$$$$$$$$$$$$$$$$$$$$$$$$$$$$$$$$$$$$$$$$$$$$$$$$$$$$",
"$$$$$$$$$$$$$$$$$$$$$$$$$$$$$$$$$$$$$$$$$$$$$$$$$$$$$$$$$$$$$$$$$$$$$$$$$$$$$$$$$$$$$$$$$$$$$$$$$$$$$$$$$$$$$$$$$$$$$$$$$$$$$$$$$$$$$$$$$$$$$$$$$$$$$$$$$$$$$$$$$$$$$$$$$$$$$$$$$$$$$$$$$$$$$$$$$$$$$$$$$$$$$$$$$$$$$$$$$$$$$$$$$$$$$$$$$$$$$$$$$$$$$$$$$$$$$$$$$$$$$$$$$$$$$$$$$$$$$$$$$$$$$$$$$$$$$$$$$$$$$$$$$$$$$$$$$$$$$$$$",
"$$$$$$$$$$$$$$$$$$$$$$$$$$$$$$$$$$$$$$$$$$$$$$$$$$$$$$$$$$$$$$$$$$$$$$$$$$$$$$$$$$$$$$$$$$$$$$$$$$$$$$$$$$$$$$$$$$$$$$$$$$$$$$$$$$$$$$$$$$$$$$$$$$$$$$$$$$$$$$$$$$$$$$$$$$$$$$$$$$$$$$$$$$$$$$$$$$$$$$$$$$$$$$$$$$$$$$$$$$$$$$$$$$$$$$$$$$$$$$$$$$$$$$$$$$$$$$$$$$$$$$$$$$$$$$$$$$$$$$$$$$$$$$$$$$$$$$$$$$$$$$$$$$$$$$$$$$$$$$$$",
"$$$$$$$$$$$$$$$$$$$$$$$$$$$$$$$$$$$$$$$$$$$$$$$$$$$$$$$$$$$$$$$$$$$$$$$$$$$$$$$$$$$$$$$$$$$$$$$$$$$$$$$$$$$$$$$$$$$$$$$$$$$$$$$$$$$$$$$$$$$$$$$$$$$$$$$$$$$$$$$$$$$$$$$$$$$$$$$$$$$$$$$$$$$$$$$$$$$$$$$$$$$$$$$$$$$$$$$$$$$$$$$$$$$$$$$$$$$$$$$$$$$$$$$$$$$$$$$$$$$$$$$$$$$$$$$$$$$$$$$$$$$$$$$$$$$$$$$$$$$$$$$$$$$$$$$$$$$$$$$$",
"$$$$$$$$$$$$$$$$$$$$$$$$$$$$$$$$$$$$$$$$$$$$$$$$$$$$$$$$$$$$$$$$$$$$$$$$$$$$$$$$$$$$$$$$$$$$$$$$$$$$$$$$$$$$$$$$$$$$$$$$$$$$$$$$$$$$$$$$$$$$$$$$$$$$$$$$$$$$$$$$$$$$$$$$$$$$$$$$$$$$$$$$$$$$$$$$$$$$$$$$$$$$$$$$$$$$$$$$$$$$$$$$$$$$$$$$$$$$$$$$$$$$$$$$$$$$$$$$$$$$$$$$$$$$$$$$$$$$$$$$$$$$$$$$$$$$$$$$$$$$$$$$$$$$$$$$$$$$$$$$",
"$$$$$$$$$$$$$$$$$$$$$$$$$$$$$$$$$$$$$$$$$$$$$$$$$$$$$$$$$$$$$$$$$$$$$$$$$$$$$$$$$$$$$$$$$$$$$$$$$$$$$$$$$$$$$$$$$$$$$$$$$$$$$$$$$$$$$$$$$$$$$$$$$$$$$$$$$$$$$$$$$$$$$$$$$$$$$$$$$$$$$$$$$$$$$$$$$$$$$$$$$$$$$$$$$$$$$$$$$$$$$$$$$$$$$$$$$$$$$$$$$$$$$$$$$$$$$$$$$$$$$$$$$$$$$$$$$$$$$$$$$$$$$$$$$$$$$$$$$$$$$$$$$$$$$$$$$$$$$$$$",
"$$$$$$$$$$$$$$$$$$$$$$$$$$$$$$$$$$$$$$$$$$$$$$$$$$$$$$$$$$$$$$$$$$$$$$$$$$$$$$$$$$$$$$$$$$$$$$$$$$$$$$$$$$$$$$$$$$$$$$$$$$$$$$$$$$$$$$$$$$$$$$$$$$$$$$$$$$$$$$$$$$$$$$$$$$$$$$$$$$$$$$$$$$$$$$$$$$$$$$$$$$$$$$$$$$$$$$$$$$$$$$$$$$$$$$$$$$$$$$$$$$$$$$$$$$$$$$$$$$$$$$$$$$$$$$$$$$$$$$$$$$$$$$$$$$$$$$$$$$$$$$$$$$$$$$$$$$$$$$$$",
"$$$$$$$$$$$$$$$$$$$$$$$$$$$$$$$$$$$$$$$$$$$$$$$$$$$$$$$$$$$$$$$$$$$$$$$$$$$$$$$$$$$$$$$$$$$$$$$$$$$$$$$$$$$$$$$$$$$$$$$$$$$$$$$$$$$$$$$$$$$$$$$$$$$$$$$$$$$$$$$$$$$$$$$$$$$$$$$$$$$$$$$$$$$$$$$$$$$$$$$$$$$$$$$$$$$$$$$$$$$$$$$$$$$$$$$$$$$$$$$$$$$$$$$$$$$$$$$$$$$$$$$$$$$$$$$$$$$$$$$$$$$$$$$$$$$$$$$$$$$$$$$$$$$$$$$$$$$$$$$$",
"$$$$$$$$$$$$$$$$$$$$$$$$$$$$$$$$$$$$$$$$$$$$$$$$$$$$$$$$$$$$$$$$$$$$$$$$$$$$$$$$$$$$$$$$$$$$$$$$$$$$$$$$$$$$$$$$$$$$$$$$$$$$$$$$$$$$$$$$$$$$$$$$$$$$$$$$$$$$$$$$$$$$$$$$$$$$$$$$$$$$$$$$$$$$$$$$$$$$$$$$$$$$$$$$$$$$$$$$$$$$$$$$$$$$$$$$$$$$$$$$$$$$$$$$$$$$$$$$$$$$$$$$$$$$$$$$$$$$$$$$$$$$$$$$$$$$$$$$$$$$$$$$$$$$$$$$$$$$$$$$",
"$$$$$$$$$$$$$$$$$$$$$$$$$$$$$$$$$$$$$$$$$$$$$$$$$$$$$$$$$$$$$$$$$$$$$$$$$$$$$$$$$$$$$$$$$$$$$$$$$$$$$$$$$$$$$$$$$$$$$$$$$$$$$$$$$$$$$$$$$$$$$$$$$$$$$$$$$$$$$$$$$$$$$$$$$$$$$$$$$$$$$$$$$$$$$$$$$$$$$$$$$$$$$$$$$$$$$$$$$$$$$$$$$$$$$$$$$$$$$$$$$$$$$$$$$$$$$$$$$$$$$$$$$$$$$$$$$$$$$$$$$$$$$$$$$$$$$$$$$$$$$$$$$$$$$$$$$$$$$$$$",
"$$$$$$$$$$$$$$$$$$$$$$$$$$$$$$$$$$$$$$$$$$$$$$$$$$$$$$$$$$$$$$$$$$$$$$$$$$$$$$$$$$$$$$$$$$$$$$$$$$$$$$$$$$$$$$$$$$$$$$$$$$$$$$$$$$$$$$$$$$$$$$$$$$$$$$$$$$$$$$$$$$$$$$$$$$$$$$$$$$$$$$$$$$$$$$$$$$$$$$$$$$$$$$$$$$$$$$$$$$$$$$$$$$$$$$$$$$$$$$$$$$$$$$$$$$$$$$$$$$$$$$$$$$$$$$$$$$$$$$$$$$$$$$$$$$$$$$$$$$$$$$$$$$$$$$$$$$$$$$$$",
"$$$$$$$$$$$$$$$$$$$$$$$$$$$$$$$$$$$$$$$$$$$$$$$$$$$$$$$$$$$$$$$$$$$$$$$$$$$$$$$$$$$$$$$$$$$$$$$$$$$$$$$$$$$$$$$$$$$$$$$$$$$$$$$$$$$$$$$$$$$$$$$$$$$$$$$$$$$$$$$$$$$$$$$$$$$$$$$$$$$$$$$$$$$$$$$$$$$$$$$$$$$$$$$$$$$$$$$$$$$$$$$$$$$$$$$$$$$$$$$$$$$$$$$$$$$$$$$$$$$$$$$$$$$$$$$$$$$$$$$$$$$$$$$$$$$$$$$$$$$$$$$$$$$$$$$$$$$$$$$$",
"$$$$$$$$$$$$$$$$$$$$$$$$$$$$$$$$$$$$$$$$$$$$$$$$$$$$$$$$$$$$$$$$$$$$$$$$$$$$$$$$$$$$$$$$$$$$$$$$$$$$$$$$$$$$$$$$$$$$$$$$$$$$$$$$$$$$$$$$$$$$$$$$$$$$$$$$$$$$$$$$$$$$$$$$$$$$$$$$$$$$$$$$$$$$$$$$$$$$$$$$$$$$$$$$$$$$$$$$$$$$$$$$$$$$$$$$$$$$$$$$$$$$$$$$$$$$$$$$$$$$$$$$$$$$$$$$$$$$$$$$$$$$$$$$$$$$$$$$$$$$$$$$$$$$$$$$$$$$$$$$",
"$$$$$$$$$$$$$$$$$$$$$$$$$$$$$$$$$$$$$$$$$$$$$$$$$$$$$$$$$$$$$$$$$$$$$$$$$$$$$$$$$$$$$$$$$$$$$$$$$$$$$$$$$$$$$$$$$$$$$$$$$$$$$$$$$$$$$$$$$$$$$$$$$$$$$$$$$$$$$$$$$$$$$$$$$$$$$$$$$$$$$$$$$$$$$$$$$$$$$$$$$$$$$$$$$$$$$$$$$$$$$$$$$$$$$$$$$$$$$$$$$$$$$$$$$$$$$$$$$$$$$$$$$$$$$$$$$$$$$$$$$$$$$$$$$$$$$$$$$$$$$$$$$$$$$$$$$$$$$$$$",
"$$$$$$$$$$$$$$$$$$$$$$$$$$$$$$$$$$$$$$$$$$$$$$$$$$$$$$$$$$$$$$$$$$$$$$$$$$$$$$$$$$$$$$$$$$$$$$$$$$$$$$$$$$$$$$$$$$$$$$$$$$$$$$$$$$$$$$$$$$$$$$$$$$$$$$$$$$$$$$$$$$$$$$$$$$$$$$$$$$$$$$$$$$$$$$$$$$$$$$$$$$$$$$$$$$$$$$$$$$$$$$$$$$$$$$$$$$$$$$$$$$$$$$$$$$$$$$$$$$$$$$$$$$$$$$$$$$$$$$$$$$$$$$$$$$$$$$$$$$$$$$$$$$$$$$$$$$$$$$$$",
"$$$$$$$$$$$$$$$$$$$$$$$$$$$$$$$$$$$$$$$$$$$$$$$$$$$$$$$$$$$$$$$$$$$$$$$$$$$$$$$$$$$$$$$$$$$$$$$$$$$$$$$$$$$$$$$$$$$$$$$$$$$$$$$$$$$$$$$$$$$$$$$$$$$$$$$$$$$$$$$$$$$$$$$$$$$$$$$$$$$$$$$$$$$$$$$$$$$$$$$$$$$$$$$$$$$$$$$$$$$$$$$$$$$$$$$$$$$$$$$$$$$$$$$$$$$$$$$$$$$$$$$$$$$$$$$$$$$$$$$$$$$$$$$$$$$$$$$$$$$$$$$$$$$$$$$$$$$$$$$$",
"$$$$$$$$$$$$$$$$$$$$$$$$$$$$$$$$$$$$$$$$$$$$$$$$$$$$$$$$$$$$$$$$$$$$$$$$$$$$$$$$$$$$$$$$$$$$$$$$$$$$$$$$$$$$$$$$$$$$$$$$$$$$$$$$$$$$$$$$$$$$$$$$$$$$$$$$$$$$$$$$$$$$$$$$$$$$$$$$$$$$$$$$$$$$$$$$$$$$$$$$$$$$$$$$$$$$$$$$$$$$$$$$$$$$$$$$$$$$$$$$$$$$$$$$$$$$$$$$$$$$$$$$$$$$$$$$$$$$$$$$$$$$$$$$$$$$$$$$$$$$$$$$$$$$$$$$$$$$$$$$",
"$$$$$$$$$$$$$$$$$$$$$$$$$$$$$$$$$$$$$$$$$$$$$$$$$$$$$$$$$$$$$$$$$$$$$$$$$$$$$$$$$$$$$$$$$$$$$$$$$$$$$$$$$$$$$$$$$$$$$$$$$$$$$$$$$$$$$$$$$$$$$$$$$$$$$$$$$$$$$$$$$$$$$$$$$$$$$$$$$$$$$$$$$$$$$$$$$$$$$$$$$$$$$$$$$$$$$$$$$$$$$$$$$$$$$$$$$$$$$$$$$$$$$$$$$$$$$$$$$$$$$$$$$$$$$$$$$$$$$$$$$$$$$$$$$$$$$$$$$$$$$$$$$$$$$$$$$$$$$$$$",
"$$$$$$$$$$$$$$$$$$$$$$$$$$$$$$$$$$$$$$$$$$$$$$$$$$$$$$$$$$$$$$$$$$$$$$$$$$$$$$$$$$$$$$$$$$$$$$$$$$$$$$$$$$$$$$$$$$$$$$$$$$$$$$$$$$$$$$$$$$$$$$$$$$$$$$$$$$$$$$$$$$$$$$$$$$$$$$$$$$$$$$$$$$$$$$$$$$$$$$$$$$$$$$$$$$$$$$$$$$$$$$$$$$$$$$$$$$$$$$$$$$$$$$$$$$$$$$$$$$$$$$$$$$$$$$$$$$$$$$$$$$$$$$$$$$$$$$$$$$$$$$$$$$$$$$$$$$$$$$$$",
"$$$$$$$$$$$$$$$$$$$$$$$$$$$$$$$$$$$$$$$$$$$$$$$$$$$$$$$$$$$$$$$$$$$$$$$$$$$$$$$$$$$$$$$$$$$$$$$$$$$$$$$$$$$$$$$$$$$$$$$$$$$$$$$$$$$$$$$$$$$$$$$$$$$$$$$$$$$$$$$$$$$$$$$$$$$$$$$$$$$$$$$$$$$$$$$$$$$$$$$$$$$$$$$$$$$$$$$$$$$$$$$$$$$$$$$$$$$$$$$$$$$$$$$$$$$$$$$$$$$$$$$$$$$$$$$$$$$$$$$$$$$$$$$$$$$$$$$$$$$$$$$$$$$$$$$$$$$$$$$$",
"$$$$$$$$$$$$$$$$$$$$$$$$$$$$$$$$$$$$$$$$$$$$$$$$$$$$$$$$$$$$$$$$$$$$$$$$$$$$$$$$$$$$$$$$$$$$$$$$$$$$$$$$$$$$$$$$$$$$$$$$$$$$$$$$$$$$$$$$$$$$$$$$$$$$$$$$$$$$$$$$$$$$$$$$$$$$$$$$$$$$$$$$$$$$$$$$$$$$$$$$$$$$$$$$$$$$$$$$$$$$$$$$$$$$$$$$$$$$$$$$$$$$$$$$$$$$$$$$$$$$$$$$$$$$$$$$$$$$$$$$$$$$$$$$$$$$$$$$$$$$$$$$$$$$$$$$$$$$$$$$",
"$$$$$$$$$$$$$$$$$$$$$$$$$$$$$$$$$$$$$$$$$$$$$$$$$$$$$$$$$$$$$$$$$$$$$$$$$$$$$$$$$$$$$$$$$$$$$$$$$$$$$$$$$$$$$$$$$$$$$$$$$$$$$$$$$$$$$$$$$$$$$$$$$$$$$$$$$$$$$$$$$$$$$$$$$$$$$$$$$$$$$$$$$$$$$$$$$$$$$$$$$$$$$$$$$$$$$$$$$$$$$$$$$$$$$$$$$$$$$$$$$$$$$$$$$$$$$$$$$$$$$$$$$$$$$$$$$$$$$$$$$$$$$$$$$$$$$$$$$$$$$$$$$$$$$$$$$$$$$$$$",
"                          86867800qmMBVCZAFGFAZCVBMmq090MBM7                             @     @                                                            x                                                                                                #                                          @                       ",
"                         *86867800qmMBVCZAFGFAZCVBMmq090MBM7*                                                                       @                        1                                                                                                                                                              1@  ",
"                         486867800qmMBVCZAFGFAZCVBMmq090MBM74     1                                                                                                                                               1                                                                FC      FF                                   ",
"                         586867800qmMBVCZAFGFAZCVBMmq090MBM75                                                                                                                                                                                                                     FCAF    FCCC                                  ",
"     K                   686867800qmMBVCZAFGFAZCVBMmq090MBM76                                      @                    @                                                                   @                                                                       x            FCAFq   FCCAq           1                      ",
"                         786867800qmMBVCZAFGFAZCVBMmq090MBM77                                                                                                                                                                                                                   FCAFq   FCCAq  1                                ",
"       @    1            886867800qmMBVCZAFGFAZCVBMmq090MBM77              K                                                                                                                           @                                                                       FCAFq   FCCAq1                                   ",
"          @              886867800qmMBVCZAFGFAZCVBMmq090MBM77                K                                                                    @                                                        @                         K            #                           FCAFq   FCCAq                                     ",
"                 1       786867800qmMBBCZAFGFAZCVBMmq090MBM77  x     1                                                                      @                                   K @                                                 x                          4mmmmmmmmmmmmmmmmFq   FCCAq                                   1  ",
"                         786867800qmMBVCZAFGFAZCVBMmq090MBM77                                                @                x     1                                                                                       #                              4mmmm9999999999999999mmmmFCCAq    1                    1             ",
"                         786867800qmMBVCZAFGFAZCBBMmq090MBM77          @                           @           @                                                                                                                          1     @        4mm999999999999999999999999mmAq                                        ",
"                         769867800qmMBVCZAFGFAZCCBMmq090MBM77                                                                                                               @                                                                           4m9999997777777777777777999999q4                                        ",
"                         769867800qmMBVCZAFGFAZCBBMmq090MBM07                           1                                                      1                                @                                                                      4m9997777                7777999m4                      K@              @",
"        @                769867800qmMBVCZAFGFAZCVBMmq090MBM07                                                                                                                            1                                                             m9977   600000000000000006   7799m                                       ",
"                         769867800qmMBVCZAFGFACCVBMmq090MBMq7       @                                                                               1                                                                                                  997  600000BVCZAFGFAZCVB00006  799                                       ",
"                         769867800qmMBVCZAFGFAZCVBMmq090qMBM7                                                                        @                                         1                          1                                     @      97 00800qmMBVCZAFGFAZCVBMmq9000 79                                   @   ",
"               @        @769867800qmMBVCZAFGFAZCVBMmq0900MBM7         1                       1             1                               @                    @                                                                                     7 986780qmMBVCZAFGFAZCVBMmq90MB0 7                                       ",
"                     K   769867800qmMBVCZAFGFAZCVBMmq0900MBM7                                                            @                          1         @       1             @                                                          @        8986780qmMBVCZAFGFAZCVBMmq90MBM7                                        ",
"                        *769867800qmMBVCZAFGFAZCVBMmq0900MBM7*                                            @                        @                         @             1                                                                           *8986780qmMBVCZAFGFAZCBBMmq90MBM7*                                       ",
"                        4769867800qmMBVCZAFGFAZCVBMmq0900MBM74                                     1                                                      1                                       #                                            #       48986780qmMBVCZAFGFAZCCBMmq90MBM74   K                                   ",
"        1          1    5769867800qmMBVCZAFGFAZCVBMmq0900MBM75                                                                                              1               x   @                            1                                     @   58986780qmMBVCZAFGFAZCBBMmq90MBM75                  @     1              ",
"                        6769867800qmMBVCZAFGFAZCVBMmq0900MBM76              @                                                                                                                        @                                                 68986780qmMBVCZAFGFAZCBBMmq90MBM76            @       1       @x         ",
"              x         7769867800qmMBVCZAFGFAZCVBMmq0900MBM77                                   1            @            K           @ @                         1     @                                               @                             78986780qmMBVCZAFGFAZCVBMmq90MBM77                                       ",
"         1              8769867800qmMBVCZAFGFAZCVBMmq0900MBM77       1        @                                                                                                                      1                                                 88986780qmMBVCZAFGFAZCVBMmq90MBM77                                       ",
"                        8769867800qmMBVCZAFGFAZCVBMmq0900MBM77                                                @                 1      1       @                  @                                                                                  x 88986780qmMBVCZAFGFAZCVBMmq90MBM77                                       ",
"            @           7769867800qmMBVCZAFGFAZCVBMmq0900MBM77                                                                                                                                                                                         78986780qmMBVCZAFGFAZCVBMmq90MBM77                                       ",
"                        7769867800qmMBVCZAFGFAZCVBMmq0900MBM77                                                            @     @                         @                                                   @          1                             78986780qmMBVCZAFGFAZCVBMmq90MBMq7                                       ",
"                        7769867800qmMBVCZAFGFAZCVBMmq0900MBM77                                                                                                                       1     #                                                           78986780qmMBVCZAFGFAZCVBMmq90qMBM7                                       ",
"                        7769867800qmMBVCZAFGFAZCVBMmq0900MBM77                                          @@                                                    1           #                                                                 @          78986780qmMBBCZAFGFAZCVBMmq900MBM7        @                              ",
"                        7769867800qmMBVCZAFGFAZCVBMmq0900MBM77                 1                  1                                                        @                  #                                     1                                  78986780qmMBCCZAFGFAZCVBMmq900MBM7                                       ",
"      1                 7769867800qmMBVCZAFGFAZCVBMmq0900MBM77                          @                               @                                                                                                          @                   78986780qmMBBCZAFGFAZCVBMmq900MBM7                                       ",
"                        7769867800qmMBVCZAFGFAZCVBMmq0900MBM77             x                                                           @   @                             1                                                           @                 78986780qmMBVCZAFGFAZCVBMmq900MBM7               1 @                     ",
"     @                  7689767800qmMBVCZAFGFAZCVBMmq0090MBM77                                                        1                                                              #                                                                 78986780qmMBVCZAFGFAZCVBMmq090MBM7                                       ",
"                        7698678900qmMBVCZAFGFAZCVBMmq0090MBM77                                                          @                                                                                                                              78867890qmMBVCZAFGFAZCVBMmq090MBM7                                       ",
"                        7698678000qmMBBCZAFGFAZCVBMmq0090MBM07                                                                                                                                          1                                              89867800qmMBVCZAFGFAZCVBMmq090MBM7                                       ",
"                       *7698678000qmMBVCZAFGFAZCVBMmq0090MBMq7*                                                                                        1                      #                                                                       *89867800qmMBVCZAFGFAZCVBMmq090MBM7*     1                       1        ",
"       1               47698678000qmMBVCZAFGFAZCVBMmq0090qMBM74             1                                                             @                                                              1              @                             489867800qmMBVCZAFGFAZCVBMmq090MBM74           1                          ",
"           1           57698678000qmMBVCZAFGFAZCVBMmq00900MBM75                                                                                                                                                         K@                            589867800qmMBVCZAFGFAZCVBMmq090MBM75                                      ",
"                       77698678000qmMBVCZAFGFAZCVBMmq00900MBM76                                                                         @                                                                                                             689867800qmMBVCZAFGFAZCVBMmq090MBM76                                     x",
"                       77698678000qmMBV074*%*547qBMmq00900MBM77                                         c   1  @                   @                     #                                                                             @              789867800qmMBVCZAFGFAZCBBMmq090MBM77                                      ",
"                       77698678000qmM75$&855&$64&58mq00900MBM77                                        xvx             1         1                                                                                    @                              1889867800qmMBVCZAFGFAZCVBMmq090MBM77                           @          ",
"                       77698678000q94*%0$q*M4 q5%$55000900MBM77                                       cvKvc                                                     1                           x     #                                                 1 889867800qmMBVCZAFGFAZCVBMmq090MBM77                                      ",
"                       776986780006&&5%Gm     o*J9X%*80900MBM77                                        xvx                                                    1                                                            1                          789867800qmMBVCZAFGFAZCVBMmq090MBM77               K                      ",
"                      *7769867800645&M0o%*8098&X9M445*9900MBM77                      1                  c                                                                                                                                             789867800qmMBVCZAFGFAZCVBMmq090MBM77                  @                   ",
"         1            477698678085X8C$$7AIUUUUPZ& 9V$%*900MBM77      1       FF      CF                                                                   #                                                                                           789867800qmMBB084*%&557qBMmq090MBM77       @                              ",
"                      5776986780&* .& CUPHJJJJJUUmo*  5*00MBM77             CCCF    FACF                                                                                                                                    @                         789867800qmM75$&855&$6*&57mq090MBM77                                      ",
"                      67769867865.   HUHHPUUJJUPUUA   o480MBM77             qACCF   qFACF                                                                                     1   #                     #                                             789867800q94*%0$q*M4 q5&$550090MBM77                                      ",
"                      777698678*&   CUHHUAM0GGMqBNF9   440MBM77              qACCF   qFACF        1                    @                                                                                                     1              1         7898678006&&5&Gm.    X4J9X$*890MBM77                                      ",
"                      7776986754.  5UJGUA. %Um 85  H&  $*0MBM77               qACCF   qFACF                                        @           #                                                                                     @                78986780645&M9X%*8908&.9M455*70MBMq7                                      ",
"   x                  777698674&   ZUHUF  5UU8*U9  JB   *6MBM77                qACCF   qFACF                                                                K                                   #                 1                      x            789867884X9V$$7APUUUUPZ& 9C$%*0qMBM7                                      ",
"                      77769867*%  XPJUF  6UPJAUU% .PJ   *5MBM77                 qACCF   qFmmmmmmmmmmmmm4                                                                                         #                                                    7898678** .&.CUPJJJJJJUUmo*  540MBM7                         1         1  ",
"                      77769867&m. qPUF. 6UUJGUU* .HUJ6 $m*MBM77                  qACCFmmmm9999999999999mmmm4                                               5qCCCCCCCCCCCCCCCCCCCCCCCC0000CCq5                     @               @  1                78986745.   JUJGPUUJJUPUUA   o48MBM7                                      ",
"            1         77769767$BM0CPA. 7UIJLLP4 oGULFB0Nm&MBM77     1             qAmm999999999999999999999mm4                                     5qCCCCCCCCVBBBBBBBBBBVCVBBVCZAGAZCBBBBBBCCCCCCCC00              @                                 *789867*&   ZUHGUAM0GGMqBMF9   44MBM7*                                     ",
"                      77689677$MABMU$  &&$$$CC  mUBZJmZC9&MBM77                   4q9999997777777777777999999m4                                5qCCCCMmMBBBBBVBBBBBBBBBBVCBBBVCZAGAZCBBBBBBBBBBBBBBBB00q5              @                         @   47898654.  5UHJUA. %Um 86  H*  $*mBM74      1                              ",
"                      77689677$mVBMPo       NC  BC CJqVV8*MBM77                  4m9997777             7777999m4                1            7CCVVBVBMmMBBBBBVBBBBBBBBBBVCVBBVCZAGAZCBBBBBBBBBBBBBBBBBBBCC7                                          578986*&   CUHUF. 5UU8*U9  JB   *9BM75                                     ",
"                      77689677%q96mFCmmmB8  BAoo0$XJA05M65MBM77                  m9977   60q000000000006   7799m                           6MBMBVVBVBMmMBBBBBVBBBBBBBBBBVCVBBVCZAGAZCVBBBBBBBBBBBBBBBBBBBMBM6                               1        678986*%  XPJUA. 5UPJAIU& .PJ   *6BM76             1                       ",
"                      7768967746MBNNUUUUUZ  9UJJFGJLMBNN&9MBM77                  997  600000BVCZAAZCVB00006  799                          0mMBMBVVBVBMmMBBBBBVBBBBBNBBBBVCVBBVCZAGAZCBBBBBBBBBBBBBBBBBBBBMBMm0              @             @  1       778986%m. qPUF. 6UIJHUU* .GIJ6 $m4BM77                             @       ",
"          1        x  776896778$BV00GPHHUB  0ULJJLUZ90Cm$0MBM77                  97 00800qmMBBCZAAZCVBMmq9000 79                 @       70mMBMBVVBVBMmMBBBBBBBBBBBBBBBBVCVBBVCZAGAZCVBBBBBBBBBBBBBBBBBBBMBMm07                    @  @              878986$BM9CIA. 7UUJLLL4 oGUJGV0Nm4BM77                        1            ",
"                      776896778&0q5MqPPHJGAZGJJJJPGqm5N560MBM77*     K           7 986780qmMBVCZAAZCVBMmq90MB0 7              x          70mMBMBVVBBBMmMBBBBMmmmmmmmmmmmmmmmmmmmmmmmmmmmmmmMBBBBBBBBBBBBBMBMm07                            @         878987$mABMU$  &&$$$CC  MUBCJmZC9*BM77                                     ",
"                      7768967789$NZCMqJPJJPILJHJIGqNCCqo00MBM774          1       8986780qmMBVCZAAZCVBMmq90MBM7       @       @          70mMBMBVVMmmmmmmmmm06****************************60mmmmmmmmmMBBBMBMm07                                      778986$mVBmI$       NV  BC CLqBV84BM77       2                             ",
"                      776896778045BV*7MAPPPLLPPJZ079CN%700MBM775                 *8986780qmMBVCZAAZCVBMmq90MBM7*                         70mMmmmmm06**********&&&&&&&&&&&&&&&&&&&&&&&&&&&&**********60mmmmmMm07  @                                   778986$q05MFCmMMB8  BAo$0$XJF05M77BM77      1g1                            ",
"                     *77689677800%9q7869BAFFFAZMq856q54900MBM076                 48986780qmMBVCZAAZCVBMmq90MBM74                         70m05******&&&80MVZAAAAAAAAAAAAAAAAAAAAAAAAAAAAAAAAZVM08&&&******50m07          @     @                     778986*6MBMNUUUUUC  0UJJFGJJMBNN&qBM77     2ghg2                           ",
"                     4776896778000$8C765*66qm848&4m85*0900MBMq77                 58986780qmMBVCZAAZCVBMmq90MBM75                         75 80MVAAAAAAAAAZVCZCVVVVVVVVVVCZCVCZAFJLPIPLJFA  VVVVZAAA  AAZVM08 57    x                               1 7789867$BB00FPHJUB  0ULLLJUZ9qCq$MBM77      1g1                            ",
"                     5776896778000q*59m557760C5040m45000900MBM77                 68986780qmMBVCCAAZCVBMmq90MBM76                          50qmMmVCVMmqmMBVVCZCVBVVVVVVVVCZCVCZAFJLPIPJJFAZ VVVVpiiiip 777M q05                    @                  7789867%0q5NqLPHJGAZGJJHHPHqm5B56MBM77       2    @                        ",
"                     6776896778000qm8*70BmB90CmNm5&9q000900MBM77                 78986780qmMBVCZAAZCVBMmq90MBM77                         5077M VC7MmqmMBVVVCZCBCVVVVVVVVCZCVVCZAFJLPIPLJFF 77VV7777iip  77 7q0                                       77898678$NZCMqJPJJPPLHJJPGqNCCq$0MBM77                                     ",
"x                    7776896778000qmMB9&*689976&&0Mmq000900MBM77                 88986780qmMBVCZAAZCVBMmq90MBM77                        507777MV7 7mqmMBVVCZCVVVVVVVVVVVCCCVVCZAFJLPIPL FAZ%%77%%%%777   VB 7 05                                     7789867845BV*7MALIPPLPIJZ069CM&70MBM77   sy::::::::::::::::::::::::ys      ",
" 1                   7776896778000qmMBB000qmmq00qBMmq000900MBM77                 88986780qmMBVCZAAZCVBMmq90MBM77           K           5777   77   7  BVVVCZCVVVVVVVVVVVVCZCVCZAFJLPPP  FA$%%7%%%%*%%7   77  m 05                                    778986780%9q7869BZGFFACNq856q5490MBM77  suyyyyyyyyyyyyyyyyyyyyyyyyyyus     ",
"                     7776896778000qmMBBC00qmmq00VBMmq000900MBM77                 78986780qmMBVCZAACCVBMmq90MBM77                      50777    7    m  VVCZCVVVVVVVVVVVVVCZCVCZAFJJPPPL FA77%%%%%%%*          mq05          @                        7898678900%7C765*66qm848&4m95*090MBM77 suy09987654*4&&&&&&&&&&&&&&&:yus    ",
"                     7776896778000qmMBVC00qmmq0qVBMmq000900MBM77                 78986780qmMBVCZAAZCVBMmq90MBMq7                     57777         77BVVVCZCVVVVVVVVVVVVVCZCVBCZAFJLPIP  F7%%%%%%%%*         B mq05                                  7898678000q*59q657760V6040m440090MBM77suy99876654*&&&&&&&&&&&&&&&&&&:yus   ",
"               1     7776896778000qmMBVCC0qmmq0CVBMmq000900MBM77             1   78986780qmMBVCZAAZCVBMmq90qMBM7                    577  7           7V VCZCVVVVVVVVVVVVVCZCVVCZAFJJPIPL F7%%%%%%%%%**      77 Mm  5   K                            *7898678000qm8*70BmB90CmNq6+ryyyyyyyyysuy6887654*&&&&&&&&&&&&&&&&&&&&&:yusyy",
"                     7776896778000qmMBVCZ0qmmqqCVBMmq000900MBM77                 78986780qmMBVCZAAZCVBMmq900MBM7               @   577                 VCZCVVVVVVVVVVVVVVCZCVVCZAFJLPIPLJ7%%%%%%%%%%%%&      7 7   05                 @             47898678000qmMB9&&689976&O:ttttttttttsuy687654*&&&&&&&*&&&&&&&&&&&&&&&&:yust",
"      @              7776896778000qmMBVCZAqmmqZCVBMmq000900MBM77             1   78986780qmMBVCZAAZCVBMmq900MBM7                  577      0BGG5     7VVCZCVVVVVBCBVVVVVVCZCVVCZAFJJPIPJJ%%%%%%%%%%%%%%         BMm 05                            1 57898678000qmMBV000qmmq00qBeeeeeeeeesuy6765*&&&&&&&&&&&&&&&&&&&&&&&&&&&&:yus",
"                     7776967789000qmMBVCZAqmmqZCVBMmq000900MBM77                 78986780qmMBVCZAAZCVBMmq900MBM7                 507     0CGG**G5m7  77VCZCVVVBVVVVVVVVVVCZCVVVCZAFJLPI%%%%%%C7%%%%%%&          77Mmq05   1                         67898678000qmMBVC00qmmq00VBMmeeeeeesuy4&54*&&&&&&&&&&&&&&&&&&&&&&&&&&&&&&:yu",
"                     7768967780000qmMBVCZAFmmAZCVBMmq000900MBM77                 78986780qmMBVCZAAZCVBMmq900MBM7               @50q77  0CGCCG  *G7     7ZCVVVVCBVVVVVVVVVVCZCVVCZAFJLP%%L%FAZCV%V7%%%*            7Mmq05                            77898678000qmMBVC00qmmq0qVBMmqeeeesuy4&4*&&&&&&&&&&&&&&&&&&&&&&&&&&&&&&&&&:y",
"           1         7768967780000qmMBVCZAFGFAZCVBMmq000900MBM77                 78986780qmMBVCZAAZCVBMmq090MBM7               50 m770CGCCGZGV *GM7    CZCVVVVVVVVVVVVVVVVCZCVVCZAF LP%PLJ AZC VV77%%&             BM q05                           87898678000qmMBVCC0qmmq0CBBMmq00esuy4&*&&&&&&&&&&&&&&&&&&&&&&&&&&&&&&&&&&&&:",
"                     7768967780000qmMBBCZAFGFAZCVBMmq000900MBM77                 78867890qmMBVCZAAZCVBMmq090MBM7          @   50  M0CGCCGGGZBGGGBMB7  CZCVVVVVVVVVVVVVVVVVCZCVVVCZAFJLPIPLJFAZCV%%%%**           7V    q05             K       @    87898678000qmMBVCZ0qmmqqCVBMmq00suy4&&&&&&&&&&&&&&&&&&&&&&&&&&&&&&&&&&&&&&&&",
"                     7768967780000qMMBVCZAFGFAZCVBMmq000900MBM77                 89867800qmMBVCZAAZCVBMmq090MBM7             50qm0CGCCGGGZqqCqq MBVV VCZCVVVVVVVVVVVVVVVVVCZCVVVCZAFJJPIPJJFA77VV7%*&            VBVV  mq05                         77898678000qmMBVCZAqmmqZCVBMmq0yyyyyyyyyyyyyyyyyyyyyyyyyyyyyyyyyyyyyyyyyyyyy",
"       K             7768967780000qmMBVCZAFGFAZCBBMmq000900MBM77                *89867800qmMBVCZAAZCVBMmq090SsM7*           50q0CGCCGGGZqqCqqm  MBVVV CZCVVVVVVVVVVVVVVVVVCZCVVVCZAFJJPIPL7777%%V7%&           7VVVBVVBMmq05                 1      77898678000qmMBVCZAqmmqZCVBMmuffffffffffffffffffffffffffffffffffffffffffffff",
"           1        *7768967780000qmMBVCZAFGFAZCCBMmq000900MBM77                489867800qmMBVCZAAZCVBMmq09ssss74          500CGCCGGGCqqCqq mqm BVVVVC CVVVVVVVVVVVVVVVVVVCZCVVVCZAFJLPIPLJ%%%%%77%%%     *%    7VV    BMmq05                       77898678000qmMBVCZAFmmAZCVBuuydddddddddddddddddddddddddddddddddddddddddddddd",
"                    47768967780000qmMBVCZAF888ZCVBMmq000900MBM77  x   1         589867800qmMBVCZAAZ4mFFFFFFFFFFFFFFFm4    50CGCCGGGZqqCqqMMMmqm BVBCBCZCVVVVVBVVVVVVVVVVVVCZCVVVVCZAFJJPIP7%FA%%%7%*     %*%     77 7VV BMmq05      @               77898678000qmMBVCZAFGFAZ8uuyyassssssssssssssssssssssssssssssssssssssssssssss",
"           @        57768967780000qmMBVCZA8===8CVBMmq000900MBM77                689867800qmMBV4mFFFFFZZZZZZZZZZZZZZCFFFFBmCGCCGGGZqqCqqVMMMmqmMB VVVVCZCVVVVBCVVVVVVVVVVVVCCCVVVVCZAFJLPIP JFAZ7%%*%     *%         7BVVVBMmq05                     77898678000qmMBVCZAFGFAuuyeyaaaaaaaaaaaaaaaaaaaaaaaaaaaaaaaaaaaaaaaaaaaaaaaa",
"                    67768967780000qmMBVCZA8===8CVBMmq000900MBM77                789867800q4mFFFFZZZZZCCCCCCCCCCCCCCCZZBBCGCCGGGZqqCqVCVMMMMmqmMB VVVCZCVVVVVVVVVVVVVBCVVVVVCZCVVVCZAFJLP PJJFA77%%*%     *%          77VVVBMmq05                    77898678000qmMBVCZAFGuuye$ysssssssssssssssssssssssssssssssssssssssssssssssss",
"                    77768967780000qmMBVCZA88888CBBMmq000900MBM77         1      88986784mFFFZZZCCCCCCBBBBBBBBBBBBBBBBBCGCCGGGZqqCqMVCVMMMMmqmMB VVVVCZCVVVVVVVVVVVVVVBVVVVVCZCVVVCZAFJJPIPLJFA7%%&%     **%%           BVVVBMmq05                   77898678000qmMBVCZAuuyeooyaaaa$$$$$$aaaaaaaaaaaaaaaaaaaaaaaaaaaaaaaaaaaaaaa$",
"                    77768967780000qmMBVCZA8===8CVBMmq000900MBM77         @      889864mFFZZZCCCCBBBBBBBBBBBBBBBBBBBBCGCCGGGZqqCqmMMVCVMMMMmqmM VVVVCZCVVVVVVVVVVVVVVVVVVVVVCZCVVVVCCAFJLPPPL%%%%%%%    *%%%%%        VV BVVVBMmq05                  77898678000qmMBVCuuyeoooyaaaaaaaaaaaaaaaaaaaaaaaaaaaaaaaaaaaaaaaaaaaaaaaaaaa",
"                    77768967780000qmMBVCZA8===8CVBMmq000900MBM77                7894mFFZZCCCBBBBBBBBBBBBBBBBBBBBBBCGCCGGGZqqCqMmMMVCVMMMMmqmMBVVVVVCZCVVVVVVVVVVVVVVVVVVVVVCZCVVVVCZAFJLPIPLJFA%C% VV %%%%V Vpii ipV  VVVBVVVBMmq05                 77898678000qmMBuuyeooooyuuuuuuuuuuuuuuuuuuuuuuuuuuuuuuuuuuuuuuuuuuuuuuuuuuuu",
"                    77768967780000qUUUUUUUUUUUUUUUUUUUUUUUUUUUUUUUUUUUUUUUUUUUUUUUUUUUUUUUUUUUUUUUUUUUUUUUUUUUUUUUUUUUUUUUUUUUUUUUUUUUUUUUUUUUUUUUUUUUUUUUUUUUUUUUUUUUUUUUUUUUUUUUUUUUUUUUUUUUUUUUUUUUUUUUUUUUUUUUUUUUUUUUUUUUUUUUUUUUUUUUUUUUUUUUUUUUUUUUUUUUUUUUuyeoooooooyttttttttttttttttttttttttttttttttttttttttttttttttttt",
"                    77768967780000qUUUUUUUUUUUUUUUUUUUUUUUUUUUUUUUUUUUUUUUUUUUUUUUUUUUUUUUUUUUUUUUUUUUUUUUUUUUUUUUUUUUUUUUUUUUUUUUUUUUUUUUUUUUUUUUUUUUUUUUUUUUUUUUUUUUUUUUUUUUUUUUUUUUUUUUUUUUUUUUUUUUUUUUUUUUUUUUUUUUUUUUUUUUUUUUUUUUUUUUUUUUUUUUUUUUUUUUUUUUUUUuuye::::::::yereeeeeeeeeeeeeeeeeeeeeeeeeeeeeeeeeeeeeeeeeeeeeeee",
"                    77768967780000qPGGGGGGGGGGGGGGGGGGGGGGGGGGGGGGGGGGGGGGGGGGGGGGGGGGGGGGGGGGGGGGGGGGGGGGGGGGGGGGGGGGGGGGGGGGGGGGGGGGGGGGGGGGGGGGGGGGGGGGGGGGGGGGGGGGGGGGGGGGGGGGGGGGGGGGGGGGGGGGGGGGGGGGGGGGGGGGGGGGGGGGGGGGGGGGGGGGGGGGGGGGGGGGGGGGGGGGGGGGGGGuyeooooooooooy:::::::::::::::::::::::::::::::::::::::::::::::::",
"                    77768967780000qPGGGGGGGGGGGGGGGGGGGGGGGGGGGGGGGGGGGGGGGGGGGGGGGGGGGGGGGGGGGGGGGGGGGGGGGGGGGGGGGGGGGGGGGGGGGGGGGGGGGGGGGGGGGGGGGGGGGGGGGGGGGGGGGGGGGGGGGGGGGGGGGGGGGGGGGGGGGGGGGGGGGGGGGGGGGGGGGGGGGGGGGGGGGGGGGGGGGGGGGGGGGGGGGGGGGGGGGGGGGGGuye:::::::::::y;;;;;;;;;;;;;;;;;;;;;;;;;;;;;;;;;;;;;;;;;;;;;;;;",
"                    77768967780000qMMMMMMMMMMMMMMMMMMMMMMMMMMMMMMMMMMMMMMMMMMMMMMMMMMMMMMMMMMMMMMMMMMMMMMMMMMMMMMMMMMMMMMMMMMMMMMMMMMMMMMMMMMMMMMMMMMMMMMMMMMMMMMMMMMMMMMMMMMMMMMMMMMMMMMMMMMMMMMMMMMMMMMMMMMMMMMMMMMMMMMMMMMMMMMMMMMMMMMMMMMMMMMMMMMMMMMMMMMMMMMuyeooooooooooooy-----------------------------------------------",
"                    77768967780000qmMBFC77777777777VZV77777777777VZV77777777777VZV77777777777VZV77777777777BZV77777777777VZV77777777777VZV77777777777VZV77777777777VZV77777777777VZV77777777777VZV77777777777VZV77777777777VZV77777777777VZV77777777777VZV7777777uye:::::::::::::yyyyyyyyyyyyyyyyyyyyyyyyyyyyyyyyyyyyyyyyyyyyyyy",
"                    77768967780000qmMBPF74444444447VFV74444444447VFV74444444447VFV74444444447VFV74444444447VFV74444444447VFV74444444447VFV74444444447VFV74444444447VFV74444444447VFV74444444447VFV74444444447VFV74444444447VFV74444444447VFV74444444447VFV7444444uyeeooooooooooooooooooooooooooooooooooooooooooooooooooooooooooo",
"                    77768967780000qmMBPF77777777777VFV77777777777VFV77777777777VFV77777777777VFV77777777777VFB77777777777VFV77777777777VFB77777777777VFV77777777777VFV77777777777VFV77777777777VFV77777777777VFV77777777777VFB77777777777BFV77777777777VFV7777777uuyeeeeeeeeeeeeeeeeeeeeeeeeeeeeeeeeeeeeeeeeeeeeeeeeeeeeeeeeeeee",
"             x      77768967780000qmMBPFUUUUUUUUUUUFFUUUUUUUUUUUUFFUUUUUUUUUUUUFFUUUUUUUUUUUUFFUUUUUUUUUUUUFFUUUUUUUUUUUUFFUUUUUUUUUUUUFFUUUUUUUUUUUUFFUUUUUUUUUUUUFFUUUUUUUUUUUUFFUUUUUUUUUUUUFFUUUUUUUUUUUUFFUUUUUUUUUUUUFFUUUUUUUUUUUUFFUUUUUUUUUUUUFFUUUUUUUUUuyyyyyyyyyyyyyyyyyyyyyyyyyyyyyyyyyyyyyyyyyyyyyyyyyyyyyyyyyyyyy",
"                    77678967780000qmMBPFFFFFFFFFFFFFFFFFFFFFFFFFFFFFFFFFFFFFFFFFFFFFFFFFFFFFFFFFFFFFFFFFFFFFFFFFFFFFFFFFFFFFFFFFFFFFFFFFFFFFFFFFFFFFFFFFFFFFFFFFFFFFFFFFFFFFFFFFFFFFFFFFFFFFFFFFFFFFFFFFFFFFFFFFFFFFFFFFFFFFFFFFFFFFFFFFFFFFFFFFFFFFFFFFFFFFFFFFFFFuuuuuuuuuuuuuuuuuuuuuuuuuuuuuuuuuuuuuuuuuuuuuuuuuuuuuuuuuuuuu",
"                   *77678967780000qmMBPFFFFFFFFFFFFFFFFFFFFFFFFFFFFFFFFFFFFFFFFFFFFFFFFFFFFFFFFFFFFFFFFFFFFFFFFFFFFFFFFFFFFFFFFFFFFFFFFFFFFFFFFFFFFFFFFFFFFFFFFFFFFFFFFFFFFFFFFFFFFFFFFFFFFFFFFFFFFFFFFFFFFFFFFFFFFFFFFFFFFFFFFFFFFFFFFFFFFFFFFFFFFFFFFFFFFFFFFFFFFFFFFFFFFFFFFFFFFFtuoooooooooooooooooooooooooooooooooooooooooo",
"                   477678967780000qmMBPFFFFFFFFFFFFFFFFFFFFFFFFFFFFFFFFFFFFFFFFFFFFFFFFFFFFFFFFFFFFFFFFFFFFFFFFFFFFFFFFFFFFFFFFFFFFFFFFFFFFFFFFFFFFFFFFFFFFFFFFFFFFFFFFFFFFFFFFFFFFFFFFFFFFFFFFFFFFFFFFFFFFFFFFFFFFFFFFFFFFFFFFFFFFFFFFFFFFFFFFFFFFFFFFFFFFFFFFFFFFFFFFFFFFFFFFFFFFFPtuuuuuuuuuuuuuuuuuuuuuuuuuuuuuuuuuuuuuuuuuu",
"                   577678967780000qmMBPFFFFFFFFFFAFFFFFFFFFFFFFFFFFFAFFFFFFFFFFFFFFFFFFAFFFFFFFFFFFFFFFFFFFFFFFFFFFFFFFFFFFFFFFFFFFFFFFFFFFFFFFFFFFFFFFFFFFFFFFFFFFFFFFFFFFFFAFFFFFFFFFFAFFFFFFFFFFFFFFFFFFFFFFFFFFFFFFFFFFFFFFFFFFFFFFFFFFFFFFFFFFFFFFFFFFFFFFFFFFFFFFFFFFFFFFFFFFFP000MBM77                                   ",
"*******************677689677800000qmMBPPPPPPPPPPPPPPPPPPPPPPPPPPPPPPPPPPPPPPPPPPPPPPPPPPUUUUUUUUUUUUUUUUUUUUUUUUUUUUUUUUFZPPPPPPPPPPPPPPPPPPPPPPPPPPPPPPPPPPPPPPPPPPPPPPPPPPPPPPPPPPPPPPPPPPPPPPPZFUUUUUUUUUUUUUUUUUUUUUUUUUUUUUUUUPPPPPPPPPPPPPPPPPPPPPPPPPPPPPPPPPPPPPPPPPPPPPPPPPP000MBM77***********************************",
"*******************777689677800000qmMPLLLLLLLLLLLLLLLLLLLLLLLLLLLLLLLLLLLLLLLLLLLLLLLLLLUUUUUUUUUUUUUUUUUUUUUUUUUUUUUUUUCZJLLLLLLLLLLLLLLLLLLLLLLLLLLLLLLLLLLLLLLLLLLLLLLLLLLLLLLLLLLLLLLLLLLLLLLZCUUUUUUUUUUUUUUUUUUUUUUUUUUUUUUUULLLLLLLLLLLLLLLLLLLLLLLLLLLLLLLLLLLLLLLLLLLLLJLLLLP00MBM77***********************************",
"*******************777689677800000qmPLLLLLLLLLLLLLLLLLLLLLLLLLLLLLLLLLLLLLLLLLLLLLLLLLLUUUUUUUUUUUUUUUUUUUUUUUUUUUUUUUUUVZLLLLLLLLLLLLLLLLLLLLLLLLLLLLLLLLLLLLLLLLLLLLLLLLLLLLLLLLLLLLLLLLLLLLLLLZVUUUUUUUUUUUUUUUUUUUUUUUUUUUUUUUUULLLLLLLLLLLLLLLLLLLLLLLLLLLLLLLLLLLLLLLLLLLLLLLLLLP0MBM77*****4**********************4******",
"*******4*******4***777689677800000qPLLLLLLLLLLLLLLLLLLLLLLLLLLLLLLLLLLLLLLLLLLLLLLLLLLLUUUUUUUUUUUUUUUUUUUUUUUUUUUUUUUUUVZLLLLLLLLLLLLLLLLLLLLLLLLLLLLLLLLLLLLLLLLLLLLLLLLLLLLLLLLLLLLLLLLLLLLLLLZVUUUUUUUUUUUUUUUUUUUUUUUUUUUUUUUUULLLLLLLLLLLLLLLLLLLLLLLLLLLLLLLLLLLLLLLLLLLLLLLLLLLPMBM77***4********4*********4**4****4**4*",
"****44**444*****4**777689677800000PJLLLLLLLLLLLLLLLLLLLLLLLLLLLLLLLLLLLLLLLLLLLLLLLLLLUUUUUUUUUUUUUUUUUUUUUUUUUUUUUUUUUGVZLLLLLLLLLLLLLLLLLLLLLLLLLLLLLLLLLLLLLLLLLLLLLLLLLLLLLLLLLLLLLLLLLLLLLLLZVFUUUUUUUUUUUUUUUUUUUUUUUUUUUUUUUUULLLLLLLLLLLLLLLLLLLLLLLLLLLLLLLLLLLLLLLLLLLLLLLLLLLPBM77**4*4444**4****4****4444***4****44*",
"4****4*4*44444*4*4*77768967780000PLLLLLLLLLLLLLLLLLLLLLLLLLLLLLLLLLLLLLLLLLLLLLLLLLLLLUUUUUUUUUUUUUUUUUUUUUUUUUUUUUUUUUCVZLLLLLLLLLLLLLLLLLLLLLLLLLLLLLLLLLLLLLLLLLLLLLLLLLLLLLLLLLLLLLLLLLLLLLLLZVCUUUUUUUUVVVVVVVVVVVBVBVVVVUUUUUUULLLLLLLLLLLLLLLLLLLLLLLLLLLLLLLLLLLLLLLLLLLLLLLLLLLLPM77**4444444*4**44*4*4*4444*4444**4444",
"45*44444544444544457776896778000PLLLLLLLLLLLLLLLLLLLLLLLLLLLLLLLLLLLLLLLLLLLLLLLLLLLLUUUUUUUUUUUUUUUUUUUUUUUUUUUUUUUUUUCVZLLLLLLLLLLLLLLLLLLLLLLJLLLLLLLLLLLLLLLLLLLLLLLLLLLLLLLLLLLLLLLLLLLLLLLLZVCUUUUUUUU .    .   .. ..44MUUUUUUUULLLLLLLLLLJLLLLLLLLLLLLLLLLLLLLLLLLLLLLLLLLLLLLLLLLLP7754444444454544555*44455454**4545544",
"4444455545444454445777689677800PLLLLLLLLLLLLLLLLLLLLLLLLLLLLLLLLLLLLLLLLLLLLLLLLLLLLLUUUUUUUUUUUUUUUUUUUUUUUUUUUUUUUUUUVZLLLLLLLLLLLLLLLLLLLLLLLLLLLLLLLLLLLLLLLLLLLLLLLLLLLLLLLLLLLLLLLLLLLLLLLLLZVUUUUUUUUU..  . ..    . 44MMUUUUUUULLLLLLLLLLLLLLLLLLLLLLLLLLLLLLLLLLLLLLLLLLLLLLLLLLLLLP744544545444544454445454545544445445",
"455445555554555555477768967780PLLLLLLLLLLLLLLLLLLLLLLLLLLLLLLLLLLLLLLLLLLLLLLLLLLLLLUUUUUUUUUUUUUUUUUUUUUUUUUUUUUUUUUUGVZLLLLLLLLLLLLLLLLLLLLLLLLLLLLLLLLLLLLLLLLLLLLLLLLLLLLLJLLLLLLLLLLLLLLLLLLLZVGUUUUUUUUwww .www .www 444MUUUUUUUULLLLLLLLLLLLLLLLLLLLLLLLLLLLLLLLLLLLLLLLLLLLLLLLLLLLLP55544454445454445545554555445555544",
"54464555455555555657776896778PLLLLLLLLLLLLLLLLLLLLLLLLLLLLLLLLLLLLLLLLLLLLLLLLLLLLLLUUUUUUUUUUUUUUUUUUUUUUUUUUUUUUUUUUCVZJLLLLLLLLLLLLLLLLLLLLLLLLLLLLLLLLLLLLLLLLLLLLLLLLLLLLLLLLLLLLLLLLLLLLLLLLZVCUUUUUUUU   . .   .  . 444MMUUUUUUULLLLLLLLLLLLLLLLLLLLLLLLLLLLLLLLLLLLLLLLLLLLLLLLLLLLLLP4555555455655555455555455545655665",
"5556566555655655555777689677PLLLLLLLLLLLLLLLLLLLLLLLLLLLLLLLLLLLLLLLLLLLLLLLLLLLLLLUUUUUUUUUUUUUUUUUUUUUUUUUUUUUUUUUUUCVCPLLLLLLLLLLLLLLLLLLLLLLLLLLLLLLLLLLLLLLLLLLLLLLLLLLLLLLLLLLLLLLLLLLLLLLLLZVCUUUUUUUUU. .   .  . . 4444MUUUUUUUULLLLLLLLLLLLLLLLLLLLLLLLLLLLLLLLLLLLLLLLLLLLLLLLLLLLLLP655555566555556555665665665555665",
"555565665656556565577768967PLLLLLLLLLLLLLLLLLLLLLLLLLLLLLLLLLLLLLLLLLLLLLLLLLLLLLLLUUUUUUUUUUUUUUUUUUUUUUUUUUUUUUUUUUUCVZLLLLLLLLLLLLLLLLLLLLLLLLLLLLLLLLLLLLLLLLLLLLLLLLLLLLLLLLLLLLLLLLLLLLLLLLLZVCUUUUUUUUU.   ..   .  .4444MUUUUUUUULLLLLLLLLLLLLLLLLLLLLLLLLLLLLLLLLLLLLLLLLLLLLLLLLLLLLLLP66666655656655556566565566665565",
"55666656576666556677776896PLLLLLLLLLLLLLLLLLLLLLLLLLLLLLLLLLLLLLLLLLLLLLLLLLLLLLLLUUUUUUUUUUUUUUUUUUUUUUUUUUUUUUUUUUUGCVZLLLLLLLLLLLLLLLLLLLLLLLLLLLLLLLLLLLLLLLLLLLLLLLLLLLLLLLLLLLLLLLLLLLLLLLLLZVCGUUUUUUUU . .  ..  .  4444NMUUUUUUUULLLLLLLLLLLLLLLLLLLLLLLLLLLLLLLLLLLLLLLLLLLLLLLLLLLLLLLP6667666766667666656665566655666",
"6676676665676767756777689PLLLLLLLLLLLLLLLLLLLLLJLLLLLLLLLLJLLLLLLLLLLLLLLLLLLJLLLLUUUUUUUUUUUUUUUUUUUUUUUUUUUUUUUUUUUCCVZLLLLLLLLLJLLLLLLLLLLLLLLLLLLLLLLLLLLLLLLLLLLLLLLLLLLLLLLLLLLLLLLLLLLLLLLLZVCCUUUUUUUU     .  .   .44444MUUUUUUUULLLJLLLLLLLLLLLLLLLLLLLLLLLLLLLLLLLLLJLLLLLLLLJLLLLLLLLLP777566566767666757677567667666",
"767667677677676666777768PPPPPPPPPPPPPPPPPPPPPPPPPPPPPPPPPPPPPPPPPPPPPPPPPPPPPPPPPUUUUUUUUUUUUUUUUUUUUUUUUUUUUUUUUUUUUCCBZPPPPPPPPPPPPPPPPPPPPPPPPPPPPPPPPPPPPPPPPPPPPPPPPPPPPPPPPPPPPPPPPPPPPPPPPPZVCCUUUUUUUUU...   .. .  44444MMUUUUUUUUPPPPPPPPPPPPPPPPPPPPPPPPPPPPPPPPPPPPPPPPPPPPPPPPPPPPPPPPP77677767767676766666776676667",
"777776766767767766777768PFFFFFFFFFFFFFFFFFFFFFFFFFFFFFFFFFFFFFFFFFFFFFFFFFFFFFFFAUUUUUUUUUUUUUUUUUUUUUUUUUUUUUUUUUUUUCCCVZFFFFFFFFFFFFFFFFFFFFFFFL33333333333333333333333LFFFFFFFFFFFFFFFFFFFFFFFZVCCCUUUUUUUUU   .  .  .  444444MUUUUUUUUFFFFFFFFFFFFFFFFFFFFFFFFFFFFFFFFFFFFFFFFFFFFFFFFFFFFFFFFP87677677777677877767776677668",
"786767877677867777777768PFFFFFFFFFFFFFFFFFFFFFFFFFFFFFFFFFFFFFFFFFFFFFFFFFFFFFFFUUUUUUUUUUUUUUUUUUUUUUUUUUUUUUUUUUUUGCCCVZFFFFFFFFFFFFFFFFFFFCq7FL33333333333333333333333LFCq7FFFFFFFFFFFFFFFFFFFZBCCCGUUUUUUUU  . .   .  .444444MMUUUUUUUUFFFFFFFFFFFFFFFFFFFFFFFFFFFFFFFFFFFFFFFFFFFFFFFFFFFFFFFP87767777777778768887877777887",
"788787788877787888877678PFFFFFFFFFFFFFFFFFFFFFFFFFFFFFFFFFFFFFFFFFFFFFFFFFFFFFFFUUUUUUUUUUUUUUUUUUUUUUUUUUUUUUUUUUUUCCCCVZFFFFFFFFFFFFFFFFFFFCq7FL33jjjj3jjjjjjjjjjjjjj33LFCq7FFFFFFFFFFFFFFFFFFFZVCCCCUUUUUUUUU..    ..  .4444444MUUUUUUUUFFFFFFFFFFFFFFFFFFFFFFFFFFFFFFFFFFFFFFFFFFFFFFFFFFFFFFFP88887778887878788878887887887",
"887788888878788888777678PFFFFFFFFFFFFFFFFFFFFFFFFFFFFFFFFFFFFFFFFFFFFFFFFFFFFFFUUUUUUUUUUUUUUUUUUUUUUUUUUUUUUUUUUUUUCCCCVZFFFFFFFFFFFFFFFFFFFCq7FL33jllllzllkjklllllllj33LFCq7FFFFFFFFFFFFFFFFFFFZVCCCCUUUUUUUUU   ..    . 4444444MUUUUUUUUUFFFFFFFFFFFFFFFFFFFFFFFFFFFFFFFFFFFFFFFFFFFFFFFFFFFFFFP88887888887887788888878888788",
"878999898898889888777678PFFFFFFFFFFFFFFFFFFFFFFFFFFFFFFFFFFFFFFFFFFFFFFFFFFFFFFUUUUUUUUUUUUUUUUUUUUUUUUUUUUUUUUUUUUUCCCCVZFFFFFFFFFFFFFFFFFFFUUUFL33jllDDDDlkjklDDDDllj33LAUUUFFFFFFFFFFFFFFFFFFFZVCCCCUUUUUUUUUUUUUUUUUUUUUUUUUUUUUUUUUUUUUFFFFFFFFFFFFFFFFFFFFFFFFFFFFFFFFFFFFFFFFFFFFFFFFFFFFFFP88778788887888888988889878898",
"898888888099998889777678PFFFFFFFFFFFFFFFFFFFFFFFFFFFFFFFFFFFFFFFFFFFFFFFFFFFFFUUUUUUUUUUUUUUUUUUUUUUUUUUUUUUUUUUUUUGCCCCVZFFFFFFFFFFFFFFFFFFIIPIIL33jllnnnnlkjklnnnnllj33LIIIIIAFFFFFFFFFFFFFFFFFZVCCCCGUUUUUUUUUUUUUUUUUUUUUUUUUUUUUUUUUUUUUFFFFFFFFFFFFFFFFFFFFFFFFFFFFFFFFFFFFFFFFFFFFFFFFFFFFFP88899998889888888989898898888",
"889999899999888899777678PFFFFFFFFFFFFFFFFFFFFFFFFFFFFFFFFFFFFFFFFFFFFFFFFFFFFFUUUUUUUUUUUUUUUUUUUUUUUUUUUUUUUUUUUUUCCCCCVZFFFFFFFFFFFFFFFFFIPPIPPL33jllbbbblkjklbbbbllj33LPPIPPIFFFFFFFFFFFFFFFFFZVCCCCCUUUUUUUUUUUUUUUUUUUUUUUUUUUUUUUUUUUUUFFFFFFFFFFFFFFFFFFFFFFFFFFFFFFFFFFFFFFFFFFFFFFFFFFFFFP98999889999999989988989899898",
"098990999999909999777678i<<<<<<<<<<<<<<<<<<<<<<<<<<<<<<<<<<<<<<<<<<<<<<<<<<<<UUUUUUUUUUUUUUUUUUUUUUUUUUUUUUUUUUUUUUCCCC,>,<<<<<<<<<<<<<<<<iiiiiiiLjjkllzzzzlkjklzzzzllkjjLiiiiiii<<<<<<<<<<<<<<<<,>CCCCCUUUUUUUUUUUUUUUUUUUUUUUUUUUUUUUUUUUUUU<<<<<<<<<<<<<<<<<<<<<<<<<<<<<<<<<<<<<<<<<<<<<<<<<<<<p90999909999899909909899090989",
"999000999909999900777678i<<<<<<<<<<<<<<<<<<<<<<<<<<<<<<<<<<<<<<<<<<<<<<<<<<<<UUUUUUUUUUUUUUUUUUUUUUUUUUUUUUUUUUUUUUCC,,,>,<<<<<<<<<<<<<<<iiiiiiiiLkkllllllllkjkllllllllkkLiiiiiiii<<<<<<<<<<<<<<<,>,,,CCUUUUUUUUUUUUUUUUUUUUUUUUUUUUUUUUUUUUUU<<<<<<<<<<<<<<<<<<<<<<<<<<<<<<<<<<<<<<<<<<<<<<<<<<<<p90009999990099990099999009990",
"909909990909909900777678i<<<<<<<<<<<<<<<<<<<<<<<<<<<<<<<<<<<<<<<<<<<<<<<<<<<iiiiiiiiiiiiiiiiiiiiiiiiiiiiiiiiiiiiiip,,,,,>,<<<<<<<<<<<<<<iiiiiiiiiLllllllllllkjkllllllllllLiiiiiiiii<<<<<<<<<<<<<<,>,,,,,piiiiiiiiiiiiiiiiiiiiiiiiiiiiiiiiiiiiip<<<<<<<<<<<<<<<<<<<<<<<<<<<<<<<<<<<<<<<<<<<<<<<<<<<p99999099990990009000009900099",
"900999900909900090777678PFFFFFFFFFFFFFFFFFFFFFFFFFFFFFFFFFFFFFFFFFFFFFFFFFFFiiiiiiiiiiiiiiiiiiiiiiiiiiiiiiiiiiiiip,,,,,CVZFFFFFFFFFFFFFFFFFFFFFFFLllllllllllkjkllllllllllLFFFFFFFFFFFFFFFFFFFFFFFZV,,,,,,piiiiiiiiiiiiiiiiiiiiiiiiiiiiiiiiiiiipFFFFFFFFFFFFFFFFFFFFFFFFFFFFFFFFFFFFFFFFFFFFFFFFFFFP00900090900990099000000900000",
"000000000000090000777678PFFFFFFFFFFFFFFFFFFFFFFFFFFFFFFFFFFFFFFFFFFFFFFFFFFiiiiiiiiiiiiiiiiiiiiiiiiiiiiiiiiiiiiiip,,CCCCVZFFFFFFFFFFFFFFFFFFFFFFFLllllllllllkjkllllllllllLFFFFFFFFFFFFFFFFFFFFFFFZVCCCC,,piiiiiiiiiiiiiiiiiiiiiiiiiiiiiiiiiiiiipFFFFFFFFFFFFFFFFFFFFFFFFFFFFFFFFFFFFFFFFFFFFFFFFFFP00000000000009000000000000000",
"000000000000000000777678PFFFFFFFFFFFFFFFFFFFFFFFFFFFFFFFFFFFFFFFFFFFFFFFFFFUUUUUUUUUUUUUUUUUUUUUUUUUUUUUUUUUUUUUUUCCCCCCVZFFFFFFFFFFFFFFFFFFFFFFFLllllllllllkjkllllllllllLFFFFFFFFFFFFFFFFFFFFFFFCVCCCCCCUUUUUUUUUUUUUUUUUUUUUUUUUUUUUUUUUUUUUUUFFFFFFFFFFFFFFFFFFFFFFFFFFFFFFFFFFFFFFFFFFFFFFFFFFP00000000000000000000000000000",
"$$$$$$$$$$$$$$$$$$$$$$$$$$$$$$$$$$$$$$$$$$$$$$$$$$$$$$$$$$$$$$$$$$$$$$$$$$$$$$$$$$$$$$$$$$$$$$$$$$$$$$$$$$$$$$$$$$$$$$$$$$$$$$$$$$$$$$$$$$$$$$$$$$$$$$$$$$$$$$$$$$$$$$$$$$$$$$$$$$$$$$$$$$$$$$$$$$$$$$$$$$$$$$$$$$$$$$$$$$$$$$$$$$$$$$$$$$$$$$$$$$$$$$$$$$$$$$$$$$$$$$$$$$$$$$$$$$$$$$$$$$$$$$$$$$$$$$$$$$$$$$$$$$$$$$$$$$$$$$$$",
"$$$$$$$$$$$$$$$$$$$$$$$$$$$$$$$$$$$$$$$$$$$$$$$$$$$$$$$$$$$$$$$$$$$$$$$$$$$$$$$$$$$$$$$$$$$$$$$$$$$$$$$$$$$$$$$$$$$$$$$$$$$$$$$$$$$$$$$$$$$$$$$$$$$$$$$$$$$$$$$$$$$$$$$$$$$$$$$$$$$$$$$$$$$$$$$$$$$$$$$$$$$$$$$$$$$$$$$$$$$$$$$$$$$$$$$$$$$$$$$$$$$$$$$$$$$$$$$$$$$$$$$$$$$$$$$$$$$$$$$$$$$$$$$$$$$$$$$$$$$$$$$$$$$$$$$$$$$$$$$$",
"$$$$$$$$$$$$$$$$$$$$$$$$$$$$$$$$$$$$$$$$$$$$$$$$$$$$$$$$$$$$$$$$$$$$$$$$$$$$$$$$$$$$$$$$$$$$$$$$$$$$$$$$$$$$$$$$$$$$$$$$$$$$$$$$$$$$$$$$$$$$$$$$$$$$$$$$$$$$$$$$$$$$$$$$$$$$$$$$$$$$$$$$$$$$$$$$$$$$$$$$$$$$$$$$$$$$$$$$$$$$$$$$$$$$$$$$$$$$$$$$$$$$$$$$$$$$$$$$$$$$$$$$$$$$$$$$$$$$$$$$$$$$$$$$$$$$$$$$$$$$$$$$$$$$$$$$$$$$$$$$",
"$$$$$$$$$$$$$$$$$$$$$$$$$$$$$$$$$$$$$$$$$$$$$$$$$$$$$$$$$$$$$$$$$$$$$$$$$$$$$$$$$$$$$$$$$$$$$$$$$$$$$$$$$$$$$$$$$$$$$$$$$$$$$$$$$$$$$$$$$$$$$$$$$$$$$$$$$$$$$$$$$$$$$$$$$$$$$$$$$$$$$$$$$$$$$$$$$$$$$$$$$$$$$$$$$$$$$$$$$$$$$$$$$$$$$$$$$$$$$$$$$$$$$$$$$$$$$$$$$$$$$$$$$$$$$$$$$$$$$$$$$$$$$$$$$$$$$$$$$$$$$$$$$$$$$$$$$$$$$$$$",
"$$$$$$$$$$$$$$$$$$$$$$$$$$$$$$$$$$$$$$$$$$$$$$$$$$$$$$$$$$$$$$$$$$$$$$$$$$$$$$$$$$$$$$$$$$$$$$$$$$$$$$$$$$$$$$$$$$$$$$$$$$$$$$$$$$$$$$$$$$$$$$$$$$$$$$$$$$$$$$$$$$$$$$$$$$$$$$$$$$$$$$$$$$$$$$$$$$$$$$$$$$$$$$$$$$$$$$$$$$$$$$$$$$$$$$$$$$$$$$$$$$$$$$$$$$$$$$$$$$$$$$$$$$$$$$$$$$$$$$$$$$$$$$$$$$$$$$$$$$$$$$$$$$$$$$$$$$$$$$$$",
"$$$$$$$$$$$$$$$$$$$$$$$$$$$$$$$$$$$$$$$$$$$$$$$$$$$$$$$$$$$$$$$$$$$$$$$$$$$$$$$$$$$$$$$$$$$$$$$$$$$$$$$$$$$$$$$$$$$$$$$$$$$$$$$$$$$$$$$$$$$$$$$$$$$$$$$$$$$$$$$$$$$$$$$$$$$$$$$$$$$$$$$$$$$$$$$$$$$$$$$$$$$$$$$$$$$$$$$$$$$$$$$$$$$$$$$$$$$$$$$$$$$$$$$$$$$$$$$$$$$$$$$$$$$$$$$$$$$$$$$$$$$$$$$$$$$$$$$$$$$$$$$$$$$$$$$$$$$$$$$$",
"$$$$$$$$$$$$$$$$$$$$$$$$$$$$$$$$$$$$$$$$$$$$$$$$$$$$$$$$$$$$$$$$$$$$$$$$$$$$$$$$$$$$$$$$$$$$$$$$$$$$$$$$$$$$$$$$$$$$$$$$$$$$$$$$$$$$$$$$$$$$$$$$$$$$$$$$$$$$$$$$$$$$$$$$$$$$$$$$$$$$$$$$$$$$$$$$$$$$$$$$$$$$$$$$$$$$$$$$$$$$$$$$$$$$$$$$$$$$$$$$$$$$$$$$$$$$$$$$$$$$$$$$$$$$$$$$$$$$$$$$$$$$$$$$$$$$$$$$$$$$$$$$$$$$$$$$$$$$$$$$",
"$$$$$$$$$$$$$$$$$$$$$$$$$$$$$$$$$$$$$$$$$$$$$$$$$$$$$$$$$$$$$$$$$$$$$$$$$$$$$$$$$$$$$$$$$$$$$$$$$$$$$$$$$$$$$$$$$$$$$$$$$$$$$$$$$$$$$$$$$$$$$$$$$$$$$$$$$$$$$$$$$$$$$$$$$$$$$$$$$$$$$$$$$$$$$$$$$$$$$$$$$$$$$$$$$$$$$$$$$$$$$$$$$$$$$$$$$$$$$$$$$$$$$$$$$$$$$$$$$$$$$$$$$$$$$$$$$$$$$$$$$$$$$$$$$$$$$$$$$$$$$$$$$$$$$$$$$$$$$$$$",
"$$$$$$$$$$$$$$$$$$$$$$$$$$$$$$$$$$$$$$$$$$$$$$$$$$$$$$$$$$$$$$$$$$$$$$$$$$$$$$$$$$$$$$$$$$$$$$$$$$$$$$$$$$$$$$$$$$$$$$$$$$$$$$$$$$$$$$$$$$$$$$$$$$$$$$$$$$$$$$$$$$$$$$$$$$$$$$$$$$$$$$$$$$$$$$$$$$$$$$$$$$$$$$$$$$$$$$$$$$$$$$$$$$$$$$$$$$$$$$$$$$$$$$$$$$$$$$$$$$$$$$$$$$$$$$$$$$$$$$$$$$$$$$$$$$$$$$$$$$$$$$$$$$$$$$$$$$$$$$$$",
"$$$$$$$$$$$$$$$$$$$$$$$$$$$$$$$$$$$$$$$$$$$$$$$$$$$$$$$$$$$$$$$$$$$$$$$$$$$$$$$$$$$$$$$$$$$$$$$$$$$$$$$$$$$$$$$$$$$$$$$$$$$$$$$$$$$$$$$$$$$$$$$$$$$$$$$$$$$$$$$$$$$$$$$$$$$$$$$$$$$$$$$$$$$$$$$$$$$$$$$$$$$$$$$$$$$$$$$$$$$$$$$$$$$$$$$$$$$$$$$$$$$$$$$$$$$$$$$$$$$$$$$$$$$$$$$$$$$$$$$$$$$$$$$$$$$$$$$$$$$$$$$$$$$$$$$$$$$$$$$$",
"$$$$$$$$$$$$$$$$$$$$$$$$$$$$$$$$$$$$$$$$$$$$$$$$$$$$$$$$$$$$$$$$$$$$$$$$$$$$$$$$$$$$$$$$$$$$$$$$$$$$$$$$$$$$$$$$$$$$$$$$$$$$$$$$$$$$$$$$$$$$$$$$$$$$$$$$$$$$$$$$$$$$$$$$$$$$$$$$$$$$$$$$$$$$$$$$$$$$$$$$$$$$$$$$$$$$$$$$$$$$$$$$$$$$$$$$$$$$$$$$$$$$$$$$$$$$$$$$$$$$$$$$$$$$$$$$$$$$$$$$$$$$$$$$$$$$$$$$$$$$$$$$$$$$$$$$$$$$$$$$",
"$$$$$$$$$$$$$$$$$$$$$$$$$$$$$$$$$$$$$$$$$$$$$$$$$$$$$$$$$$$$$$$$$$$$$$$$$$$$$$$$$$$$$$$$$$$$$$$$$$$$$$$$$$$$$$$$$$$$$$$$$$$$$$$$$$$$$$$$$$$$$$$$$$$$$$$$$$$$$$$$$$$$$$$$$$$$$$$$$$$$$$$$$$$$$$$$$$$$$$$$$$$$$$$$$$$$$$$$$$$$$$$$$$$$$$$$$$$$$$$$$$$$$$$$$$$$$$$$$$$$$$$$$$$$$$$$$$$$$$$$$$$$$$$$$$$$$$$$$$$$$$$$$$$$$$$$$$$$$$$$",
"$$$$$$$$$$$$$$$$$$$$$$$$$$$$$$$$$$$$$$$$$$$$$$$$$$$$$$$$$$$$$$$$$$$$$$$$$$$$$$$$$$$$$$$$$$$$$$$$$$$$$$$$$$$$$$$$$$$$$$$$$$$$$$$$$$$$$$$$$$$$$$$$$$$$$$$$$$$$$$$$$$$$$$$$$$$$$$$$$$$$$$$$$$$$$$$$$$$$$$$$$$$$$$$$$$$$$$$$$$$$$$$$$$$$$$$$$$$$$$$$$$$$$$$$$$$$$$$$$$$$$$$$$$$$$$$$$$$$$$$$$$$$$$$$$$$$$$$$$$$$$$$$$$$$$$$$$$$$$$$$",
"$$$$$$$$$$$$$$$$$$$$$$$$$$$$$$$$$$$$$$$$$$$$$$$$$$$$$$$$$$$$$$$$$$$$$$$$$$$$$$$$$$$$$$$$$$$$$$$$$$$$$$$$$$$$$$$$$$$$$$$$$$$$$$$$$$$$$$$$$$$$$$$$$$$$$$$$$$$$$$$$$$$$$$$$$$$$$$$$$$$$$$$$$$$$$$$$$$$$$$$$$$$$$$$$$$$$$$$$$$$$$$$$$$$$$$$$$$$$$$$$$$$$$$$$$$$$$$$$$$$$$$$$$$$$$$$$$$$$$$$$$$$$$$$$$$$$$$$$$$$$$$$$$$$$$$$$$$$$$$$$",
"$$$$$$$$$$$$$$$$$$$$$$$$$$$$$$$$$$$$$$$$$$$$$$$$$$$$$$$$$$$$$$$$$$$$$$$$$$$$$$$$$$$$$$$$$$$$$$$$$$$$$$$$$$$$$$$$$$$$$$$$$$$$$$$$$$$$$$$$$$$$$$$$$$$$$$$$$$$$$$$$$$$$$$$$$$$$$$$$$$$$$$$$$$$$$$$$$$$$$$$$$$$$$$$$$$$$$$$$$$$$$$$$$$$$$$$$$$$$$$$$$$$$$$$$$$$$$$$$$$$$$$$$$$$$$$$$$$$$$$$$$$$$$$$$$$$$$$$$$$$$$$$$$$$$$$$$$$$$$$$$",
"$$$$$$$$$$$$$$$$$$$$$$$$$$$$$$$$$$$$$$$$$$$$$$$$$$$$$$$$$$$$$$$$$$$$$$$$$$$$$$$$$$$$$$$$$$$$$$$$$$$$$$$$$$$$$$$$$$$$$$$$$$$$$$$$$$$$$$$$$$$$$$$$$$$$$$$$$$$$$$$$$$$$$$$$$$$$$$$$$$$$$$$$$$$$$$$$$$$$$$$$$$$$$$$$$$$$$$$$$$$$$$$$$$$$$$$$$$$$$$$$$$$$$$$$$$$$$$$$$$$$$$$$$$$$$$$$$$$$$$$$$$$$$$$$$$$$$$$$$$$$$$$$$$$$$$$$$$$$$$$$",
"$$$$$$$$$$$$$$$$$$$$$$$$$$$$$$$$$$$$$$$$$$$$$$$$$$$$$$$$$$$$$$$$$$$$$$$$$$$$$$$$$$$$$$$$$$$$$$$$$$$$$$$$$$$$$$$$$$$$$$$$$$$$$$$$$$$$$$$$$$$$$$$$$$$$$$$$$$$$$$$$$$$$$$$$$$$$$$$$$$$$$$$$$$$$$$$$$$$$$$$$$$$$$$$$$$$$$$$$$$$$$$$$$$$$$$$$$$$$$$$$$$$$$$$$$$$$$$$$$$$$$$$$$$$$$$$$$$$$$$$$$$$$$$$$$$$$$$$$$$$$$$$$$$$$$$$$$$$$$$$$",
"$$$$$$$$$$$$$$$$$$$$$$$$$$$$$$$$$$$$$$$$$$$$$$$$$$$$$$$$$$$$$$$$$$$$$$$$$$$$$$$$$$$$$$$$$$$$$$$$$$$$$$$$$$$$$$$$$$$$$$$$$$$$$$$$$$$$$$$$$$$$$$$$$$$$$$$$$$$$$$$$$$$$$$$$$$$$$$$$$$$$$$$$$$$$$$$$$$$$$$$$$$$$$$$$$$$$$$$$$$$$$$$$$$$$$$$$$$$$$$$$$$$$$$$$$$$$$$$$$$$$$$$$$$$$$$$$$$$$$$$$$$$$$$$$$$$$$$$$$$$$$$$$$$$$$$$$$$$$$$$$",
"$$$$$$$$$$$$$$$$$$$$$$$$$$$$$$$$$$$$$$$$$$$$$$$$$$$$$$$$$$$$$$$$$$$$$$$$$$$$$$$$$$$$$$$$$$$$$$$$$$$$$$$$$$$$$$$$$$$$$$$$$$$$$$$$$$$$$$$$$$$$$$$$$$$$$$$$$$$$$$$$$$$$$$$$$$$$$$$$$$$$$$$$$$$$$$$$$$$$$$$$$$$$$$$$$$$$$$$$$$$$$$$$$$$$$$$$$$$$$$$$$$$$$$$$$$$$$$$$$$$$$$$$$$$$$$$$$$$$$$$$$$$$$$$$$$$$$$$$$$$$$$$$$$$$$$$$$$$$$$$$",
"$$$$$$$$$$$$$$$$$$$$$$$$$$$$$$$$$$$$$$$$$$$$$$$$$$$$$$$$$$$$$$$$$$$$$$$$$$$$$$$$$$$$$$$$$$$$$$$$$$$$$$$$$$$$$$$$$$$$$$$$$$$$$$$$$$$$$$$$$$$$$$$$$$$$$$$$$$$$$$$$$$$$$$$$$$$$$$$$$$$$$$$$$$$$$$$$$$$$$$$$$$$$$$$$$$$$$$$$$$$$$$$$$$$$$$$$$$$$$$$$$$$$$$$$$$$$$$$$$$$$$$$$$$$$$$$$$$$$$$$$$$$$$$$$$$$$$$$$$$$$$$$$$$$$$$$$$$$$$$$$",
"$$$$$$$$$$$$$$$$$$$$$$$$$$$$$$$$$$$$$$$$$$$$$$$$$$$$$$$$$$$$$$$$$$$$$$$$$$$$$$$$$$$$$$$$$$$$$$$$$$$$$$$$$$$$$$$$$$$$$$$$$$$$$$$$$$$$$$$$$$$$$$$$$$$$$$$$$$$$$$$$$$$$$$$$$$$$$$$$$$$$$$$$$$$$$$$$$$$$$$$$$$$$$$$$$$$$$$$$$$$$$$$$$$$$$$$$$$$$$$$$$$$$$$$$$$$$$$$$$$$$$$$$$$$$$$$$$$$$$$$$$$$$$$$$$$$$$$$$$$$$$$$$$$$$$$$$$$$$$$$$",
"$$$$$$$$$$$$$$$$$$$$$$$$$$$$$$$$$$$$$$$$$$$$$$$$$$$$$$$$$$$$$$$$$$$$$$$$$$$$$$$$$$$$$$$$$$$$$$$$$$$$$$$$$$$$$$$$$$$$$$$$$$$$$$$$$$$$$$$$$$$$$$$$$$$$$$$$$$$$$$$$$$$$$$$$$$$$$$$$$$$$$$$$$$$$$$$$$$$$$$$$$$$$$$$$$$$$$$$$$$$$$$$$$$$$$$$$$$$$$$$$$$$$$$$$$$$$$$$$$$$$$$$$$$$$$$$$$$$$$$$$$$$$$$$$$$$$$$$$$$$$$$$$$$$$$$$$$$$$$$$$",
"$$$$$$$$$$$$$$$$$$$$$$$$$$$$$$$$$$$$$$$$$$$$$$$$$$$$$$$$$$$$$$$$$$$$$$$$$$$$$$$$$$$$$$$$$$$$$$$$$$$$$$$$$$$$$$$$$$$$$$$$$$$$$$$$$$$$$$$$$$$$$$$$$$$$$$$$$$$$$$$$$$$$$$$$$$$$$$$$$$$$$$$$$$$$$$$$$$$$$$$$$$$$$$$$$$$$$$$$$$$$$$$$$$$$$$$$$$$$$$$$$$$$$$$$$$$$$$$$$$$$$$$$$$$$$$$$$$$$$$$$$$$$$$$$$$$$$$$$$$$$$$$$$$$$$$$$$$$$$$$$",
"$$$$$$$$$$$$$$$$$$$$$$$$$$$$$$$$$$$$$$$$$$$$$$$$$$$$$$$$$$$$$$$$$$$$$$$$$$$$$$$$$$$$$$$$$$$$$$$$$$$$$$$$$$$$$$$$$$$$$$$$$$$$$$$$$$$$$$$$$$$$$$$$$$$$$$$$$$$$$$$$$$$$$$$$$$$$$$$$$$$$$$$$$$$$$$$$$$$$$$$$$$$$$$$$$$$$$$$$$$$$$$$$$$$$$$$$$$$$$$$$$$$$$$$$$$$$$$$$$$$$$$$$$$$$$$$$$$$$$$$$$$$$$$$$$$$$$$$$$$$$$$$$$$$$$$$$$$$$$$$$",
"$$$$$$$$$$$$$$$$$$$$$$$$$$$$$$$$$$$$$$$$$$$$$$$$$$$$$$$$$$$$$$$$$$$$$$$$$$$$$$$$$$$$$$$$$$$$$$$$$$$$$$$$$$$$$$$$$$$$$$$$$$$$$$$$$$$$$$$$$$$$$$$$$$$$$$$$$$$$$$$$$$$$$$$$$$$$$$$$$$$$$$$$$$$$$$$$$$$$$$$$$$$$$$$$$$$$$$$$$$$$$$$$$$$$$$$$$$$$$$$$$$$$$$$$$$$$$$$$$$$$$$$$$$$$$$$$$$$$$$$$$$$$$$$$$$$$$$$$$$$$$$$$$$$$$$$$$$$$$$$$",
"$$$$$$$$$$$$$$$$$$$$$$$$$$$$$$$$$$$$$$$$$$$$$$$$$$$$$$$$$$$$$$$$$$$$$$$$$$$$$$$$$$$$$$$$$$$$$$$$$$$$$$$$$$$$$$$$$$$$$$$$$$$$$$$$$$$$$$$$$$$$$$$$$$$$$$$$$$$$$$$$$$$$$$$$$$$$$$$$$$$$$$$$$$$$$$$$$$$$$$$$$$$$$$$$$$$$$$$$$$$$$$$$$$$$$$$$$$$$$$$$$$$$$$$$$$$$$$$$$$$$$$$$$$$$$$$$$$$$$$$$$$$$$$$$$$$$$$$$$$$$$$$$$$$$$$$$$$$$$$$$",
"$$$$$$$$$$$$$$$$$$$$$$$$$$$$$$$$$$$$$$$$$$$$$$$$$$$$$$$$$$$$$$$$$$$$$$$$$$$$$$$$$$$$$$$$$$$$$$$$$$$$$$$$$$$$$$$$$$$$$$$$$$$$$$$$$$$$$$$$$$$$$$$$$$$$$$$$$$$$$$$$$$$$$$$$$$$$$$$$$$$$$$$$$$$$$$$$$$$$$$$$$$$$$$$$$$$$$$$$$$$$$$$$$$$$$$$$$$$$$$$$$$$$$$$$$$$$$$$$$$$$$$$$$$$$$$$$$$$$$$$$$$$$$$$$$$$$$$$$$$$$$$$$$$$$$$$$$$$$$$$$",
"$$$$$$$$$$$$$$$$$$$$$$$$$$$$$$$$$$$$$$$$$$$$$$$$$$$$$$$$$$$$$$$$$$$$$$$$$$$$$$$$$$$$$$$$$$$$$$$$$$$$$$$$$$$$$$$$$$$$$$$$$$$$$$$$$$$$$$$$$$$$$$$$$$$$$$$$$$$$$$$$$$$$$$$$$$$$$$$$$$$$$$$$$$$$$$$$$$$$$$$$$$$$$$$$$$$$$$$$$$$$$$$$$$$$$$$$$$$$$$$$$$$$$$$$$$$$$$$$$$$$$$$$$$$$$$$$$$$$$$$$$$$$$$$$$$$$$$$$$$$$$$$$$$$$$$$$$$$$$$$$",
"$$$$$$$$$$$$$$$$$$$$$$$$$$$$$$$$$$$$$$$$$$$$$$$$$$$$$$$$$$$$$$$$$$$$$$$$$$$$$$$$$$$$$$$$$$$$$$$$$$$$$$$$$$$$$$$$$$$$$$$$$$$$$$$$$$$$$$$$$$$$$$$$$$$$$$$$$$$$$$$$$$$$$$$$$$$$$$$$$$$$$$$$$$$$$$$$$$$$$$$$$$$$$$$$$$$$$$$$$$$$$$$$$$$$$$$$$$$$$$$$$$$$$$$$$$$$$$$$$$$$$$$$$$$$$$$$$$$$$$$$$$$$$$$$$$$$$$$$$$$$$$$$$$$$$$$$$$$$$$$$",
"$$$$$$$$$$$$$$$$$$$$$$$$$$$$$$$$$$$$$$$$$$$$$$$$$$$$$$$$$$$$$$$$$$$$$$$$$$$$$$$$$$$$$$$$$$$$$$$$$$$$$$$$$$$$$$$$$$$$$$$$$$$$$$$$$$$$$$$$$$$$$$$$$$$$$$$$$$$$$$$$$$$$$$$$$$$$$$$$$$$$$$$$$$$$$$$$$$$$$$$$$$$$$$$$$$$$$$$$$$$$$$$$$$$$$$$$$$$$$$$$$$$$$$$$$$$$$$$$$$$$$$$$$$$$$$$$$$$$$$$$$$$$$$$$$$$$$$$$$$$$$$$$$$$$$$$$$$$$$$$$",
"$$$$$$$$$$$$$$$$$$$$$$$$$$$$$$$$$$$$$$$$$$$$$$$$$$$$$$$$$$$$$$$$$$$$$$$$$$$$$$$$$$$$$$$$$$$$$$$$$$$$$$$$$$$$$$$$$$$$$$$$$$$$$$$$$$$$$$$$$$$$$$$$$$$$$$$$$$$$$$$$$$$$$$$$$$$$$$$$$$$$$$$$$$$$$$$$$$$$$$$$$$$$$$$$$$$$$$$$$$$$$$$$$$$$$$$$$$$$$$$$$$$$$$$$$$$$$$$$$$$$$$$$$$$$$$$$$$$$$$$$$$$$$$$$$$$$$$$$$$$$$$$$$$$$$$$$$$$$$$$$",
"$$$$$$$$$$$$$$$$$$$$$$$$$$$$$$$$$$$$$$$$$$$$$$$$$$$$$$$$$$$$$$$$$$$$$$$$$$$$$$$$$$$$$$$$$$$$$$$$$$$$$$$$$$$$$$$$$$$$$$$$$$$$$$$$$$$$$$$$$$$$$$$$$$$$$$$$$$$$$$$$$$$$$$$$$$$$$$$$$$$$$$$$$$$$$$$$$$$$$$$$$$$$$$$$$$$$$$$$$$$$$$$$$$$$$$$$$$$$$$$$$$$$$$$$$$$$$$$$$$$$$$$$$$$$$$$$$$$$$$$$$$$$$$$$$$$$$$$$$$$$$$$$$$$$$$$$$$$$$$$$",
"$$$$$$$$$$$$$$$$$$$$$$$$$$$$$$$$$$$$$$$$$$$$$$$$$$$$$$$$$$$$$$$$$$$$$$$$$$$$$$$$$$$$$$$$$$$$$$$$$$$$$$$$$$$$$$$$$$$$$$$$$$$$$$$$$$$$$$$$$$$$$$$$$$$$$$$$$$$$$$$$$$$$$$$$$$$$$$$$$$$$$$$$$$$$$$$$$$$$$$$$$$$$$$$$$$$$$$$$$$$$$$$$$$$$$$$$$$$$$$$$$$$$$$$$$$$$$$$$$$$$$$$$$$$$$$$$$$$$$$$$$$$$$$$$$$$$$$$$$$$$$$$$$$$$$$$$$$$$$$$$",
"$$$$$$$$$$$$$$$$$$$$$$$$$$$$$$$$$$$$$$$$$$$$$$$$$$$$$$$$$$$$$$$$$$$$$$$$$$$$$$$$$$$$$$$$$$$$$$$$$$$$$$$$$$$$$$$$$$$$$$$$$$$$$$$$$$$$$$$$$$$$$$$$$$$$$$$$$$$$$$$$$$$$$$$$$$$$$$$$$$$$$$$$$$$$$$$$$$$$$$$$$$$$$$$$$$$$$$$$$$$$$$$$$$$$$$$$$$$$$$$$$$$$$$$$$$$$$$$$$$$$$$$$$$$$$$$$$$$$$$$$$$$$$$$$$$$$$$$$$$$$$$$$$$$$$$$$$$$$$$$$",
"$$$$$$$$$$$$$$$$$$$$$$$$$$$$$$$$$$$$$$$$$$$$$$$$$$$$$$$$$$$$$$$$$$$$$$$$$$$$$$$$$$$$$$$$$$$$$$$$$$$$$$$$$$$$$$$$$$$$$$$$$$$$$$$$$$$$$$$$$$$$$$$$$$$$$$$$$$$$$$$$$$$$$$$$$$$$$$$$$$$$$$$$$$$$$$$$$$$$$$$$$$$$$$$$$$$$$$$$$$$$$$$$$$$$$$$$$$$$$$$$$$$$$$$$$$$$$$$$$$$$$$$$$$$$$$$$$$$$$$$$$$$$$$$$$$$$$$$$$$$$$$$$$$$$$$$$$$$$$$$$",
"$$$$$$$$$$$$$$$$$$$$$$$$$$$$$$$$$$$$$$$$$$$$$$$$$$$$$$$$$$$$$$$$$$$$$$$$$$$$$$$$$$$$$$$$$$$$$$$$$$$$$$$$$$$$$$$$$$$$$$$$$$$$$$$$$$$$$$$$$$$$$$$$$$$$$$$$$$$$$$$$$$$$$$$$$$$$$$$$$$$$$$$$$$$$$$$$$$$$$$$$$$$$$$$$$$$$$$$$$$$$$$$$$$$$$$$$$$$$$$$$$$$$$$$$$$$$$$$$$$$$$$$$$$$$$$$$$$$$$$$$$$$$$$$$$$$$$$$$$$$$$$$$$$$$$$$$$$$$$$$$",
"$$$$$$$$$$$$$$$$$$$$$$$$$$$$$$$$$$$$$$$$$$$$$$$$$$$$$$$$$$$$$$$$$$$$$$$$$$$$$$$$$$$$$$$$$$$$$$$$$$$$$$$$$$$$$$$$$$$$$$$$$$$$$$$$$$$$$$$$$$$$$$$$$$$$$$$$$$$$$$$$$$$$$$$$$$$$$$$$$$$$$$$$$$$$$$$$$$$$$$$$$$$$$$$$$$$$$$$$$$$$$$$$$$$$$$$$$$$$$$$$$$$$$$$$$$$$$$$$$$$$$$$$$$$$$$$$$$$$$$$$$$$$$$$$$$$$$$$$$$$$$$$$$$$$$$$$$$$$$$$$"
};
