/* XPM */
static char *end_floor3_017[] = {
/* columns rows colors chars-per-pixel */
"320 200 256 2 ",
"   c black",
".  c #040404",
"X  c #0C0C0C",
"o  c gray8",
"O  c gray11",
"+  c gray14",
"@  c #2C2C2C",
"#  c #343434",
"$  c #3C3C3C",
"%  c #444444",
"&  c #4C4C4C",
"*  c gray33",
"=  c gray36",
"-  c #646464",
";  c #6C6C6C",
":  c #747474",
">  c #200000",
",  c #340000",
"<  c #480000",
"1  c #5C0000",
"2  c #700404",
"3  c #840404",
"4  c #980808",
"5  c #AC0C0C",
"6  c #C01010",
"7  c #C42424",
"8  c #CC3838",
"9  c #D05050",
"0  c #D86464",
"q  c #DC7C7C",
"w  c #E49898",
"e  c #ECB4B4",
"r  c #2C1400",
"t  c #3C1C00",
"y  c #502400",
"u  c #643000",
"i  c #743804",
"p  c #884404",
"a  c #984C08",
"s  c #AC580C",
"d  c #C06410",
"f  c #C47024",
"g  c #CC8038",
"h  c #D09050",
"j  c #D89C64",
"k  c #DCAC7C",
"l  c #E4C098",
"z  c #ECD0B4",
"x  c #2C2C00",
"c  c #3C3C00",
"v  c #505000",
"b  c #646400",
"n  c #747804",
"m  c #848808",
"M  c #94980C",
"N  c #A4A814",
"B  c #B4B81C",
"V  c #C4C824",
"C  c #CCCC38",
"Z  c #D0D450",
"A  c #D8D868",
"S  c #E0E080",
"D  c #E4E49C",
"F  c #ECECB8",
"G  c #0C1400",
"H  c #202C00",
"J  c #344400",
"K  c #445C00",
"L  c #587400",
"P  c #6C8C00",
"I  c #7CA400",
"U  c #90BC00",
"Y  c #98C010",
"T  c #A4C828",
"R  c #B0D040",
"E  c #BCD85C",
"W  c #C8E078",
"Q  c #D4E498",
"!  c #E0ECB4",
"~  c #ECF4D8",
"^  c #001400",
"/  c #002C00",
"(  c #004400",
")  c #005C00",
"_  c #007400",
"`  c #008C00",
"'  c #00A400",
"]  c #00C000",
"[  c #10C410",
"{  c #28CC28",
"}  c #44D444",
"|  c #5CD85C",
" . c #78E078",
".. c #98E898",
"X. c #B8ECB8",
"o. c #D8F4D8",
"O. c #00140C",
"+. c #002C1C",
"@. c #004428",
"#. c #005C38",
"$. c #007448",
"%. c #048C58",
"&. c #04A468",
"*. c #04BC78",
"=. c #18C084",
"-. c #30C890",
";. c #48D09C",
":. c #60D8AC",
">. c #7CE0BC",
",. c #9CE4C8",
"<. c #B8ECD8",
"1. c #D8F4E8",
"2. c #001414",
"3. c #002C2C",
"4. c #004444",
"5. c #005C5C",
"6. c #007474",
"7. c #008C8C",
"8. c #00A4A4",
"9. c #00BCBC",
"0. c #10C0C0",
"q. c #28C8C8",
"w. c #40D0D0",
"e. c #5CD8D8",
"r. c #78E0E0",
"t. c #98E4E4",
"y. c #B4ECEC",
"u. c #D8F4F4",
"i. c #00142C",
"p. c #001C3C",
"a. c #002850",
"s. c #003064",
"d. c #043C74",
"f. c #044488",
"g. c #085098",
"h. c #0C5CAC",
"j. c #1068C0",
"k. c #2474C4",
"l. c #3884CC",
"z. c #5090D0",
"x. c #64A0D8",
"c. c #7CACDC",
"v. c #98C0E4",
"b. c #B4D0EC",
"n. c #00002C",
"m. c #00003C",
"M. c #000050",
"N. c #000064",
"B. c #040474",
"V. c #040488",
"C. c #080898",
"Z. c #0C0CAC",
"A. c #1010C0",
"S. c #2828C8",
"D. c #4040D0",
"F. c #5C5CD8",
"G. c #7878E0",
"H. c #9898E4",
"J. c #B4B4EC",
"K. c #D8D8F4",
"L. c #747474",
"P. c #7C7C7C",
"I. c #848484",
"U. c gray55",
"Y. c #989898",
"T. c #A0A0A0",
"R. c gray66",
"E. c gray69",
"W. c #BCBCBC",
"Q. c gray77",
"!. c gray80",
"~. c #D8D8D8",
"^. c gray88",
"/. c gray91",
"(. c gray94",
"). c gray99",
"_. c #3C1800",
"`. c #401C00",
"'. c #482004",
"]. c #502804",
"[. c #542C08",
"{. c #5C340C",
"}. c #603814",
"|. c #684018",
" X c #704820",
".X c #C8CC28",
"XX c #C8B024",
"oX c #C89020",
"OX c #C4701C",
"+X c #C45018",
"@X c #C03014",
"#X c #C01010",
"$X c #2C0014",
"%X c #3C001C",
"&X c #500024",
"*X c #640030",
"=X c #740438",
"-X c #880444",
";X c #98084C",
":X c #AC0C58",
">X c #C01064",
",X c #C42470",
"<X c #CC3880",
"1X c #D05090",
"2X c #D8649C",
"3X c #DC7CAC",
"4X c #E498C0",
"5X c #ECB4D0",
"6X c #201408",
"7X c #301C0C",
"8X c #402810",
"9X c #503418",
"0X c #60401C",
"qX c #704820",
"wX c #805424",
"eX c #94602C",
"rX c #A06C3C",
"tX c #A8784C",
"yX c #B08458",
"uX c #BC906C",
"iX c #C4A080",
"pX c #D0B094",
"aX c #D8BCA8",
"sX c #E4D0C0",
"dX c #081420",
"fX c #0C1C30",
"gX c #142840",
"hX c #183450",
"jX c #204060",
"kX c #244870",
"lX c #2C5480",
"zX c #346090",
"xX c #3C6CA0",
"cX c #4C78A8",
"vX c #5884B0",
"bX c #6C90BC",
"nX c #80A0C4",
"mX c #94B0D0",
"MX c #A8BCD8",
"NX c #C0D0E4",
"BX c #1C1C20",
"VX c #F8F8FC",
"CX c #600000",
"ZX c #F80000",
"AX c #003000",
"SX c #00F800",
"DX c #1C201C",
"FX c #747874",
"GX c #F8FCF8",
"HX c #747874",
"JX c #2828CC",
"KX c #7878E4",
"LX c #D8E4F8",
"PX c #7878E4",
"IX c #2828CC",
"UX c #980088",
/* pixels */
"+ + + + + + + + + + + + + + + + + + + + + + + + + + + + + + + + + + + + + + + + + + + + + + + + + + + + + + + + + + + + + + + + + + + + + + + + + + + + + + + + + + + + + + + + + + + + + + + + + + + + + + + + + + + + + + + + + + + + + + + + + + + + + + + + + + + + + + + + + + + + + + + + + + + + + + + + + + + + + + + + + + + + + + + + + + + + + + + + + + + + + + + + + + + + + + + + + + + + + + + + + + + + + + + + + + + + + + + + + + + + + + + + + + + + + + + + + + + + + + + + + + + + + + + + + + + + + + + + + + + + + + + + + + + + + + + + + + + + + + + + + + + + + + + + + + + + + + + + + + + + + + + + + + + + + + + + + + + + + + + + ",
"+ + + + + + + + + + + + + + + + + + + + + + + + + + + + + + + + + + + + + + + + + + + + + + + + + + + + + + + + + + + + + + + + + + + + + + + + + + + + + + + + + + + + + + + + + + + + + + + + + + + + + + + + + + + + + + + + + + + + + + + + + + + + + + + + + + + + + + + + + + + + + + + + + + + + + + + + + + + + + + + + + + + + + + + + + + + + + + + + + + + + + + + + + + + + + + + + + + + + + + + + + + + + + + + + + + + + + + + + + + + + + + + + + + + + + + + + + + + + + + + + + + + + + + + + + + + + + + + + + + + + + + + + + + + + + + + + + + + + + + + + + + + + + + + + + + + + + + + + + + + + + + + + + + + + + + + + + + + + + + + + ",
"+ + + + + + + + + + + + + + + + + + + + + + + + + + + + + + + + + + + + + + + + + + + + + + + + + + + + + + + + + + + + + + + + + + + + + + + + + + + + + + + + + + + + + + + + + + + + + + + + + + + + + + + + + + + + + + + + + + + + + + + + + + + + + + + + + + + + + + + + + + + + + + + + + + + + + + + + + + + + + + + + + + + + + + + + + + + + + + + + + + + + + + + + + + + + + + + + + + + + + + + + + + + + + + + + + + + + + + + + + + + + + + + + + + + + + + + + + + + + + + + + + + + + + + + + + + + + + + + + + + + + + + + + + + + + + + + + + + + + + + + + + + + + + + + + + + + + + + + + + + + + + + + + + + + + + + + + + + + + + + + + ",
"+ + + + + + + + + + + + + + + + + + + + + + + + + + + + + + + + + + + + + + + + + + + + + + + + + + + + + + + + + + + + + + + + + + + + + + + + + + + + + + + + + + + + + + + + + + + + + + + + + + + + + + + + + + + + + + + + + + + + + + + + + + + + + + + + + + + + + + + + + + + + + + + + + + + + + + + + + + + + + + + + + + + + + + + + + + + + + + + + + + + + + + + + + + + + + + + + + + + + + + + + + + + + + + + + + + + + + + + + + + + + + + + + + + + + + + + + + + + + + + + + + + + + + + + + + + + + + + + + + + + + + + + + + + + + + + + + + + + + + + + + + + + + + + + + + + + + + + + + + + + + + + + + + + + + + + + + + + + + + + + + ",
"+ + + + + + + + + + + + + + + + + + + + + + + + + + + + + + + + + + + + + + + + + + + + + + + + + + + + + + + + + + + + + + + + + + + + + + + + + + + + + + + + + + + + + + + + + + + + + + + + + + + + + + + + + + + + + + + + + + + + + + + + + + + + + + + + + + + + + + + + + + + + + + + + + + + + + + + + + + + + + + + + + + + + + + + + + + + + + + + + + + + + + + + + + + + + + + + + + + + + + + + + + + + + + + + + + + + + + + + + + + + + + + + + + + + + + + + + + + + + + + + + + + + + + + + + + + + + + + + + + + + + + + + + + + + + + + + + + + + + + + + + + + + + + + + + + + + + + + + + + + + + + + + + + + + + + + + + + + + + + + + + ",
"+ + + + + + + + + + + + + + + + + + + + + + + + + + + + + + + + + + + + + + + + + + + + + + + + + + + + + + + + + + + + + + + + + + + + + + + + + + + + + + + + + + + + + + + + + + + + + + + + + + + + + + + + + + + + + + + + + + + + + + + + + + + + + + + + + + + + + + + + + + + + + + + + + + + + + + + + + + + + + + + + + + + + + + + + + + + + + + + + + + + + + + + + + + + + + + + + + + + + + + + + + + + + + + + + + + + + + + + + + + + + + + + + + + + + + + + + + + + + + + + + + + + + + + + + + + + + + + + + + + + + + + + + + + + + + + + + + + + + + + + + + + + + + + + + + + + + + + + + + + + + + + + + + + + + + + + + + + + + + + + + ",
"+ + + + + + + + + + + + + + + + + + + + + + + + + + + + + + + + + + + + + + + + + + + + + + + + + + + + + + + + + + + + + + + + + + + + + + + + + + + + + + + + + + + + + + + + + + + + + + + + + + + + + + + + + + + + + + + + + + + + + + + + + + + + + + + + + + + + + + + + + + + + + + + + + + + + + + + + + + + + + + + + + + + + + + + + + + + + + + + + + + + + + + + + + + + + + + + + + + + + + + + + + + + + + + + + + + + + + + + + + + + + + + + + + + + + + + + + + + + + + + + + + + + + + + + + + + + + + + + + + + + + + + + + + + + + + + + + + + + + + + + + + + + + + + + + + + + + + + + + + + + + + + + + + + + + + + + + + + + + + + + + ",
"+ + + + + + + + + + + + + + + + + + + + + + + + + + + + + + + + + + + + + + + + + + + + + + + + + + + + + + + + + + + + + + + + + + + + + + + + + + + + + + + + + + + + + + + + + + + + + + + + + + + + + + + + + + + + + + + + + + + + + + + + + + + + + + + + + + + + + + + + + + + + + + + + + + + + + + + + + + + + + + + + + + + + + + + + + + + + + + + + + + + + + + + + + + + + + + + + + + + + + + + + + + + + + + + + + + + + + + + + + + + + + + + + + + + + + + + + + + + + + + + + + + + + + + + + + + + + + + + + + + + + + + + + + + + + + + + + + + + + + + + + + + + + + + + + + + + + + + + + + + + + + + + + + + + + + + + + + + + + + + + + ",
"+ + + + + + + + + + + + + + + + + + + + + + + + + + + + + + + + + + + + + + + + + + + + + + + + + + + + + + + + + + + + + + + + + + + + + + + + + + + + + + + + + + + + + + + + + + + + + + + + + + + + + + + + + + + + + + + + + + + + + + + + + + + + + + + + + + + + + + + + + + + + + + + + + + + + + + + + + + + + + + + + + + + + + + + + + + + + + + + + + + + + + + + + + + + + + + + + + + + + + + + + + + + + + + + + + + + + + + + + + + + + + + + + + + + + + + + + + + + + + + + + + + + + + + + + + + + + + + + + + + + + + + + + + + + + + + + + + + + + + + + + + + + + + + + + + + + + + + + + + + + + + + + + + + + + + + + + + + + + + + + + ",
"+ + + + + + + + + + + + + + + + + + + + + + + + + + + + + + + + + + + + + + + + + + + + + + + + + + + + + + + + + + + + + + + + + + + + + + + + + + + + + + + + + + + + + + + + + + + + + + + + + + + + + + + + + + + + + + + + + + + + + + + + + + + + + + + + + + + + + + + + + + + + + + + + + + + + + + + + + + + + + + + + + + + + + + + + + + + + + + + + + + + + + + + + + + + + + + + + + + + + + + + + + + + + + + + + + + + + + + + + + + + + + + + + + + + + + + + + + + + + + + + + + + + + + + + + + + + + + + + + + + + + + + + + + + + + + + + + + + + + + + + + + + + + + + + + + + + + + + + + + + + + + + + + + + + + + + + + + + + + + + + + ",
"+ + + + + + + + + + + + + + + + + + + + + + + + + + + + + + + + + + + + + + + + + + + + + + + + + + + + + + + + + + + + + + + + + + + + + + + + + + + + + + + + + + + + + + + + + + + + + + + + + + + + + + + + + + + + + + + + + + + + + + + + + + + + + + + + + + + + + + + + + + + + + + + + + + + + + + + + + + + + + + + + + + + + + + + + + + + + + + + + + + + + + + + + + + + + + + + + + + + + + + + + + + + + + + + + + + + + + + + + + + + + + + + + + + + + + + + + + + + + + + + + + + + + + + + + + + + + + + + + + + + + + + + + + + + + + + + + + + + + + + + + + + + + + + + + + + + + + + + + + + + + + + + + + + + + + + + + + + + + + + + + ",
"+ + + + + + + + + + + + + + + + + + + + + + + + + + + + + + + + + + + + + + + + + + + + + + + + + + + + + + + + + + + + + + + + + + + + + + + + + + + + + + + + + + + + + + + + + + + + + + + + + + + + + + + + + + + + + + + + + + + + + + + + + + + + + + + + + + + + + + + + + + + + + + + + + + + + + + + + + + + + + + + + + + + + + + + + + + + + + + + + + + + + + + + + + + + + + + + + + + + + + + + + + + + + + + + + + + + + + + + + + + + + + + + + + + + + + + + + + + + + + + + + + + + + + + + + + + + + + + + + + + + + + + + + + + + + + + + + + + + + + + + + + + + + + + + + + + + + + + + + + + + + + + + + + + + + + + + + + + + + + + + + ",
"+ + + + + + + + + + + + + + + + + + + + + + + + + + + + + + + + + + + + + + + + + + + + + + + + + + + + + + + + + + + + + + + + + + + + + + + + + + + + + + + + + + + + + + + + + + + + + + + + + + + + + + + + + + + + + + + + + + + + + + + + + + + + + + + + + + + + + + + + + + + + + + + + + + + + + + + + + + + + + + + + + + + + + + + + + + + + + + + + + + + + + + + + + + + + + + + + + + + + + + + + + + + + + + + + + + + + + + + + + + + + + + + + + + + + + + + + + + + + + + + + + + + + + + + + + + + + + + + + + + + + + + + + + + + + + + + + + + + + + + + + + + + + + + + + + + + + + + + + + + + + + + + + + + + + + + + + + + + + + + + + ",
"+ + + + + + + + + + + + + + + + + + + + + + + + + + + + + + + + + + + + + + + + + + + + + + + + + + + + + + + + + + + + + + + + + + + + + + + + + + + + + + + + + + + + + + + + + + + + + + + + + + + + + + + + + + + + + + + + + + + + + + + + + + + + + + + + + + + + + + + + + + + + + + + + + + + + + + + + + + + + + + + + + + + + + + + + + + + + + + + + + + + + + + + + + + + + + + + + + + + + + + + + + + + + + + + + + + + + + + + + + + + + + + + + + + + + + + + + + + + + + + + + + + + + + + + + + + + + + + + + + + + + + + + + + + + + + + + + + + + + + + + + + + + + + + + + + + + + + + + + + + + + + + + + + + + + + + + + + + + + + + + + ",
"+ + + + + + + + + + + + + + + + + + + + + + + + + + + + + + + + + + + + + + + + + + + + + + + + + + + + + + + + + + + + + + + + + + + + + + + + + + + + + + + + + + + + + + + + + + + + + + + + + + + + + + + + + + + + + + + + + + + + + + + + + + + + + + + + + + + + + + + + + + + + + + + + + + + + + + + + + + + + + + + + + + + + + + + + + + + + + + + + + + + + + + + + + + + + + + + + + + + + + + + + + + + + + + + + + + + + + + + + + + + + + + + + + + + + + + + + + + + + + + + + + + + + + + + + + + + + + + + + + + + + + + + + + + + + + + + + + + + + + + + + + + + + + + + + + + + + + + + + + + + + + + + + + + + + + + + + + + + + + + + + ",
"+ + + + + + + + + + + + + + + + + + + + + + + + + + + + + + + + + + + + + + + + + + + + + + + + + + + + + + + + + + + + + + + + + + + + + + + + + + + + + + + + + + + + + + + + + + + + + + + + + + + + + + + + + + + + + + + + + + + + + + + + + + + + + + + + + + + + + + + + + + + + + + + + + + + + + + + + + + + + + + + + + + + + + + + + + + + + + + + + + + + + + + + + + + + + + + + + + + + + + + + + + + + + + + + + + + + + + + + + + + + + + + + + + + + + + + + + + + + + + + + + + + + + + + + + + + + + + + + + + + + + + + + + + + + + + + + + + + + + + + + + + + + + + + + + + + + + + + + + + + + + + + + + + + + + + + + + + + + + + + + + ",
"+ + + + + + + + + + + + + + + + + + + + + + + + + + + + + + + + + + + + + + + + + + + + + + + + + + + + + + + + + + + + + + + + + + + + + + + + + + + + + + + + + + + + + + + + + + + + + + + + + + + + + + + + + + + + + + + + + + + + + + + + + + + + + + + + + + + + + + + + + + + + + + + + + + + + + + + + + + + + + + + + + + + + + + + + + + + + + + + + + + + + + + + + + + + + + + + + + + + + + + + + + + + + + + + + + + + + + + + + + + + + + + + + + + + + + + + + + + + + + + + + + + + + + + + + + + + + + + + + + + + + + + + + + + + + + + + + + + + + + + + + + + + + + + + + + + + + + + + + + + + + + + + + + + + + + + + + + + + + + + + + ",
"+ + + + + + + + + + + + + + + + + + + + + + + + + + + + + + + + + + + + + + + + + + + + + + + + + + + + + + + + + + + + + + + + + + + + + + + + + + + + + + + + + + + + + + + + + + + + + + + + + + + + + + + + + + + + + + + + + + + + + + + + + + + + + + + + + + + + + + + + + + + + + + + + + + + + + + + + + + + + + + + + + + + + + + + + + + + + + + + + + + + + + + + + + + + + + + + + + + + + + + + + + + + + + + + + + + + + + + + + + + + + + + + + + + + + + + + + + + + + + + + + + + + + + + + + + + + + + + + + + + + + + + + + + + + + + + + + + + + + + + + + + + + + + + + + + + + + + + + + + + + + + + + + + + + + + + + + + + + + + + + + ",
"+ + + + + + + + + + + + + + + + + + + + + + + + + + + + + + + + + + + + + + + + + + + + + + + + + + + + + + + + + + + + + + + + + + + + + + + + + + + + + + + + + + + + + + + + + + + + + + + + + + + + + + + + + + + + + + + + + + + + + + + + + + + + + + + + + + + + + + + + + + + + + + + + + + + + + + + + + + + + + + + + + + + + + + + + + + + + + + + + + + + + + + + + + + + + + + + + + + + + + + + + + + + + + + + + + + + + + + + + + + + + + + + + + + + + + + + + + + + + + + + + + + + + + + + + + + + + + + + + + + + + + + + + + + + + + + + + + + + + + + + + + + + + + + + + + + + + + + + + + + + + + + + + + + + + + + + + + + + + + + + + ",
"+ + + + + + + + + + + + + + + + + + + + + + + + + + + + + + + + + + + + + + + + + + + + + + + + + + + + + + + + + + + + + + + + + + + + + + + + + + + + + + + + + + + + + + + + + + + + + + + + + + + + + + + + + + + + + + + + + + + + + + + + + + + + + + + + + + + + + + + + + + + + + + + + + + + + + + + + + + + + + + + + + + + + + + + + + + + + + + + + + + + + + + + + + + + + + + + + + + + + + + + + + + + + + + + + + + + + + + + + + + + + + + + + + + + + + + + + + + + + + + + + + + + + + + + + + + + + + + + + + + + + + + + + + + + + + + + + + + + + + + + + + + + + + + + + + + + + + + + + + + + + + + + + + + + + + + + + + + + + + + + + ",
"+ + + + + + + + + + + + + + + + + + + + + + + + + + + + + + + + + + + + + + + + + + + + + + + + + + + + + + + + + + + + + + + + + + + + + + + + + + + + + + + + + + + + + + + + + + + + + + + + + + + + + + + + + + + + + + + + + + + + + + + + + + + + + + + + + + + + + + + + + + + + + + + + + + + + + + + + + + + + + + + + + + + + + + + + + + + + + + + + + + + + + + + + + + + + + + + + + + + + + + + + + + + + + + + + + + + + + + + + + + + + + + + + + + + + + + + + + + + + + + + + + + + + + + + + + + + + + + + + + + + + + + + + + + + + + + + + + + + + + + + + + + + + + + + + + + + + + + + + + + + + + + + + + + + + + + + + + + + + + + + + ",
"+ + + + + + + + + + + + + + + + + + + + + + + + + + + + + + + + + + + + + + + + + + + + + + + + + + + + + + + + + + + + + + + + + + + + + + + + + + + + + + + + + + + + + + + + + + + + + + + + + + + + + + + + + + + + + + + + + + + + + + + + + + + + + + + + + + + + + + + + + + + + + + + + + + + + + + + + + + + + + + + + + + + + + + + + + + + + + + + + + + + + + + + + + + + + + + + + + + + + + + + + + + + + + + + + + + + + + + + + + + + + + + + + + + + + + + + + + + + + + + + + + + + + + + + + + + + + + + + + + + + + + + + + + + + + + + + + + + + + + + + + + + + + + + + + + + + + + + + + + + + + + + + + + + + + + + + + + + + + + + + + ",
"+ + + + + + + + + + + + + + + + + + + + + + + + + + + + + + + + + + + + + + + + + + + + + + + + + + + + + + + + + + + + + + + + + + + + + + + + + + + + + + + + + + + + + + + + + + + + + + + + + + + + + + + + + + + + + + + + + + + + + + + + + + + + + + + + + + + + + + + + + + + + + + + + + + + + + + + + + + + + + + + + + + + + + + + + + + + + + + + + + + + + + + + + + + + + + + + + + + + + + + + + + + + + + + + + + + + + + + + + + + + + + + + + + + + + + + + + + + + + + + + + + + + + + + + + + + + + + + + + + + + + + + + + + + + + + + + + + + + + + + + + + + + + + + + + + + + + + + + + + + + + + + + + + + + + + + + + + + + + + + + + ",
"+ + + + + + + + + + + + + + + + + + + + + + + + + + + + + + + + + + + + + + + + + + + + + + + + + + + + + + + + + + + + + + + + + + + + + + + + + + + + + + + + + + + + + + + + + + + + + + + + + + + + + + + + + + + + + + + + + + + + + + + + + + + + + + + + + + + + + + + + + + + + + + + + + + + + + + + + + + + + + + + + + + + + + + + + + + + + + + + + + + + + + + + + + + + + + + + + + + + + + + + + + + + + + + + + + + + + + + + + + + + + + + + + + + + + + + + + + + + + + + + + + + + + + + + + + + + + + + + + + + + + + + + + + + + + + + + + + + + + + + + + + + + + + + + + + + + + + + + + + + + + + + + + + + + + + + + + + + + + + + + + ",
"+ + + + + + + + + + + + + + + + + + + + + + + + + + + + + + + + + + + + + + + + + + + + + + + + + + + + + + + + + + + + + + + + + + + + + + + + + + + + + + + + + + + + + + + + + + + + + + + + + + + + + + + + + + + + + + + + + + + + + + + + + + + + + + + + + + + + + + + + + + + + + + + + + + + + + + + + + + + + + + + + + + + + + + + + + + + + + + + + + + + + + + + + + + + + + + + + + + + + + + + + + + + + + + + + + + + + + + + + + + + + + + + + + + + + + + + + + + + + + + + + + + + + + + + + + + + + + + + + + + + + + + + + + + + + + + + + + + + + + + + + + + + + + + + + + + + + + + + + + + + + + + + + + + + + + + + + + + + + + + + + ",
"+ + + + + + + + + + + + + + + + + + + + + + + + + + + + + + + + + + + + + + + + + + + + + + + + + + + + + + + + + + + + + + + + + + + + + + + + + + + + + + + + + + + + + + + + + + + + + + + + + + + + + + + + + + + + + + + + + + + + + + + + + + + + + + + + + + + + + + + + + + + + + + + + + + + + + + + + + + + + + + + + + + + + + + + + + + + + + + + + + + + + + + + + + + + + + + + + + + + + + + + + + + + + + + + + + + + + + + + + + + + + + + + + + + + + + + + + + + + + + + + + + + + + + + + + + + + + + + + + + + + + + + + + + + + + + + + + + + + + + + + + + + + + + + + + + + + + + + + + + + + + + + + + + + + + + + + + + + + + + + + + ",
"+ + + + + + + + + + + + + + + + + + + + + + + + + + + + + + + + + + + + + + + + + + + + + + + + + + + + + + + + + + + + + + + + + + + + + + + + + + + + + + + + + + + + + + + + + + + + + + + + + + + + + + + + + + + + + + + + + + + + + + + + + + + + + + + + + + + + + + + + + + + + + + + + + + + + + + + + + + + + + + + + + + + + + + + + + + + + + + + + + + + + + + + + + + + + + + + + + + + + + + + + + + + + + + + + + + + + + + + + + + + + + + + + + + + + + + + + + + + + + + + + + + + + + + + + + + + + + + + + + + + + + + + + + + + + + + + + + + + + + + + + + + + + + + + + + + + + + + + + + + + + + + + + + + + + + + + + + + + + + + + + ",
"+ + + + + + + + + + + + + + + + + + + + + + + + + + + + + + + + + + + + + + + + + + + + + + + + + + + + + + + + + + + + + + + + + + + + + + + + + + + + + + + + + + + + + + + + + + + + + + + + + + + + + + + + + + + + + + + + + + + + + + + + + + + + + + + + + + + + + + + + + + + + + + + + + + + + + + + + + + + + + + + + + + + + + + + + + + + + + + + + + + + + + + + + + + + + + + + + + + + + + + + + + + + + + + + + + + + + + + + + + + + + + + + + + + + + + + + + + + + + + + + + + + + + + + + + + + + + + + + + + + + + + + + + + + + + + + + + + + + + + + + + + + + + + + + + + + + + + + + + + + + + + + + + + + + + + + + + + + + + + + + + ",
"+ + + + + + + + + + + + + + + + + + + + + + + + + + + + + + + + + + + + + + + + + + + + + + + + + + + + + + + + + + + + + + + + + + + + + + + + + + + + + + + + + + + + + + + + + + + + + + + + + + + + + + + + + + + + + + + + + + + + + + + + + + + + + + + + + + + + + + + + + + + + + + + + + + + + + + + + + + + + + + + + + + + + + + + + + + + + + + + + + + + + + + + + + + + + + + + + + + + + + + + + + + + + + + + + + + + + + + + + + + + + + + + + + + + + + + + + + + + + + + + + + + + + + + + + + + + + + + + + + + + + + + + + + + + + + + + + + + + + + + + + + + + + + + + + + + + + + + + + + + + + + + + + + + + + + + + + + + + + + + + + ",
"+ + + + + + + + + + + + + + + + + + + + + + + + + + + + + + + + + + + + + + + + + + + + + + + + + + + + + + + + + + + + + + + + + + + + + + + + + + + + + + + + + + + + + + + + + + + + + + + + + + + + + + + + + + + + + + + + + + + + + + + + + + + + + + + + + + + + + + + + + + + + + + + + + + + + + + + + + + + + + + + + + + + + + + + + + + + + + + + + + + + + + + + + + + + + + + + + + + + + + + + + + + + + + + + + + + + + + + + + + + + + + + + + + + + + + + + + + + + + + + + + + + + + + + + + + + + + + + + + + + + + + + + + + + + + + + + + + + + + + + + + + + + + + + + + + + + + + + + + + + + + + + + + + + + + + + + + + + + + + + + + ",
"+ + + + + + + + + + + + + + + + + + + + + + + + + + + + + + + + + + + + + + + + + + + + + + + + + + + + + + + + + + + + + + + + + + + + + + + + + + + + + + + + + + + + + + + + + + + + + + + + + + + + + + + + + + + + + + + + + + + + + + + + + + + + + + + + + + + + + + + + + + + + + + + + + + + + + + + + + + + + + + + + + + + + + + + + + + + + + + + + + + + + + + + + + + + + + + + + + + + + + + + + + + + + + + + + + + + + + + + + + + + + + + + + + + + + + + + + + + + + + + + + + + + + + + + + + + + + + + + + + + + + + + + + + + + + + + + + + + + + + + + + + + + + + + + + + + + + + + + + + + + + + + + + + + + + + + + + + + + + + + + + ",
"+ + + + + + + + + + + + + + + + + + + + + + + + + + + + + + + + + + + + + + + + + + + + + + + + + + + + + + + + + + + + + + + + + + + + + + + + + + + + + + + + + + + + + + + + + + + + + + + + + + + + + + + + + + + + + + + + + + + + + + + + + + + + + + + + + + + + + + + + + + + + + + + + + + + + + + + + + + + + + + + + + + + + + + + + + + + + + + + + + + + + + + + + + + + + + + + + + + + + + + + + + + + + + + + + + + + + + + + + + + + + + + + + + + + + + + + + + + + + + + + + + + + + + + + + + + + + + + + + + + + + + + + + + + + + + + + + + + + + + + + + + + + + + + + + + + + + + + + + + + + + + + + + + + + + + + + + + + + + + + + + ",
"+ + + + + + + + + + + + + + + + + + + + + + + + + + + + + + + + + + + + + + + + + + + + + + + + + + + + + + + + + + + + + + + + + + + + + + + + + + + + + + + + + + + + + + + + + + + + + + + + + + + + + + + + + + + + + + + + + + + + + + + + + + + + + + + + + + + + + + + + + + + + + + + + + + + + + + + + + + + + + + + + + + + + + + + + + + + + + + + + + + + + + + + + + + + + + + + + + + + + + + + + + + + + + + + + + + + + + + + + + + + + + + + + + + + + + + + + + + + + + + + + + + + + + + + + + + + + + + + + + + + + + + + + + + + + + + + + + + + + + + + + + + + + + + + + + + + + + + + + + + + + + + + + + + + + + + + + + + + + + + + + ",
"+ + + + + + + + + + + + + + + + + + + + + + + + + + + + + + + + + + + + + + + + + + + + + + + + + + + + + + + + + + + + + + + + + + + + + + + + + + + + + + + + + + + + + + + + + + + + + + + + + + + + + + + + + + + + + + + + + + + + + + + + + + + + + + + + + + + + + + + + + + + + + + + + + + + + + + + + + + + + + + + + + + + + + + + + + + + + + + + + + + + + + + + + + + + + + + + + + + + + + + + + + + + + + + + + + + + + + + + + + + + + + + + + + + + + + + + + + + + + + + + + + + + + + + + + + + + + + + + + + + + + + + + + + + + + + + + + + + + + + + + + + + + + + + + + + + + + + + + + + + + + + + + + + + + + + + + + + + + + + + + + ",
"+ + + + + + + + + + + + + + + + + + + + + + + + + + + + + + + + + + + + + + + + + + + + + + + + + + + + + + + + + + + + + + + + + + + + + + + + + + + + + + + + + + + + + + + + + + + + + + + + + + + + + + + + + + + + + + + + + + + + + + + + + + + + + + + + + + + + + + + + + + + + + + + + + + + + + + + + + + + + + + + + + + + + + + + + + + + + + + + + + + + + + + + + + + + + + + + + + + + + + + + + + + + + + + + + + + + + + + + + + + + + + + + + + + + + + + + + + + + + + + + + + + + + + + + + + + + + + + + + + + + + + + + + + + + + + + + + + + + + + + + + + + + + + + + + + + + + + + + + + + + + + + + + + + + + + + + + + + + + + + + + ",
"+ + + + + + + + + + + + + + + + + + + + + + + + + + + + + + + + + + + + + + + + + + + + + + + + + + + + + + + + + + + + + + + + + + + + + + + + + + + + + + + + + + + + + + + + + + + + + + + + + + + + + + + + + + + + + + + + + + + + + + + + + + + + + + + + + + + + + + + + + + + + + + + + + + + + + + + + + + + + + + + + + + + + + + + + + + + + + + + + + + + + + + + + + + + + + + + + + + + + + + + + + + + + + + + + + + + + + + + + + + + + + + + + + + + + + + + + + + + + + + + + + + + + + + + + + + + + + + + + + + + + + + + + + + + + + + + + + + + + + + + + + + + + + + + + + + + + + + + + + + + + + + + + + + + + + + + + + + + + + + + + ",
"+ + + + + + + + + + + + + + + + + + + + + + + + + + + + + + + + + + + + + + + + + + + + + + + + + + + + + + + + + + + + + + + + + + + + + + + + + + + + + + + + + + + + + + + + + + + + + + + + + + + + + + + + + + + + + + + + + + + + + + + + + + + + + + + + + + + + + + + + + + + + + + + + + + + + + + + + + + + + + + + + + + + + + + + + + + + + + + + + + + + + + + + + + + + + + + + + + + + + + + + + + + + + + + + + + + + + + + + + + + + + + + + + + + + + + + + + + + + + + + + + + + + + + + + + + + + + + + + + + + + + + + + + + + + + + + + + + + + + + + + + + + + + + + + + + + + + + + + + + + + + + + + + + + + + + + + + + + + + + + + + ",
"                                                    - * - * = - : : P.I.U.Y.T.R.E.W.Q.!.Q.W.E.R.T.Y.U.I.P.: ; : U.Y.U.=                                                           n.          n.                                                !.!.!.!.E.P.P.R.P.                                                      A.                                                                                                                                                                                                m.                                                                                    n.                                              ",
"                                                  $ - * - * = - : : P.I.U.Y.T.R.E.W.Q.!.Q.W.E.R.T.Y.U.I.P.: ; : U.Y.U.= $                                                                                                                       Y.: !.R.!.!.E.P.R.P.    n.                                                M.                                                                                                                                                                                                                                                                                                                            M.n.    ",
"                                                  % - * - * = - : : P.I.U.Y.T.R.E.W.Q.!.Q.W.E.R.T.Y.U.I.P.: ; : U.Y.U.= %           M.                                                                                                            : R.R.R.!.!.P.E.P.P.P.                                                                                                                                                            M.                                                                                                                                Q.R.            Q.Q.                                                                      ",
"                                                  & - * - * = - : : P.I.U.Y.T.R.E.W.Q.!.Q.W.E.R.T.Y.U.I.P.: ; : U.Y.U.= &                                                                                                                             : R.R.R.!.E.P.R.P.                                                                                                                                                                                                                                                                                            Q.R.W.Q.        Q.R.R.R.                                                                    ",
"          K.                                      * - * - * = - : : P.I.U.Y.T.R.E.W.Q.!.Q.W.E.R.T.Y.U.I.P.: ; : U.Y.U.= *                                                                             n.                                        n.      : !.R.!.!.!.E.P.R.P.                                                                                                            n.                                                                                                                                              A.                        Q.R.W.Q.P.      Q.R.R.W.P.                      M.                                            ",
"                                                  = - * - * = - : : P.I.U.Y.T.R.E.W.Q.!.Q.W.E.R.T.Y.U.I.P.: ; : U.Y.U.= =                                                                                                                                   R.!.R.!.!.E.P.P.                                                                                                                                                                                                                                                                                    Q.R.W.Q.P.      Q.R.R.W.P.    M.                                                                ",
"              n.        M.                        - - * - * = - : : P.I.U.Y.T.R.E.W.Q.!.Q.W.E.R.T.Y.U.I.P.: ; : U.Y.U.= =                             K.                                                                                                    : R.R.R.!.!.!.P.P.P.                                                                                                                              n.                                                                                                                                              Q.R.W.Q.P.      Q.R.R.W.P.M.                                                                      ",
"                    n.                            - - * - * = - : : P.I.U.Y.T.R.E.W.Q.!.Q.W.E.R.T.Y.U.I.P.: ; : U.Y.U.= =                                 K.                                                                                                    : R.R.!.!.E.P.R.P.                P.P.                                                                                                                n.                                                  K.                        m.                                                      Q.R.W.Q.P.      Q.R.R.W.P.                                                                          ",
"                                  M.              = - * - * = - : : P.I.U.Y.T.R.E.W.Q.!.Q.W.E.R.T.Y.U.I.P.: ; : U.Y.U.= =     A.          M.                                                                                                                      R.!.R.R.!.!.E.P.R.    n.        P.P.P.;                                                       K.  n.                    uX                                    T.P.= = =                               A.                                                    % I.I.I.I.I.I.I.I.I.I.I.I.I.I.I.I.Q.P.      Q.R.R.W.P.                                                                      M.    ",
"                                                  = - * - * = - : : P.I.U.Y.T.R.E.W.Q.!.Q.W.E.R.T.Y.U.I.P.: ; : U.Y.U.= =                                                                                                 n.                                A.        R.!.R.!.!.P.P.P.R.          P.P.P.;                                                               u           p   p rX                                  T.T.P.P.P.= =             m.                                                            % I.I.I.I.; ; ; ; ; ; ; ; ; ; ; ; ; ; ; ; I.I.I.I.Q.R.R.W.P.        M.                                        M.                          ",
"                                                  = - * - * = - : : P.I.U.Y.T.R.E.W.Q.!.Q.W.E.R.T.Y.U.I.P.: ; : U.Y.U.= =                     n.                                                      n.                      n.                                      : R.R.!.R.!.!.P.P.P.      P.P.I.I.- -                                 M.                            p   p       rXuXuX    = a a                         T.P.T.: : P.P.P.P.P.P.I.I.                            M.          n.                % I.I.; ; ; ; ; ; ; ; ; ; ; ; ; ; ; ; ; ; ; ; ; ; ; ; I.I.W.P.                                                                                ",
"                                                  = * ; - * = - : : P.I.U.Y.T.R.E.W.Q.!.Q.W.E.R.T.Y.U.I.P.: ; : U.Y.U.= =                                                                                                                                                 : !.R.!.!.E.P.R.P.P.  I.I.P.: - -                                             n.            @   p = a y   y p h rXh y p rX          uX=             T.P.T.: : P.P.= P.P.= = =                                                         % I.; ; ; ; ; ; = = = = = = = = = = = = = = = = ; ; ; ; ; ; P.%                                                                                 ",
"                                                  = * ; - * = - : : P.I.U.Y.T.R.E.W.Q.!.Q.W.E.R.T.Y.U.I.P.: ; : U.Y.U.: =                                                       M.                                                                                          R.: !.R.!.!.E.P.R.P.$ P.- - - - -                                                   n.    y = = = rXy   y rXrXh uXp = p y       a j               T.T.T.T.: : P.= = = =                                                           % I.; ; ; = = = =                                 = = = = ; ; ; I.%                                             K.n.                            n.",
"                n.                                = * ; - * = - : : P.I.U.Y.T.R.E.W.Q.!.Q.W.E.R.T.Y.U.I.P.: ; : U.Y.U.: =                                                                                                                                                       R.!.R.!.!.P.E.P.R.P.$ - - - -                                                       @ p = = = rXeX- a eXh rXh = p p       pXp   l p p y         P.P.T.T.: : P.= =                                                             I.; ; = =       * : : : : : : : : : : : : : : : : *       = = ; ; I.                                                                              ",
"                                                  = * ; - * = - : : P.I.U.Y.T.R.E.W.Q.!.Q.W.E.R.T.Y.U.I.P.: ; : U.Y.U.P.=               n.                                                                                                                                      I.Y.R.R.R.!.!.P.Y.P.$ - - : I.;                                                     . = - - rXrXrXeX- tXuXh j a h rX= j     j 5X    l   y   P.P.P.P.T.: : : P.P.=   I.I.                                                      ; ; =     * : : : : : Y.T.R.E.W.Q.!.Q.W.E.R.T.Y.: : : : *     = ; ;                                                                               ",
"                                                  = * ; - * = - : : P.I.U.Y.T.R.E.W.Q.!.Q.W.E.R.T.Y.U.I.P.: ; : P.U.Y.U.=                                                                                                                                                 n.      Y.Y.!.R.!.!.E.!.Y.Y.$ - U.U.;                             p               a M.    @ = rXuXrXtXrXrXtXuXuXh h j j k j j pXp   l     M.sXpXrXP.T.P.T.T.T.: P.P.P.= = I.=                                         n.            ; =   : : - : : P.I.U.Y.T.R.E.W.Q.!.Q.W.E.R.T.Y.U.I.P.; : : :   = ;                                                                       n.      ",
"                              n.                n.= * ; - * = - : : P.I.U.Y.T.R.E.W.Q.!.Q.W.E.R.T.Y.U.I.P.: ; : : U.Y.U.=                   M.                                              M.                          M.                                                        Q.Q.Y.Y.!.R.!.!.Y.I.- U.Y.Y.U.;                 n.      eX              h   p p   + p uXj uXuXuXh h j j j j j j pXpXpXrXp 5X5X5Xy l gX(.    T.T.P.P.T.T.: : P.P.P.I.=                                                       =   ; - * = - : P.I.U.Y.T.R.E.W.Q.!.Q.W.E.R.T.Y.U.I.P.; : U.Y.:   =                                                                               ",
"                                          K.      = * ; - * = - : : P.I.U.Y.T.R.E.W.Q.!.Q.W.E.R.T.Y.U.I.P.: ; : : U.Y.U.=                                                                                                                         n.                                Q.E.Y.R.R.R.!.E.I.Y.Y.U.U.U.;           n.            @   p     M.h a u pXg sXp y rXpXpXj pXj j j j j k pXpXpXpXl l j pXl 5XsX5X5X(.        P.P.P.P.P.P.: : : P.I.=                                       n.                - ; - * = - : P.I.U.Y.T.R.E.W.Q.!.Q.W.E.R.T.Y.U.I.P.; : U.Y.U.=                                                                                 ",
"                                                $ = * ; - * = - : : P.I.U.Y.T.R.E.W.Q.!.Q.W.E.R.T.Y.U.I.P.: ; : : U.Y.U.= $                                                                                         n.                                                n.          % Q.E.R.Y.Y.R.R.- ; ; ; ; ; ; - ;       n.    M.          eX        k   y h pXg sXg rXpXpXpXpXj j j j j pXl l 5X5X5XsX5X5X5X5X5X(.5X5X= y     P.T.P.P.P.T.T.: P.P.= =                                                       $ - ; - * = - : P.I.U.Y.T.R.E.W.Q.!.Q.W.E.R.T.Y.U.I.P.; : U.Y.U.= $                                                                               ",
"                                                % = * ; - * = - : : P.I.U.Y.T.R.E.W.Q.!.Q.W.E.R.T.Y.U.I.P.: ; : : U.Y.U.= %                                                                           M.                                                                            Q.E.R.Y.Y.Y.- ; ; ; ; & & ; ; ; M.          -       o BX@   l   j j   rXpXh g pXg rXpXl l 5X5XsXl l pXpXpXl 5X5X5X5X5X5X5X5X5X5X(.(.5XtXy   T.y T.T.P.T.P.: P.P.= =                                       m.              % - ; - * = - : P.I.U.Y.T.R.E.W.Q.!.Q.W.E.R.T.Y.U.I.P.; : U.Y.U.= %       K.                                                                      ",
"                M.                    M.        & = * ; - * = - : : P.I.U.Y.T.R.E.W.Q.!.Q.W.E.R.T.Y.U.I.P.: ; : : U.Y.U.= &                                                                                                                                                         Q.E.E.E.P.P.P.& & & & & & & & - ;   M.    j j j       j   l l l l j l eXj pXsXpXsXpXl sXsX5X5XsXe e l k k l l sXsXl 5XsX5X5X5X5X5X5X(.pX= y pX= p T.T.T.: : P.P.                                                  n.      & - ; - * = - : P.I.U.Y.T.R.E.W.Q.!.Q.W.E.R.T.Y.U.I.P.; : U.Y.U.= &                                     n.          M.                            ",
"                                                * = * ; - * = - : : P.I.U.Y.T.R.E.W.Q.!.Q.W.E.R.T.Y.U.I.P.: ; : : U.Y.U.= *                             n.                                                                                                                            Q.E.E.& & & & & & & & & & & - ;           j p     eXg rXBXl eXpX5Xl h h sXpX5XsXsXsXsXsXsXsXe e e l k k k e sXsXsXsXsXsX5X5X5X5X5X5XuX= pXrXpXy     T.y : P.P.P.P.                                                      * - ; - * = - : P.I.U.Y.T.R.E.W.Q.!.Q.W.E.R.T.Y.U.I.P.; : U.Y.U.= *                         n.              M.              n.A.                  ",
"                            A.                  = = * ; - * = - : : P.I.U.Y.T.R.E.W.Q.!.Q.W.E.R.T.Y.U.I.P.: ; : : U.Y.U.= =                                                                       M.                        n.                        K.                      n.  n.  Q.E.R.& & - P.P.& & P.P.P.P.P.P.-         rX    j j eXpXh j pXsXsX5Xj k l sXsX5XsXsXsXsXsXe e e k e k j k k e e e e l e sXsX5X5X5X5X5X5XsXpX= = p pX= u T.: P.= =                                                       = - ; - * = - : P.I.U.Y.T.R.E.W.Q.!.Q.W.E.R.T.Y.U.I.P.; : U.Y.U.= =                                                                               ",
"                  M.                            - = * ; - * = - : : P.I.U.Y.T.R.E.W.Q.!.Q.W.E.R.T.Y.U.I.P.: ; : : U.Y.U.= =               M.                n.                                                                                                                          Q.E.& & - P.- - - P.& P.R.R.R.P.            j j tXpXh g pXh j sXl l l e sX5X5XsXsXsXe e e e e e e k k j k k e e sXsXsXsX5X5X5X5X5X5XsX5XuXrX- 5Xl j = I.: =                                                           - - ; - * = - : P.I.U.Y.T.R.E.W.Q.!.Q.W.E.R.T.Y.U.I.P.; : U.Y.U.= =                                                                               ",
"                                                - = * ; - * = - : : P.I.U.Y.T.R.E.W.Q.!.Q.W.E.R.T.Y.U.I.P.: ; : : U.Y.U.= =                                                                                                 n.                                  M.            M.      h Q.E.& - - - - & - & & & & & R.I.          @ p j tXj g l j j pXl sXsXsXsXsXsX5X5X5XsXe e e e e e k k k k k k k l l e e e 5X5X5X5X5X5X5XsXpXuXrX= sXI.T.I.I.=                                                       A.  - - ; - * = - : P.I.U.Y.T.R.E.W.Q.!.Q.W.E.R.T.Y.U.I.P.; : U.Y.U.= =                                                                               ",
"                        n.                      = = * ; - * = - : : P.I.U.Y.T.R.E.W.Q.!.Q.W.E.R.T.Y.U.I.P.: ; : : U.Y.U.= =                                                                                                                                                           h h Q.& & & & & - - - - & & & & R.;       o = rXtXh l l l j pXl sXsXsXsXsXsXsX5X5X5X5XsXk e e e e k k k k k k k l pXe sXl 5X5X5X5X5X5X5X5XsXpXuXeXeXT.T.T.T.=                                                           = - ; - * = - : P.I.U.Y.T.R.E.W.Q.!.Q.W.E.R.T.Y.U.I.P.; : U.Y.U.= =                                                                               ",
"                                                = = * ; - * = - : : P.I.U.Y.T.R.E.W.Q.!.Q.W.E.R.T.Y.U.I.P.: ; : : U.Y.U.= =                                                                                                                         n.          n.                    h h Q.P.& & & P.P.P.- P.P.P.R.R.R.;     X : eXuXj j j j l j j l l l l e e e sXsX5X5X5Xk sXk e e e k k k k k pXpXl sXl l sXsX5X5X5X5X5X5X5X5Xl j uXtXP.P.P.T.P.                                                          = - ; - * = - : P.I.U.Y.T.R.E.W.Q.!.Q.W.E.R.T.Y.U.I.P.; : U.Y.U.P.=                                                                               ",
"                                                = = * ; - * = - : : P.I.U.Y.T.R.E.W.Q.!.Q.W.E.R.T.Y.U.I.P.: ; : : U.Y.U.= =                                                                                                                                                           z   h - P.P.& & - - P.R.R.P.R.R.R.P.;     P.eXtXj j j j j j j pXl l l e e e sXsX5X5X5XsXsXe k e l k k e l l pXpXl l e pXl sXsX5X5X5X5X5X5X5XsXl pXl pXY.rXu uXy l                                                       = - ; - * = - : P.I.U.Y.T.R.E.W.Q.!.Q.W.E.R.T.Y.U.I.P.; : P.U.Y.U.=                                                                               ",
"                                                = = * ; - * = - : : P.I.U.Y.T.R.E.W.Q.!.Q.W.E.R.T.Y.U.I.P.: ; : : U.Y.U.= =                                                                                     n.n.                                                                        Q.E.- - P.P.R.R.- R.R.P.P.R.P.; M.  y eXtXh j uXj pXpXj l l l l l e e e e 5X5X5XsXe sXk e e e e e l l pXk l e k k l sXsX5XsX5X5X5X5X5X5X5XsXl 5XY.l l eXu l l                               n.                    = - ; - * = - : P.I.U.Y.T.R.E.W.Q.!.Q.W.E.R.T.Y.U.I.P.; : : U.Y.U.=                 n.                                                            ",
"                                                = = * ; - * = - : : P.I.U.Y.T.R.E.W.Q.!.Q.W.E.R.T.Y.U.I.P.: ; : : U.Y.U.= =                                   M.                                    M.                                                                                        Q.E.R.R.R.R.: & & - P.P.P.P.P.;   y rXtXh j j pXpXpXpXpXpXpXl l l e e sXl sX5X5Xl l l e e e e e l l k k l l l l l l sXe 5X5X5X5X5X5XsX5XsXp 5Xl sXsXpXp l y y                                                   = - ; - * = - : P.I.U.Y.T.R.E.W.Q.!.Q.W.E.R.T.Y.U.I.P.; : : U.Y.U.=                                                                               ",
"            M.                                  = = * ; - * = - : : P.I.U.Y.T.R.E.W.Q.!.Q.W.E.R.T.Y.U.I.P.: ; : : U.Y.U.= =                                                     n.                                                              n.                                            Q.E.R.- & Y.Y.Y.Y.I.P.P.P.P.P.;     a tXuXuXh k l pXpXpXpXpXl l l sXl pXl sXl l sXsXsXsXsXsXe l l e l pXl l l l sXk sXsX5X5X5X5X5X5X5Xl l rXtXsXsXsXsXl rXeXp y pXj     n.                                      = - ; - * = - : P.I.U.Y.T.R.E.W.Q.!.Q.W.E.R.T.Y.U.I.P.; : : U.Y.U.=                                                                               ",
"                                                = = * ; - * = - : : P.I.U.Y.T.R.E.W.Q.!.Q.W.E.R.T.Y.U.I.P.: ; : : U.Y.U.= =                           A.                                                                                                                      n.      n.        Q.& & & Y.Y.Y.Y.I.P.P.P.P.P.P.;     eXtXtXh . l l sX8XOXO pXl l l l l sXsXl l sXe e sXsXsXl l e sXe k l k sXl sX5X5Xl e 5X5X5X5X5Xl l l l pXuXl l eXpXeXy     . pX        n.                                  = - ; - * = - : P.I.U.Y.T.R.E.W.Q.!.Q.W.E.R.T.Y.U.I.P.; : : U.Y.U.=                               M.  n.                                          ",
"          n.                                    = * - ; = * = - : : P.I.U.Y.T.R.E.W.Q.!.Q.W.E.R.T.Y.U.I.P.: : ; : U.Y.U.= =                                                                                                                 M.                                                  Q.Q.E.R.Y.Y.Y.Y.Y.I.P.P.P.P.P.; O   = tXh j k l sXO s g O l e l e e l l 5Xl sXsXe sXsXsXsXsXsXl e pXl k l l 5XsX5Xl sXe 5XsX5X5X5Xl l l l l l uXpXpXl l j rXy       u y                                       = - ; - * = - : P.I.U.Y.T.R.E.W.Q.!.Q.W.E.R.T.Y.U.I.P.: ; : U.Y.U.=                                                                               ",
"                                                = * ; - * = - ; : : P.I.U.Y.T.R.E.W.Q.!.Q.W.E.R.T.Y.U.I.P.: : ; : U.Y.U.= =                                                                                                                     n.                                              I.% Q.E.R.Y.Y.Y.Y.I.P.P.P.P.P.I.; X p tX}.OXg l l }.OXO e e sXsXsX5XsXe sXe l e e sXsXsXsXsXsXe l pXl l l l sX5X5X5XsX5X5XsXsXsXl 5Xl l l sXl l l l l l l uX= y rX- y u                                       = - - * = - ; : P.I.U.Y.T.R.E.W.Q.!.Q.W.E.R.T.Y.U.I.P.: ; : U.Y.U.=                                                                               ",
"                                                = * ; - * = - : : : P.I.U.Y.T.R.E.W.Q.!.Q.W.E.R.T.Y.U.I.P.: : ; : U.Y.U.: =                                                                                                                                                                       % Q.E.R.Y.Y.Y.Y.Y.Y.I.P.I.I.P.P.l p tXj k j l l 8X8Xk e e sXsX5X5Xe e e e e e e sXe e e sXe e l l l l l sXsX5X5XsXsX5X5X5Xl l sXsXsXsXl l pXl sXl l l pXpXl pXp =                                           - ; - * = - : : P.I.U.Y.T.R.E.W.Q.!.Q.W.E.R.T.Y.U.I.P.: ; : U.Y.U.=                                                                               ",
"                                              $ = * ; - * = - : : : P.I.U.Y.T.R.E.W.Q.!.Q.W.E.R.T.Y.U.I.P.: : ; : U.Y.U.P.= $                                                                                                                                                                         Q.E.R.R.Y.Y.Y.Y.I.I.P.P.P.P.P.8X}.k j OXl l k k e e e sXsX5XsXsXsXe e e e e e e e k e e e e l l l sX5XsX5X5XsXsXsXsX5XsXsXl sXsXsXl pXpXpXl l sXl tX= l p p                                           $ - ; - * = - : : P.I.U.Y.T.R.E.W.Q.!.Q.W.E.R.T.Y.U.I.P.: ; : U.Y.U.= $           M.                                              M.                ",
"              M.                              % = * ; - * = - : : : P.I.U.Y.T.R.E.W.Q.!.Q.W.E.R.T.Y.U.I.P.: : ; : P.U.Y.U.= %                           M.                                                                                                                          n.                Q.Q.E.R.Y.Y.Y.Y.Y.I.P.P.P.P.P.; a s i }.8XO k k k e e e e sXe e e e e e e e e e l l k e e e e e sXsX5X5X5X5XsX5X5XsXsXsXsXl sXsXl l pXpXpXpXl pXpXl = u =   l y                                       % - ; - * = - : : P.I.U.Y.T.R.E.W.Q.!.Q.W.E.R.T.Y.U.I.P.: ; : U.Y.U.= %                       M.                                                    ",
"                      M.                      & = * ; - * = - : : : P.I.U.Y.T.R.E.W.Q.!.Q.W.E.R.T.Y.U.I.P.: : ; : : U.Y.U.= &                                                                                                                                                                         I.% Q.E.R.Y.Y.Y.Y.I.P.P.P.P.P.P.; a s OXh h k k k k e e e k e e e e e e e e e e e k sXsXsXe sXe sXe 5X5X5Xl l l 5X5XsXsXsXl l l l l l k k pXpXsXpXj l j p p = y                                       & - ; - * = - : : P.I.U.Y.T.R.E.W.Q.!.Q.W.E.R.T.Y.U.I.P.: ; : U.Y.U.= &                                                                             ",
"                                              = = * ; - * = - : : : P.I.U.Y.T.R.E.W.Q.!.Q.W.E.R.T.Y.U.I.P.: : ; : : U.Y.U.= *                                                                                                                                                   n.            z   g     % Q.E.R.Y.Y.Y.Y.Y.I.P.P.P.P.P.; k l ~ z h O j k k e e e e e e e e e e e e sXe e e sXsXsXsXsXsX5XsX5X5X5XsXl 5X5XsXe sXsXl l l sXsXl pXk k pXsXsX5Xl l l j p p u y                                   * - ; - * = - : : P.I.U.Y.T.R.E.W.Q.!.Q.W.E.R.T.Y.U.I.P.: ; : U.Y.U.= *                                                                           A.",
"                                              = = * ; - * = - : : : P.I.U.Y.T.R.E.W.Q.!.Q.W.E.R.T.Y.U.I.P.: : ; : : U.Y.U.= =                                                                                   D.      M.    n.                                      n.                        O z g       Q.Q.E.R.Y.Y.Y.I.P.P.P.P.: : ; l l z z 8Xk O }.j h e e k k e e e sXe e e sXe sXsXsXsXsXsXsX5X5X5X5X5X5X5X5X5XsX5XsXl l sXsXpXl l pXpXl l = sXsX5X5Xp y   y X       n.                            = - ; - * = - : : P.I.U.Y.T.R.E.W.Q.!.Q.W.E.R.T.Y.U.I.P.: ; : U.Y.U.= =                                                                             ",
"                                              = = * ; - * = - : : : P.I.U.Y.T.R.E.W.Q.!.Q.W.E.R.T.Y.U.I.P.: : ; : : U.Y.U.= =                                                                                 A.G.A.                          M.                  M.                                    l   I.Q.E.R.Y.Y.Y.Y.I.P.: : : P.; k l z l a i a a O sXe e e e e e e sXe sXe e e e e sXsXe e e sXsX5X5X5X5XsX5X5XsXsXsXsXl sXl l pXl = pXpXpXk tXrX  rXsX-   y y u u p                             M.- - ; - * = - : : P.I.U.Y.T.R.E.W.Q.!.Q.W.E.R.T.Y.U.I.P.: ; : U.Y.U.= =                                                       n.                    ",
"                                              = = * ; - * = - : : : P.I.U.Y.T.R.E.W.Q.!.Q.W.E.R.T.Y.U.I.P.: : ; : : U.Y.U.= =                                                                               D.G.K.G.D.                                                                              z z s z % g Q.E.E.Y.Y.Y.Y.I.: P.P.P.P.I.k z l a }.8XO l sXsXe e e e e e e e e e e e e sXsXsXe e e e sXsX5X5X5X5X5XsX5XsXsXl sXl sXl sXpXy y pXpXpXtX= =     sXp                                     M.  - - ; - * = - : : P.I.U.Y.T.R.E.W.Q.!.Q.W.E.R.T.Y.U.I.P.: ; : U.Y.U.= =                                                                             ",
"                                              = = * ; - * = - : : : P.I.U.Y.T.R.E.W.Q.!.Q.W.E.R.T.Y.U.I.P.: : ; : : U.Y.U.= =                                                                                 A.G.A.                                                                                % z z   O g I.Q.E.R.Y.Y.Y.Y.I.P.P.I.I.P.; k g g h h s 8XO sXsXe e e e e e e e e k e e e sXe e e 5X5XsXsXsX5X5XsX5XsXsXsXsXsXsXl l l sXl pXl pX5XpXpXy y   pXpXpX                                        = - ; - * = - : : P.I.U.Y.T.R.E.W.Q.!.Q.W.E.R.T.Y.U.I.P.: ; : U.Y.U.= =                               K.                                            ",
"                                            $ = = * ; - * = - : : : P.I.U.Y.T.R.E.W.Q.!.Q.W.E.R.T.Y.U.I.P.: : ; : : U.Y.U.= =                                             M.                                    D.                                                                      z g       }.O l z z s l z % I.Q.E.R.Y.Y.I.I.I.P.P.P.P.; g h k g g OXOXe e e sXe e e sXe 5Xe e e e e e e sXe sXe sX5XsXsXsXsXsXsXsXsXsXsXsXl l l l l l l l pXsXsXpXp = l l y j                                       = - ; - * = - : : P.I.U.Y.T.R.E.W.Q.!.Q.W.E.R.T.Y.U.I.P.: ; : U.Y.U.= =                                     n.                                      ",
"                  M.                        % = = * ; - * = - : : : P.I.U.Y.T.R.E.W.Q.!.Q.W.E.R.T.Y.U.I.P.: : ; : : U.Y.U.= =             M.              Q.Q.            R.Q.                                                                                                            g }.      O g l z z g z ~ % Q.E.E.Y.Y.Y.I.P.P.P.P.P.; ; g OXg g g s . e e sXe e e e e e sXe e e e sXsXe sXsX5XsXsXsX5XsXsX5X5XsX5X5XsXl l l sXsXl sXpXl sXM.uXuXeXp p l j y y j                                   = - ; - * = - : : P.I.U.Y.T.R.E.W.Q.!.Q.W.E.R.T.Y.U.I.P.: ; : U.Y.U.= =               n.                                                            ",
"                                            & = = * ; - * = - : : : P.I.I.I.I.I.T.W.Q.I.T.W.E.I.I.I.I.I.E.: : ; : : U.Y.U.= =                           R.R.R.Q.        Q.W.R.Q.                                                                                                          O     O O z g }.z   z l l z z I.Q.E.E.Y.Y.I.P.P.P.P.P.: ; s }.8X8XO sXsXe sXe e e e e e e e e sXsXsXsXsXsXsXe sXsXsXsXsX5XsX5XsX5XsXsXsXsXl sX5X5XsXsXsXsXsXsX          j j y                                     = - ; - * = - : : P.I.U.Y.T.R.E.W.Q.!.Q.W.E.R.T.Y.U.I.P.: ; : U.Y.U.= =                                                                             ",
"                                            * = = * ; - * = - : : : P.: : : : I.E.W.: : : Y.E.R.: : : : I.: : ; : : U.Y.U.= =                           P.W.R.R.Q.      P.Q.W.R.Q.                                                                                                                s z O O g k z z z l l % I.Q.Q.Y.E.Y.I.P.P.: : ; ; g O e sXsXsXsXe e e e e e e e e k k sXsXsXsXsXsXsXsXsXsXsXsX5XsX5XsXsXl l l l sX5X5X5X5X5X5X5XsX5Xl M.                                                  = - ; - * = - : : P.I.U.Y.T.R.E.W.Q.!.Q.W.E.R.T.Y.U.I.P.: ; : U.Y.U.= =                                                                             ",
"                                            = = = * ; - * = - : : : P.: : : I.R.E.: : : : : I.R.T.: : : I.: : ; : : U.Y.U.= =                             P.W.R.R.Q.      P.Q.W.R.Q.                M.                                        n.                                                  s   O s a s z z z z z ).).~ % Q.E.Y.I.: : ; ; ; ; ; a a e e e e e e e e e e e e k q q sXsXsXq sXsXsXsX5XsXsXsX5X5X5X5Xl l l l l l sX5X5X5XsX5X5X5X5XsXl 5X  sX                        M.                  = - ; - * = - : : P.I.U.Y.T.R.E.W.Q.!.Q.W.E.R.T.Y.U.I.P.: ; : U.Y.U.= =                                                                             ",
"                                            = = = * ; - * = - : : : P.: : I.T.R.: : : : : : : I.T.Y.: : I.: : ; : : U.Y.U.= =                               P.W.R.R.Q.      P.Q.W.R.Q.                                                                                n.                      m.    z g i g OXz ~ z ~ ).).).~ % = Q.= E.Y.; ; ; ; j g OXg i e e e e e e e e e e k q q q q q q sXsXsXsXsXsX5XsX5XsXsXsXsXsXl l l l l 5X5X5X5X5X5X5X5X5X5X    l   l         n.                                = - ; - * = - : : P.I.U.Y.T.R.E.W.Q.!.Q.W.E.R.T.Y.U.I.P.: ; : U.Y.U.P.=                                                                             ",
"      A.                                    = = = * ; - * = - : : : P.: I.Y.T.R.E.W.Q.!.Q.W.E.R.T.Y.U.: I.: : ; : : U.Y.U.= =                                 P.W.R.R.Q.      P.Q.W.R.Q.                                                                                                              }.g k j k z ~ ~ ~ ).).~ ~ l l l = = Y.; ~ ~ OX}.k k e e e e e e e e e e e q q q q q q sXsXsXsXsXsXsX5XsXsXsXsXsXsXl ; l l l sX5X5X5X5X5X5X5X5X-   y pX  pX                  A.                        = - ; - * = - : : P.I.U.Y.T.R.E.W.Q.!.Q.W.E.R.T.Y.U.I.P.: ; : P.U.Y.U.=                                                                             ",
"                                            = = = * ; - * = - : : : P.I.U.Y.T.R.E.: : : : : : T.T.T.U.I.I.: : ; : : U.Y.U.= =                                   P.W.R.R.Q.      P.Q.I.I.I.I.I.I.I.I.I.I.I.I.I.%                                                                                       i g h h k l ~ ~ ~ ~ ~ ~ z l l z ~ ~ = z k k i q k k k e e e e e e e e e k q q q q sXsXq sXsXsXsXsXsXsXsXsXsXsXsXsXl ; P.P.sX5XI.5X5XsXh 5X5XsXl -                                                     = - ; - * = - : : P.I.I.I.I.I.T.W.Q.I.T.W.E.I.I.I.I.I.E.: ; : : U.Y.U.=                                                   M.                  M.    ",
"                                            = = = * ; - * = - : : : P.I.U.: I.R.: : I.!.Q.W.E.R.T.: I.I.P.: : ; : : U.Y.U.= =                                     P.W.R.R.Q.I.I.I.I.; ; ; ; ; ; ; ; ; ; ; ; ; I.I.I.I.%                                                                                 8X8X}.OXg h j & P.R.R.R.R.R.R.R.R.R.R.R.R.R.R.R.R.R.R.R.R.R.R.R.R.: : : : R.R.P.& sXsXsXsXsXsXsXsXsXsXe e sXsXsX; P.P.P.P.P.I.Y.l pXrXp   5X5XpX-           n.    M.                                = - ; - * = - : : P.: : : : I.E.W.: : : Y.E.R.: : : : I.: ; : : U.Y.U.=                                                                             ",
"                        M.                  = = = * ; = * = - : : : P.I.: : I.R.: : I.!.Q.W.E.R.T.: : T.P.: : ; : : U.Y.U.= =           M.                          P.W.I.I.; ; ; ; ; ; ; ; ; ; ; ; ; ; ; ; ; ; ; ; ; I.I.%                                                                           & P.R.R.R.R.R.R.R.R.T.Y.Y.Y.Y.Y.Y.Y.Y.Y.Y.T.R.T.Y.Y.T.R.E.W.!.W.E.R.Y.Y.Y.Y.Y.Y.R.R.R.R.R.R.R.R.: : e e e e sXsXsX; P.P.P.P.P.I.Y.Y.sXuXrXp 5X5XsXl -                                               $ = - ; - * = - : : P.: : : I.R.E.: : : : : I.R.T.: : : I.: ; : : U.Y.U.= $                                                                           ",
"                                            = = * - ; * = = - : : : P.: : : I.R.: : I.I.I.I.I.T.T.: : : I.: : ; : : U.Y.U.= =                                       % P.; ; ; ; ; ; = = = = = = = = = = = = = ; ; ; ; ; ; I.%                                                                 & P.R.R.R.R.U.I.U.Y.Y.Y.Y.Y.T.Y.Y.Y.Y.Y.Y.Y.Y.Y.Y.T.R.T.Y.Y.T.R.E.W.!.W.E.R.Y.Y.Y.Y.Y.Y.Y.Y.Y.Y.Y.Y.Y.Y.Y.Y.: : P.& sXsXsX; 5XP.P.P.P.I.Y.Y.5Xl - y   5X  5X    p                                   n.      % = - ; - * = - : : P.: : I.T.R.: : : : : : : I.T.Y.: : I.: ; : : U.Y.U.= %             M.                                                            ",
"                                            = = * - ; * = = - : : : P.I.: : I.R.E.W.Q.!.Q.: : I.T.: : : P.: : ; : : U.Y.U.= =                                     % I.; ; ; = = = =                           = = = = ; ; ; I.%                                 M.                        = R.R.T.T.Y.T.Y.U.I.U.Y.Y.Y.Y.Y.T.Y.Y.Y.Y.Y.Y.Y.Y.Y.Y.T.R.T.Y.Y.T.R.E.W.!.W.E.R.T.Y.Y.Y.Y.Y.Y.Y.Y.Y.Y.Y.Y.Y.Y.Y.Y.Y.Y.R.R.= sX; 5XP.P.P.P.$ $ $ Y.5XpXp   5X      pXsX                                          & = - ; - * = - : : P.: I.Y.T.R.E.W.Q.!.Q.W.E.R.T.Y.U.: I.: ; : : U.Y.U.= &                                                                           ",
"                                            = = * - ; * = = - : : : P.I.U.: I.R.E.W.Q.!.Q.: : I.T.: : I.P.T.: ; : : U.Y.U.= =                                     I.; ; = =       * : : : : : : : : : : : : : *       = = ; ; I.                                                      * U.Y.U.Y.T.T.Y.T.Y.U.I.U.Y.Y.Y.Y.Y.T.Y.Y.Y.Y.Y.Y.Y.Y.Y.Y.T.R.T.Y.Y.T.R.E.W.!.W.E.R.T.Y.Y.Y.Y.Y.Y.Y.Y.Y.Y.Y.Y.Y.Y.Y.Y.Y.Y.Y.U.Y.U.* sXP.P.P.P.I.E.R.R.5Xl = 5X5XsX  5XsXl   5X                    M.                * = - ; - * = - : : P.I.U.Y.T.R.E.: : : : : : T.T.T.U.I.I.: ; : : U.Y.U.= *                           M.                                              ",
"                                            = = * - ; * = = - : : : P.I.U.Y.I.R.: : : : : : : R.T.: U.I.I.: : ; : : U.Y.U.= =                                     ; ; =     * : : : : : Y.T.R.E.W.W.E.R.T.Y.: : : : *     = ; ;                                                     : I.U.Y.U.Y.T.T.Y.T.Y.U.I.U.Y.Y.Y.Y.Y.T.Y.Y.Y.Y.Y.Y.Y.Y.Y.Y.T.R.T.Y.Y.T.R.E.W.!.W.E.R.T.Y.Y.Y.Y.Y.Y.Y.Y.Y.Y.Y.Y.Y.Y.Y.Y.Y.Y.Y.U.Y.U.I.: P.P.P.- P.Y.!.R.!.E.p   5X                              n.    M.              = = - ; - * = - : : P.I.U.: I.R.: : I.!.Q.W.E.R.T.: I.I.P.: ; : : U.Y.U.= =                                                           n.              ",
"                    M.                A.    = = * - ; * = = - : : : P.: I.Y.T.R.E.W.Q.!.Q.W.E.R.T.Y.U.I.: : : ; : : U.Y.U.= =                                     ; =   : : - : : P.I.U.Y.T.R.E.W.W.E.R.T.Y.U.I.P.; : : :   = ;                                   n.              = : I.U.Y.U.Y.T.T.Y.T.Y.U.I.U.Y.Y.Y.Y.Y.T.Y.Y.Y.Y.Y.Y.Y.Y.Y.Y.T.R.T.Y.Y.T.R.E.W.!.W.E.R.T.Y.Y.Y.Y.Y.Y.Y.Y.Y.Y.Y.Y.Y.Y.Y.Y.Y.Y.Y.U.Y.U.I.: P.: - $ Y.Y.!.!.R.R.%   y                       n.                            - = - ; - * = - : : P.I.: : I.R.: : I.!.Q.W.E.R.T.: : T.P.: ; : : U.Y.U.= =                                                 M.                        ",
"                                            = = * - ; * = = - : : : P.: : I.T.R.I.I.I.I.I.I.I.T.T.Y.T.: : : : ; : : U.Y.U.= = $           K.                      =   ; - * = - : P.I.U.Y.T.R.E.W.W.E.R.T.Y.U.I.P.; : U.Y.:   =                             A.                    = : I.U.Y.U.Y.T.T.Y.T.Y.U.I.U.Y.Y.Y.Y.U.I.I.I.I.I.I.I.I.I.I.I.I.I.I.I.I.I.I.I.I.I.I.I.I.I.I.I.I.I.I.U.Y.Y.Y.Y.Y.Y.Y.Y.Y.Y.Y.Y.Y.U.Y.U.I.: - - - $ P.Y.E.!.R.!.p a                                   n.                  - = - ; - * = - : : P.: : : I.R.: : I.I.I.I.I.T.T.: : : I.: ; : : U.Y.U.= =                                                                           ",
"                                            = = * - ; * = = - : : : P.I.: : I.R.E.: : : : : : R.T.T.: : P.: : ; : : U.Y.U.= = %                     M.              - ; - * = - : P.I.U.Y.T.R.E.W.W.E.R.T.Y.U.I.P.; : U.Y.U.=               n.              n.                    = : I.U.Y.U.Y.T.T.U.I.I.I.I.I.I.I.I.I.: * $ $ $ $ $ $ $ $ $ $ $ $ $ $ $ $ $ $ $ $ $ $ $ $ $ $ $ $ * : I.I.I.I.I.I.I.I.I.U.Y.Y.Y.U.Y.U.I.- - - - $ P.R.P.!.!.R.R.p                                                       = = - ; - * = - : : P.I.: : I.R.E.W.Q.!.Q.: : I.T.: : : P.: ; : : U.Y.U.= =               N.                                                          ",
"                                            = = * - ; * = = - : : : P.I.: : : I.E.W.: : : : E.R.I.: : P.P.: : ; : : U.Y.U.= = &                                   $ - ; - * = - : P.I.U.Y.T.R.E.W.W.E.R.T.Y.U.I.P.; : U.Y.U.= $                                                   = : I.U.I.I.I.I.I.: * $ $ $ $ $ $ $ $ $ $ # # # # # # # # # # # # # # # # # # # # # # # # # # # # $ $ $ $ $ $ $ $ $ $ * : I.I.I.I.I.U.I.- - - - $ $ P.P.E.!.R.!.*                                                       = = - ; - * = - : : P.I.U.: I.R.E.W.Q.!.Q.: : I.T.: : I.P.T.; : : U.Y.U.= =             M.V.M.                                                        ",
"                                          $ = = * - ; * = = - : : : P.I.U.: : : I.W.Q.: : W.E.I.: : : I.P.: : ; : : U.Y.U.: = *                                   % - ; - * = - : P.I.U.Y.T.R.E.W.W.E.R.T.Y.U.I.P.; : U.Y.U.= %                                                   = : I.: & $ $ $ $ $ $ # # # - : U.T.E.W.W.W.W.W.W.W.W.W.W.W.W.W.W.W.W.W.W.W.W.W.W.W.W.W.W.W.W.W.W.W.W.E.T.U.: - # # # $ $ $ $ $ $ & : - - - : P.P.I.P.R.P.!.!.R.R.*         n.                                          = = - ; - * = - : : P.I.U.Y.I.R.: : : : : : : R.T.: U.I.I.: ; : : U.Y.U.= =           N.V.Z.V.N.                                                      ",
"                                          % = = * - ; * = = - : : : P.I.U.: : : : I.Q.!.Q.W.I.: : : P.I.P.: : ; : : U.Y.U.P.= =                                   & - ; - * = - : P.I.U.Y.T.R.E.W.W.E.R.T.Y.U.I.P.; : U.Y.U.= &                                                   = &   - : U.T.W.W.W.W.W.W.W.W.W.E.T.R.E.R.T.T.T.T.T.T.T.T.T.T.R.E.R.T.R.E.W.Q.~.^./.(./.^.~.Q.W.k k T.T.T.T.E.W.W.W.k j W.W.E.T.U.: - - & P.P.P.P.Y.Y.P.P.E.!.R.!.*                                                 M.  = = - ; - * = - : : P.: I.Y.T.R.E.W.Q.!.Q.W.E.R.T.Y.U.I.: : ; : : U.Y.U.= =             M.V.M.                                                        ",
"                                          & = = * - ; * = = - : : : P.I.U.Y.: : : : Y.I.I.I.: : : : U.I.P.: : : ; : : U.Y.U.= =                                   * - ; - * = - : P.I.U.Y.T.R.E.W.W.E.R.T.Y.U.I.P.; : U.Y.U.= *                                                     & : P.I.U.I.T.R.T.U.I.P.I.U.Y.T.T.R.E.R.T.T.T.T.T.T.T.T.T.T.R.E.R.T.R.E.W.Q.~.^./.(./.^.~.Q.W.E.q T.T.T.T.' ` ` ` ` ' j = = = U.tX& : & T.T.I.I.Y.Q.P.R.P.!.!.R.R.*             n.                                    = = - ; - * = - : : P.: : I.T.R.I.I.I.I.I.I.I.T.T.Y.T.: : : ; : : U.Y.U.= =               N.        n.                                                ",
"                                          * = = * - ; * = = - : : : P.I.U.Y.: : : : P.I.I.P.: : : P.U.I.P.: : : ; : : U.Y.U.= =                                   = - ; - * = - : P.I.U.Y.T.R.E.W.W.E.R.T.Y.U.I.P.; : U.Y.U.= =                                                   & : = = U.  T.R.= U.I.P.I.U.Y.T.T.T.R.E.R.T.T.T.T.T.T.T.T.T.T.R.E.R.T.T.R.E.W.Q.~.^./.(./.^.~.Q.W.q = = T.T.= = = = ` ` ' h g = = p : : = = T.P.I.E.= = P.P.E.!.R.!.*                                                   = = - ; - * = - : : P.I.: : I.R.E.: : : : : : R.T.T.: : P.: ; : : U.Y.U.= =                                                                           ",
"A.                                        = = = * - ; * = = - : : : P.I.U.Y.T.: : : P.I.I.P.: : : Y.U.I.P.: : : ; : : U.Y.U.= =                                   - - ; - * = - : P.I.U.Y.T.R.E.W.W.E.R.T.Y.U.I.P.; : U.Y.U.= =                                                 & : = = = = U.T.= d = I.P.I.U.Y.T.T.R.E.R.T.T.T.T.T.T.T.T.T.T.T.R.E.R.T.T.R.E.W.Q.~.^./.(./.^.k Q.W.E.g g = = g g g g = = = tXrXeXT.Y.% % = = T.: P.=   * P.R.P.!.!.R.R.*                                                 = = - ; - * = - : : P.I.: : : I.E.W.: : : : E.R.I.: : P.P.: ; : : U.Y.U.= =                                                                           ",
"  M.                                      = = = * - ; * = = - : : : P.I.U.Y.T.: : : P.I.I.P.: : P.Y.U.I.P.: : : ; : : U.Y.U.= =                                   - - ; - * = - : P.I.U.Y.T.R.E.W.W.E.R.T.Y.U.I.P.; : U.Y.U.= =                       K.                      & = = = d d d = = g d d =     Y.T.T.T.R.E.R.T.T.T.T.T.T.T.T.T.T.T.T.R.E.R.T.R.E.W.Q.~.^./.(./.k k Q.W.g j j = g h j j $ @ @ = = = p = = T.% % = = T.T.T.&   = P.P.E.!.R.!.* *                                               = = - ; - * = - : : P.I.U.: : : I.W.Q.: : W.E.I.: : : I.P.: : ; : U.Y.U.= =                                   M.                  A.                  ",
"                                          = = = * - ; * = = - : : : P.I.U.Y.T.R.: : P.I.I.P.: : T.Y.U.I.P.: : : ; : : U.Y.U.= =                                   = - ; - * = - : P.I.U.Y.T.R.E.W.W.E.R.T.Y.U.I.P.; : U.Y.U.= =                                             & : = = = d d g d = g d g g I.    T.T.R.E.R.T.T.T.T.T.T.T.T.T.T.T.T.T.R.E.R.T.R.E.W.Q.~.^./.(./.^.k Q.W.= = j j h j g g g $ rXrX= u       T.% % % = = = = T.T.  * P.R.P.!.!.R.!.                                              = - ; - * = - ; : : P.I.U.: : : : I.Q.!.Q.W.I.: : : P.I.P.: : ; : U.Y.U.= =                       n.                                                  ",
"                                          = = = * - ; * = = - : : : P.I.U.Y.T.R.: : P.I.I.P.: P.T.Y.U.I.P.: : : ; : : U.Y.U.= =                                   = - ; - * = - : P.I.U.Y.T.R.E.W.W.E.R.T.Y.U.I.P.; : U.Y.U.P.=                                           & = = = = d d g g g d g g d = = Y.T.T.T.R.E.R.T.T.T.T.T.T.T.T.T.T.T.T.T.R.E.R.T.T.R.E.W.Q.~.^./.(./.j j Q.= h h g j j j g g $ a p p y       T.% % % % % % = = T.    = P.P.E.!.R.R.R.                                            = - ; - * = - : : : P.I.U.Y.: : : : Y.I.I.I.: : : : U.I.P.: : ; : U.Y.U.= =                                                                           ",
"                              M.          = = = * - ; * = = - : : : P.I.U.Y.T.R.E.: P.I.I.P.: R.T.Y.U.I.P.: : : ; : : U.Y.U.= =                           M.      = - ; - * = - : P.I.U.Y.T.R.E.W.W.E.R.T.Y.U.I.P.; : P.U.Y.U.=                                         & = = d d = d g d d d d g d d d d = T.  T.R.E.R.T.T.T.T.T.T.T.T.T.T.T.T.T.R.E.R.T.T.R.E.W.Q.~.^./.(./.^.j Q.= h g j h h g h g g $ $ y         & : % % % % % % %     : K.P.R.P.!.!.R.!.*                                         $ = - ; - * = - : : : P.I.U.Y.: : : : P.I.I.P.: : : P.U.I.P.: : ; : U.Y.U.P.= $                               M.        n.                              ",
"                                          = = = * - ; * = = - : : : P.I.U.Y.T.R.E.: P.I.I.P.P.R.T.Y.U.I.P.: : : ; : : U.Y.U.= =                                   = - ; - * = - : P.I.U.Y.T.R.E.W.W.E.R.T.Y.U.I.P.; : : U.Y.U.=                               n.      & = = d d d g g g d d d g g g d g d d d T.R.E.R.T.T.T.T.T.T.T.T.T.T.T.T.T.T.R.E.R.T.T.R.E.W.Q.~.^./.(./.^.~.= g j g j j h h h g j g g #           : % % % % % : : & = & T.= P.P.E.!.!.R.R.*           n.                          % = - ; - * = - : : : P.I.U.Y.T.: : : P.I.I.P.: : : Y.U.I.P.: : ; : P.U.Y.U.= %                                                                         ",
"            n.                            = = = * - ; * = = - : : : P.I.U.Y.T.R.E.W.P.I.I.P.E.R.T.Y.U.I.P.: : : ; : : U.Y.U.= =                           M.      = - ; - * = - : P.I.U.Y.T.R.E.W.W.E.R.T.Y.U.I.P.; : : U.Y.U.=                                     & = = d d g d d d d g d d g d d g g d = T.T.R.E.R.T.T.T.T.T.T.T.T.T.T.T.T.T.T.R.E.R.T.T.R.E.W.Q.~.^./.(./.^.~.g g j j g g g g g g g g g g             T.% % % : : : : = = T.T.T.R.P.!.!.R.!.*                                   M.  & = - ; - * = - : : : P.I.U.Y.T.: : : P.I.I.P.: : P.Y.U.I.P.: : ; : : U.Y.U.= &   n.                                                      n.            ",
"                                          = = = * ; * = = - ; : : : P.I.U.Y.T.R.E.W.P.I.I.P.E.R.T.Y.U.I.P.: : : ; : : U.Y.U.= =                                   = - ; - * = - : P.I.U.Y.T.R.E.W.W.E.R.T.Y.U.I.P.; : : U.Y.U.=                                   & : = d d d g d d d d d d d d d I.= d d = = T.R.E.R.T.T.T.T.T.T.T.T.T.T.T.T.T.T.R.E.R.T.T.T.R.E.W.Q.~.^./.(.g g g j j g R.= g g g g g g #               T.% % % % % = = = = = & T.P.P.E.!.!.R.R.                                      * = - ; - * = - : : : P.I.U.Y.T.R.: : P.I.I.P.: : T.Y.U.I.P.: : ; : : U.Y.U.= *                                                                         ",
"                                          = = * - ; * = = - : : : : P.I.U.Y.T.R.E.W.Q.I.I.W.E.R.T.Y.U.I.P.: : : ; : : U.Y.U.= =                                   = - ; - * = - : P.I.U.Y.T.R.E.W.W.E.R.T.Y.U.I.P.; : : U.Y.U.=                               n.& : P.= = d d d d d d d d d d d d = d d d d d = E.R.T.T.T.T.T.T.T.T.T.T.T.T.T.T.T.T.R.E.R.T.T.R.E.W.Q.~.^./.g g ^.g Q.W.E.R.T.g T.= g g g $               T.% % % % % % % % % = = & P.R.P.E.!.R.!.*                                     = = - ; - * = - : : : P.I.U.Y.T.R.: : P.I.I.P.: P.T.Y.U.I.P.: : ; : : U.Y.U.= =                                                                         ",
"                      M.                  = = * - ; * = = - : : : : P.I.U.Y.T.R.E.W.Q.!.Q.W.E.R.T.Y.U.I.P.: : : ; : : U.Y.U.= =                                   = - ; - * = - : P.I.U.Y.T.R.E.W.W.E.R.T.Y.U.I.P.: ; : U.Y.U.=                               & :   I.= = = d d d T.R.= g d d d = U.= d d d d R.E.R.T.T.T.T.T.T.T.T.T.T.T.T.T.T.T.T.R.E.R.T.T.R.E.W.Q.  ^./.g /.^.~.  W.E.R.  T.T.= = g g #               T.T.% % % % % % % % = = : : & P.P.!.!.R.R.                                    - = - ; - * = - : : : P.I.U.Y.T.R.E.: P.I.I.P.: R.T.Y.U.I.P.: : ; : : U.Y.U.= =                                                                         ",
"                                          = = * - ; * = = - : : : : P.I.U.Y.T.R.E.W.Q.!.Q.W.E.R.T.Y.U.I.P.: : : ; : : U.Y.U.= =                                   = - - * = - ; : P.I.U.Y.T.R.E.W.W.E.R.T.Y.U.I.P.: ; : U.Y.U.=                     n.      & :     U.= d d d d d R.T.U.= d d d = U.Y.= d d R.E.R.T.T.T.T.T.T.T.T.T.T.T.T.T.T.T.T.T.R.E.R.T.T.T.R.E.W.Q.~.^./.(./.^.~.Q.W.E.R.T.g g g g $ $               & T.T.% = % % = % % % = = = & R.P.E.!.R.!.*         K.              n.        - = - ; - * = - : : : P.I.U.Y.T.R.E.: P.I.I.P.P.R.T.Y.U.I.P.: : ; : : U.Y.U.= =                                                                         ",
"                                          = = * - ; * = = - : : : : P.I.U.Y.T.R.E.W.Q.!.Q.W.E.R.T.Y.U.I.P.: : : ; : : U.Y.U.= =                                   - ; - * = - : : P.I.U.Y.T.R.E.W.W.E.R.T.Y.U.I.P.: ; : U.Y.U.=                           & : P.I.U.d d d d d T.d d U.U.= d d d U.Y.T.T.d T.R.E.R.T.T.T.T.T.T.T.T.T.T.T.T.T.T.T.T.T.R.E.R.T.T.T.R.E.W.Q.~.^./.(./.^.~.Q.W.= = T.T.= g $ #                   T.& : : = = = = = I.P.& & = P.R.P.!.!.R.R.                                  = = - ; - * = - : : : P.I.U.Y.T.R.E.W.P.I.I.P.E.R.T.Y.U.I.P.: : ; : : U.Y.U.= =                                                                         ",
"              K.                          = = * - ; * = = - : : : : P.I.U.Y.T.R.E.W.Q.!.Q.W.E.R.T.Y.U.I.P.: : : ; : : U.Y.U.= =                                 $ - ; - * = - : : P.I.U.Y.T.R.E.W.W.E.R.T.Y.U.I.P.: ; : U.Y.U.= $                       & : P.I.U.U.U.= d U.d T.R.T.U.  U.I.d d U.Y.T.T.T.  R.E.R.T.T.T.T.T.T.T.T.T.T.T.T.T.T.T.T.T.R.E.R.T.T.T.R.E.W.Q.~.^./.(./.^.= = = = @ @ T.= g #                       = T.T.T.Y.T.T.Y.U.I.P.: &   = P.P.E.!.R.!.                  M.            = = - ; - * = - : : : P.I.U.Y.T.R.E.W.P.I.I.P.E.R.T.Y.U.I.P.: : ; : : U.Y.U.= =                                       n.        M.                      ",
"                      M.                $ = = * - ; * = = - : : : : P.I.U.Y.T.R.E.W.Q.!.Q.W.E.R.T.Y.U.I.P.: : : ; : : U.Y.U.= =                                 % - ; - * = - : : P.I.U.Y.T.R.E.W.W.E.R.T.Y.U.I.P.: ; : U.Y.U.= %                     & : P.I.U.U.U.d d d U.T.R.T.U.U.  I.P.I.d Y.T.T.T.T.R.  R.T.T.T.T.T.T.T.T.T.T.T.T.T.T.T.T.T.T.R.E.R.T.T.T.R.E.W.Q.~.^./.(./.^.~.@ @ @ @ @ = = g g g           $ @         = T.T.        Y.U.I.P.: &   P.R.P.!.!.R.R.                              = = - ; - * = - : : : P.I.U.Y.T.R.E.W.Q.I.I.W.E.R.T.Y.U.I.P.: : ; : : U.Y.U.= =                                                   n.                    ",
"                                        % = = * - ; * = = - : : : : P.I.U.Y.T.R.E.W.Q.- - - E.R.T.Y.U.I.P.: : : ; : : U.Y.U.= =     A.      M.                  & - ; - * = - : : P.I.U.Y.T.R.E.W.W.E.R.T.Y.U.I.P.: ; : U.Y.U.= &                   & : P.I.U.U.U.  U.I.d T.R.T.U.U.U.U.I.P.I.d Y.T.T.T.T.R.E.R.T.T.T.T.T.T.T.T.T.T.T.T.T.T.T.T.T.T.R.E.R.T.T.T.T.R.E.W.Q.~.^./.(./.= @ Q.W.@ @ @ = g $           a a @           = =   = T.T.  Y.U.I.P.: & = P.P.E.E.R.!.                              = = - ; - * = - : : : P.I.U.Y.T.R.E.W.Q.!.Q.W.E.- - - U.I.P.: : ; : : U.Y.U.= =                   M.                                                    ",
"                      n.                & = = * - ; * = = - : : : : P.I.U.Y.T.R.E.W.- CXCXCX- R.T.Y.U.I.P.: : : ; : : U.Y.U.= =                                 * - ; - * = - : : P.I.U.Y.T.R.E.W.W.E.R.T.Y.U.I.P.: ; : U.Y.U.= *                 & : P.I.U.U.U.U.U.I.U.U.T.R.T.U.U.U.I.P.I.U.Y.  T.T.T.T.R.E.R.T.T.T.T.T.T.T.T.T.T.T.T.T.T.T.T.T.T.R.E.R.T.T.T.T.R.E.W.Q.~.^./.(./.  ~.Q.W.E.= @ @ $ @           $ @                   = Y.T.T.T.Y.U.I.P.: & P.R.Y.!.!.!.Y.                            = = - ; - * = - : : : P.I.U.Y.T.R.E.W.Q.!.Q.W.- ZXZXZX- I.P.: : ; : : U.Y.U.= =                                                                         ",
"                                        * = = * - ; * = = - : : : : P.I.U.Y.T.R.E.W.- CXCXCX- R.T.Y.U.I.P.: : : ; : : U.Y.U.= =                                 = - ; - * = - : : P.I.U.Y.T.R.E.W.W.E.R.T.Y.U.I.P.: ; : U.Y.U.= =               & : P.I.U.U.U.U.U.I.U.U.T.R.T.U.U.U.U.I.P.I.U.Y.  T.T.T.R.E.R.T.T.T.T.T.T.T.T.T.T.T.T.T.T.T.T.T.T.T.T.R.E.R.T.T.T.R.E.W.Q.~.^./.  /.^.~.Q.W.= = @ @ $ @           a @                     = = T.T.T.Y.U.I.P.: = P.!.T.  $ !.                            = = - ; - * = - : : : P.I.U.Y.T.R.E.W.Q.!.Q.W.- ZXZXZX- I.P.: : ; : : U.Y.U.= =                                                                         ",
"                                        = = = * - ; * = = - : : : : P.I.U.Y.T.R.E.W.- - - - - R.T.Y.U.I.P.: : : ; : : U.Y.U.= =                   M.            - - ; - * = - : : P.I.U.Y.T.R.E.W.W.E.R.T.Y.U.I.P.: ; : U.Y.U.= =             & : P.I.U.U.U.U.U.U.I.U.T.R.T.U.U.U.U.I.P.I.U.Y.  T.T.T.T.R.E.R.T.T.T.T.T.T.T.T.T.T.T.T.T.T.T.T.T.T.T.T.R.E.R.T.T.T.R.E.W.Q.~.^./.(./.^.~.Q.W.= @ @ # @           $ $ @ @                       Y.T.T.T.Y.U.I.P.: P.!.,   $ !.                            = = - ; - * = - : : : P.I.U.Y.T.R.E.W.Q.!.Q.W.- - - - - I.P.: : ; : : U.Y.U.= =                                                                         ",
"                                        = = = * - ; * = = - : : : : P.I.U.Y.T.R.E.W.- CXCXCX- R.T.Y.U.I.P.: : : ; : : U.Y.U.= =                   n.            - - ; - * = - : : P.I.U.Y.T.R.E.W.W.E.R.T.Y.U.I.P.: ; : U.Y.U.= =           & : P.I.U.U.U.U.U.U.I.U.U.T.R.T.U.U.U.U.I.P.I.U.  T.T.T.T.R.E.R.T.T.T.T.T.T.T.T.T.T.T.T.T.T.T.T.T.T.T.T.T.R.E.R.T.T.T.T.R.E.W.Q.~.^./.(./.^.@ @ @ @ @ @ @         $ a @ @ @ @                 T.T.  Y.T.T.T.Y.U.I.P.= !.$ $ !.&                             = = - ; - * = - : : : P.I.U.Y.T.R.E.W.Q.!.Q.W.- ZXZXZX- I.P.: : ; : : U.Y.U.= =                                                                         ",
"                                        = = = * - ; * = = - : : : : P.I.U.Y.T.R.E.W.- CXCXCX- R.T.Y.U.I.P.: : : ; : : U.Y.U.= =                                 = - ; - * = - : : P.I.U.Y.T.R.E.W.W.E.R.T.Y.U.I.P.: ; : U.Y.U.= =         & : P.I.U.U.U.U.U.U.I.U.U.T.R.T.U.U.U.U.I.P.I.U.Y.T.T.T.T.T.R.E.R.T.T.T.T.T.T.T.T.T.T.T.T.T.T.T.T.T.T.T.T.T.R.E.R.T.T.T.T.R.E.W.Q.~.^./.(./.^.~.Q.W.@ R.@   T.T.  @ @ @ @ T.  T.' ` `   ` ' T.    T.T.T.Y.T.T.T.Y.U.I.P.Y.!.!.&                               = = - ; - * = - : : : P.I.U.Y.T.R.E.W.Q.!.Q.W.- ZXZXZX- I.P.: : : : : U.Y.U.= =                                                                         ",
"                                        = = = * - ; * = = - : : : : P.).).).).).).).).).).).).).).).).).).).).).).).).).).).).).).).).).).).).).).).).).).).).).).).).).).).).).).).).).).).).).).).).).).).).).).).).).).).).).).).).).).).).).).).).).).).).).).).).).).).).).).).).).).).).).).).).).).).).).).).).).).).).).).).).).).).).).).).).).).).).).).).).).).).).).).).).).).).).).).).).).).).).).).).).).).).).).).).).).).).).).).).).).).).).).).).).).).).).).).).).).).).).).).).).).).).).).).).).).).).).).).).).).).).).).).).).).).).).).).).).).).).).).Y.U.= =                                                                         ",
"                                        = = = * - ; * = = - : : : : P.).).).).).).).).).).).).).).).).).).).).).).).).).).).).).).).).).).).).).).).).).).).).).).).).).).).).).).).).).).).).).).).).).).).).).).).).).).).).).).).).).).).).).).).).).).).).).).).).).).).).).).).).).).).).).).).).).).).).).).).).).).).).).).).).).).).).).).).).).).).).).).).).).).).).).).).).).).).).).).).).).).).).).).).).).).).).).).).).).).).).).).).).).).).).).).).).).).).).).).).).).).).).).).).).).).).).).).).).).).).).).).).).).).).).).).).).).).).).).).).).).).).).).Y.U.= = $                                                                       ",
"                                        = = = * - ; * = = - : : : : P./.!.!.!.!.!.!.!.!.!.!.!.!.!.!.!.!.!.!.!.!.!.!.!.!.!.!.!.!.!.!.!.!.!.!.!.!.!.!.!.!.!.!.!.!.!.!.!.!.!.!.!.!.!.!.!.!.!.!.!.!.!.!.!.!.!.!.!.!.!.!.!.!.!.!.!.!.!.!.!.!.!.!.!.!.!.!.!.!.!.!.!.!.!.!.!.!.!.!.!.!.!.!.!.!.!.!.!.!.!.!.!.!.!.!.!.!.!.!.!.!.!.!.!.!.!.!.!.!.!.!.!.!.!.!.!.!.!.!.!.!.!.!.!.!.!.!.!.!.!.!.!.!.!.!.!.!.!.!.!.!.!.!.!.!.!.!.!.!.!.!.!.!.!.!.!.!.!.!.!.!.!.!.!.!.!.!.!.!.!.!.!.!.!.!.!.!.!.!.!.!.!.!.!.!.!.!.!.!.!.!.!.!.!.!.!.!.!.!.!.!.!.!.!.!.!.!.!.!.!.!.!.!.!.!.!.!.!.!.!.!.!.!.!./.Y.U.= = %                                                                       ",
"                                        = = = * - ; * = = - : : : : P./.!.!.!.!.!.!.!.!.!.!.!.!.!.!.!.!.!.!.!.!.!.!.!.!.!.!.!.!.!.!.!.!.!.!.!.!.!.!.!.!.!.!.!.!.!.!.!.!.!.!.!.!.!.!.!.!.!.!.!.!.!.!.!.!.!.!.!.!.!.!.!.!.!.!.!.!.!.!.!.!.!.!.!.!.!.!.!.!.!.!.!.!.!.!.!.!.!.!.!.!.!.!.!.!.!.!.!.!.!.!.!.!.!.!.!.!.!.!.!.!.!.!.!.!.!.!.!.!.!.!.!.!.!.!.!.!.!.!.!.!.!.!.!.!.!.!.!.!.!.!.!.!.!.!.!.!.!.!.!.!.!.!.!.!.!.!.!.!.!.!.!.!.!.!.!.!.!.!.!.!.!.!.!.!.!.!.!.!.!.!.!.!.!.!.!.!.!.!.!.!.!.!.!.!.!.!.!.!.!.!.!.!.!.!.!.!.!.!.!.!.!.!.!.!.!.!.!.!.!.!.!.!.!.!.!.!.!.!.!.!.!.!.!./.Y.U.= = &             n.                                                        ",
"                                        = = = * - ; * = = - : : : : P.U.U.U.U.U.U.U.U.U.U.U.U.U.U.U.U.U.U.U.U.U.U.U.U.U.U.U.U.U.U.U.U.U.U.U.U.U.U.U.U.U.U.U.U.U.U.U.U.U.U.U.U.U.U.U.U.U.U.U.U.U.U.U.U.U.U.U.U.U.U.U.U.U.U.U.U.U.U.U.U.U.U.U.U.U.U.U.U.U.U.U.U.U.U.U.U.U.U.U.U.U.U.U.U.U.U.U.U.U.U.U.U.U.U.U.U.U.U.U.U.U.U.U.U.U.U.U.U.U.U.U.U.U.U.U.U.U.U.U.U.U.U.U.U.U.U.U.U.U.U.U.U.U.U.U.U.U.U.U.U.U.U.U.U.U.U.U.U.U.U.U.U.U.U.U.U.U.U.U.U.U.U.U.U.U.U.U.U.U.U.U.U.U.U.U.U.U.U.U.U.U.U.U.U.U.U.U.U.U.U.U.U.U.U.U.U.U.U.U.U.U.U.U.U.U.U.U.U.U.U.U.U.U.U.U.U.U.U.U.U.U.U.U.U.U.Y.U.= = *                                                                       ",
"                                        = = = * - ; * = = - : : : : P.I.U.Y.Q.R.= = = = = = = = = = = T.E.T.= = = = = = = = = = = T.E.T.= = = = = = = = = = = T.E.T.= = = = = = = = = = = T.E.T.= = = = = = = = = = = T.E.T.= = = = = = = = = = = T.E.T.= = = = = = = = = = = T.E.T.= = = = = = = = = = = T.E.T.= = = = = = = = = = = T.E.T.= = = = = = = = = = = T.E.T.= = = = = = = = = = = T.E.T.= = = = = = = = = = = T.E.T.= = = = = = = = = = = T.E.T.= = = = = = = = = = = T.E.T.= = = = = = = = = = = T.E.T.= = = = = = = = = = = T.E.T.= = = = = = = = = = = R.Q.: : U.Y.U.= = =             A.                                                        ",
"                                        = = = * - ; * = = - : : : : P.I.U.Y./.Q.= % % % % % % % % % = T.Q.T.= % % % % % % % % % = T.Q.T.= % % % % % % % % % = T.Q.T.= % % % % % % % % % = T.Q.T.= % % % % % % % % % = T.Q.T.= % % % % % % % % % = T.Q.T.= % % % % % % % % % = T.Q.T.= % % % % % % % % % = T.Q.T.= % % % % % % % % % = T.Q.T.= % % % % % % % % % = T.Q.T.= % % % % % % % % % = T.Q.T.= % % % % % % % % % = T.Q.T.= % % % % % % % % % = T.Q.T.= % % % % % % % % % = T.Q.T.= % % % % % % % % % = T.Q.T.= % % % % % % % % % = T.Q.T.= % % % % % % % % % = Q./.: : U.Y.U.P.= =                     M.                                                ",
"                                        = = = * - ; * = = - : : : : P.I.U.Y./.Q.= = = = = = = = = = = T.Q.T.= = = = = = = = = = = T.Q.T.= = = = = = = = = = = T.Q.T.= = = = = = = = = = = T.Q.T.= = = = = = = = = = = T.Q.T.= = = = = = = = = = = T.Q.T.= = = = = = = = = = = T.Q.T.= = = = = = = = = = = T.Q.T.= = = = = = = = = = = T.Q.T.= = = = = = = = = = = T.Q.T.= = = = = = = = = = = T.Q.T.= = = = = = = = = = = T.Q.T.= = = = = = = = = = = T.Q.T.= = = = = = = = = = = T.Q.T.= = = = = = = = = = = T.Q.T.= = = = = = = = = = = T.Q.T.= = = = = = = = = = = Q./.: : P.U.Y.U.= =                                                       K.              ",
"                          A.            = = = * - ; * = = - : : : : P.I.U.Y./.Q.).).).).).).).).).).).Q.Q.).).).).).).).).).).).).Q.Q.).).).).).).).).).).).).Q.Q.).).).).).).).).).).).).Q.Q.).).).).).).).).).).).).Q.Q.).).).).).).).).).).).).Q.Q.).).).).).).).).).).).).Q.Q.).).).).).).).).).).).).Q.Q.).).).).).).).).).).).).Q.Q.).).).).).).).).).).).).Q.Q.).).).).).).).).).).).).Q.Q.).).).).).).).).).).).).Q.Q.).).).).).).).).).).).).Q.Q.).).).).).).).).).).).).Q.Q.).).).).).).).).).).).).Q.Q.).).).).).).).).).).).).Q.Q.).).).).).).).).).).).).Q./.: : : U.Y.U.= =                                                             M.        ",
"                                        = = * = - ; * = = - : : : : P.I.U.Y./.Q.Q.Q.Q.Q.Q.Q.Q.Q.Q.Q.Q.Q.Q.Q.Q.Q.Q.Q.Q.Q.Q.Q.Q.Q.Q.Q.Q.Q.Q.Q.Q.Q.Q.Q.Q.Q.Q.Q.Q.Q.Q.Q.Q.Q.Q.Q.Q.Q.Q.Q.Q.Q.Q.Q.Q.Q.Q.Q.Q.Q.Q.Q.Q.Q.Q.Q.Q.Q.Q.Q.Q.Q.Q.Q.Q.Q.Q.Q.Q.Q.Q.Q.Q.Q.Q.Q.Q.Q.Q.Q.Q.Q.Q.Q.Q.Q.Q.Q.Q.Q.Q.Q.Q.Q.Q.Q.Q.Q.Q.Q.Q.Q.Q.Q.Q.Q.Q.Q.Q.Q.Q.Q.Q.Q.Q.Q.Q.Q.Q.Q.Q.Q.Q.Q.Q.Q.Q.Q.Q.Q.Q.Q.Q.Q.Q.Q.Q.Q.Q.Q.Q.Q.Q.Q.Q.Q.Q.Q.Q.Q.Q.Q.Q.Q.Q.Q.Q.Q.Q.Q.Q.Q.Q.Q.Q.Q.Q.Q.Q.Q.Q.Q.Q.Q.Q.Q.Q.Q.Q.Q.Q.Q.Q.Q.Q.Q.Q.Q.Q.Q.Q.Q.Q.Q.Q.Q.Q.Q.Q.Q.Q.Q.Q.Q.Q.Q.Q.Q.Q.Q.Q.Q.Q.Q.Q.Q.Q.Q.Q.Q.Q.Q.Q.Q.Q.Q./.: : : U.Y.U.= =                                                                       ",
"                                      $ = = * = - ; * = = - : : : : P.I.U.Y./.Q.Q.Q.Q.Q.Q.Q.Q.Q.Q.Q.Q.Q.Q.Q.Q.Q.Q.Q.Q.Q.Q.Q.Q.Q.Q.Q.Q.Q.Q.Q.Q.Q.Q.Q.Q.Q.Q.Q.Q.Q.Q.Q.Q.Q.Q.Q.Q.Q.Q.Q.Q.Q.Q.Q.Q.Q.Q.Q.Q.Q.Q.Q.Q.Q.Q.Q.Q.Q.Q.Q.Q.Q.Q.Q.Q.Q.Q.Q.Q.Q.Q.Q.Q.Q.Q.Q.Q.Q.Q.Q.Q.Q.Q.Q.Q.Q.Q.Q.Q.Q.Q.Q.Q.Q.Q.Q.Q.Q.Q.Q.Q.Q.Q.Q.Q.Q.Q.Q.Q.Q.Q.Q.Q.Q.Q.Q.Q.Q.Q.Q.Q.Q.Q.Q.Q.Q.Q.Q.Q.Q.Q.Q.Q.Q.Q.Q.Q.Q.Q.Q.Q.Q.Q.Q.Q.Q.Q.Q.Q.Q.Q.Q.Q.Q.Q.Q.Q.Q.Q.Q.Q.Q.Q.Q.Q.Q.Q.Q.Q.Q.Q.Q.Q.Q.Q.Q.Q.Q.Q.Q.Q.Q.Q.Q.Q.Q.Q.Q.Q.Q.Q.Q.Q.Q.Q.Q.Q.Q.Q.Q.Q.Q.Q.Q.Q.Q.Q.Q.Q.Q.Q.Q.Q.Q.Q.Q.Q.Q.Q.Q.Q.Q.Q.Q.Q.Q./.: : : U.Y.U.= =                                                                       ",
"                                      % = = * = - ; * = = - : : : : P.I.U.Y./.Q.Q.Q.Q.Q.Q.Q.Q.Q.Q.Q.Q.Q.Q.Q.Q.Q.Q.Q.Q.Q.Q.Q.Q.Q.Q.Q.Q.Q.Q.Q.Q.Q.Q.Q.Q.Q.Q.Q.Q.Q.Q.Q.Q.Q.Q.Q.Q.Q.Q.Q.Q.Q.Q.Q.Q.Q.Q.Q.Q.Q.Q.Q.Q.Q.Q.Q.Q.Q.Q.Q.Q.Q.Q.Q.Q.Q.Q.Q.Q.Q.Q.Q.Q.Q.Q.Q.Q.Q.Q.Q.Q.Q.Q.Q.Q.Q.Q.Q.Q.Q.Q.Q.Q.Q.Q.Q.Q.Q.Q.Q.Q.Q.Q.Q.Q.Q.Q.Q.Q.Q.Q.Q.Q.Q.Q.Q.Q.Q.Q.Q.Q.Q.Q.Q.Q.Q.Q.Q.Q.Q.Q.Q.Q.Q.Q.Q.Q.Q.Q.Q.Q.Q.Q.Q.Q.Q.Q.Q.Q.Q.Q.Q.Q.Q.Q.Q.Q.Q.Q.Q.Q.Q.Q.Q.Q.Q.Q.Q.Q.Q.Q.Q.Q.Q.Q.Q.Q.Q.Q.Q.Q.Q.Q.Q.Q.Q.Q.Q.Q.Q.Q.Q.Q.Q.Q.Q.Q.Q.Q.Q.Q.Q.Q.Q.Q.Q.Q.Q.Q.Q.Q.Q.Q.Q.Q.Q.Q.Q.Q.Q.Q.Q.Q.Q.Q.Q./.: : : U.Y.U.= =     n.                                                                ",
"                                      & = = * = - ; * = = - : : : : P.I.U.Y./.Q.Q.Q.Q.Q.Q.Q.Q.Q.Q.Q.Q.Q.Q.Q.Q.Q.Q.Q.Q.Q.Q.Q.Q.Q.Q.Q.Q.Q.Q.Q.Q.Q.Q.Q.Q.Q.Q.Q.Q.Q.Q.Q.Q.Q.Q.Q.Q.Q.Q.Q.Q.Q.Q.Q.Q.Q.Q.Q.Q.Q.Q.Q.Q.Q.Q.Q.Q.Q.Q.Q.Q.Q.Q.Q.Q.Q.Q.Q.Q.Q.Q.Q.Q.Q.Q.Q.Q.Q.Q.Q.Q.Q.Q.Q.Q.Q.Q.Q.Q.Q.Q.Q.Q.Q.Q.Q.Q.Q.Q.Q.Q.Q.Q.Q.Q.Q.Q.Q.Q.Q.Q.Q.Q.Q.Q.Q.Q.Q.Q.Q.Q.Q.Q.Q.Q.Q.Q.Q.Q.Q.Q.Q.Q.Q.Q.Q.Q.Q.Q.Q.Q.Q.Q.Q.Q.Q.Q.Q.Q.Q.Q.Q.Q.Q.Q.Q.Q.Q.Q.Q.Q.Q.Q.Q.Q.Q.Q.Q.Q.Q.Q.Q.Q.Q.Q.Q.Q.Q.Q.Q.Q.Q.Q.Q.Q.Q.Q.Q.Q.Q.Q.Q.Q.Q.Q.Q.Q.Q.Q.Q.Q.Q.Q.Q.Q.Q.Q.Q.Q.Q.Q.Q.Q.Q.Q.Q.Q.Q.Q.Q.Q.Q.Q.Q.Q.Q./.: : : U.Y.U.= =                                                                       ",
"$ $ $ $ $ $ $ $ $ $ $ $ $ $ $ $ $ $ $ * = = * - ; * = = - : : : : : P.I.U.Y././././././././././././././././././././././././././././././././././././././././././././././././././.).).).).).).).).).).).).).).).).).).).).).).).).).).).).).).).).Q.E./././././././././././././././././././././././././././././././././././././././././././././././././././././././././././././././././././././././.E.Q.).).).).).).).).).).).).).).).).).).).).).).).).).).).).).).).)././././././././././././././././././././././././././././././././././././././././././././././././././.: : : U.Y.U.= = $ $ $ $ $ $ $ $ $ $ $ $ $ $ $ $ $ $ $ $ $ $ $ $ $ $ $ $ $ $ $ $ $ $ $ ",
"$ $ $ $ $ $ $ $ $ $ $ $ $ $ $ $ $ $ $ = = = * - ; * = = - : : : : : P.I.U./.^.^.^.^.^.^.^.^.^.^.^.^.^.^.^.^.^.^.^.^.^.^.^.^.^.^.^.^.^.^.^.^.^.^.^.^.^.^.^.^.^.^.^.^.^.^.^.^.^.^.).).).).).).).).).).).).).).).).).).).).).).).).).).).).).).).).R.E.^.^.^.^.^.^.^.^.^.^.^.^.^.^.^.^.^.^.^.^.^.^.^.^.^.^.^.^.^.^.^.^.^.^.^.^.^.^.^.^.^.^.^.^.^.^.^.^.^.^.^.^.^.^.^.^.^.^.^.^.^.^.^.^.^.^.^.^.^.^.^.E.R.).).).).).).).).).).).).).).).).).).).).).).).).).).).).).).).).^.^.^.^.^.^.^.^.^.^.^.^.^.^.^.^.^.^.^.^.^.^.^.^.^.^.^.^.^.^.^.^.^.^.^.^.^.^.^.^.^.^.^.^.^.^.^.^.^.^./.: : U.Y.U.= = $ $ $ $ $ $ $ $ $ $ $ $ $ $ $ $ $ $ $ $ $ $ $ $ $ $ $ $ $ $ $ $ $ $ $ ",
"$ $ $ $ $ $ $ $ $ $ $ $ $ $ $ $ $ $ $ = = = * - ; * = = - : : : : : P.I./.^.^.^.^.^.^.^.^.^.^.^.^.^.^.^.^.^.^.^.^.^.^.^.^.^.^.^.^.^.^.^.^.^.^.^.^.^.^.^.^.^.^.^.^.^.^.^.^.^.^.).).).).).).).).).).).).).).).).).).).).).).).).).).).).).).).).).T.E.^.^.^.^.^.^.^.^.^.^.^.^.^.^.^.^.^.^.^.^.^.^.^.^.^.^.^.^.^.^.^.^.^.^.^.^.^.^.^.^.^.^.^.^.^.^.^.^.^.^.^.^.^.^.^.^.^.^.^.^.^.^.^.^.^.^.^.^.^.^.^.E.T.).).).).).).).).).).).).).).).).).).).).).).).).).).).).).).).).).^.^.^.^.^.^.^.^.^.^.^.^.^.^.^.^.^.^.^.^.^.^.^.^.^.^.^.^.^.^.^.^.^.^.^.^.^.^.^.^.^.^.^.^.^.^.^.^.^.^./.: U.Y.U.= = $ $ $ $ $ % $ $ $ $ $ $ $ $ $ $ $ $ $ $ $ $ $ $ $ $ $ $ % $ $ $ $ $ $ ",
"$ $ $ $ $ $ $ % $ $ $ $ $ $ $ % $ $ $ = = = * - ; * = = - : : : : : P./.^.^.^.^.^.^.^.^.^.^.^.^.^.^.^.^.^.^.^.^.^.^.^.^.^.^.^.^.^.^.^.^.^.^.^.^.^.^.^.^.^.^.^.^.^.^.^.^.^.^.^.).).).).).).).).).).).).).).).).).).).).).).).).).).).).).).).).).T.E.^.^.^.^.^.^.^.^.^.^.^.^.^.^.^.^.^.^.^.^.^.^.^.^.^.^.^.^.^.^.^.^.^.^.^.^.^.^.^.^.^.^.^.^.^.^.^.^.^.^.^.^.^.^.^.^.^.^.^.^.^.^.^.^.^.^.^.^.^.^.^.E.T.).).).).).).).).).).).).).).).).).).).).).).).).).).).).).).).).).^.^.^.^.^.^.^.^.^.^.^.^.^.^.^.^.^.^.^.^.^.^.^.^.^.^.^.^.^.^.^.^.^.^.^.^.^.^.^.^.^.^.^.^.^.^.^.^.^.^.^./.U.Y.U.= = $ $ $ % $ $ $ $ $ $ $ $ % $ $ $ $ $ $ $ $ $ % $ $ % $ $ $ $ % $ $ % $ ",
"$ $ $ $ % % $ $ % % % $ $ $ $ $ % $ $ = = = * - ; * = = - : : : : : /.^.^.^.^.^.^.^.^.^.^.^.^.^.^.^.^.^.^.^.^.^.^.^.^.^.^.^.^.^.^.^.^.^.^.^.^.^.^.^.^.^.^.^.^.^.^.^.^.^.^.^.).).).).).).).).).).).).).).).).).).).).).).).).).).).).).).).).).!.T.E.^.^.^.^.^.^.^.^.^.^.^.^.^.^.^.^.^.^.^.^.^.^.^.^.^.^.^.^.^.^.^.^.^.^.^.^.^.^.^.^.^.^.^.^.^.^.^.^.^.^.^.^.^.^.^.^.^.^.^.^.^.^.^.^.^.^.^.^.^.^.^.E.T.!.).).).).).).).).).).).).).).).).).).).).).).).).).).).).).).).).).^.^.^.^.^.^.^.^.^.^.^.^.^.^.^.^.^.^.^.^.^.^.^.^.^.^.^.^.^.^.^.^.^.^.^.^.^.^.^.^.^.^.^.^.^.^.^.^.^.^.^./.Y.U.= = $ $ % $ % % % % $ $ % $ $ $ $ % $ $ $ $ % % % % $ $ $ % $ $ $ $ % % $ ",
"% $ $ $ $ % $ % $ % % % % % $ % $ % $ = = = * - ; * = = - : : : : /.^.^.^.^.^.^.^.^.^.^.^.^.^.^.^.^.^.^.^.^.^.^.^.^.^.^.^.^.^.^.^.^.^.^.^.^.^.^.^.^.^.^.^.^.^.^.^.^.^.^.^.^.).).).).).).).).).).).).).).).).).).).).).).).).).).).).).).).).).R.T.E.^.^.^.^.^.^.^.^.^.^.^.^.^.^.^.^.^.^.^.^.^.^.^.^.^.^.^.^.^.^.^.^.^.^.^.^.^.^.^.^.^.^.^.^.^.^.^.^.^.^.^.^.^.^.^.^.^.^.^.^.^.^.^.^.^.^.^.^.^.^.^.E.T.R.).).).).).).).).).).).).).).).).).).).).).).).).).).).).).).).).).^.^.^.^.^.^.^.^.^.^.^.^.^.^.^.^.^.^.^.^.^.^.^.^.^.^.^.^.^.^.^.^.^.^.^.^.^.^.^.^.^.^.^.^.^.^.^.^.^.^.^.^./.U.= = $ $ % % % % % % % $ % $ $ % % $ % $ % $ % % % % $ % % % % $ $ % % % % ",
"% & $ % % % % % & % % % % % & % % % & = = = * - ; * = = - : : : /.^.^.^.^.^.^.^.^.^.^.^.^.^.^.^.^.^.^.^.^.^.^.^.^.^.^.^.^.^.^.^.^.^.^.^.^.^.^.^.^.^.^.^.^.^.^.^.^.^.^.^.^.).).).).).).).).).).).).).).).).).).).).).).).).).).).).).).).).).).R.T.E.^.^.^.^.^.^.^.^.^.^.^.^.^.^.^.^.^.^.^.^.^.^.^.^.^.^.^.^.^.^.^.^.^.^.^.^.^.^.^.^.^.^.^.^.^.^.^.^.^.^.^.^.^.^.^.^.^.^.^.^.^.^.^.^.^.^.^.^.^.^.^.E.T.R.).).).).).).).).).).).).).).).).).).).).).).).).).).).).).).).).).).^.^.^.^.^.^.^.^.^.^.^.^.^.^.^.^.^.^.^.^.^.^.^.^.^.^.^.^.^.^.^.^.^.^.^.^.^.^.^.^.^.^.^.^.^.^.^.^.^.^.^.^./.= = & % % % % % % % % & % & % % & & & $ % % % & & % & % $ $ % & % & & % % ",
"% % % % % & & & % & % % % % & % % % & = = = * - ; * = = - : : /.^.^.^.^.^.^.^.^.^.^.^.^.^.^.^.^.^.^.^.^.^.^.^.^.^.^.^.^.^.^.^.^.^.^.^.^.^.^.^.^.^.^.^.^.^.^.^.^.^.^.^.^.^.).).).).).).).).).).).).).).).).).).).).).).).).).).).).).).).).).).T.E.^.^.^.^.^.^.^.^.^.^.^.^.^.^.^.^.^.^.^.^.^.^.^.^.^.^.^.^.^.^.^.^.^.^.^.^.^.^.^.^.^.^.^.^.^.^.^.^.^.^.^.^.^.^.^.^.^.^.^.^.^.^.^.^.^.^.^.^.^.^.^.^.^.E.T.).).).).).).).).).).).).).).).).).).).).).).).).).).).).).).).).).).^.^.^.^.^.^.^.^.^.^.^.^.^.^.^.^.^.^.^.^.^.^.^.^.^.^.^.^.^.^.^.^.^.^.^.^.^.^.^.^.^.^.^.^.^.^.^.^.^.^.^.^.^./.= % % & % % & % & % % % & % % % & % % % & % & % & % & & % % % % & % % & ",
"% & & % % & & & & & & % & & & & & & % = = = * - ; * = = - : /.^.^.^.^.^.^.^.^.^.^.^.^.^.^.^.^.^.^.^.^.^.^.^.^.^.^.^.^.^.^.^.^.^.^.^.^.^.^.^.^.^.^.^.^.^.^.^.^.^.^.^.^.^.).).).).).).).).).).).).).).).).).).).).).).).).).).).).).).).).).).!.T.E.^.^.^.^.^.^.^.^.^.^.^.^.^.^.^.^.^.^.^.^.^.^.^.^.^.^.^.^.^.^.^.^.^.^.^.^.^.^.^.^.^.^.^.^.^.^.^.^.^.^.^.^.^.^.^.^.^.^.^.^.^.^.^.^.^.^.^.^.^.^.^.^.^.E.T.!.).).).).).).).).).).).).).).).).).).).).).).).).).).).).).).).).).).^.^.^.^.^.^.^.^.^.^.^.^.^.^.^.^.^.^.^.^.^.^.^.^.^.^.^.^.^.^.^.^.^.^.^.^.^.^.^.^.^.^.^.^.^.^.^.^.^.^.^.^.^./.& & & % % % & % % % & % & % % % & & % & & & % & & & % % % & & & & % % ",
"& % % * % & & & % & & & & & & & & * & = = = * - ; * = = - /.^.^.^.^.^.^.^.^.^.^.^.^.^.^.^.^.^.^.^.^.^.^.^.^.^.^.^.^.^.^.^.^.^.^.^.^.^.^.^.^.^.^.^.^.^.^.^.^.^.^.^.^.^.^.).).).).).).).).).).).).).).).).).).).).).).).).).).).).).).).).).).R.T.E.^.^.^.^.^.^.^.^.^.^.^.^.^.^.^.^.^.^.^.^.^.^.^.^.^.^.^.^.^.^.^.^.^.^.^.^.^.^.^.^.^.^.^.^.^.^.^.^.^.^.^.^.^.^.^.^.^.^.^.^.^.^.^.^.^.^.^.^.^.^.^.^.^.E.T.R.).).).).).).).).).).).).).).).).).).).).).).).).).).).).).).).).).).^.^.^.^.^.^.^.^.^.^.^.^.^.^.^.^.^.^.^.^.^.^.^.^.^.^.^.^.^.^.^.^.^.^.^.^.^.^.^.^.^.^.^.^.^.^.^.^.^.^.^.^.^.^./.% & & & & & & % & & * & & & & & % & & & & & % & & & % & * & & * * & ",
"& & & * & * * & & & * & & * & & & & & = = = * - ; * = = /.^.^.^.^.^.^.^.^.^.^.^.^.^.^.^.^.^.^.^.^.^.^.^.^.^.^.^.^.^.^.^.^.^.^.^.^.^.^.^.^.^.^.^.^.^.^.^.^.^.^.^.^.^.^.).).).).).).).).).).).).).).).).).).).).).).).).).).).).).).).).).).).R.T.E.^.^.^.^.^.^.^.^.^.^.^.^.^.^.^.^.^.^.^.^.^.^.^.^.^.^.^.^.^.^.^.^.^.^.^.^.^.^.^.^.^.^.^.^.^.^.^.^.^.^.^.^.^.^.^.^.^.^.^.^.^.^.^.^.^.^.^.^.^.^.^.^.^.E.T.R.).).).).).).).).).).).).).).).).).).).).).).).).).).).).).).).).).).).^.^.^.^.^.^.^.^.^.^.^.^.^.^.^.^.^.^.^.^.^.^.^.^.^.^.^.^.^.^.^.^.^.^.^.^.^.^.^.^.^.^.^.^.^.^.^.^.^.^.^.^.^.^./.* & & & & & & * * & & & & & * & & & * * & * * & * * & & & & * * & ",
"& & & & * & * * & * & * & & * & * & & = = = * - ; * = /.^.^.^.^.^.^.^.^.^.^.^.^.^.^.^.^.^.^.^.^.^.^.^.^.^.^.^.^.^.^.^.^.^.^.^.^.^.^.^.^.^.^.^.^.^.^.^.^.^.^.^.^.^.^.^.).).).).).).).).).).).).).).).).).).).).).).).).).).).).).).).).).).).R.T.E.^.^.^.^.^.^.^.^.^.^.^.^.^.^.^.^.^.^.^.^.^.^.^.^.^.^.^.^.^.^.^.^.^.^.^.^.^.^.^.^.^.^.^.^.^.^.^.^.^.^.^.^.^.^.^.^.^.^.^.^.^.^.^.^.^.^.^.^.^.^.^.^.^.E.T.R.).).).).).).).).).).).).).).).).).).).).).).).).).).).).).).).).).).).^.^.^.^.^.^.^.^.^.^.^.^.^.^.^.^.^.^.^.^.^.^.^.^.^.^.^.^.^.^.^.^.^.^.^.^.^.^.^.^.^.^.^.^.^.^.^.^.^.^.^.^.^.^.^./.* * * * * * & & * & * * & & & & * & * * & * & & * * * * & & * & ",
"& & * * * * & * & = * * * * & & * * = = = = * - ; * /.^.^.^.^.^.^.^.^.^.^.^.^.^.^.^.^.^.^.^.^.^.^.^.^.^.^.^.^.^.^.^.^.^.^.^.^.^.^.^.^.^.^.^.^.^.^.^.^.^.^.^.^.^.^.^.).).).).).).).).).).).).).).).).).).).).).).).).).).).).).).).).).).).!.R.T.E.^.^.^.^.^.^.^.^.^.^.^.^.^.^.^.^.^.^.^.^.^.^.^.^.^.^.^.^.^.^.^.^.^.^.^.^.^.^.^.^.^.^.^.^.^.^.^.^.^.^.^.^.^.^.^.^.^.^.^.^.^.^.^.^.^.^.^.^.^.^.^.^.^.E.T.R.!.).).).).).).).).).).).).).).).).).).).).).).).).).).).).).).).).).).).^.^.^.^.^.^.^.^.^.^.^.^.^.^.^.^.^.^.^.^.^.^.^.^.^.^.^.^.^.^.^.^.^.^.^.^.^.^.^.^.^.^.^.^.^.^.^.^.^.^.^.^.^.^.^./.* * * = * * * = * * * * * * * * * & * * * & & * * * & & * * * ",
"* * = * * = * * * & * = * = * = = & * = = = * - ; /.^.^.^.^.^.^.^.^.^.^.^.^.^.^.^.^.^.^.^.^.^.^.^.^.^.^.^.^.^.^.^.^.^.^.^.^.^.^.^.^.^.^.^.^.^.^.^.^.^.^.^.^.^.^.^.^.).).).).).).).).).).).).).).).).).).).).).).).).).).).).).).).).).).).R.R.T.E.^.^.^.^.^.^.^.^.^.^.^.^.^.^.^.^.^.^.^.^.^.^.^.^.^.^.^.^.^.^.^.^.^.^.^.^.^.^.^.^.^.^.^.^.^.^.^.^.^.^.^.^.^.^.^.^.^.^.^.^.^.^.^.^.^.^.^.^.^.^.^.^.^.E.T.R.R.).).).).).).).).).).).).).).).).).).).).).).).).).).).).).).).).).).).^.^.^.^.^.^.^.^.^.^.^.^.^.^.^.^.^.^.^.^.^.^.^.^.^.^.^.^.^.^.^.^.^.^.^.^.^.^.^.^.^.^.^.^.^.^.^.^.^.^.^.^.^.^.^.^./.= = = & * * & * * = * = * * * = & = * = = & * = * * = * * * ",
"= * = * * = * = = * = = * = * * * * = = = = * - /././././././././././././././././././././././././././././././././././././././././././././././././././././././././.).).).).).).).).).).).).).).).).).).).).).).).).).).).).).).).).).).).).R.R.T.E./././././././././././././././././././././././././././././././././././././././././././././././././././././././././././././././././././././././././.E.T.R.R.).).).).).).).).).).).).).).).).).).).).).).).).).).).).).).).).).).).)./././././././././././././././././././././././././././././././././././././././././././././././././././././././././.= = * = = = * = = * = * = * = * * * * * = = * * = * * * = ",
"= = = = = * = * * = * = = * = = * * = = = = * - /.Q.Q.Q.Q.Q.Q.Q.Q.Q.Q.Q.Q.Q.Q.Q.Q.Q.Q.Q.Q.Q.Q.Q.Q.Q.Q.Q.Q.Q.Q.Q.Q.Q.Q.Q.Q.Q.Q.Q.Q.Q.Q.Q.Q.Q.Q.Q.Q.Q.Q.Q.Q.Q.Q.Q.Q.).).).).).).).).).).).).).).).).).).).).).).).).).).).).).).).).).).).).R.R.R.T.E.Q.Q.Q.Q.Q.Q.Q.Q.Q.Q.Q.Q.Q.Q.Q.Q.Q.Q.Q.Q.Q.Q.Q.^.kXkXkXkXkXkXkXkXkXkXkXkXkXkXkXkXkXkXkXkXkXkXkX^.Q.Q.Q.Q.Q.Q.Q.Q.Q.Q.Q.Q.Q.Q.Q.Q.Q.Q.Q.Q.Q.Q.Q.E.T.R.R.R.).).).).).).).).).).).).).).).).).).).).).).).).).).).).).).).).).).).).Q.Q.Q.Q.Q.Q.Q.Q.Q.Q.Q.Q.Q.Q.Q.Q.Q.Q.Q.Q.Q.Q.Q.Q.Q.Q.Q.Q.Q.Q.Q.Q.Q.Q.Q.Q.Q.Q.Q.Q.Q.Q.Q.Q.Q.Q.Q.Q.Q.Q.Q.Q.Q.Q.Q.Q./.- = * = = * = = = = = * = = - = = = * = = = * * = = * * - ",
"= - * = * = - = = * = = - * = = = = = = = = * - /.Q.Q.Q.Q.Q.Q.Q.Q.Q.Q.Q.Q.Q.Q.Q.Q.Q.Q.Q.Q.Q.Q.Q.Q.Q.Q.Q.Q.Q.Q.Q.Q.Q.Q.Q.Q.Q.Q.Q.Q.Q.Q.Q.Q.Q.Q.Q.Q.Q.Q.Q.Q.Q.Q.Q.).).).).).).).).).).).).).).).).).).).).).).).).).).).).).).).).).).).).!.R.R.R.T.E.Q.Q.Q.Q.Q.Q.Q.Q.Q.Q.Q.Q.Q.Q.Q.Q.Q.Q.Q.R.P.= Q.^.kXkXkXkXkXkXkXkXkXkXkXkXkXkXkXkXkXkXkXkXkXkXkX^.Q.R.P.= Q.Q.Q.Q.Q.Q.Q.Q.Q.Q.Q.Q.Q.Q.Q.Q.Q.Q.Q.E.T.R.R.R.!.).).).).).).).).).).).).).).).).).).).).).).).).).).).).).).).).).).).).Q.Q.Q.Q.Q.Q.Q.Q.Q.Q.Q.Q.Q.Q.Q.Q.Q.Q.Q.Q.Q.Q.Q.Q.Q.Q.Q.Q.Q.Q.Q.Q.Q.Q.Q.Q.Q.Q.Q.Q.Q.Q.Q.Q.Q.Q.Q.Q.Q.Q.Q.Q.Q.Q.Q./.- = = * = = = = = = = = = - = * - - - = - = = = = = - - = ",
"= - - = - = = - - - = = = - = - - - - = = * = - /.Q.Q.Q.Q.Q.Q.Q.Q.Q.Q.Q.Q.Q.Q.Q.Q.Q.Q.Q.Q.Q.Q.Q.Q.Q.Q.Q.Q.Q.Q.Q.Q.Q.Q.Q.Q.Q.Q.Q.Q.Q.Q.Q.Q.Q.Q.Q.Q.Q.Q.Q.Q.Q.Q.Q.).).).).).).).).).).).).).).).).).).).).).).).).).).).).).).).).).).).).R.R.R.R.T.E.Q.Q.Q.Q.Q.Q.Q.Q.Q.Q.Q.Q.Q.Q.Q.Q.Q.Q.Q.R.P.= Q.^.kXkXlXlXlXlXlXlXlXlXlXlXlXlXlXlXlXlXlXlXlXkXkX^.Q.R.P.= Q.Q.Q.Q.Q.Q.Q.Q.Q.Q.Q.Q.Q.Q.Q.Q.Q.Q.Q.E.T.R.R.R.R.).).).).).).).).).).).).).).).).).).).).).).).).).).).).).).).).).).).).Q.Q.Q.Q.Q.Q.Q.Q.Q.Q.Q.Q.Q.Q.Q.Q.Q.Q.Q.Q.Q.Q.Q.Q.Q.Q.Q.Q.Q.Q.Q.Q.Q.Q.Q.Q.Q.Q.Q.Q.Q.Q.Q.Q.Q.Q.Q.Q.Q.Q.Q.Q.Q.Q.Q./.- - - - = = = - - - = - = - = - - - = - - - = - - = - - = ",
"- - = = - - - - - - = - = - - - - - = = = * = - /.Q.Q.Q.Q.Q.Q.Q.Q.Q.Q.Q.Q.Q.Q.Q.Q.Q.Q.Q.Q.Q.Q.Q.Q.Q.Q.Q.Q.Q.Q.Q.Q.Q.Q.Q.Q.Q.Q.Q.Q.Q.Q.Q.Q.Q.Q.Q.Q.Q.Q.Q.Q.Q.Q.).).).).).).).).).).).).).).).).).).).).).).).).).).).).).).).).).).).).).R.R.R.R.T.E.Q.Q.Q.Q.Q.Q.Q.Q.Q.Q.Q.Q.Q.Q.Q.Q.Q.Q.Q.R.P.= Q.^.kXkXlXxXxXxXxXxXxXxXzXlXzXxXxXxXxXxXxXxXlXkXkX^.Q.R.P.= Q.Q.Q.Q.Q.Q.Q.Q.Q.Q.Q.Q.Q.Q.Q.Q.Q.Q.Q.E.T.R.R.R.R.).).).).).).).).).).).).).).).).).).).).).).).).).).).).).).).).).).).).).Q.Q.Q.Q.Q.Q.Q.Q.Q.Q.Q.Q.Q.Q.Q.Q.Q.Q.Q.Q.Q.Q.Q.Q.Q.Q.Q.Q.Q.Q.Q.Q.Q.Q.Q.Q.Q.Q.Q.Q.Q.Q.Q.Q.Q.Q.Q.Q.Q.Q.Q.Q.Q.Q./.- - - - = - - - - - = - - = = - - - - - - = - - - - = - - ",
"- = - ; ; ; - ; - - ; - - - ; - - - = = = * = - /.Q.Q.Q.Q.Q.Q.Q.Q.Q.Q.Q.Q.Q.Q.Q.Q.Q.Q.Q.Q.Q.Q.Q.Q.Q.Q.Q.Q.Q.Q.Q.Q.Q.Q.Q.Q.Q.Q.Q.Q.Q.Q.Q.Q.Q.Q.Q.Q.Q.Q.Q.Q.Q.Q.).).).).).).).).).).).).).).).).).).).).).).).).).).).).).).).).).).).).).R.R.R.R.T.E.Q.Q.Q.Q.Q.Q.Q.Q.Q.Q.Q.Q.Q.Q.Q.Q.Q.Q.Q.).).).Q.^.kXkXlXxXxXnXnXnXnXxXzXlXzXxXnXnXnXnXxXxXlXkXkX^.Q.).).).Q.Q.Q.Q.Q.Q.Q.Q.Q.Q.Q.Q.Q.Q.Q.Q.Q.Q.Q.E.T.R.R.R.R.).).).).).).).).).).).).).).).).).).).).).).).).).).).).).).).).).).).).).Q.Q.Q.Q.Q.Q.Q.Q.Q.Q.Q.Q.Q.Q.Q.Q.Q.Q.Q.Q.Q.Q.Q.Q.Q.Q.Q.Q.Q.Q.Q.Q.Q.Q.Q.Q.Q.Q.Q.Q.Q.Q.Q.Q.Q.Q.Q.Q.Q.Q.Q.Q.Q.Q./.- - = = - = - - - - = - - - - - - ; - - - - ; - = - - ; - ",
"- ; - - - - - - - ; ; ; ; ; - - - ; = = = * = - /.Q.Q.Q.Q.Q.Q.Q.Q.Q.Q.Q.Q.Q.Q.Q.Q.Q.Q.Q.Q.Q.Q.Q.Q.Q.Q.Q.Q.Q.Q.Q.Q.Q.Q.Q.Q.Q.Q.Q.Q.Q.Q.Q.Q.Q.Q.Q.Q.Q.Q.Q.Q.Q.).).).).).).).).).).).).).).).).).).).).).).).).).).).).).).).).).).).).).!.R.R.R.R.T.E.Q.Q.Q.Q.Q.Q.Q.Q.Q.Q.Q.Q.Q.Q.Q.Q.Q.Q.(.(.(.(.(.^.kXkXlXxXxXbXbXbXbXxXzXlXzXxXbXbXbXbXxXxXlXkXkX^.(.(.(.(.(.Q.Q.Q.Q.Q.Q.Q.Q.Q.Q.Q.Q.Q.Q.Q.Q.Q.Q.E.T.R.R.R.R.!.).).).).).).).).).).).).).).).).).).).).).).).).).).).).).).).).).).).).).Q.Q.Q.Q.Q.Q.Q.Q.Q.Q.Q.Q.Q.Q.Q.Q.Q.Q.Q.Q.Q.Q.Q.Q.Q.Q.Q.Q.Q.Q.Q.Q.Q.Q.Q.Q.Q.Q.Q.Q.Q.Q.Q.Q.Q.Q.Q.Q.Q.Q.Q.Q.Q./.- - - ; ; ; ; - - - ; - - - - - - ; - ; - ; - - ; - - - - ",
"- - ; ; ; ; - ; ; ; ; ; - - - - ; ; = = = * = - /.Q.Q.Q.Q.Q.Q.Q.Q.Q.Q.Q.Q.Q.Q.Q.Q.Q.Q.Q.Q.Q.Q.Q.Q.Q.Q.Q.Q.Q.Q.Q.Q.Q.Q.Q.Q.Q.Q.Q.Q.Q.Q.Q.Q.Q.Q.Q.Q.Q.Q.Q.Q.Q.).).).).).).).).).).).).).).).).).).).).).).).).).).).).).).).).).).).).).R.R.R.R.R.T.E.Q.Q.Q.Q.Q.Q.Q.Q.Q.Q.Q.Q.Q.Q.Q.Q.Q.(././.(././.^.kXkXlXxXxXvXvXvXvXxXzXlXzXxXvXvXvXvXxXxXlXkXkX^././.(././.(.Q.Q.Q.Q.Q.Q.Q.Q.Q.Q.Q.Q.Q.Q.Q.Q.Q.E.T.R.R.R.R.R.).).).).).).).).).).).).).).).).).).).).).).).).).).).).).).).).).).).).).Q.Q.Q.Q.Q.Q.Q.Q.Q.Q.Q.Q.Q.Q.Q.Q.Q.Q.Q.Q.Q.Q.Q.Q.Q.Q.Q.Q.Q.Q.Q.Q.Q.Q.Q.Q.Q.Q.Q.Q.Q.Q.Q.Q.Q.Q.Q.Q.Q.Q.Q.Q.Q./.; - ; ; ; - - ; ; ; ; ; ; ; ; - ; ; - - ; - ; - ; ; - ; - ",
": ; - ; ; : ; ; ; ; ; ; ; : ; ; ; ; = = = * = - ` _ _ _ _ _ _ _ _ _ _ _ _ _ _ _ _ _ _ _ _ _ _ _ _ _ _ _ _ _ _ _ _ _ _ _ _ _ _ _ _ _ _ _ _ _ _ _ _ _ _ _ _ ).).).).).).).).).).).).).).).).).).).).).).).).).).).).).).).).).).).).).).R.R.R.R.) ( ) _ _ _ _ _ _ _ _ _ _ _ _ _ _ _ _ ` ` ` ` ` ` ` ^.lXlXzXxXxXcXcXcXcXxXzXlXzXxXcXcXcXcXxXxXzXlXlX^.` ` ` ` ` ` ` _ _ _ _ _ _ _ _ _ _ _ _ _ _ _ _ ) ( R.R.R.R.R.).).).).).).).).).).).).).).).).).).).).).).).).).).).).).).).).).).).).).)._ _ _ _ _ _ _ _ _ _ _ _ _ _ _ _ _ _ _ _ _ _ _ _ _ _ _ _ _ _ _ _ _ _ _ _ _ _ _ _ _ _ _ _ _ _ _ _ _ _ _ _ ' ; : ; ; ; ; : ; ; ; ; - ; ; ; : ; ; : ; - ; ; : ; : ; - ; ",
"; ; ; : : : ; ; ; ; : ; ; ; ; ; : : = = = * = - ` _ _ _ _ _ _ _ _ _ _ _ _ _ _ _ _ _ _ _ _ _ _ _ _ _ _ _ _ _ _ _ _ _ _ _ _ _ _ _ _ _ _ _ _ _ _ _ _ _ _ _ _ ).).).).).).).).).).).).).).).).).).).).).).).).).).).).).).).).).).).).).).R.R.) ) ) ( ) _ _ _ _ _ _ _ _ _ _ _ _ _ _ _ ` ` ` ` ` ` ` ` ^.zXzXxXxXxXxXxXxXxXxXzXlXzXxXxXxXxXxXxXxXxXzXzX^.` ` ` ` ` ` ` ` _ _ _ _ _ _ _ _ _ _ _ _ _ _ _ ) ( ) ) ) R.R.).).).).).).).).).).).).).).).).).).).).).).).).).).).).).).).).).).).).).)._ _ _ _ _ _ _ _ _ _ _ _ _ _ _ _ _ _ _ _ _ _ _ _ _ _ _ _ _ _ _ _ _ _ _ _ _ _ _ _ _ _ _ _ _ _ _ _ _ _ _ _ ' ; : : : ; ; ; ; ; ; : : ; ; ; ; : : ; ; ; ; ; : : ; ; ; : ",
"; : ; ; : ; ; ; : ; : ; ; : ; ; : : = = = * = - ` _ _ _ _ _ _ _ _ _ _ _ _ _ _ _ _ _ _ _ _ _ _ _ _ _ _ _ _ _ _ _ _ _ _ _ _ _ _ _ _ _ _ _ _ _ _ _ _ _ _ _ ` ` ` ` ` ` ` ` ` ` ` ` ` ` ` ` ` ` ` ` ` ` ` ` ` ` ` ` ` ` ` ` ` ` ` ` ` ` ' ) ) ) ) ) ( ) _ _ _ _ _ _ _ _ _ _ _ _ _ _ ` ` ` ` ` ` ` ` ` ^.xXxXxXxXxXxXxXxXxXxXzXlXzXxXxXxXxXxXxXxXxXxXxX^.` ` ` ` ` ` ` ` ` _ _ _ _ _ _ _ _ _ _ _ _ _ _ ) ( ) ) ) ) ) ' ` ` ` ` ` ` ` ` ` ` ` ` ` ` ` ` ` ` ` ` ` ` ` ` ` ` ` ` ` ` ` ` ` ` ` ` ` ' _ _ _ _ _ _ _ _ _ _ _ _ _ _ _ _ _ _ _ _ _ _ _ _ _ _ _ _ _ _ _ _ _ _ _ _ _ _ _ _ _ _ _ _ _ _ _ _ _ _ _ ' ; ; ; ; ; : ; ; ; ; : ; ; : : : ; : : : : : ; ; : : : ; ; ",
"; : : ; ; ; ; : : ; : ; ; : : : ; : = = = * = - /.Q.Q.Q.Q.Q.Q.Q.Q.Q.Q.Q.Q.Q.Q.Q.Q.Q.Q.Q.Q.Q.Q.Q.Q.Q.Q.Q.Q.Q.Q.Q.Q.Q.Q.Q.Q.Q.Q.Q.Q.Q.Q.Q.Q.Q.Q.Q.Q.Q.Q.Q.` ` ` ` ` ` ` ` ` ` ` ` ` ` ` ` ` ` ` ` ` ` ` ` ` ` ` ` ` ` ` ` ` ` ` ` ` ' ) ) ) ) ) R.T.E.Q.Q.Q.Q.Q.Q.Q.Q.Q.Q.Q.Q.Q.Q.Q.Q.Q.Q.Q.Q.Q.Q.Q.^.xXxXxXxXxXxXxXxXxXxXzXlXzXxXxXxXxXxXxXxXxXxXxX^.Q.Q.Q.Q.Q.Q.Q.Q.Q.Q.Q.Q.Q.Q.Q.Q.Q.Q.Q.Q.Q.Q.Q.E.T.) ) ) ) ) ) ' ` ` ` ` ` ` ` ` ` ` ` ` ` ` ` ` ` ` ` ` ` ` ` ` ` ` ` ` ` ` ` ` ` ` ` ` ' Q.Q.Q.Q.Q.Q.Q.Q.Q.Q.Q.Q.Q.Q.Q.Q.Q.Q.Q.Q.Q.Q.Q.Q.Q.Q.Q.Q.Q.Q.Q.Q.Q.Q.Q.Q.Q.Q.Q.Q.Q.Q.Q.Q.Q.Q.Q.Q.Q.Q.Q./.: : ; : : : ; : ; : : ; ; : : ; ; : : : : : : ; : : : : : ",
": : : : : : : : : : : : : ; : : : : = = = * = - /.Q.Q.Q.Q.Q.Q.Q.Q.Q.Q.Q.Q.Q.Q.Q.Q.Q.Q.Q.Q.Q.Q.Q.Q.Q.Q.Q.Q.Q.Q.Q.Q.Q.Q.Q.Q.Q.Q.Q.Q.Q.Q.Q.Q.Q.Q.Q.Q.Q.Q.` ` ` ` ` ` ` ` ` ` ` ` ` ` ` ` ` ` ` ` ` ` ` ` ` ` ` ` ` ` ` ` ` ` ` ` ` ` ' ) ) R.R.R.R.T.E.Q.Q.Q.Q.Q.Q.Q.Q.Q.Q.Q.Q.Q.Q.Q.Q.Q.Q.Q.Q.Q.Q.Q.^.xXxXxXxXxXxXxXxXxXxXzXlXzXxXxXxXxXxXxXxXxXxXxX^.Q.Q.Q.Q.Q.Q.Q.Q.Q.Q.Q.Q.Q.Q.Q.Q.Q.Q.Q.Q.Q.Q.Q.E.T.R.R.R.R.) ) ' ` ` ` ` ` ` ` ` ` ` ` ` ` ` ` ` ` ` ` ` ` ` ` ` ` ` ` ` ` ` ` ` ` ` ` ` ` ' Q.Q.Q.Q.Q.Q.Q.Q.Q.Q.Q.Q.Q.Q.Q.Q.Q.Q.Q.Q.Q.Q.Q.Q.Q.Q.Q.Q.Q.Q.Q.Q.Q.Q.Q.Q.Q.Q.Q.Q.Q.Q.Q.Q.Q.Q.Q.Q.Q.Q./.: : : : : : : : : : : : : ; : : : : : : : : : : : : : : : ",
": : : : : : : : : : : : : : : : : : = = = * = - /.Q.Q.Q.Q.Q.Q.Q.Q.Q.Q.Q.Q.Q.Q.Q.Q.Q.Q.Q.Q.Q.Q.Q.Q.Q.Q.Q.Q.Q.Q.Q.Q.Q.Q.Q.Q.Q.Q.Q.Q.Q.Q.Q.Q.Q.Q.Q.Q.Q.Q.).).).).).).).).).).).).).).).).).).).).).).).).).).).).).).).).).).).).).).).R.R.R.R.R.R.T.E.Q.Q.Q.Q.Q.Q.Q.Q.Q.Q.Q.Q.Q.Q.Q.Q.Q.Q.Q.Q.Q.Q.Q.^.xXxXxXxXxXxXxXxXxXxXzXlXzXxXxXxXxXxXxXxXxXxXxX^.Q.Q.Q.Q.Q.Q.Q.Q.Q.Q.Q.Q.Q.Q.Q.Q.Q.Q.Q.Q.Q.Q.Q.E.T.R.R.R.R.R.R.).).).).).).).).).).).).).).).).).).).).).).).).).).).).).).).).).).).).).).).Q.Q.Q.Q.Q.Q.Q.Q.Q.Q.Q.Q.Q.Q.Q.Q.Q.Q.Q.Q.Q.Q.Q.Q.Q.Q.Q.Q.Q.Q.Q.Q.Q.Q.Q.Q.Q.Q.Q.Q.Q.Q.Q.Q.Q.Q.Q.Q.Q.Q./.: : : : : : : : : : : : : : : : : : : : : : : : : : : : : ",
"+ + + + + + + + + + + + + + + + + + + + + + + + + + + + + + + + + + + + + + + + + + + + + + + + + + + + + + + + + + + + + + + + + + + + + + + + + + + + + + + + + + + + + + + + + + + + + + + + + + + + + + + + + + + + + + + + + + + + + + + + + + + + + + + + + + + + + + + + + + + + + + + + + + + + + + + + + + + + + + + + + + + + + + + + + + + + + + + + + + + + + + + + + + + + + + + + + + + + + + + + + + + + + + + + + + + + + + + + + + + + + + + + + + + + + + + + + + + + + + + + + + + + + + + + + + + + + + + + + + + + + + + + + + + + + + + + + + + + + + + + + + + + + + + + + + + + + + + + + + + + + + + + + + + + + + + + + + + + + + + + ",
"+ + + + + + + + + + + + + + + + + + + + + + + + + + + + + + + + + + + + + + + + + + + + + + + + + + + + + + + + + + + + + + + + + + + + + + + + + + + + + + + + + + + + + + + + + + + + + + + + + + + + + + + + + + + + + + + + + + + + + + + + + + + + + + + + + + + + + + + + + + + + + + + + + + + + + + + + + + + + + + + + + + + + + + + + + + + + + + + + + + + + + + + + + + + + + + + + + + + + + + + + + + + + + + + + + + + + + + + + + + + + + + + + + + + + + + + + + + + + + + + + + + + + + + + + + + + + + + + + + + + + + + + + + + + + + + + + + + + + + + + + + + + + + + + + + + + + + + + + + + + + + + + + + + + + + + + + + + + + + + + + ",
"+ + + + + + + + + + + + + + + + + + + + + + + + + + + + + + + + + + + + + + + + + + + + + + + + + + + + + + + + + + + + + + + + + + + + + + + + + + + + + + + + + + + + + + + + + + + + + + + + + + + + + + + + + + + + + + + + + + + + + + + + + + + + + + + + + + + + + + + + + + + + + + + + + + + + + + + + + + + + + + + + + + + + + + + + + + + + + + + + + + + + + + + + + + + + + + + + + + + + + + + + + + + + + + + + + + + + + + + + + + + + + + + + + + + + + + + + + + + + + + + + + + + + + + + + + + + + + + + + + + + + + + + + + + + + + + + + + + + + + + + + + + + + + + + + + + + + + + + + + + + + + + + + + + + + + + + + + + + + + + + + ",
"+ + + + + + + + + + + + + + + + + + + + + + + + + + + + + + + + + + + + + + + + + + + + + + + + + + + + + + + + + + + + + + + + + + + + + + + + + + + + + + + + + + + + + + + + + + + + + + + + + + + + + + + + + + + + + + + + + + + + + + + + + + + + + + + + + + + + + + + + + + + + + + + + + + + + + + + + + + + + + + + + + + + + + + + + + + + + + + + + + + + + + + + + + + + + + + + + + + + + + + + + + + + + + + + + + + + + + + + + + + + + + + + + + + + + + + + + + + + + + + + + + + + + + + + + + + + + + + + + + + + + + + + + + + + + + + + + + + + + + + + + + + + + + + + + + + + + + + + + + + + + + + + + + + + + + + + + + + + + + + + + ",
"+ + + + + + + + + + + + + + + + + + + + + + + + + + + + + + + + + + + + + + + + + + + + + + + + + + + + + + + + + + + + + + + + + + + + + + + + + + + + + + + + + + + + + + + + + + + + + + + + + + + + + + + + + + + + + + + + + + + + + + + + + + + + + + + + + + + + + + + + + + + + + + + + + + + + + + + + + + + + + + + + + + + + + + + + + + + + + + + + + + + + + + + + + + + + + + + + + + + + + + + + + + + + + + + + + + + + + + + + + + + + + + + + + + + + + + + + + + + + + + + + + + + + + + + + + + + + + + + + + + + + + + + + + + + + + + + + + + + + + + + + + + + + + + + + + + + + + + + + + + + + + + + + + + + + + + + + + + + + + + + + ",
"+ + + + + + + + + + + + + + + + + + + + + + + + + + + + + + + + + + + + + + + + + + + + + + + + + + + + + + + + + + + + + + + + + + + + + + + + + + + + + + + + + + + + + + + + + + + + + + + + + + + + + + + + + + + + + + + + + + + + + + + + + + + + + + + + + + + + + + + + + + + + + + + + + + + + + + + + + + + + + + + + + + + + + + + + + + + + + + + + + + + + + + + + + + + + + + + + + + + + + + + + + + + + + + + + + + + + + + + + + + + + + + + + + + + + + + + + + + + + + + + + + + + + + + + + + + + + + + + + + + + + + + + + + + + + + + + + + + + + + + + + + + + + + + + + + + + + + + + + + + + + + + + + + + + + + + + + + + + + + + + + ",
"+ + + + + + + + + + + + + + + + + + + + + + + + + + + + + + + + + + + + + + + + + + + + + + + + + + + + + + + + + + + + + + + + + + + + + + + + + + + + + + + + + + + + + + + + + + + + + + + + + + + + + + + + + + + + + + + + + + + + + + + + + + + + + + + + + + + + + + + + + + + + + + + + + + + + + + + + + + + + + + + + + + + + + + + + + + + + + + + + + + + + + + + + + + + + + + + + + + + + + + + + + + + + + + + + + + + + + + + + + + + + + + + + + + + + + + + + + + + + + + + + + + + + + + + + + + + + + + + + + + + + + + + + + + + + + + + + + + + + + + + + + + + + + + + + + + + + + + + + + + + + + + + + + + + + + + + + + + + + + + + + ",
"+ + + + + + + + + + + + + + + + + + + + + + + + + + + + + + + + + + + + + + + + + + + + + + + + + + + + + + + + + + + + + + + + + + + + + + + + + + + + + + + + + + + + + + + + + + + + + + + + + + + + + + + + + + + + + + + + + + + + + + + + + + + + + + + + + + + + + + + + + + + + + + + + + + + + + + + + + + + + + + + + + + + + + + + + + + + + + + + + + + + + + + + + + + + + + + + + + + + + + + + + + + + + + + + + + + + + + + + + + + + + + + + + + + + + + + + + + + + + + + + + + + + + + + + + + + + + + + + + + + + + + + + + + + + + + + + + + + + + + + + + + + + + + + + + + + + + + + + + + + + + + + + + + + + + + + + + + + + + + + + + ",
"+ + + + + + + + + + + + + + + + + + + + + + + + + + + + + + + + + + + + + + + + + + + + + + + + + + + + + + + + + + + + + + + + + + + + + + + + + + + + + + + + + + + + + + + + + + + + + + + + + + + + + + + + + + + + + + + + + + + + + + + + + + + + + + + + + + + + + + + + + + + + + + + + + + + + + + + + + + + + + + + + + + + + + + + + + + + + + + + + + + + + + + + + + + + + + + + + + + + + + + + + + + + + + + + + + + + + + + + + + + + + + + + + + + + + + + + + + + + + + + + + + + + + + + + + + + + + + + + + + + + + + + + + + + + + + + + + + + + + + + + + + + + + + + + + + + + + + + + + + + + + + + + + + + + + + + + + + + + + + + + + ",
"+ + + + + + + + + + + + + + + + + + + + + + + + + + + + + + + + + + + + + + + + + + + + + + + + + + + + + + + + + + + + + + + + + + + + + + + + + + + + + + + + + + + + + + + + + + + + + + + + + + + + + + + + + + + + + + + + + + + + + + + + + + + + + + + + + + + + + + + + + + + + + + + + + + + + + + + + + + + + + + + + + + + + + + + + + + + + + + + + + + + + + + + + + + + + + + + + + + + + + + + + + + + + + + + + + + + + + + + + + + + + + + + + + + + + + + + + + + + + + + + + + + + + + + + + + + + + + + + + + + + + + + + + + + + + + + + + + + + + + + + + + + + + + + + + + + + + + + + + + + + + + + + + + + + + + + + + + + + + + + + + ",
"+ + + + + + + + + + + + + + + + + + + + + + + + + + + + + + + + + + + + + + + + + + + + + + + + + + + + + + + + + + + + + + + + + + + + + + + + + + + + + + + + + + + + + + + + + + + + + + + + + + + + + + + + + + + + + + + + + + + + + + + + + + + + + + + + + + + + + + + + + + + + + + + + + + + + + + + + + + + + + + + + + + + + + + + + + + + + + + + + + + + + + + + + + + + + + + + + + + + + + + + + + + + + + + + + + + + + + + + + + + + + + + + + + + + + + + + + + + + + + + + + + + + + + + + + + + + + + + + + + + + + + + + + + + + + + + + + + + + + + + + + + + + + + + + + + + + + + + + + + + + + + + + + + + + + + + + + + + + + + + + + ",
"+ + + + + + + + + + + + + + + + + + + + + + + + + + + + + + + + + + + + + + + + + + + + + + + + + + + + + + + + + + + + + + + + + + + + + + + + + + + + + + + + + + + + + + + + + + + + + + + + + + + + + + + + + + + + + + + + + + + + + + + + + + + + + + + + + + + + + + + + + + + + + + + + + + + + + + + + + + + + + + + + + + + + + + + + + + + + + + + + + + + + + + + + + + + + + + + + + + + + + + + + + + + + + + + + + + + + + + + + + + + + + + + + + + + + + + + + + + + + + + + + + + + + + + + + + + + + + + + + + + + + + + + + + + + + + + + + + + + + + + + + + + + + + + + + + + + + + + + + + + + + + + + + + + + + + + + + + + + + + + + + ",
"+ + + + + + + + + + + + + + + + + + + + + + + + + + + + + + + + + + + + + + + + + + + + + + + + + + + + + + + + + + + + + + + + + + + + + + + + + + + + + + + + + + + + + + + + + + + + + + + + + + + + + + + + + + + + + + + + + + + + + + + + + + + + + + + + + + + + + + + + + + + + + + + + + + + + + + + + + + + + + + + + + + + + + + + + + + + + + + + + + + + + + + + + + + + + + + + + + + + + + + + + + + + + + + + + + + + + + + + + + + + + + + + + + + + + + + + + + + + + + + + + + + + + + + + + + + + + + + + + + + + + + + + + + + + + + + + + + + + + + + + + + + + + + + + + + + + + + + + + + + + + + + + + + + + + + + + + + + + + + + + + ",
"+ + + + + + + + + + + + + + + + + + + + + + + + + + + + + + + + + + + + + + + + + + + + + + + + + + + + + + + + + + + + + + + + + + + + + + + + + + + + + + + + + + + + + + + + + + + + + + + + + + + + + + + + + + + + + + + + + + + + + + + + + + + + + + + + + + + + + + + + + + + + + + + + + + + + + + + + + + + + + + + + + + + + + + + + + + + + + + + + + + + + + + + + + + + + + + + + + + + + + + + + + + + + + + + + + + + + + + + + + + + + + + + + + + + + + + + + + + + + + + + + + + + + + + + + + + + + + + + + + + + + + + + + + + + + + + + + + + + + + + + + + + + + + + + + + + + + + + + + + + + + + + + + + + + + + + + + + + + + + + + + ",
"+ + + + + + + + + + + + + + + + + + + + + + + + + + + + + + + + + + + + + + + + + + + + + + + + + + + + + + + + + + + + + + + + + + + + + + + + + + + + + + + + + + + + + + + + + + + + + + + + + + + + + + + + + + + + + + + + + + + + + + + + + + + + + + + + + + + + + + + + + + + + + + + + + + + + + + + + + + + + + + + + + + + + + + + + + + + + + + + + + + + + + + + + + + + + + + + + + + + + + + + + + + + + + + + + + + + + + + + + + + + + + + + + + + + + + + + + + + + + + + + + + + + + + + + + + + + + + + + + + + + + + + + + + + + + + + + + + + + + + + + + + + + + + + + + + + + + + + + + + + + + + + + + + + + + + + + + + + + + + + + + ",
"+ + + + + + + + + + + + + + + + + + + + + + + + + + + + + + + + + + + + + + + + + + + + + + + + + + + + + + + + + + + + + + + + + + + + + + + + + + + + + + + + + + + + + + + + + + + + + + + + + + + + + + + + + + + + + + + + + + + + + + + + + + + + + + + + + + + + + + + + + + + + + + + + + + + + + + + + + + + + + + + + + + + + + + + + + + + + + + + + + + + + + + + + + + + + + + + + + + + + + + + + + + + + + + + + + + + + + + + + + + + + + + + + + + + + + + + + + + + + + + + + + + + + + + + + + + + + + + + + + + + + + + + + + + + + + + + + + + + + + + + + + + + + + + + + + + + + + + + + + + + + + + + + + + + + + + + + + + + + + + + + ",
"+ + + + + + + + + + + + + + + + + + + + + + + + + + + + + + + + + + + + + + + + + + + + + + + + + + + + + + + + + + + + + + + + + + + + + + + + + + + + + + + + + + + + + + + + + + + + + + + + + + + + + + + + + + + + + + + + + + + + + + + + + + + + + + + + + + + + + + + + + + + + + + + + + + + + + + + + + + + + + + + + + + + + + + + + + + + + + + + + + + + + + + + + + + + + + + + + + + + + + + + + + + + + + + + + + + + + + + + + + + + + + + + + + + + + + + + + + + + + + + + + + + + + + + + + + + + + + + + + + + + + + + + + + + + + + + + + + + + + + + + + + + + + + + + + + + + + + + + + + + + + + + + + + + + + + + + + + + + + + + + + ",
"+ + + + + + + + + + + + + + + + + + + + + + + + + + + + + + + + + + + + + + + + + + + + + + + + + + + + + + + + + + + + + + + + + + + + + + + + + + + + + + + + + + + + + + + + + + + + + + + + + + + + + + + + + + + + + + + + + + + + + + + + + + + + + + + + + + + + + + + + + + + + + + + + + + + + + + + + + + + + + + + + + + + + + + + + + + + + + + + + + + + + + + + + + + + + + + + + + + + + + + + + + + + + + + + + + + + + + + + + + + + + + + + + + + + + + + + + + + + + + + + + + + + + + + + + + + + + + + + + + + + + + + + + + + + + + + + + + + + + + + + + + + + + + + + + + + + + + + + + + + + + + + + + + + + + + + + + + + + + + + + + ",
"+ + + + + + + + + + + + + + + + + + + + + + + + + + + + + + + + + + + + + + + + + + + + + + + + + + + + + + + + + + + + + + + + + + + + + + + + + + + + + + + + + + + + + + + + + + + + + + + + + + + + + + + + + + + + + + + + + + + + + + + + + + + + + + + + + + + + + + + + + + + + + + + + + + + + + + + + + + + + + + + + + + + + + + + + + + + + + + + + + + + + + + + + + + + + + + + + + + + + + + + + + + + + + + + + + + + + + + + + + + + + + + + + + + + + + + + + + + + + + + + + + + + + + + + + + + + + + + + + + + + + + + + + + + + + + + + + + + + + + + + + + + + + + + + + + + + + + + + + + + + + + + + + + + + + + + + + + + + + + + + + ",
"+ + + + + + + + + + + + + + + + + + + + + + + + + + + + + + + + + + + + + + + + + + + + + + + + + + + + + + + + + + + + + + + + + + + + + + + + + + + + + + + + + + + + + + + + + + + + + + + + + + + + + + + + + + + + + + + + + + + + + + + + + + + + + + + + + + + + + + + + + + + + + + + + + + + + + + + + + + + + + + + + + + + + + + + + + + + + + + + + + + + + + + + + + + + + + + + + + + + + + + + + + + + + + + + + + + + + + + + + + + + + + + + + + + + + + + + + + + + + + + + + + + + + + + + + + + + + + + + + + + + + + + + + + + + + + + + + + + + + + + + + + + + + + + + + + + + + + + + + + + + + + + + + + + + + + + + + + + + + + + + + ",
"+ + + + + + + + + + + + + + + + + + + + + + + + + + + + + + + + + + + + + + + + + + + + + + + + + + + + + + + + + + + + + + + + + + + + + + + + + + + + + + + + + + + + + + + + + + + + + + + + + + + + + + + + + + + + + + + + + + + + + + + + + + + + + + + + + + + + + + + + + + + + + + + + + + + + + + + + + + + + + + + + + + + + + + + + + + + + + + + + + + + + + + + + + + + + + + + + + + + + + + + + + + + + + + + + + + + + + + + + + + + + + + + + + + + + + + + + + + + + + + + + + + + + + + + + + + + + + + + + + + + + + + + + + + + + + + + + + + + + + + + + + + + + + + + + + + + + + + + + + + + + + + + + + + + + + + + + + + + + + + + + ",
"+ + + + + + + + + + + + + + + + + + + + + + + + + + + + + + + + + + + + + + + + + + + + + + + + + + + + + + + + + + + + + + + + + + + + + + + + + + + + + + + + + + + + + + + + + + + + + + + + + + + + + + + + + + + + + + + + + + + + + + + + + + + + + + + + + + + + + + + + + + + + + + + + + + + + + + + + + + + + + + + + + + + + + + + + + + + + + + + + + + + + + + + + + + + + + + + + + + + + + + + + + + + + + + + + + + + + + + + + + + + + + + + + + + + + + + + + + + + + + + + + + + + + + + + + + + + + + + + + + + + + + + + + + + + + + + + + + + + + + + + + + + + + + + + + + + + + + + + + + + + + + + + + + + + + + + + + + + + + + + + + ",
"+ + + + + + + + + + + + + + + + + + + + + + + + + + + + + + + + + + + + + + + + + + + + + + + + + + + + + + + + + + + + + + + + + + + + + + + + + + + + + + + + + + + + + + + + + + + + + + + + + + + + + + + + + + + + + + + + + + + + + + + + + + + + + + + + + + + + + + + + + + + + + + + + + + + + + + + + + + + + + + + + + + + + + + + + + + + + + + + + + + + + + + + + + + + + + + + + + + + + + + + + + + + + + + + + + + + + + + + + + + + + + + + + + + + + + + + + + + + + + + + + + + + + + + + + + + + + + + + + + + + + + + + + + + + + + + + + + + + + + + + + + + + + + + + + + + + + + + + + + + + + + + + + + + + + + + + + + + + + + + + + ",
"+ + + + + + + + + + + + + + + + + + + + + + + + + + + + + + + + + + + + + + + + + + + + + + + + + + + + + + + + + + + + + + + + + + + + + + + + + + + + + + + + + + + + + + + + + + + + + + + + + + + + + + + + + + + + + + + + + + + + + + + + + + + + + + + + + + + + + + + + + + + + + + + + + + + + + + + + + + + + + + + + + + + + + + + + + + + + + + + + + + + + + + + + + + + + + + + + + + + + + + + + + + + + + + + + + + + + + + + + + + + + + + + + + + + + + + + + + + + + + + + + + + + + + + + + + + + + + + + + + + + + + + + + + + + + + + + + + + + + + + + + + + + + + + + + + + + + + + + + + + + + + + + + + + + + + + + + + + + + + + + + ",
"+ + + + + + + + + + + + + + + + + + + + + + + + + + + + + + + + + + + + + + + + + + + + + + + + + + + + + + + + + + + + + + + + + + + + + + + + + + + + + + + + + + + + + + + + + + + + + + + + + + + + + + + + + + + + + + + + + + + + + + + + + + + + + + + + + + + + + + + + + + + + + + + + + + + + + + + + + + + + + + + + + + + + + + + + + + + + + + + + + + + + + + + + + + + + + + + + + + + + + + + + + + + + + + + + + + + + + + + + + + + + + + + + + + + + + + + + + + + + + + + + + + + + + + + + + + + + + + + + + + + + + + + + + + + + + + + + + + + + + + + + + + + + + + + + + + + + + + + + + + + + + + + + + + + + + + + + + + + + + + + + ",
"+ + + + + + + + + + + + + + + + + + + + + + + + + + + + + + + + + + + + + + + + + + + + + + + + + + + + + + + + + + + + + + + + + + + + + + + + + + + + + + + + + + + + + + + + + + + + + + + + + + + + + + + + + + + + + + + + + + + + + + + + + + + + + + + + + + + + + + + + + + + + + + + + + + + + + + + + + + + + + + + + + + + + + + + + + + + + + + + + + + + + + + + + + + + + + + + + + + + + + + + + + + + + + + + + + + + + + + + + + + + + + + + + + + + + + + + + + + + + + + + + + + + + + + + + + + + + + + + + + + + + + + + + + + + + + + + + + + + + + + + + + + + + + + + + + + + + + + + + + + + + + + + + + + + + + + + + + + + + + + + + ",
"+ + + + + + + + + + + + + + + + + + + + + + + + + + + + + + + + + + + + + + + + + + + + + + + + + + + + + + + + + + + + + + + + + + + + + + + + + + + + + + + + + + + + + + + + + + + + + + + + + + + + + + + + + + + + + + + + + + + + + + + + + + + + + + + + + + + + + + + + + + + + + + + + + + + + + + + + + + + + + + + + + + + + + + + + + + + + + + + + + + + + + + + + + + + + + + + + + + + + + + + + + + + + + + + + + + + + + + + + + + + + + + + + + + + + + + + + + + + + + + + + + + + + + + + + + + + + + + + + + + + + + + + + + + + + + + + + + + + + + + + + + + + + + + + + + + + + + + + + + + + + + + + + + + + + + + + + + + + + + + + + ",
"+ + + + + + + + + + + + + + + + + + + + + + + + + + + + + + + + + + + + + + + + + + + + + + + + + + + + + + + + + + + + + + + + + + + + + + + + + + + + + + + + + + + + + + + + + + + + + + + + + + + + + + + + + + + + + + + + + + + + + + + + + + + + + + + + + + + + + + + + + + + + + + + + + + + + + + + + + + + + + + + + + + + + + + + + + + + + + + + + + + + + + + + + + + + + + + + + + + + + + + + + + + + + + + + + + + + + + + + + + + + + + + + + + + + + + + + + + + + + + + + + + + + + + + + + + + + + + + + + + + + + + + + + + + + + + + + + + + + + + + + + + + + + + + + + + + + + + + + + + + + + + + + + + + + + + + + + + + + + + + + + ",
"+ + + + + + + + + + + + + + + + + + + + + + + + + + + + + + + + + + + + + + + + + + + + + + + + + + + + + + + + + + + + + + + + + + + + + + + + + + + + + + + + + + + + + + + + + + + + + + + + + + + + + + + + + + + + + + + + + + + + + + + + + + + + + + + + + + + + + + + + + + + + + + + + + + + + + + + + + + + + + + + + + + + + + + + + + + + + + + + + + + + + + + + + + + + + + + + + + + + + + + + + + + + + + + + + + + + + + + + + + + + + + + + + + + + + + + + + + + + + + + + + + + + + + + + + + + + + + + + + + + + + + + + + + + + + + + + + + + + + + + + + + + + + + + + + + + + + + + + + + + + + + + + + + + + + + + + + + + + + + + + + ",
"+ + + + + + + + + + + + + + + + + + + + + + + + + + + + + + + + + + + + + + + + + + + + + + + + + + + + + + + + + + + + + + + + + + + + + + + + + + + + + + + + + + + + + + + + + + + + + + + + + + + + + + + + + + + + + + + + + + + + + + + + + + + + + + + + + + + + + + + + + + + + + + + + + + + + + + + + + + + + + + + + + + + + + + + + + + + + + + + + + + + + + + + + + + + + + + + + + + + + + + + + + + + + + + + + + + + + + + + + + + + + + + + + + + + + + + + + + + + + + + + + + + + + + + + + + + + + + + + + + + + + + + + + + + + + + + + + + + + + + + + + + + + + + + + + + + + + + + + + + + + + + + + + + + + + + + + + + + + + + + + + ",
"+ + + + + + + + + + + + + + + + + + + + + + + + + + + + + + + + + + + + + + + + + + + + + + + + + + + + + + + + + + + + + + + + + + + + + + + + + + + + + + + + + + + + + + + + + + + + + + + + + + + + + + + + + + + + + + + + + + + + + + + + + + + + + + + + + + + + + + + + + + + + + + + + + + + + + + + + + + + + + + + + + + + + + + + + + + + + + + + + + + + + + + + + + + + + + + + + + + + + + + + + + + + + + + + + + + + + + + + + + + + + + + + + + + + + + + + + + + + + + + + + + + + + + + + + + + + + + + + + + + + + + + + + + + + + + + + + + + + + + + + + + + + + + + + + + + + + + + + + + + + + + + + + + + + + + + + + + + + + + + + + ",
"+ + + + + + + + + + + + + + + + + + + + + + + + + + + + + + + + + + + + + + + + + + + + + + + + + + + + + + + + + + + + + + + + + + + + + + + + + + + + + + + + + + + + + + + + + + + + + + + + + + + + + + + + + + + + + + + + + + + + + + + + + + + + + + + + + + + + + + + + + + + + + + + + + + + + + + + + + + + + + + + + + + + + + + + + + + + + + + + + + + + + + + + + + + + + + + + + + + + + + + + + + + + + + + + + + + + + + + + + + + + + + + + + + + + + + + + + + + + + + + + + + + + + + + + + + + + + + + + + + + + + + + + + + + + + + + + + + + + + + + + + + + + + + + + + + + + + + + + + + + + + + + + + + + + + + + + + + + + + + + + + ",
"+ + + + + + + + + + + + + + + + + + + + + + + + + + + + + + + + + + + + + + + + + + + + + + + + + + + + + + + + + + + + + + + + + + + + + + + + + + + + + + + + + + + + + + + + + + + + + + + + + + + + + + + + + + + + + + + + + + + + + + + + + + + + + + + + + + + + + + + + + + + + + + + + + + + + + + + + + + + + + + + + + + + + + + + + + + + + + + + + + + + + + + + + + + + + + + + + + + + + + + + + + + + + + + + + + + + + + + + + + + + + + + + + + + + + + + + + + + + + + + + + + + + + + + + + + + + + + + + + + + + + + + + + + + + + + + + + + + + + + + + + + + + + + + + + + + + + + + + + + + + + + + + + + + + + + + + + + + + + + + + + ",
"+ + + + + + + + + + + + + + + + + + + + + + + + + + + + + + + + + + + + + + + + + + + + + + + + + + + + + + + + + + + + + + + + + + + + + + + + + + + + + + + + + + + + + + + + + + + + + + + + + + + + + + + + + + + + + + + + + + + + + + + + + + + + + + + + + + + + + + + + + + + + + + + + + + + + + + + + + + + + + + + + + + + + + + + + + + + + + + + + + + + + + + + + + + + + + + + + + + + + + + + + + + + + + + + + + + + + + + + + + + + + + + + + + + + + + + + + + + + + + + + + + + + + + + + + + + + + + + + + + + + + + + + + + + + + + + + + + + + + + + + + + + + + + + + + + + + + + + + + + + + + + + + + + + + + + + + + + + + + + + + + ",
"+ + + + + + + + + + + + + + + + + + + + + + + + + + + + + + + + + + + + + + + + + + + + + + + + + + + + + + + + + + + + + + + + + + + + + + + + + + + + + + + + + + + + + + + + + + + + + + + + + + + + + + + + + + + + + + + + + + + + + + + + + + + + + + + + + + + + + + + + + + + + + + + + + + + + + + + + + + + + + + + + + + + + + + + + + + + + + + + + + + + + + + + + + + + + + + + + + + + + + + + + + + + + + + + + + + + + + + + + + + + + + + + + + + + + + + + + + + + + + + + + + + + + + + + + + + + + + + + + + + + + + + + + + + + + + + + + + + + + + + + + + + + + + + + + + + + + + + + + + + + + + + + + + + + + + + + + + + + + + + + + ",
"+ + + + + + + + + + + + + + + + + + + + + + + + + + + + + + + + + + + + + + + + + + + + + + + + + + + + + + + + + + + + + + + + + + + + + + + + + + + + + + + + + + + + + + + + + + + + + + + + + + + + + + + + + + + + + + + + + + + + + + + + + + + + + + + + + + + + + + + + + + + + + + + + + + + + + + + + + + + + + + + + + + + + + + + + + + + + + + + + + + + + + + + + + + + + + + + + + + + + + + + + + + + + + + + + + + + + + + + + + + + + + + + + + + + + + + + + + + + + + + + + + + + + + + + + + + + + + + + + + + + + + + + + + + + + + + + + + + + + + + + + + + + + + + + + + + + + + + + + + + + + + + + + + + + + + + + + + + + + + + + + ",
"+ + + + + + + + + + + + + + + + + + + + + + + + + + + + + + + + + + + + + + + + + + + + + + + + + + + + + + + + + + + + + + + + + + + + + + + + + + + + + + + + + + + + + + + + + + + + + + + + + + + + + + + + + + + + + + + + + + + + + + + + + + + + + + + + + + + + + + + + + + + + + + + + + + + + + + + + + + + + + + + + + + + + + + + + + + + + + + + + + + + + + + + + + + + + + + + + + + + + + + + + + + + + + + + + + + + + + + + + + + + + + + + + + + + + + + + + + + + + + + + + + + + + + + + + + + + + + + + + + + + + + + + + + + + + + + + + + + + + + + + + + + + + + + + + + + + + + + + + + + + + + + + + + + + + + + + + + + + + + + + + "
};
