/* XPM */
static char *end_floor3_058[] = {
/* columns rows colors chars-per-pixel */
"320 200 67 1 ",
"  c #000000",
". c #0B0B0B",
"X c gray8",
"o c #1C1C1C",
"O c #00002C",
"+ c #00003C",
"@ c gray14",
"# c #2C2C2C",
"$ c #343434",
"% c #3C3C3C",
"& c #600000",
"* c #643000",
"= c #743804",
"- c #004400",
"; c #005C00",
": c #007400",
"> c #000050",
", c #000064",
"< c #244870",
"1 c #444444",
"2 c #4C4C4C",
"3 c #545454",
"4 c #5C5C5C",
"5 c #646464",
"6 c #6C6C6C",
"7 c #747474",
"8 c #7C7C7C",
"9 c #F80000",
"0 c #884404",
"q c #984C08",
"w c #AC580C",
"e c #C47024",
"r c #008C00",
"t c #00A400",
"y c #CC8038",
"u c #D09050",
"i c #DCAC7C",
"p c #040488",
"a c #0C0CAC",
"s c #2C5480",
"d c #346090",
"f c #3C6CA0",
"g c #4C78A8",
"h c #1010C0",
"j c #4040D0",
"k c #7878E0",
"l c #5884B0",
"z c #6C90BC",
"x c #848484",
"c c #8C8C8C",
"v c #939393",
"b c #989898",
"n c #A0A0A0",
"m c #A8A8A8",
"M c #B0B0B0",
"N c #BCBCBC",
"B c #ECD0B4",
"V c #80A0C4",
"C c #C4C4C4",
"Z c #CCCCCC",
"A c #D4D4D4",
"S c #DADADA",
"D c #D8D8F4",
"F c #E0E0E0",
"G c #E8E8E8",
"H c #F1F1F1",
"J c #FCFCFC",
/* pixels */
"@@@@@@@@@@@@@@@@@@@@@@@@@@@@@@@@@@@@@@@@@@@@@@@@@@@@@@@@@@@@@@@@@@@@@@@@@@@@@@@@@@@@@@@@@@@@@@@@@@@@@@@@@@@@@@@@@@@@@@@@@@@@@@@@@@@@@@@@@@@@@@@@@@@@@@@@@@@@@@@@@@@@@@@@@@@@@@@@@@@@@@@@@@@@@@@@@@@@@@@@@@@@@@@@@@@@@@@@@@@@@@@@@@@@@@@@@@@@@@@@@@@@@@@@@@@@@@@@@@@@@@@@@@@@@@@@@@@@@@@@@@@@@@@@@@@@@@@@@@@@@@@@@@@@@@@@@@@@@@@@",
"@@@@@@@@@@@@@@@@@@@@@@@@@@@@@@@@@@@@@@@@@@@@@@@@@@@@@@@@@@@@@@@@@@@@@@@@@@@@@@@@@@@@@@@@@@@@@@@@@@@@@@@@@@@@@@@@@@@@@@@@@@@@@@@@@@@@@@@@@@@@@@@@@@@@@@@@@@@@@@@@@@@@@@@@@@@@@@@@@@@@@@@@@@@@@@@@@@@@@@@@@@@@@@@@@@@@@@@@@@@@@@@@@@@@@@@@@@@@@@@@@@@@@@@@@@@@@@@@@@@@@@@@@@@@@@@@@@@@@@@@@@@@@@@@@@@@@@@@@@@@@@@@@@@@@@@@@@@@@@@@",
"@@@@@@@@@@@@@@@@@@@@@@@@@@@@@@@@@@@@@@@@@@@@@@@@@@@@@@@@@@@@@@@@@@@@@@@@@@@@@@@@@@@@@@@@@@@@@@@@@@@@@@@@@@@@@@@@@@@@@@@@@@@@@@@@@@@@@@@@@@@@@@@@@@@@@@@@@@@@@@@@@@@@@@@@@@@@@@@@@@@@@@@@@@@@@@@@@@@@@@@@@@@@@@@@@@@@@@@@@@@@@@@@@@@@@@@@@@@@@@@@@@@@@@@@@@@@@@@@@@@@@@@@@@@@@@@@@@@@@@@@@@@@@@@@@@@@@@@@@@@@@@@@@@@@@@@@@@@@@@@@",
"@@@@@@@@@@@@@@@@@@@@@@@@@@@@@@@@@@@@@@@@@@@@@@@@@@@@@@@@@@@@@@@@@@@@@@@@@@@@@@@@@@@@@@@@@@@@@@@@@@@@@@@@@@@@@@@@@@@@@@@@@@@@@@@@@@@@@@@@@@@@@@@@@@@@@@@@@@@@@@@@@@@@@@@@@@@@@@@@@@@@@@@@@@@@@@@@@@@@@@@@@@@@@@@@@@@@@@@@@@@@@@@@@@@@@@@@@@@@@@@@@@@@@@@@@@@@@@@@@@@@@@@@@@@@@@@@@@@@@@@@@@@@@@@@@@@@@@@@@@@@@@@@@@@@@@@@@@@@@@@@",
"@@@@@@@@@@@@@@@@@@@@@@@@@@@@@@@@@@@@@@@@@@@@@@@@@@@@@@@@@@@@@@@@@@@@@@@@@@@@@@@@@@@@@@@@@@@@@@@@@@@@@@@@@@@@@@@@@@@@@@@@@@@@@@@@@@@@@@@@@@@@@@@@@@@@@@@@@@@@@@@@@@@@@@@@@@@@@@@@@@@@@@@@@@@@@@@@@@@@@@@@@@@@@@@@@@@@@@@@@@@@@@@@@@@@@@@@@@@@@@@@@@@@@@@@@@@@@@@@@@@@@@@@@@@@@@@@@@@@@@@@@@@@@@@@@@@@@@@@@@@@@@@@@@@@@@@@@@@@@@@@",
"@@@@@@@@@@@@@@@@@@@@@@@@@@@@@@@@@@@@@@@@@@@@@@@@@@@@@@@@@@@@@@@@@@@@@@@@@@@@@@@@@@@@@@@@@@@@@@@@@@@@@@@@@@@@@@@@@@@@@@@@@@@@@@@@@@@@@@@@@@@@@@@@@@@@@@@@@@@@@@@@@@@@@@@@@@@@@@@@@@@@@@@@@@@@@@@@@@@@@@@@@@@@@@@@@@@@@@@@@@@@@@@@@@@@@@@@@@@@@@@@@@@@@@@@@@@@@@@@@@@@@@@@@@@@@@@@@@@@@@@@@@@@@@@@@@@@@@@@@@@@@@@@@@@@@@@@@@@@@@@@",
"@@@@@@@@@@@@@@@@@@@@@@@@@@@@@@@@@@@@@@@@@@@@@@@@@@@@@@@@@@@@@@@@@@@@@@@@@@@@@@@@@@@@@@@@@@@@@@@@@@@@@@@@@@@@@@@@@@@@@@@@@@@@@@@@@@@@@@@@@@@@@@@@@@@@@@@@@@@@@@@@@@@@@@@@@@@@@@@@@@@@@@@@@@@@@@@@@@@@@@@@@@@@@@@@@@@@@@@@@@@@@@@@@@@@@@@@@@@@@@@@@@@@@@@@@@@@@@@@@@@@@@@@@@@@@@@@@@@@@@@@@@@@@@@@@@@@@@@@@@@@@@@@@@@@@@@@@@@@@@@@",
"@@@@@@@@@@@@@@@@@@@@@@@@@@@@@@@@@@@@@@@@@@@@@@@@@@@@@@@@@@@@@@@@@@@@@@@@@@@@@@@@@@@@@@@@@@@@@@@@@@@@@@@@@@@@@@@@@@@@@@@@@@@@@@@@@@@@@@@@@@@@@@@@@@@@@@@@@@@@@@@@@@@@@@@@@@@@@@@@@@@@@@@@@@@@@@@@@@@@@@@@@@@@@@@@@@@@@@@@@@@@@@@@@@@@@@@@@@@@@@@@@@@@@@@@@@@@@@@@@@@@@@@@@@@@@@@@@@@@@@@@@@@@@@@@@@@@@@@@@@@@@@@@@@@@@@@@@@@@@@@@",
"@@@@@@@@@@@@@@@@@@@@@@@@@@@@@@@@@@@@@@@@@@@@@@@@@@@@@@@@@@@@@@@@@@@@@@@@@@@@@@@@@@@@@@@@@@@@@@@@@@@@@@@@@@@@@@@@@@@@@@@@@@@@@@@@@@@@@@@@@@@@@@@@@@@@@@@@@@@@@@@@@@@@@@@@@@@@@@@@@@@@@@@@@@@@@@@@@@@@@@@@@@@@@@@@@@@@@@@@@@@@@@@@@@@@@@@@@@@@@@@@@@@@@@@@@@@@@@@@@@@@@@@@@@@@@@@@@@@@@@@@@@@@@@@@@@@@@@@@@@@@@@@@@@@@@@@@@@@@@@@@",
"@@@@@@@@@@@@@@@@@@@@@@@@@@@@@@@@@@@@@@@@@@@@@@@@@@@@@@@@@@@@@@@@@@@@@@@@@@@@@@@@@@@@@@@@@@@@@@@@@@@@@@@@@@@@@@@@@@@@@@@@@@@@@@@@@@@@@@@@@@@@@@@@@@@@@@@@@@@@@@@@@@@@@@@@@@@@@@@@@@@@@@@@@@@@@@@@@@@@@@@@@@@@@@@@@@@@@@@@@@@@@@@@@@@@@@@@@@@@@@@@@@@@@@@@@@@@@@@@@@@@@@@@@@@@@@@@@@@@@@@@@@@@@@@@@@@@@@@@@@@@@@@@@@@@@@@@@@@@@@@@",
"@@@@@@@@@@@@@@@@@@@@@@@@@@@@@@@@@@@@@@@@@@@@@@@@@@@@@@@@@@@@@@@@@@@@@@@@@@@@@@@@@@@@@@@@@@@@@@@@@@@@@@@@@@@@@@@@@@@@@@@@@@@@@@@@@@@@@@@@@@@@@@@@@@@@@@@@@@@@@@@@@@@@@@@@@@@@@@@@@@@@@@@@@@@@@@@@@@@@@@@@@@@@@@@@@@@@@@@@@@@@@@@@@@@@@@@@@@@@@@@@@@@@@@@@@@@@@@@@@@@@@@@@@@@@@@@@@@@@@@@@@@@@@@@@@@@@@@@@@@@@@@@@@@@@@@@@@@@@@@@@",
"@@@@@@@@@@@@@@@@@@@@@@@@@@@@@@@@@@@@@@@@@@@@@@@@@@@@@@@@@@@@@@@@@@@@@@@@@@@@@@@@@@@@@@@@@@@@@@@@@@@@@@@@@@@@@@@@@@@@@@@@@@@@@@@@@@@@@@@@@@@@@@@@@@@@@@@@@@@@@@@@@@@@@@@@@@@@@@@@@@@@@@@@@@@@@@@@@@@@@@@@@@@@@@@@@@@@@@@@@@@@@@@@@@@@@@@@@@@@@@@@@@@@@@@@@@@@@@@@@@@@@@@@@@@@@@@@@@@@@@@@@@@@@@@@@@@@@@@@@@@@@@@@@@@@@@@@@@@@@@@@",
"@@@@@@@@@@@@@@@@@@@@@@@@@@@@@@@@@@@@@@@@@@@@@@@@@@@@@@@@@@@@@@@@@@@@@@@@@@@@@@@@@@@@@@@@@@@@@@@@@@@@@@@@@@@@@@@@@@@@@@@@@@@@@@@@@@@@@@@@@@@@@@@@@@@@@@@@@@@@@@@@@@@@@@@@@@@@@@@@@@@@@@@@@@@@@@@@@@@@@@@@@@@@@@@@@@@@@@@@@@@@@@@@@@@@@@@@@@@@@@@@@@@@@@@@@@@@@@@@@@@@@@@@@@@@@@@@@@@@@@@@@@@@@@@@@@@@@@@@@@@@@@@@@@@@@@@@@@@@@@@@",
"@@@@@@@@@@@@@@@@@@@@@@@@@@@@@@@@@@@@@@@@@@@@@@@@@@@@@@@@@@@@@@@@@@@@@@@@@@@@@@@@@@@@@@@@@@@@@@@@@@@@@@@@@@@@@@@@@@@@@@@@@@@@@@@@@@@@@@@@@@@@@@@@@@@@@@@@@@@@@@@@@@@@@@@@@@@@@@@@@@@@@@@@@@@@@@@@@@@@@@@@@@@@@@@@@@@@@@@@@@@@@@@@@@@@@@@@@@@@@@@@@@@@@@@@@@@@@@@@@@@@@@@@@@@@@@@@@@@@@@@@@@@@@@@@@@@@@@@@@@@@@@@@@@@@@@@@@@@@@@@@",
"@@@@@@@@@@@@@@@@@@@@@@@@@@@@@@@@@@@@@@@@@@@@@@@@@@@@@@@@@@@@@@@@@@@@@@@@@@@@@@@@@@@@@@@@@@@@@@@@@@@@@@@@@@@@@@@@@@@@@@@@@@@@@@@@@@@@@@@@@@@@@@@@@@@@@@@@@@@@@@@@@@@@@@@@@@@@@@@@@@@@@@@@@@@@@@@@@@@@@@@@@@@@@@@@@@@@@@@@@@@@@@@@@@@@@@@@@@@@@@@@@@@@@@@@@@@@@@@@@@@@@@@@@@@@@@@@@@@@@@@@@@@@@@@@@@@@@@@@@@@@@@@@@@@@@@@@@@@@@@@@",
"@@@@@@@@@@@@@@@@@@@@@@@@@@@@@@@@@@@@@@@@@@@@@@@@@@@@@@@@@@@@@@@@@@@@@@@@@@@@@@@@@@@@@@@@@@@@@@@@@@@@@@@@@@@@@@@@@@@@@@@@@@@@@@@@@@@@@@@@@@@@@@@@@@@@@@@@@@@@@@@@@@@@@@@@@@@@@@@@@@@@@@@@@@@@@@@@@@@@@@@@@@@@@@@@@@@@@@@@@@@@@@@@@@@@@@@@@@@@@@@@@@@@@@@@@@@@@@@@@@@@@@@@@@@@@@@@@@@@@@@@@@@@@@@@@@@@@@@@@@@@@@@@@@@@@@@@@@@@@@@@",
"@@@@@@@@@@@@@@@@@@@@@@@@@@@@@@@@@@@@@@@@@@@@@@@@@@@@@@@@@@@@@@@@@@@@@@@@@@@@@@@@@@@@@@@@@@@@@@@@@@@@@@@@@@@@@@@@@@@@@@@@@@@@@@@@@@@@@@@@@@@@@@@@@@@@@@@@@@@@@@@@@@@@@@@@@@@@@@@@@@@@@@@@@@@@@@@@@@@@@@@@@@@@@@@@@@@@@@@@@@@@@@@@@@@@@@@@@@@@@@@@@@@@@@@@@@@@@@@@@@@@@@@@@@@@@@@@@@@@@@@@@@@@@@@@@@@@@@@@@@@@@@@@@@@@@@@@@@@@@@@@",
"@@@@@@@@@@@@@@@@@@@@@@@@@@@@@@@@@@@@@@@@@@@@@@@@@@@@@@@@@@@@@@@@@@@@@@@@@@@@@@@@@@@@@@@@@@@@@@@@@@@@@@@@@@@@@@@@@@@@@@@@@@@@@@@@@@@@@@@@@@@@@@@@@@@@@@@@@@@@@@@@@@@@@@@@@@@@@@@@@@@@@@@@@@@@@@@@@@@@@@@@@@@@@@@@@@@@@@@@@@@@@@@@@@@@@@@@@@@@@@@@@@@@@@@@@@@@@@@@@@@@@@@@@@@@@@@@@@@@@@@@@@@@@@@@@@@@@@@@@@@@@@@@@@@@@@@@@@@@@@@@",
"@@@@@@@@@@@@@@@@@@@@@@@@@@@@@@@@@@@@@@@@@@@@@@@@@@@@@@@@@@@@@@@@@@@@@@@@@@@@@@@@@@@@@@@@@@@@@@@@@@@@@@@@@@@@@@@@@@@@@@@@@@@@@@@@@@@@@@@@@@@@@@@@@@@@@@@@@@@@@@@@@@@@@@@@@@@@@@@@@@@@@@@@@@@@@@@@@@@@@@@@@@@@@@@@@@@@@@@@@@@@@@@@@@@@@@@@@@@@@@@@@@@@@@@@@@@@@@@@@@@@@@@@@@@@@@@@@@@@@@@@@@@@@@@@@@@@@@@@@@@@@@@@@@@@@@@@@@@@@@@@",
"@@@@@@@@@@@@@@@@@@@@@@@@@@@@@@@@@@@@@@@@@@@@@@@@@@@@@@@@@@@@@@@@@@@@@@@@@@@@@@@@@@@@@@@@@@@@@@@@@@@@@@@@@@@@@@@@@@@@@@@@@@@@@@@@@@@@@@@@@@@@@@@@@@@@@@@@@@@@@@@@@@@@@@@@@@@@@@@@@@@@@@@@@@@@@@@@@@@@@@@@@@@@@@@@@@@@@@@@@@@@@@@@@@@@@@@@@@@@@@@@@@@@@@@@@@@@@@@@@@@@@@@@@@@@@@@@@@@@@@@@@@@@@@@@@@@@@@@@@@@@@@@@@@@@@@@@@@@@@@@@",
"@@@@@@@@@@@@@@@@@@@@@@@@@@@@@@@@@@@@@@@@@@@@@@@@@@@@@@@@@@@@@@@@@@@@@@@@@@@@@@@@@@@@@@@@@@@@@@@@@@@@@@@@@@@@@@@@@@@@@@@@@@@@@@@@@@@@@@@@@@@@@@@@@@@@@@@@@@@@@@@@@@@@@@@@@@@@@@@@@@@@@@@@@@@@@@@@@@@@@@@@@@@@@@@@@@@@@@@@@@@@@@@@@@@@@@@@@@@@@@@@@@@@@@@@@@@@@@@@@@@@@@@@@@@@@@@@@@@@@@@@@@@@@@@@@@@@@@@@@@@@@@@@@@@@@@@@@@@@@@@@",
"@@@@@@@@@@@@@@@@@@@@@@@@@@@@@@@@@@@@@@@@@@@@@@@@@@@@@@@@@@@@@@@@@@@@@@@@@@@@@@@@@@@@@@@@@@@@@@@@@@@@@@@@@@@@@@@@@@@@@@@@@@@@@@@@@@@@@@@@@@@@@@@@@@@@@@@@@@@@@@@@@@@@@@@@@@@@@@@@@@@@@@@@@@@@@@@@@@@@@@@@@@@@@@@@@@@@@@@@@@@@@@@@@@@@@@@@@@@@@@@@@@@@@@@@@@@@@@@@@@@@@@@@@@@@@@@@@@@@@@@@@@@@@@@@@@@@@@@@@@@@@@@@@@@@@@@@@@@@@@@@",
"@@@@@@@@@@@@@@@@@@@@@@@@@@@@@@@@@@@@@@@@@@@@@@@@@@@@@@@@@@@@@@@@@@@@@@@@@@@@@@@@@@@@@@@@@@@@@@@@@@@@@@@@@@@@@@@@@@@@@@@@@@@@@@@@@@@@@@@@@@@@@@@@@@@@@@@@@@@@@@@@@@@@@@@@@@@@@@@@@@@@@@@@@@@@@@@@@@@@@@@@@@@@@@@@@@@@@@@@@@@@@@@@@@@@@@@@@@@@@@@@@@@@@@@@@@@@@@@@@@@@@@@@@@@@@@@@@@@@@@@@@@@@@@@@@@@@@@@@@@@@@@@@@@@@@@@@@@@@@@@@",
"@@@@@@@@@@@@@@@@@@@@@@@@@@@@@@@@@@@@@@@@@@@@@@@@@@@@@@@@@@@@@@@@@@@@@@@@@@@@@@@@@@@@@@@@@@@@@@@@@@@@@@@@@@@@@@@@@@@@@@@@@@@@@@@@@@@@@@@@@@@@@@@@@@@@@@@@@@@@@@@@@@@@@@@@@@@@@@@@@@@@@@@@@@@@@@@@@@@@@@@@@@@@@@@@@@@@@@@@@@@@@@@@@@@@@@@@@@@@@@@@@@@@@@@@@@@@@@@@@@@@@@@@@@@@@@@@@@@@@@@@@@@@@@@@@@@@@@@@@@@@@@@@@@@@@@@@@@@@@@@@",
"@@@@@@@@@@@@@@@@@@@@@@@@@@@@@@@@@@@@@@@@@@@@@@@@@@@@@@@@@@@@@@@@@@@@@@@@@@@@@@@@@@@@@@@@@@@@@@@@@@@@@@@@@@@@@@@@@@@@@@@@@@@@@@@@@@@@@@@@@@@@@@@@@@@@@@@@@@@@@@@@@@@@@@@@@@@@@@@@@@@@@@@@@@@@@@@@@@@@@@@@@@@@@@@@@@@@@@@@@@@@@@@@@@@@@@@@@@@@@@@@@@@@@@@@@@@@@@@@@@@@@@@@@@@@@@@@@@@@@@@@@@@@@@@@@@@@@@@@@@@@@@@@@@@@@@@@@@@@@@@@",
"@@@@@@@@@@@@@@@@@@@@@@@@@@@@@@@@@@@@@@@@@@@@@@@@@@@@@@@@@@@@@@@@@@@@@@@@@@@@@@@@@@@@@@@@@@@@@@@@@@@@@@@@@@@@@@@@@@@@@@@@@@@@@@@@@@@@@@@@@@@@@@@@@@@@@@@@@@@@@@@@@@@@@@@@@@@@@@@@@@@@@@@@@@@@@@@@@@@@@@@@@@@@@@@@@@@@@@@@@@@@@@@@@@@@@@@@@@@@@@@@@@@@@@@@@@@@@@@@@@@@@@@@@@@@@@@@@@@@@@@@@@@@@@@@@@@@@@@@@@@@@@@@@@@@@@@@@@@@@@@@",
"@@@@@@@@@@@@@@@@@@@@@@@@@@@@@@@@@@@@@@@@@@@@@@@@@@@@@@@@@@@@@@@@@@@@@@@@@@@@@@@@@@@@@@@@@@@@@@@@@@@@@@@@@@@@@@@@@@@@@@@@@@@@@@@@@@@@@@@@@@@@@@@@@@@@@@@@@@@@@@@@@@@@@@@@@@@@@@@@@@@@@@@@@@@@@@@@@@@@@@@@@@@@@@@@@@@@@@@@@@@@@@@@@@@@@@@@@@@@@@@@@@@@@@@@@@@@@@@@@@@@@@@@@@@@@@@@@@@@@@@@@@@@@@@@@@@@@@@@@@@@@@@@@@@@@@@@@@@@@@@@",
"@@@@@@@@@@@@@@@@@@@@@@@@@@@@@@@@@@@@@@@@@@@@@@@@@@@@@@@@@@@@@@@@@@@@@@@@@@@@@@@@@@@@@@@@@@@@@@@@@@@@@@@@@@@@@@@@@@@@@@@@@@@@@@@@@@@@@@@@@@@@@@@@@@@@@@@@@@@@@@@@@@@@@@@@@@@@@@@@@@@@@@@@@@@@@@@@@@@@@@@@@@@@@@@@@@@@@@@@@@@@@@@@@@@@@@@@@@@@@@@@@@@@@@@@@@@@@@@@@@@@@@@@@@@@@@@@@@@@@@@@@@@@@@@@@@@@@@@@@@@@@@@@@@@@@@@@@@@@@@@@",
"@@@@@@@@@@@@@@@@@@@@@@@@@@@@@@@@@@@@@@@@@@@@@@@@@@@@@@@@@@@@@@@@@@@@@@@@@@@@@@@@@@@@@@@@@@@@@@@@@@@@@@@@@@@@@@@@@@@@@@@@@@@@@@@@@@@@@@@@@@@@@@@@@@@@@@@@@@@@@@@@@@@@@@@@@@@@@@@@@@@@@@@@@@@@@@@@@@@@@@@@@@@@@@@@@@@@@@@@@@@@@@@@@@@@@@@@@@@@@@@@@@@@@@@@@@@@@@@@@@@@@@@@@@@@@@@@@@@@@@@@@@@@@@@@@@@@@@@@@@@@@@@@@@@@@@@@@@@@@@@@",
"@@@@@@@@@@@@@@@@@@@@@@@@@@@@@@@@@@@@@@@@@@@@@@@@@@@@@@@@@@@@@@@@@@@@@@@@@@@@@@@@@@@@@@@@@@@@@@@@@@@@@@@@@@@@@@@@@@@@@@@@@@@@@@@@@@@@@@@@@@@@@@@@@@@@@@@@@@@@@@@@@@@@@@@@@@@@@@@@@@@@@@@@@@@@@@@@@@@@@@@@@@@@@@@@@@@@@@@@@@@@@@@@@@@@@@@@@@@@@@@@@@@@@@@@@@@@@@@@@@@@@@@@@@@@@@@@@@@@@@@@@@@@@@@@@@@@@@@@@@@@@@@@@@@@@@@@@@@@@@@@",
"@@@@@@@@@@@@@@@@@@@@@@@@@@@@@@@@@@@@@@@@@@@@@@@@@@@@@@@@@@@@@@@@@@@@@@@@@@@@@@@@@@@@@@@@@@@@@@@@@@@@@@@@@@@@@@@@@@@@@@@@@@@@@@@@@@@@@@@@@@@@@@@@@@@@@@@@@@@@@@@@@@@@@@@@@@@@@@@@@@@@@@@@@@@@@@@@@@@@@@@@@@@@@@@@@@@@@@@@@@@@@@@@@@@@@@@@@@@@@@@@@@@@@@@@@@@@@@@@@@@@@@@@@@@@@@@@@@@@@@@@@@@@@@@@@@@@@@@@@@@@@@@@@@@@@@@@@@@@@@@@",
"@@@@@@@@@@@@@@@@@@@@@@@@@@@@@@@@@@@@@@@@@@@@@@@@@@@@@@@@@@@@@@@@@@@@@@@@@@@@@@@@@@@@@@@@@@@@@@@@@@@@@@@@@@@@@@@@@@@@@@@@@@@@@@@@@@@@@@@@@@@@@@@@@@@@@@@@@@@@@@@@@@@@@@@@@@@@@@@@@@@@@@@@@@@@@@@@@@@@@@@@@@@@@@@@@@@@@@@@@@@@@@@@@@@@@@@@@@@@@@@@@@@@@@@@@@@@@@@@@@@@@@@@@@@@@@@@@@@@@@@@@@@@@@@@@@@@@@@@@@@@@@@@@@@@@@@@@@@@@@@@",
"@@@@@@@@@@@@@@@@@@@@@@@@@@@@@@@@@@@@@@@@@@@@@@@@@@@@@@@@@@@@@@@@@@@@@@@@@@@@@@@@@@@@@@@@@@@@@@@@@@@@@@@@@@@@@@@@@@@@@@@@@@@@@@@@@@@@@@@@@@@@@@@@@@@@@@@@@@@@@@@@@@@@@@@@@@@@@@@@@@@@@@@@@@@@@@@@@@@@@@@@@@@@@@@@@@@@@@@@@@@@@@@@@@@@@@@@@@@@@@@@@@@@@@@@@@@@@@@@@@@@@@@@@@@@@@@@@@@@@@@@@@@@@@@@@@@@@@@@@@@@@@@@@@@@@@@@@@@@@@@@",
"@@@@@@@@@@@@@@@@@@@@@@@@@@@@@@@@@@@@@@@@@@@@@@@@@@@@@@@@@@@@@@@@@@@@@@@@@@@@@@@@@@@@@@@@@@@@@@@@@@@@@@@@@@@@@@@@@@@@@@@@@@@@@@@@@@@@@@@@@@@@@@@@@@@@@@@@@@@@@@@@@@@@@@@@@@@@@@@@@@@@@@@@@@@@@@@@@@@@@@@@@@@@@@@@@@@@@@@@@@@@@@@@@@@@@@@@@@@@@@@@@@@@@@@@@@@@@@@@@@@@@@@@@@@@@@@@@@@@@@@@@@@@@@@@@@@@@@@@@@@@@@@@@@@@@@@@@@@@@@@@",
"@@@@@@@@@@@@@@@@@@@@@@@@@@@@@@@@@@@@@@@@@@@@@@@@@@@@@@@@@@@@@@@@@@@@@@@@@@@@@@@@@@@@@@@@@@@@@@@@@@@@@@@@@@@@@@@@@@@@@@@@@@@@@@@@@@@@@@@@@@@@@@@@@@@@@@@@@@@@@@@@@@@@@@@@@@@@@@@@@@@@@@@@@@@@@@@@@@@@@@@@@@@@@@@@@@@@@@@@@@@@@@@@@@@@@@@@@@@@@@@@@@@@@@@@@@@@@@@@@@@@@@@@@@@@@@@@@@@@@@@@@@@@@@@@@@@@@@@@@@@@@@@@@@@@@@@@@@@@@@@@",
"@@@@@@@@@@@@@@@@@@@@@@@@@@@@@@@@@@@@@@@@@@@@@@@@@@@@@@@@@@@@@@@@@@@@@@@@@@@@@@@@@@@@@@@@@@@@@@@@@@@@@@@@@@@@@@@@@@@@@@@@@@@@@@@@@@@@@@@@@@@@@@@@@@@@@@@@@@@@@@@@@@@@@@@@@@@@@@@@@@@@@@@@@@@@@@@@@@@@@@@@@@@@@@@@@@@@@@@@@@@@@@@@@@@@@@@@@@@@@@@@@@@@@@@@@@@@@@@@@@@@@@@@@@@@@@@@@@@@@@@@@@@@@@@@@@@@@@@@@@@@@@@@@@@@@@@@@@@@@@@@",
"@@@@@@@@@@@@@@@@@@@@@@@@@@@@@@@@@@@@@@@@@@@@@@@@@@@@@@@@@@@@@@@@@@@@@@@@@@@@@@@@@@@@@@@@@@@@@@@@@@@@@@@@@@@@@@@@@@@@@@@@@@@@@@@@@@@@@@@@@@@@@@@@@@@@@@@@@@@@@@@@@@@@@@@@@@@@@@@@@@@@@@@@@@@@@@@@@@@@@@@@@@@@@@@@@@@@@@@@@@@@@@@@@@@@@@@@@@@@@@@@@@@@@@@@@@@@@@@@@@@@@@@@@@@@@@@@@@@@@@@@@@@@@@@@@@@@@@@@@@@@@@@@@@@@@@@@@@@@@@@@",
"                          535345778xcbnmMNCZCNMmnbcx8767cbc4                             O     O                                                            h                                                                                                +                                          O                       ",
"                         %535345778xcbnmMNCZCNMmnbcx8767cbc4%                                                                       O                        >                                                                                                                                                              >O  ",
"                         1535345778xcbnmMNCZCNMmnbcx8767cbc41     >                                                                                                                                               >                                                                Cm      CC                                   ",
"                         2535345778xcbnmMNCZCNMmnbcx8767cbc42                                                                                                                                                                                                                     CmNC    Cmmm                                  ",
"     D                   3535345778xcbnmMNCZCNMmnbcx8767cbc43                                      O                    O                                                                   O                                                                       h            CmNC8   CmmN8           >                      ",
"                         4535345778xcbnmMNCZCNMmnbcx8767cbc44                                                                                                                                                                                                                   CmNC8   CmmN8  >                                ",
"       O    >            5535345778xcbnmMNCZCNMmnbcx8767cbc44              D                                                                                                                           O                                                                       CmNC8   CmmN8>                                   ",
"          O              5535345778xcbnmMNCZCNMmnbcx8767cbc44                D                                                                    O                                                        O                         D            +                           CmNC8   CmmN8                                     ",
"                 >       4535345778xcbbmMNCZCNMmnbcx8767cbc44  h     >                                                                      O                                   D O                                                 h                          1xxxxxxxxxxxxxxxxC8   CmmN8                                   >  ",
"                         4535345778xcbnmMNCZCNMmnbcx8767cbc44                                                O                h     >                                                                                       +                              1xxxx6666666666666666xxxxCmmN8    >                    >             ",
"                         4535345778xcbnmMNCZCNMmnbcx8767cbc44          O                           O           O                                                                                                                          >     O        1xx666666666666666666666666xxN8                                        ",
"                         4365345778xcbnmMNCZCNMmbbcx8767cbc44                                                                                                               O                                                                           1x666666444444444444444466666681                                        ",
"                         4365345778xcbnmMNCZCNMmmbcx8767cbc74                           >                                                      >                                O                                                                      1x6664444                4444666x1                      DO              O",
"        O                4365345778xcbnmMNCZCNmmbbcx8767cbc74                                                                                                                            >                                                             x6644   377777777777777773   4466x                                       ",
"                         4365345778xcbnmMNCZCNMmnbcx8767cbc84       O                                                                               >                                                                                                  664  377777bnmMNCZCNMmnb77773  466                                       ",
"                         4365345778xcbnmMNCZCNMmnbcx87678cbc4                                                                        O                                         >                          >                                     O      64 775778xcbnmMNCZCNMmnbcx86777 46                                   O   ",
"               O        O4365345778xcbnmMNCZCNMmnbcx87677cbc4         >                       >             >                               O                    O                                                                                     4 6534578xcbnmMNCZCNMmnbcx867cb7 4                                       ",
"                     D   4365345778xcbnmMNCZCNMmnbcx87677cbc4                                                            O                          >         O       >             O                                                          O        56534578xcbnmMNCZCNMmnbcx867cbc4                                        ",
"                        %4365345778xcbnmMNCZCNMmnbcx87677cbc4%                                            O                        O                         O             >                                                                           %56534578xcbnmMNCZCNMmbbcx867cbc4%                                       ",
"                        14365345778xcbnmMNCZCNMmnbcx87677cbc41                                     >                                                      >                                       +                                            +       156534578xcbnmMNCZCNMmbbcx867cbc41   D                                   ",
"        >          >    24365345778xcbnmMNCZCNMmnbcx87677cbc42                                                                                              >               h   O                            >                                     O   256534578xcbnmMNCZCNMmnbcx867cbc42                  O     >              ",
"                        34365345778xcbnmMNCZCNMmnbcx87677cbc43              O                                                                                                                        O                                                 356534578xcbnmMNCZCNMmnbcx867cbc43            O       >       Oh         ",
"              h         44365345778xcbnmMNCZCNMmnbcx87677cbc44                                   >            O            D           O O                         >     O                                               O                             456534578xcbnmMNCZCNMmnbcx867cbc44                                       ",
"         >              54365345778xcbnmMNCZCNMmnbcx87677cbc44       >        O                                                                                                                      >                                                 556534578xcbnmMNCZCNMmnbcx867cbc44                                       ",
"                        54365345778xcbnmMNCZCNMmnbcx87677cbc44                                                O                 >      >       O                  O                                                                                  h 556534578xcbnmMNCZCNMmnbcx867cbc44                                       ",
"            O           44365345778xcbnmMNCZCNMmnbcx87677cbc44                                                                                                                                                                                         456534578xcbnmMNCZCNMmnbcx867cbc44                                       ",
"                        44365345778xcbnmMNCZCNMmnbcx87677cbc44                                                            O     O                         O                                                   O          >                             456534578xcbnmMNCZCNMmnbcx867cbc84                                       ",
"                        44365345778xcbnmMNCZCNMmnbcx87677cbc44                                                                                                                       >     +                                                           456534578xcbnmMNCZCNMmnbcx8678cbc4                                       ",
"                        44365345778xcbbmMNCZCNMmnbcx87677cbc44                                          OO                                                    >           +                                                                 O          456534578xcbnmMNCZCNMmnbcx8677cbc4        O                              ",
"                        44365345778xcbbmMNCZCNMmnbcx87677cbc44                 >                  >                                                        O                  +                                     >                                  456534578xcbnmMNCZCNMmnbcx8677cbc4                                       ",
"      >                 44365345778xcbmmMNCZCNMmnbcx87677cbc44                          O                               O                                                                                                          O                   456534578xcbnmMNCZCNMmnbcx8677cbc4                                       ",
"                        44365345778xcbnmMNCZCNMmnbcx87677cbc44             h                                                           O   O                             >                                                           O                 456534578xcbnmMNCZCNMmnbcx8677cbc4               > O                     ",
"     O                  43564345778xcbnmMNCZCNMmnbcx87767cbc44                                                        >                                                              +                                                                 456534578xcbnmMNCZCNMmnbcx8767cbc4                                       ",
"                        43653456778xcbnmMNCZCNMmnbcx87767cbc44                                                          O                                                                                                                              455345678xcbnmmNCZCNMmnbcx8767cbc4                                       ",
"                        43653457778xcbnmMNCZCNMmnbcx87767cbc74                                                                                                                                          >                                              565345778xcbnmMNCZCNMmnbcx8767cbc4                                       ",
"                       %43653457778xcbnmMNCZCNMmnbcx87767cbc84%                                                                                        >                      +                                                                       %565345778xcbnmMNCZCNNmnbcx8767cbc4%     >                       >        ",
"       >               143653457778xcbnmMNCZCNMmnbcx877678cbc41             >                                                             O                                                              >              O                             1565345778xcbnmMNCZCNmmnbcx8767cbc41           >                          ",
"           >           243653457778xcbnmMNCZCNMmnbcx877677cbc42                                                                                                                                                         DO                            2565345778xcbnmMNCZCNMmnbcx8767cbc42                                      ",
"                       443653457778xcbnmMNCZCNMmnbcx877677cbc43                                                                         O                                                                                                             3565345778xcbnmMNCZCNMmnbcx8767cbc43                                     h",
"                       443653457778xcbn741%#%1148bcx877677cbc44                                         j   >  O                   O                     +                                                                             O              4565345778xcbnmMNCZCNmmnbcx8767cbc44                                      ",
"                       443653457778xc42@$531$@41$25x877677cbc44                                        hkh             >         >                                                                                    O                              >5565345778xcbnmMNCZCNMmnbcx8767cbc44                           O          ",
"                       44365345777861%#7@8%c1 x1#@11777677cbc44                                       jkDkj                                                     >                           h     +                                                 > 5565345778xcbnmMNCZCNMmnbcx8767cbc44                                      ",
"                       443653457773$$2#Zx     X%S6o$%57677cbc44                                        hkh                                                    >                                                            >                          4565345778xcbnmMNCZCNMmnbcx8767cbc44               D                      ",
"                      %4436534577311$c7o@15765$.6c111%6677cbc44                      >                  j                                                                                                                                             4565345778xcbnmMNCZCNmmnbcx8767cbc44                  O                   ",
"         >            144365345751X6m@@4NHJJJJGN$ 6m@#%677cbc44      >       CC      mC                                                                   +                                                                                           4565345778xcbn741%#%2148bcx8767cbc44       O                              ",
"                      2443653457%1 .$ nJGSSSSSSJJxo%  2%77cbc44             mmmC    CNmC                                                                                                                                    O                         4565345778xc52@$521$@41$15x8767cbc44                                      ",
"                      34436534532    SJSAGJHSSJGHJN   o157cbc44             8NmmC   8CNmC                                                                                     >   +                     +                                             456534577861$#7@8%c1 x1$@117767cbc44                                      ",
"                      444365345%$   mJZSJNc7ZZc8bvC6   117cbc44              8NmmC   8CNmC        >                    O                                                                                                     >              >         4565345773$$2#Cx     o%S6o#1567cbc44                                      ",
"                      4443653421.  2JSAJC  $Hx 63  A$  @%7cbc44               8NmmC   8CNmC                                        O           +                                                                                     O                45653457311$v6o#16775$.6c112%47cbc84                                      ",
"   h                  444365341$   MJAJC  2JJ5%J6  Sb   %4cbc44                8NmmC   8CNmC                                                                D                                   +                 >                      h            456534551X6m@@4NGJJJJGM$ 6m@#%78cbc4                                      ",
"                      44436534%#  XGSJC  3JGSCHJ# .GS   %1cbc44                 8NmmC   8Cxxxxxxxxxxxxx1                                                                                         +                                                    4565345%% .% mJGSSSSASJJxo%  217cbc4                         >         >  ",
"                      44436534$x. 8GJC  3JHSSHJ% .AHS3 @8%cbc44                  8NmmCxxxx6666666666666xxxx1                                               28mmmmmmmmmmmmmmmmmmmmmmmm7777mm82                     O               O  >                45653411.   SJSZGJJSSJHHJN   o15cbc4                                      ",
"            >         44436434@bc7mGC  4JHSFFG1 oZJFZb7bx$cbc44     >             8Nxx666666666666666666666xx1                                     28mmmmmmmmnbbbbbbbbbbnmnbbnmMNZNMmbbbbbbmmmmmmmm77              O                                 %456535%$   MJAAJNc7ZZc8bcC6   11cbc4%                                     ",
"                      44356344@cNbcJ@  $$@@@mm  xJbMSxMm6%cbc44                   186666664444444444444666666x1                                28mmmmcxcbbbbbnbbbbbbbbbbnmbbbnmMNZNMmbbbbbbbbbbbbbbbb7782              O                         O   14565311.  2JAAJC  #Jx 62  A%  @%xbc41      >                              ",
"                      44356344@xnbcG@       vm  bm mSxnb5%cbc44                  1x6664444             4444666x1                >            4mmnnbnbcxcbbbbbnbbbbbbbbbbnmnbbnmMNZNMmnbbbbbbbbbbbbbbbbbbmm4                                          245653%$   MHAJC  2JJ5%J6  Sb   %6bc42                                     ",
"                      44356344#863xCmxxxb5  vNoo7@XSN72c31vbc44                  x6644   377777777777773   4466x                           3cbcbnnbnbcxcbbbbbnbbbbbbbbbbnmnbbnmMNZNMmnbbbbbbbbbbbbbbbbbbbcbc3                               >        345653%#  XGSJC  3JGSNHJ$ .GS   %3bc43             >                       ",
"                      4435634413cbcbJJJJJM  7JSSCZSFcbvc$6cbc44                  664  377778bnmMNNMmnb77773  466                          7xcbcbnnbnbcxcbbbbbnbbbbbbbbbbnmnbbnmMNZNMmbbbbbbbbbbbbbbbbbbbbcbcx7              O             O  >       445653#x. 8GJC. 3JHSAJJ% .ZHS3 @x1bc44                             O       ",
"          >        h  443563445@bn77ZGAAHv  7JFFSSJM68mx@7cbc44                  64 775778xcbbmMNNMmnbcx86777 46                 O       47xcbcbnnbnbcxcbbbbbbbbbbvbbbbbnmnbbnmMNZNMmnbbbbbbbbbbbbbbbbbbbcbcx74                    O  O              545653@bc6mHN. 4JHSFFF1 oZJFZb7vx1bc44                        >            ",
"                      443563445$782c8GGSSZNNCSSASHZ8x2b137cbc44%     D           4 6534578xcbnmMNNMmnbcx867cb7 4              h          47xcbcbnnbbbcxcbbbbcxxxxxxxxxxxxxxxxxxxxxxxxxxxxxxcbbbbbbbbbbbbbcbcx74                            O         545654@xNbcJ@  $$@@@mm  cJvmS8Nm6%bc44                                     ",
"                      4435634456@vMmc8SGSSGHFSASHZ8vmm8o77cbc441          >       56534578xcbnmMNNMmnbcx867cbc4       O       O          47xcbcbnncxxxxxxxxx73%%%%%1%%%%%%%%%%%%%%%%%%%%%%37xxxxxxxxxcbbbcbcx74                                      445653@xnbxHo       vn  bm mF8nb51bc44       ,                             ",
"                      443563445712nn%4cNGGGFFGGSM746mv#477cbc442                 %56534578xcbnmMNNMmnbcx867cbc4%                         47xcxxxxx73%%%%%%%%%%$$$$$$$$$$$$$$$$$$$$$$$$$$$$%%%%%%%%%%37xxxxxcx74  O                                   445653@872cCmcxcb5  bNoo7@XSC72c44bc44      >p>                            ",
"                     %44356344577#584536bNCCCNMc8513821677cbc743                 156534578xcbnmmNNMmnbcx867cbc41                         47x72%%%%%%$$$57cnMNNNNNNNNNCNNNNNNNNNNNNNNNNNNNNNNMnc75$$$%%%%%%27x74          O     O                     445653%3cbcvJJHJJM  7JSSCZSFcbvv$8bc44     ,pap,                           ",
"                     1443563445777@5m432%338x515%1x52%7677cbc844                 256534578xcbnmNNNMmnbcx867cbc42                         42 57cnNNNNNNNNNMnmMmnnnnnnnbbmmMmnmMNCSFGHGFSCN  nnnnMNNN  NNMnc75 24    h                               > 4456534@bb77ZGSSHb  7JFGFSJM67mx@cbc44      >p>                            ",
"                     24435634457778%268224437m2717x12777677cbc44                 356534578xcbnmmNNmmnbcx867cbc43                          278xcxnmncx8xcbnnmMmnnnnnbnnnnmmmnmMNCSFGHGFSCNM nnnntrrrrt 444c 872                    O                  4456534#782v8FGASZNNCSSSZGA8x2b13cbc44       ,    O                        ",
"                     34435634457778x4157bxb67mxvx2$68777677cbc44                 456534578xcbnmMNNMmnbcx867cbc44                         2744c nm4cx8xcbnnnmMmnnnnbmnnnnmMmnnmMNCSFGGGFSCN 44nn4444rrt  44 487                                       44565345@vMmc8SGASGHSASSHZ8vmm8@7cbc44                                     ",
"h                    44435634457778xcb6$%356643$$7cx8777677cbc44                 556534578xcbnmMNNMmnbcx867cbc44                        274444cn4 4x8xcbnnmMmnnbnnnnnnnnmMmnnmMNCSFGHGF CNM##44####444   nb 4 72                                     4456534511nn%4cCSGGFFGGSM747nc$57cbc44                                     ",
" >                   44435634457778xcbb7778xx8778bcx8777677cbc44                 556534578xcbnmMNNMmnbcx867cbc44           D           2444   44   4  bnnnmMmnbmnnnnnnnnnmMmnmMNCSSGHG  CN###4####%##4   44  x 72                                    445653457#684536bNZCCNMc8513x2%67cbc44                 >         h         ",
"                     44435634457778xcbbm778xx877nbcx8777677cbc44                 456534578xcbnmMNNMmnbcx867cbc44                      27444    4    x  nnmMmnnnnnnnnnnnnnmMmnmMNCSSGHGS CN44#######%          x872          O                        4565345677#5m4311338x615$1x52%767cbc44           O                         ",
"                     44435634457778xcbnm778xx878nbcx8777677cbc44                 456534578xcbnmMNNMmnbcx867cbc84                     24444         44bnnnmMmnnnnnnnnnnnnnmMmnnmMNCSFGHG  C4########%         b x872                                  45653457778%168224437n2717x117767cbc44                                     ",
"               >     44435634457778xcbnmm78xx87mnbcx8777677cbc44             >   456534578xcbnmMNNMmnbcx8678cbc4                    244  4           4n nmMmnnnnnnnnnnnnnmMmnnmMNCSSGHGF C4#########%%      44 cx  2   D                            %45653457778x5%47bxb67mcvx2$687767cbc84%               >    O               ",
"                     44435634457778xcbnmM78xx88mnbcx8777677cbc44                 456534578xcbnmMNNMmnbcx8677cbc4               O   244                 nmMmnnnnnnnnnnnnnnmMmnnmMNCSFGHGFS4############$      4 4   72                 O             145653457778xcb6$%356642$$7cx877678cbc41                                    ",
"      O              44435634457778xcbnmMN8xx8Mmnbcx8777677cbc44             >   456534578xcbnmMNNMmnbcx8677cbc4                  244      7bZZ2     4nnmMmnnnnnnnnnbnnnnmMmnnmMNCSSGHGFS##############         bcx 72                            > 245653457778xcbn7778xx8778bcx877677cbc42 O                           O      ",
"                     44436344567778xcbnmMN8xx8Mmnbcx8777677cbc44                 456534578xcbnmMNNMmnbcx8677cbc4                 274     7mZZ%%Z2x4  44nmMmnnnnnnnnnmnnnnmMmnnbmMNCSFGG$#####m4######$          44cx872   >                         345653457778xcbnm778xx877nbcx877677cbc43                                    ",
"                     44356344577878xcbnmMNCxxNMmnbcx8777677cbc44                 456534578xcbnmMNNMmnbcx8677cbc4               O27844  7mZmmZ  %Z4     4MmnnnbnnnnnnbnnnnnmMmnnmMNCSFG@@F#CNMmb#n4###%            4cx872                            445653457778xcbnm778xx878nbcx877677cbc44                                    ",
"           >         44356344577778xcbnmMNCZCNMmnbcx8777677cbc44                 456534578xcbnmMNNMmnbcx8767cbc4               27 x447mZmmZMZn %Zc4    mMmnnnmbnnnnnnnnnnnmMmnnmMNC FG$GFS NMm nn44##$             bc 872                           545653457778xcbnmm78xx87mnbcx877677cbc44                                    ",
"                     44356344577778xcbbmMNCZCNMmnbcx8777677cbc44                 455345678xcbnmMNNMmnbcx8767cbc4          O   27  c7mZmmZZZMbZZZbcb4  mMmnnnnnnnnnnnnnnnnnmMmnnnmNNCSFGGGFSCNMmn####%%           4n    872             D       O    545653457778xcbnmM78xx88mnbcx877677cbc44                                    ",
"                     44356344577778xcbnmMNCZCNMmnbcx8777677cbc44                 565345778xcbnmMNNMmnbcx8767cbc4             278x7mZmmZZZM88m88 cbnn nmMmnnnnnnnnnnnnnnnnnmMmnnnmmNCSFGHGSSCN44nn4#%$            nbnn  x872                         445653457778xcbnmMN8xx8Mmnbcx877677cbc44                                    ",
"       D             44356344577778xcbnmMNCZCNMmnbcx8777677cbc44                %565345778xcbnmMNNMmnbcx8767Buc4%           2787mZmmZZZM88m88x  cbnnn mMmnnnnnnnnnnnnnnnbmmMmnnnmmNCSFGHGF4444##n4#$           4nnnbnnbcx872                 >      445653457778xcbnmMN8xx8Mmnbcx877677cbc44                   O    >           ",
"           >        %44356344577778xcbnmMNCZCNMmnbcx8777677cbc44                1565345778xcbnmMNNMmnbcx876uuuu41          277mZmmZAZm88m88 x8x bnnnnm mnnnnnnnnnnnnnnnnnbmMmnnnmMNCSFGHGFS#####44###     %#    4nn    bcx872                       445653457778xcbnmMNCxxNMmnbcx877677cbc44                         O          ",
"                    144356344577778xcbnmMNC555Mmnbcx8777677cbc44  h   >         2565345778xcbnmMNNM1xCCCCCCCCCCCCCCCx1    27mZmmZZZM88m88cccx8x bnnnbmMmnnnnnnnbnnnnnnnnnnmMmnnnnmMNCSSGHG4#CN###4#%     #%#     44 4nn bcx872      O               445653457778xcbnmMNCZCNM555cx877677cbc44         >                          ",
"           O        244356344577778xcbnmMN5&&&5mnbcx8777677cbc44                3565345778xcbn1xCCCCCMMMMMMMmMMMMMMMCCCCbxmZmmZZZM88m88ncccx8xcb nnnnmMmnnnnnnbmnnnnnnnnnnmMmnnnnmMNCSFGHG SCNM4##%#     %#         4bnnnbcx872                     445653457778xcbbmMNCZCN59995x877677cbc44                                    ",
"                    344356344577778xcbnmMN5&&&5mnbcx8777677cbc44                45653457781xCCCCMMMMmmmmmmmmmmmmmmmmMMbbmZmmZZZM88m8nmnccccx8xcb nnnmMmnnnnnnnnnnnnnnnnnnnnmMmnnnmMNCSSG GSSCN44##%#     %#          44nnnbcx872                    445653457778xcbnmMNCZCN59995x877677cbc44                                    ",
"                    444356344577778xcbnmMN55555mnbcx8777677cbc44         >      55653451xCCCMMMmmmmmmbbbbbbbbbbbbbbbbbmZmmZZZM88m8cbmnccccx8xcb nnnnmMmnnnnnnnnnnnnnnnnbnnnmMmnnnmMNCSFGHGFSCN4##$#     %%##           bnnnbcx872                   445653457778xcbnmMNCZCN55555x877677cbc44                                    ",
"                    444356344577778xcbnmMN5&&&5mnbcx8777677cbc44         O      556531xCCMMMmmmmbbbbbbbbbbbbbbbbbbbbmZmmZZZM88m8xccnmnccccx8xc nnnnmMmnnnnnnnnnnnnnnnnbmnnnmMmnnnnmMNCSSGGGF#######    %#####        nn bnnnbcx872                  445653457778xcbnmMNCZCN59995x877677cbc44                                    ",
"                    444356344577778xcbnmMN5&&&5mbbcx8777677cbc44                4561xCCMMmmmbbbbbbbbbbbbbbbbbbbbbbmZmmZZZm88m8cxccnmnccccx8xcbnnnnnmMmnnnnnnnnnnnnnnnnnnnnnmMmnnnnmMNCSFGHGFSCN#m# nn ####n ntrr rtn  nnnbnnnbcx872                 445653457778xcbnmMNCZCN59995x877777cbc44                                    ",
"                    444356344577778JJJJJJJJJJJJJJJJJJJJJJJJJJJJJJJJJJJJJJJJJJJJJJJJJJJJJJJJJJJJJJJJJJJJJJJJJJJJJJJJJJJJJJJJJJJJJJJJJJJJJJJJJJJJJJJJJJJJJJJJJJJJJJJJJJJJJJJJJJJJJJJJJJJJJJJJJJJJJJJJJJJJJJJJJJJJJJJJJJJJJJJJJJJJJJJJJJJJJJJJJJJJJJJJJJJJJJJJJJJJJJJJJJJJJJJJJJJJJJJJJJJJJbc44                                    ",
"                    444356344577778JJJJJJJJJJJJJJJJJJJJJJJJJJJJJJJJJJJJJJJJJJJJJJJJJJJJJJJJJJJJJJJJJJJJJJJJJJJJJJJJJJJJJJJJJJJJJJJJJJJJJJJJJJJJJJJJJJJJJJJJJJJJJJJJJJJJJJJJJJJJJJJJJJJJJJJJJJJJJJJJJJJJJJJJJJJJJJJJJJJJJJJJJJJJJJJJJJJJJJJJJJJJJJJJJJJJJJJJJJJJJJJJJJJJJJJJJJJJJJJJJJJJJbc44%                                   ",
"                    444356344577778GZZZZZZZZZZZZZZZZZZZZZZZZZZZZZZZZZZZZZZZZZZZZZZZZZZZZZZZZZZZZZZZZZZZZZZZZZZZZZZZZZZZZZZZZZZZZZZZZZZZZZZZZZZZZZZZZZZZZZZZZZZZZZZZZZZZZZZZZZZZZZZZZZZZZZZZZZZZZZZZZZZZZZZZZZZZZZZZZZZZZZZZZZZZZZZZZZZZZZZZZZZZZZZZZZZZZZZZZZZZZZZZZZZZZZZZZZZZZZZZZZZZGbc441                                   ",
"                    444356344577778GZZZZZZZZZZZZZZZZZZZZZZZZZZZZZZZZZZZZZZZZZZZZZZZZZZZZZZZZZZZZZZZZZZZZZZZZZZZZZZZZZZZZZZZZZZZZZZZZZZZZZZZZZZZZZZZZZZZZZZZZZZZZZZZZZZZZZZZZZZZZZZZZZZZZZZZZZZZZZZZZZZZZZZZZZZZZZZZZZZZZZZZZZZZZZZZZZZZZZZZZZZZZZZZZZZZZZZZZZZZZZZZZZZZZZZZZZZZZZZZZZZZGbc442      O                            ",
"                    444356344577778cccccccccccccccccccccccccccccccccccccccccccccccccccccccccccccccccccccccccccccccccccccccccccccccccccccccccccccccccccccccccccccccccccccccccccccccccccccccccccccccccccccccccccccccccccccccccccccccccccccccccccccccccccccccccccccccccccccccccccccccccccccbc443                                   ",
"                    444356344577778xcbCm44444444444nMn44444444444nMn44444444444nMn44444444444nMn44444444444nMn44444444444nMn44444444444nMn44444444444nMn44444444444nMn44444444444nMn44444444444nMn44444444444nMn44444444444nMn44444444444nMn44444444444nMn44444444444nMn44444444444mC77cbc444      h                            ",
"                    444356344577778xcbGC41111111114nCn41111111114nCn41111111114nCn41111111114nCn41111111114nCn41111111114nCn41111111114nCn41111111114nCn41111111114nCn41111111114bCn41111111114nCn41111111114nCn41111111114nCn41111111114nCn41111111114nCn41111111114nCn41111111114CG77cbc844          >                        ",
"                    444356344577778xcbGC44444444444nCn44444444444nCn44444444444nCn44444444444nCn44444444444nCn44444444444nCb44444444444nCb44444444444nCn44444444444nCn44444444444nCn44444444444bCn44444444444nCn44444444444nCn44444444444nCn44444444444nCn44444444444nCn44444444444CG778cbc44                           D       ",
"             h      444356344577778xcbGCJJJJJJJJJJJCCJJJJJJJJJJJJCCJJJJJJJJJJJJCCJJJJJJJJJJJJCCJJJJJJJJJJJJCCJJJJJJJJJJJJCCJJJJJJJJJJJJCCJJJJJJJJJJJJCCJJJJJJJJJJJJCCJJJJJJJJJJJJCCJJJJJJJJJJJJCCJJJJJJJJJJJJCCJJJJJJJJJJJJCCJJJJJJJJJJJJCCJJJJJJJJJJJJCCJJJJJJJJJJJJCCJJJJJJJJJJJJCG777cbc44                              >    ",
"                    443456344577778xcbGCCCCCCCCCCCCCCCCCCCCCCCCCCCCCCCCCCCCCCCCCCCCCCCCCCCCCCCCCCCCCCCCCCCCCCCCCCCCCCCCCCCCCCCCCCCCCCCCCCCCCCCCCCCCCCCCCCCCCCCCCCCCCCCCCCCCCCCCCCCCCCCCCCCCCCCCCCCCCCCCCCCCCCCCCCCCCCCCCCCCCCCCCCCCCCCCCCCCCCCCCCCCCCCCCCCCCCCCCCCCCCCCCCCCCCCCCCCCCG777cbc44                                   ",
"                   %443456344577778xcbGCCCCCCCCCCCCCCCCCCCCCCCCCCCCCCCCCCCCCCCCCCCCCCCCCCCCCCCCCCCCCCCCCCCCCCCCCCCCCCCCCCCCCCCCCCCCCCCCCCCCCCCCCCCCCCCCCCCCCCCCCCCCCCCCCCCCCCCCCCCCCCCCCCCCCCCCCCCCCCCCCCCCCCCCCCCCCCCCCCCCCCCCCCCCCCCCCCCCCCCCCCCCCCCCCCCCCCCCCCCCCCCCCCCCCCCCCCCCCG777cbc44                                   ",
"                   1443456344577778xcbGCCCCCCCCCCCCCCCCCCCCCCCCCCCCCCCCCCCCCCCCCCCCCCCCCCCCCCCCCCCCCCCCCCCCCCCCCCCCCCCCCCCCCCCCCCCCCCCCCCCCCCCCCCCCCCCCCCCCCCCCCCCCCCCCCCCCCCCCCCCCCCCCCCCCCCCCCCCCCCCCCCCCCCCCCCCCCCCCCCCCCCCCCCCCCCCCCCCCCCCCCCCCCCCCCCCCCCCCCCCCCCCCCCCCCCCCCCCCCG777cbc44  O                                ",
"                   2443456344577778xcbGCCCCCCCCCCCCCCCCCCCCCNCCCCCCCCCCCCNCCCCCCCCCCCCCNCCCCCCCCCCCCCCCCCCCCCCCCCCCCCCCCCCCCCCCCCCCCCCCCCCCCCCCCCCCCCCCCCCCCCCCCCCCCCCCCCCCCCCCCCCCCCCCCCCCCCCCCCCCCCCCCCCCCCCCCCCCCCCCCCCCCCCCCCCCCCCCCCCCCCCCCCCw===========wCCCCCCCCCCCCCCCCCCCCCG777cbc44                                   ",
"%%%%%%%%%%%%%%%%%%%3443563445777778xcbGGGGGGGGGGGGGGGGGGGGGGGGGGGGGGGGGGGGGGGGGGGGGGGGGGJJJJJJJJJJJJJJJJJJJJJJJJJJJJJJJJCMGGGGGGGGGGGGGGGGGGGGGGGGGGGGGGGGGGGGGGGGGGGGGGGGGGGGGGGGGGGGGGGGGGGGGGGMCJJJJJJJJJJJJJJJJJJJJJJJJJJJJJJJJGGGGGGGGGGGGGGu7642%$$$$$$$=eGGGGGGGGGGGGGGGGGGGGG777cbc44%%%%%%%%%%%%%%%%%%%%%%%%%%%%%%%%%%%",
"%%%%%%%%%%%%%%%%%%%4443563445777778xcGFFFFFFFFFFFFFFFFFFFFFFFFFFFFFFFFFFFFFFFFFFFFFFFFFFJJJJJJJJJJJJJJJJJJJJJJJJJJJJJJJJmMFFFFFFFFFFFFFFFFFFFFFFFFFFFFFFFFFFFFFFFFFFFFFFFFFFFFFFFFFFFFFFFFFFFFFFFMmJJJJJJJJJJJJJJJJJJJJJJJJJJJJJJJJSFFFFFwwwwwwwuw541$$$$$$$$$$=ewwwwwwwFFFFFFFFSFFFFG77cbc44%%%%%%%%%%%%%%%%%%%%%%%%%%%%%%%%%%%",
"%%%%%%%%%%%%%%%%%%%4443563445777778xGFFFFFSFFFFFFFFFFFFFFFFFFFFFFFFFFFFFFFFFFFFFFFFFFFFJJJJJJJJJJJJJJJJJJJJJJJJJJJJJJJJJnMFFFFFFFFFFFFFFFFFFFFFFFFFFFFFFFFFFFFFFFFFFFFFFFFFFFFFFFFFFFFFFFFFFFFFFFMnJJJJJJJJJJJJJJJJJJJJJJJJJJJJJJJJJFFFFFFFF000e11$$$$$$$$$$$$$$$e000FFFFFFFFFFFFFFFFFG7cbc44%%%%%1%%%%%%%%%%%%%%%%%%%%%%1%%%%%%",
"%%%%%%%1%%%%%%%1%%%4443563445777778GSFFFFFFFFFFFFFFFFFFFFFFFFFFFFFFFFFFFFFFFFFFFFFFFFFFJJJJJJJJJJJJJJJJJJJJJJJJJJJJJJJJJnMFFFFFFFFFFFFFFFFFFFFFFFFFFFFFFFFFFFFFFFFFFFFFFFFFFFFFFFFFFFFFFFFFFFFFFFMnJJJJJJJJJJJJJJJJJJJJJJJJJJJJJJJJJFFFFFFFFFFe11$$$$$$$$$$$$$$$$=e0FFFFFFFFFFFFFFFFFFFGcbc44%%%1%%%%%%%%1%%%%%%%%%1%%1%%%%1%%1%",
"%%%%11%%111%%%%%1%%444356344577777GFFFFFFFFFFFFFFFFFFFFFFFFFFFFFFFFFFFFFFFFFFFFFFFFFFFJJJJJJJJJJJJJJJJJJJJJJJJJJJJJJJJJZnMFFFFFFFFFFFFFFFFFFFFFFFFFFFFFFFFFFFFFFFFFFFFFFFFFFFFFFFFFFFFFFFFFFFFFFFMbZJJJJJJJJJJJJJJJJJJJJJJJJJJJJJJJJJFFFFFFFFwwwwwwwwwwwwwwwwwwwwwwwFFFFFFFFFFFFFFFFFFFFGbc44%%1%1111%%1%%%%1%%%11111%%%1%%%%11%",
"1%%%%1%1%11111%1%1%44435634457777GFFFFFFFFFFFFFFFFFFFFFFFFFFFFFFFFFFFFFFFFFFFFFFFFFFFFJJJJJJJJJJJJJJJJJJJJJJJJJJJJJJJJJmnMFFFFFFFFFFFFFFFFFFFFFFFFFFFFFFFFFFFFFFFFFFFFFFFFFFFFFFFFFFFFFFFFFFFFFFFMnmJJJJJJJJnmnnnnnnnmnnnmnnnnJJJJJJJFFFFFFFeiiiiiiiiiiiiiiiiiiiiiiiiFFFFFFFFFFFFFFFFFFFFGc44%%1111111%1%%11%1%1%1111%1111%%1111",
"12%11111211111211124443563445777GFFFFFFFFFFFFFFFFFFFFFFFFFFFFFFFFFFFFFFFFFFFFFFFFFFFFJJJJJJJJJJJJJJJJJJJJJJJJJJJJJJJJJJmnMFFFFFFFFFFFFFFFFFFFFFFFFFFFFFFFFFFFFFFFFFFFFFFFFFFFFFFFFFFFFFFFFFFFFFFFMnmJJJJJJJJ     . .   .   11cJJJJJJJJFFFFewuuuuuuuuuuuuuuuuuuuuuuuuuweFFFFFFFFFFFFFFFFFFFG4421111111121211222%11122121%%1212211",
"1111122212111121112444356344577GFFFFFFFFFFFFFFFFFFFFFFFFFFFFFFFFFFFFFFFFFFFFFFFFFFFFFJJJJJJJJJJJJJJJJJJJJJJJJJJJJJJJJJJnMFFFFFFFFFFFFFFFFFFFFFFFFFFFFSFFFFFFFFFFFFFFFFFFFFFFFSFFFFFFFFFFFFFFFFFFFFMnJJJJJJJJJ..    . .     11ccJJJJJJJFewoyy@@@yyyyyyyyyyyyyyyyyy@@@@yyo0eFFFFFFFFFFFFFFFFFG411211212111211121112121212211112112",
"122112222221222222144435634457GFFFFFFFFFFFFFFFFFFFFFFFFFFFFFFFFFFFFFFFFFFFFFFFFFFFFFJJJJJJJJJJJJJJJJJJJJJJJJJJJJJJJJJJZnMFFFFFFFFFFFFFFFFFFFFFFFFFFFFFFFFFFFFFFFFFFFFFFFFFFFFFFFFFFFFFFFFFFFFFFFFFMnZJJJJJJJJ999. 999 .999.111cJJJJJJewooeeeeeeeeeeeeeeeeeeeeeeeeeeeeeeeooweFFFFFFFFFFFFFFFFG13211121112121112212221222111222211",
"21131222122222222324443563445GFFFFFFFFFFFFFFFFFFSFFFFFFFFFFFFFFFFFFFFSFFFFFFFFFFFFFFJJJJJJJJJJJJJJJJJJJJJJJJJJJJJJJJJJmnMFFFFFFFFFFFFFFFFFFFFFFFFFFFFFFFFFFFFFFFFFFFFFFFFFFFFFFFFFFFFFFFFFFFFFFFFFMnmJJJJJJJJ .  . .   ..  111ccJJJJew====00000000000000000000000000000====weSFFFFFFFFFFFFFFFG1222222122322222122222122212322332",
"2223233222322322222444356344GFFFFFFFFFFFFFFFFFFFFFFFFFFFFFFFFFFFFFFFFFFFFFFFFFFFFFFJJJJJJJJJJJJJJJJJJJJJJJJJJJJJJJJJJJmnmFFFFFFFFFFFFFFFFFFFFFFFFFFFFFFFFFFFFFFFFFFFFFFFFFFFFFFFFFFFFFFFFFFFFFFFFFMnmJJJJJJJJJ .   . .    .1111cJJJJe0=====***************************=====0eFFFFFFFFFFFFFFFFFG322222233222223222332332332222332",
"222232332323223232244435634GFFFFFFFFFFFFFFFFFFFFFFFFFFFFFFFFFFFFFFFFFFFFFFFFFFFFFFFJJJJJJJJJJJJJJJJJJJJJJJJJJJJJJJJJJJmnMFFFFFFFFFFFFFFFFFFFFFFFFFFFFFFFFFFFFFFFFFFFFFFFFFFFFFFFFFFFFFFFFFFFFFFFFFMnmJJJJJJJJJ  ..   ..  ..1111cJJJJe0======wwwwwwwwwwwwwwwwwwwwwwwww======0eFFFFFFFFFFFFFFFFFFG33333322323322223233132333332232",
"22333323243333223344443563GFFFFFFFFFFFFFFFFFFFFFFFFFFFFFFFFFFFFFFFFFFFFFFFFFFFFFFFJJJJJJJJJJJJJJJJJJJJJJJJJJJJJJJJJJJZmnMFFFFFFFFFFFFFFFFFFFFFFFFFFFFFFFFFFFFFFFFFFFFFFFFFFFFFFFFFFFFFFFFFFFFFFFFFMnmZJJJJJJJJ.    .   ..  1111ccJJJJwwwwwwwwwwwwwwwwwwwwwwwwwwwwwwwwwwwwwwwFFFFFFFFFFFFFFFFFFFFG3334333433333333323433133322333",
"3343343332343434423444356GFFFFFFFFFFFFFFFFFFFSFFFFFFFFFFFFFFFFFFFFFFFFFFFFFFFFFFFFJJJJJJJJJJJJJJJJJJJJJJJJJJJJJJJJJJJmmnMFFFFFFFFFFFFFFFFSFFFFFFFFFFFFFFFFFFFSFFFFFFSFFFFFFFFFFFFFFFFFFFFSFFFFFFFFMnmmJJJJJJJJ   .. ..   . 11111cJJJJJJJJFFFFqoooooooooooooooooooooqFFFFFFFFFFFFFFFFSFFFFFFFFFFFFG444233233434333424344234334333",
"434334344344343333444435GGGGGGGGGGGGGGGGGGGGGGGGGGGGGGGGGGGGGGGGGGGGGGGGGGGGGGGGGJJJJJJJJJJJJJJJJJJJJJJJJJJJJJJJJJJJJmmbMGGGGGGGGGGGGGGGGGGGGGGGGGGGGGGGGGGGGGGGGGGGGGGGGGGGGGGGGGGGGGGGGGGGGGGGGGMnmmJJJJJJJJJ.   .   . . 11111ccJJJJJJJJGGGGeeeeeeeeeeeeeeeeeeeeqGGGGGGGGGGGGGGGGGGGGGGGGGGGGGGGG44344434434343433333443343334",
"444443433434434433444435GCCCCCCCCCCCCCCCCCCCCCCCCCCCCCCCCCCCCCCCCCCCCCCCCCCCCCCCNJJJJJJJJJJJJJJJJJJJJJJJJJJJJJJJJJJJJmmmnMCCCCCCCCCCCCCCCCCCCCCCCF<<<<<<<<<<<<<<<<<<<<<<<FCCCCCCCCCCCCCCCCCCCCCCCMbmmmJJJJJJJJJ .   . . .  111111cJJJJJJJJCCCCCCCCCCCCCCCCCCCCCCCCCCCCCCCCCCCCCCCCCCCCCCCCCCCCCCCCG54344344444344544434443344335",
"453434544344534444444435GCCCCCCCCCCCCCCCCCCCCCCCCCCCCCCCCCCCCCCCCCCCCCCCCCCCCCCCJJJJJJJJJJJJJJJJJJJJJJJJJJJJJJJJJJJJZmmmnMCCCCCCCCCCCCCCCCCCCm84CF<<<<<<<<<<<<<<<<<<<<<<<FCm84CCCCCCCCCCCCCCCCCCCMnmmmZJJJJJJJJ . .   .   .111111ccJJJJJJJJCCCCCCCCCCCCCCCCCCCCCCCCCCCCCCCCCCCCCCCCCCCCCCCCCCCCCCCG54434444444445435554544444554",
"455454455544454555544345GCCCCCCCCCCCCCCCCCCCCCCCCCCCCCCCCCCCCCCCCCCCCCCCCCCCCCCCJJJJJJJJJJJJJJJJJJJJJJJJJJJJJJJJJJJJmmmmnMCCCCCCCCCCCCCCCCCCCm84CF<<sssssssssssssssssss<<FCm84CCCCCCCCCCCCCCCCCCCMnmmmmJJJJJJJJJ  . .   .. 1111111cJJJJJJJJCCCCCCCCCCCCCCCCCCCCCCCCCCCCCCCCCCCCCCCCCCCCCCCCCCCCCCCG55554445554545455545554554554",
"554455555545455555444345GCCCCCCCCCCCCCCCCCCCCCCCCCCCCCCCCCCCCCCCCCCCCCCCCCCCCCCJJJJJJJJJJJJJJJJJJJJJJJJJJJJJJJJJJJJJmmmmnMCCCCCCCCCCCCCCCCCCCm84CF<<sfffffffdsdfffffffs<<FCm84CCCCCCCCCCCCCCCCCCCMnmmmmJJJJJJJJJ ..   .    1111111cJJJJJJJJJCCCCCCCCCCCCCCCCCCCCCCCCCCCCCCCCCCCCCCCCCCCCCCCCCCCCCCG55554555554554455555545555455",
"545666565565556555444345GCCCCCCCCCCCCCCCCCCCCCCCCCCCCCCCCCCCCCCCCCCCCCCCCCCCCCCJJJJJJJJJJJJJJJJJJJJJJJJJJJJJJJJJJJJJmmmmnMCCCCCCCCCCCCCCCCCCCJJJCF<<sffVVVVfdsdfVVVVffs<<FCJJJCCCCCCCCCCCCCCCCCCCMnmmmmJJJJJJJJJJJJJJJJJJJJJJJJJJJJJJJJJJJJJCCCCCCCCCCCCCCCCCCCCCCCCCCCCCCCCCCCCCCCCCCCCCCCCCCCCCCG55445455554555555655556545565",
"565555555666665556444345GCCCCCCCCCCCCCCCCCCCCCCCCCCCCCCCCCCCCCCCCCCCCCCCCCCCCCJJJJJJJJJJJJJJJJJJJJJJJJJJJJJJJJJJJJJZmmmmnMCCCCCCCCCCCCCCCCCCGHHHHF<<sffzzzzfdsdfzzzzffs<<FHHHHGCCCCCCCCCCCCCCCCCCMnmmmmZJJJJJJJJJJJJJJJJJJJJJJJJJJJJJJJJJJJJJCCCCCCCCCCCCCCCCCCCCCCCCCCCCCCCCCCCCCCCCCCCCCCCCCCCCCG55566665556555555656565565555",
"556666566666555566444345GCCCCCCCCCCCCCCCCCCCCCCCCCCCCCCCCCCCCCCCCCCCCCCCCCCCCCJJJJJJJJJJJJJJJJJJJJJJJJJJJJJJJJJJJJJmmmmmnMCCCCCCCCCCCCCCCCCHGGHGGF<<sffllllfdsdfllllffs<<FGGHGGHCCCCCCCCCCCCCCCCCMnmmmmmJJJJJJJJJJJJJJJJJJJJJJJJJJJJJJJJJJJJJCCCCCCCCCCCCCCCCCCCCCCCCCCCCCCCCCCCCCCCCCCCCCCCCCCCCCG65666556666666656655656566565",
"765667666666676666444345r::::::::::::::::::::::::::::::::::::::::::::::::::::JJJJJJJJJJJJJJJJJJJJJJJJJJJJJJJJJJJJJJmmmm;-;::::::::::::::::rrrrrrrFssdffggggfdsdfggggffdssFrrrrrrr::::::::::::::::;-mmmmmJJJJJJJJJJJJJJJJJJJJJJJJJJJJJJJJJJJJJJ::::::::::::::::::::::::::::::::::::::::::::::::::::t67666676666566676676566767656",
"666777666676666677444345r::::::::::::::::::::::::::::::::::::::::::::::::::::JJJJJJJJJJJJJJJJJJJJJJJJJJJJJJJJJJJJJJmm;;;-;:::::::::::::::rrrrrrrrFddffffffffdsdffffffffddFrrrrrrrr:::::::::::::::;-;;;mmJJJJJJJJJJJJJJJJJJJJJJJJJJJJJJJJJJJJJJ::::::::::::::::::::::::::::::::::::::::::::::::::::t67776666667766667766666776667",
"676676667676776677444345r:::::::::::::::::::::::::::::::::::::::::::::::::::rrrrrrrrrrrrrrrrrrrrrrrrrrrrrrrrrrrrrrt;;;;;-;::::::::::::::rrrrrrrrrFffffffffffdsdffffffffffFrrrrrrrrr::::::::::::::;-;;;;;trrrrrrrrrrrrrrrrrrrrrrrrrrrrrrrrrrrrrt:::::::::::::::::::::::::::::::::::::::::::::::::::t66666766667667776777776677766",
"677666677676677767444345GCCCCCCCCCCCCCCCCCCCCCCCCCCCCCCCCCCCCCCCCCCCCCCCCCCCrrrrrrrrrrrrrrrrrrrrrrrrrrrrrrrrrrrrrt;;;;;mnMCCCCCCCCCCCCCCCCCCCCCCCFffffffffffdsdffffffffffFCCCCCCCCCCCCCCCCCCCCCCCMn;;;;;;trrrrrrrrrrrrrrrrrrrrrrrrrrrrrrrrrrrrtCCCCCCCCCCCCCCCCCCCCCCCCCCCCCCCCCCCCCCCCCCCCCCCCCCCG77677767677667766777777677777",
"777777777777767777444345GCCCCCCCCCCCCCCCCCCCCCCCCCCCCCCCCCCCCCCCCCCCCCCCCCCrrrrrrrrrrrrrrrrrrrrrrrrrrrrrrrrrrrrrrt;;mmmmnMCCCCCCCCCCCCCCCCCCCCCCCFffffffffffdsdffffffffffFCCCCCCCCCCCCCCCCCCCCCCCMnmmmm;;trrrrrrrrrrrrrrrrrrrrrrrrrrrrrrrrrrrrrtCCCCCCCCCCCCCCCCCCCCCCCCCCCCCCCCCCCCCCCCCCCCCCCCCCG77777777777776777777777777777",
"777777777777777777444345GCCCCCCCCCCCCCCCCCCCCCCCCCCCCCCCCCCCCCCCCCCCCCCCCCCJJJJJJJJJJJJJJJJJJJJJJJJJJJJJJJJJJJJJJJmmmmmmnMCCCCCCCCCCCCCCCCCCCCCCCFffffffffffdsdffffffffffFCCCCCCCCCCCCCCCCCCCCCCCmnmmmmmmJJJJJJJJJJJJJJJJJJJJJJJJJJJJJJJJJJJJJJJCCCCCCCCCCCCCCCCCCCCCCCCCCCCCCCCCCCCCCCCCCCCCCCCCCG77777777777777777777777777777",
"@@@@@@@@@@@@@@@@@@@@@@@@@@@@@@@@@@@@@@@@@@@@@@@@@@@@@@@@@@@@@@@@@@@@@@@@@@@@@@@@@@@@@@@@@@@@@@@@@@@@@@@@@@@@@@@@@@@@@@@@@@@@@@@@@@@@@@@@@@@@@@@@@@@@@@@@@@@@@@@@@@@@@@@@@@@@@@@@@@@@@@@@@@@@@@@@@@@@@@@@@@@@@@@@@@@@@@@@@@@@@@@@@@@@@@@@@@@@@@@@@@@@@@@@@@@@@@@@@@@@@@@@@@@@@@@@@@@@@@@@@@@@@@@@@@@@@@@@@@@@@@@@@@@@@@@@@@@@@@@@",
"@@@@@@@@@@@@@@@@@@@@@@@@@@@@@@@@@@@@@@@@@@@@@@@@@@@@@@@@@@@@@@@@@@@@@@@@@@@@@@@@@@@@@@@@@@@@@@@@@@@@@@@@@@@@@@@@@@@@@@@@@@@@@@@@@@@@@@@@@@@@@@@@@@@@@@@@@@@@@@@@@@@@@@@@@@@@@@@@@@@@@@@@@@@@@@@@@@@@@@@@@@@@@@@@@@@@@@@@@@@@@@@@@@@@@@@@@@@@@@@@@@@@@@@@@@@@@@@@@@@@@@@@@@@@@@@@@@@@@@@@@@@@@@@@@@@@@@@@@@@@@@@@@@@@@@@@@@@@@@@@",
"@@@@@@@@@@@@@@@@@@@@@@@@@@@@@@@@@@@@@@@@@@@@@@@@@@@@@@@@@@@@@@@@@@@@@@@@@@@@@@@@@@@@@@@@@@@@@@@@@@@@@@@@@@@@@@@@@@@@@@@@@@@@@@@@@@@@@@@@@@@@@@@@@@@@@@@@@@@@@@@@@@@@@@@@@@@@@@@@@@@@@@@@@@@@@@@@@@@@@@@@@@@@@@@@@@@@@@@@@@@@@@@@@@@@@@@@@@@@@@@@@@@@@@@@@@@@@@@@@@@@@@@@@@@@@@@@@@@@@@@@@@@@@@@@@@@@@@@@@@@@@@@@@@@@@@@@@@@@@@@@",
"@@@@@@@@@@@@@@@@@@@@@@@@@@@@@@@@@@@@@@@@@@@@@@@@@@@@@@@@@@@@@@@@@@@@@@@@@@@@@@@@@@@@@@@@@@@@@@@@@@@@@@@@@@@@@@@@@@@@@@@@@@@@@@@@@@@@@@@@@@@@@@@@@@@@@@@@@@@@@@@@@@@@@@@@@@@@@@@@@@@@@@@@@@@@@@@@@@@@@@@@@@@@@@@@@@@@@@@@@@@@@@@@@@@@@@@@@@@@@@@@@@@@@@@@@@@@@@@@@@@@@@@@@@@@@@@@@@@@@@@@@@@@@@@@@@@@@@@@@@@@@@@@@@@@@@@@@@@@@@@@",
"@@@@@@@@@@@@@@@@@@@@@@@@@@@@@@@@@@@@@@@@@@@@@@@@@@@@@@@@@@@@@@@@@@@@@@@@@@@@@@@@@@@@@@@@@@@@@@@@@@@@@@@@@@@@@@@@@@@@@@@@@@@@@@@@@@@@@@@@@@@@@@@@@@@@@@@@@@@@@@@@@@@@@@@@@@@@@@@@@@@@@@@@@@@@@@@@@@@@@@@@@@@@@@@@@@@@@@@@@@@@@@@@@@@@@@@@@@@@@@@@@@@@@@@@@@@@@@@@@@@@@@@@@@@@@@@@@@@@@@@@@@@@@@@@@@@@@@@@@@@@@@@@@@@@@@@@@@@@@@@@",
"@@@@@@@@@@@@@@@@@@@@@@@@@@@@@@@@@@@@@@@@@@@@@@@@@@@@@@@@@@@@@@@@@@@@@@@@@@@@@@@@@@@@@@@@@@@@@@@@@@@@@@@@@@@@@@@@@@@@@@@@@@@@@@@@@@@@@@@@@@@@@@@@@@@@@@@@@@@@@@@@@@@@@@@@@@@@@@@@@@@@@@@@@@@@@@@@@@@@@@@@@@@@@@@@@@@@@@@@@@@@@@@@@@@@@@@@@@@@@@@@@@@@@@@@@@@@@@@@@@@@@@@@@@@@@@@@@@@@@@@@@@@@@@@@@@@@@@@@@@@@@@@@@@@@@@@@@@@@@@@@",
"@@@@@@@@@@@@@@@@@@@@@@@@@@@@@@@@@@@@@@@@@@@@@@@@@@@@@@@@@@@@@@@@@@@@@@@@@@@@@@@@@@@@@@@@@@@@@@@@@@@@@@@@@@@@@@@@@@@@@@@@@@@@@@@@@@@@@@@@@@@@@@@@@@@@@@@@@@@@@@@@@@@@@@@@@@@@@@@@@@@@@@@@@@@@@@@@@@@@@@@@@@@@@@@@@@@@@@@@@@@@@@@@@@@@@@@@@@@@@@@@@@@@@@@@@@@@@@@@@@@@@@@@@@@@@@@@@@@@@@@@@@@@@@@@@@@@@@@@@@@@@@@@@@@@@@@@@@@@@@@@",
"@@@@@@@@@@@@@@@@@@@@@@@@@@@@@@@@@@@@@@@@@@@@@@@@@@@@@@@@@@@@@@@@@@@@@@@@@@@@@@@@@@@@@@@@@@@@@@@@@@@@@@@@@@@@@@@@@@@@@@@@@@@@@@@@@@@@@@@@@@@@@@@@@@@@@@@@@@@@@@@@@@@@@@@@@@@@@@@@@@@@@@@@@@@@@@@@@@@@@@@@@@@@@@@@@@@@@@@@@@@@@@@@@@@@@@@@@@@@@@@@@@@@@@@@@@@@@@@@@@@@@@@@@@@@@@@@@@@@@@@@@@@@@@@@@@@@@@@@@@@@@@@@@@@@@@@@@@@@@@@@",
"@@@@@@@@@@@@@@@@@@@@@@@@@@@@@@@@@@@@@@@@@@@@@@@@@@@@@@@@@@@@@@@@@@@@@@@@@@@@@@@@@@@@@@@@@@@@@@@@@@@@@@@@@@@@@@@@@@@@@@@@@@@@@@@@@@@@@@@@@@@@@@@@@@@@@@@@@@@@@@@@@@@@@@@@@@@@@@@@@@@@@@@@@@@@@@@@@@@@@@@@@@@@@@@@@@@@@@@@@@@@@@@@@@@@@@@@@@@@@@@@@@@@@@@@@@@@@@@@@@@@@@@@@@@@@@@@@@@@@@@@@@@@@@@@@@@@@@@@@@@@@@@@@@@@@@@@@@@@@@@@",
"@@@@@@@@@@@@@@@@@@@@@@@@@@@@@@@@@@@@@@@@@@@@@@@@@@@@@@@@@@@@@@@@@@@@@@@@@@@@@@@@@@@@@@@@@@@@@@@@@@@@@@@@@@@@@@@@@@@@@@@@@@@@@@@@@@@@@@@@@@@@@@@@@@@@@@@@@@@@@@@@@@@@@@@@@@@@@@@@@@@@@@@@@@@@@@@@@@@@@@@@@@@@@@@@@@@@@@@@@@@@@@@@@@@@@@@@@@@@@@@@@@@@@@@@@@@@@@@@@@@@@@@@@@@@@@@@@@@@@@@@@@@@@@@@@@@@@@@@@@@@@@@@@@@@@@@@@@@@@@@@",
"@@@@@@@@@@@@@@@@@@@@@@@@@@@@@@@@@@@@@@@@@@@@@@@@@@@@@@@@@@@@@@@@@@@@@@@@@@@@@@@@@@@@@@@@@@@@@@@@@@@@@@@@@@@@@@@@@@@@@@@@@@@@@@@@@@@@@@@@@@@@@@@@@@@@@@@@@@@@@@@@@@@@@@@@@@@@@@@@@@@@@@@@@@@@@@@@@@@@@@@@@@@@@@@@@@@@@@@@@@@@@@@@@@@@@@@@@@@@@@@@@@@@@@@@@@@@@@@@@@@@@@@@@@@@@@@@@@@@@@@@@@@@@@@@@@@@@@@@@@@@@@@@@@@@@@@@@@@@@@@@",
"@@@@@@@@@@@@@@@@@@@@@@@@@@@@@@@@@@@@@@@@@@@@@@@@@@@@@@@@@@@@@@@@@@@@@@@@@@@@@@@@@@@@@@@@@@@@@@@@@@@@@@@@@@@@@@@@@@@@@@@@@@@@@@@@@@@@@@@@@@@@@@@@@@@@@@@@@@@@@@@@@@@@@@@@@@@@@@@@@@@@@@@@@@@@@@@@@@@@@@@@@@@@@@@@@@@@@@@@@@@@@@@@@@@@@@@@@@@@@@@@@@@@@@@@@@@@@@@@@@@@@@@@@@@@@@@@@@@@@@@@@@@@@@@@@@@@@@@@@@@@@@@@@@@@@@@@@@@@@@@@",
"@@@@@@@@@@@@@@@@@@@@@@@@@@@@@@@@@@@@@@@@@@@@@@@@@@@@@@@@@@@@@@@@@@@@@@@@@@@@@@@@@@@@@@@@@@@@@@@@@@@@@@@@@@@@@@@@@@@@@@@@@@@@@@@@@@@@@@@@@@@@@@@@@@@@@@@@@@@@@@@@@@@@@@@@@@@@@@@@@@@@@@@@@@@@@@@@@@@@@@@@@@@@@@@@@@@@@@@@@@@@@@@@@@@@@@@@@@@@@@@@@@@@@@@@@@@@@@@@@@@@@@@@@@@@@@@@@@@@@@@@@@@@@@@@@@@@@@@@@@@@@@@@@@@@@@@@@@@@@@@@",
"@@@@@@@@@@@@@@@@@@@@@@@@@@@@@@@@@@@@@@@@@@@@@@@@@@@@@@@@@@@@@@@@@@@@@@@@@@@@@@@@@@@@@@@@@@@@@@@@@@@@@@@@@@@@@@@@@@@@@@@@@@@@@@@@@@@@@@@@@@@@@@@@@@@@@@@@@@@@@@@@@@@@@@@@@@@@@@@@@@@@@@@@@@@@@@@@@@@@@@@@@@@@@@@@@@@@@@@@@@@@@@@@@@@@@@@@@@@@@@@@@@@@@@@@@@@@@@@@@@@@@@@@@@@@@@@@@@@@@@@@@@@@@@@@@@@@@@@@@@@@@@@@@@@@@@@@@@@@@@@@",
"@@@@@@@@@@@@@@@@@@@@@@@@@@@@@@@@@@@@@@@@@@@@@@@@@@@@@@@@@@@@@@@@@@@@@@@@@@@@@@@@@@@@@@@@@@@@@@@@@@@@@@@@@@@@@@@@@@@@@@@@@@@@@@@@@@@@@@@@@@@@@@@@@@@@@@@@@@@@@@@@@@@@@@@@@@@@@@@@@@@@@@@@@@@@@@@@@@@@@@@@@@@@@@@@@@@@@@@@@@@@@@@@@@@@@@@@@@@@@@@@@@@@@@@@@@@@@@@@@@@@@@@@@@@@@@@@@@@@@@@@@@@@@@@@@@@@@@@@@@@@@@@@@@@@@@@@@@@@@@@@",
"@@@@@@@@@@@@@@@@@@@@@@@@@@@@@@@@@@@@@@@@@@@@@@@@@@@@@@@@@@@@@@@@@@@@@@@@@@@@@@@@@@@@@@@@@@@@@@@@@@@@@@@@@@@@@@@@@@@@@@@@@@@@@@@@@@@@@@@@@@@@@@@@@@@@@@@@@@@@@@@@@@@@@@@@@@@@@@@@@@@@@@@@@@@@@@@@@@@@@@@@@@@@@@@@@@@@@@@@@@@@@@@@@@@@@@@@@@@@@@@@@@@@@@@@@@@@@@@@@@@@@@@@@@@@@@@@@@@@@@@@@@@@@@@@@@@@@@@@@@@@@@@@@@@@@@@@@@@@@@@@",
"@@@@@@@@@@@@@@@@@@@@@@@@@@@@@@@@@@@@@@@@@@@@@@@@@@@@@@@@@@@@@@@@@@@@@@@@@@@@@@@@@@@@@@@@@@@@@@@@@@@@@@@@@@@@@@@@@@@@@@@@@@@@@@@@@@@@@@@@@@@@@@@@@@@@@@@@@@@@@@@@@@@@@@@@@@@@@@@@@@@@@@@@@@@@@@@@@@@@@@@@@@@@@@@@@@@@@@@@@@@@@@@@@@@@@@@@@@@@@@@@@@@@@@@@@@@@@@@@@@@@@@@@@@@@@@@@@@@@@@@@@@@@@@@@@@@@@@@@@@@@@@@@@@@@@@@@@@@@@@@@",
"@@@@@@@@@@@@@@@@@@@@@@@@@@@@@@@@@@@@@@@@@@@@@@@@@@@@@@@@@@@@@@@@@@@@@@@@@@@@@@@@@@@@@@@@@@@@@@@@@@@@@@@@@@@@@@@@@@@@@@@@@@@@@@@@@@@@@@@@@@@@@@@@@@@@@@@@@@@@@@@@@@@@@@@@@@@@@@@@@@@@@@@@@@@@@@@@@@@@@@@@@@@@@@@@@@@@@@@@@@@@@@@@@@@@@@@@@@@@@@@@@@@@@@@@@@@@@@@@@@@@@@@@@@@@@@@@@@@@@@@@@@@@@@@@@@@@@@@@@@@@@@@@@@@@@@@@@@@@@@@@",
"@@@@@@@@@@@@@@@@@@@@@@@@@@@@@@@@@@@@@@@@@@@@@@@@@@@@@@@@@@@@@@@@@@@@@@@@@@@@@@@@@@@@@@@@@@@@@@@@@@@@@@@@@@@@@@@@@@@@@@@@@@@@@@@@@@@@@@@@@@@@@@@@@@@@@@@@@@@@@@@@@@@@@@@@@@@@@@@@@@@@@@@@@@@@@@@@@@@@@@@@@@@@@@@@@@@@@@@@@@@@@@@@@@@@@@@@@@@@@@@@@@@@@@@@@@@@@@@@@@@@@@@@@@@@@@@@@@@@@@@@@@@@@@@@@@@@@@@@@@@@@@@@@@@@@@@@@@@@@@@@",
"@@@@@@@@@@@@@@@@@@@@@@@@@@@@@@@@@@@@@@@@@@@@@@@@@@@@@@@@@@@@@@@@@@@@@@@@@@@@@@@@@@@@@@@@@@@@@@@@@@@@@@@@@@@@@@@@@@@@@@@@@@@@@@@@@@@@@@@@@@@@@@@@@@@@@@@@@@@@@@@@@@@@@@@@@@@@@@@@@@@@@@@@@@@@@@@@@@@@@@@@@@@@@@@@@@@@@@@@@@@@@@@@@@@@@@@@@@@@@@@@@@@@@@@@@@@@@@@@@@@@@@@@@@@@@@@@@@@@@@@@@@@@@@@@@@@@@@@@@@@@@@@@@@@@@@@@@@@@@@@@",
"@@@@@@@@@@@@@@@@@@@@@@@@@@@@@@@@@@@@@@@@@@@@@@@@@@@@@@@@@@@@@@@@@@@@@@@@@@@@@@@@@@@@@@@@@@@@@@@@@@@@@@@@@@@@@@@@@@@@@@@@@@@@@@@@@@@@@@@@@@@@@@@@@@@@@@@@@@@@@@@@@@@@@@@@@@@@@@@@@@@@@@@@@@@@@@@@@@@@@@@@@@@@@@@@@@@@@@@@@@@@@@@@@@@@@@@@@@@@@@@@@@@@@@@@@@@@@@@@@@@@@@@@@@@@@@@@@@@@@@@@@@@@@@@@@@@@@@@@@@@@@@@@@@@@@@@@@@@@@@@@",
"@@@@@@@@@@@@@@@@@@@@@@@@@@@@@@@@@@@@@@@@@@@@@@@@@@@@@@@@@@@@@@@@@@@@@@@@@@@@@@@@@@@@@@@@@@@@@@@@@@@@@@@@@@@@@@@@@@@@@@@@@@@@@@@@@@@@@@@@@@@@@@@@@@@@@@@@@@@@@@@@@@@@@@@@@@@@@@@@@@@@@@@@@@@@@@@@@@@@@@@@@@@@@@@@@@@@@@@@@@@@@@@@@@@@@@@@@@@@@@@@@@@@@@@@@@@@@@@@@@@@@@@@@@@@@@@@@@@@@@@@@@@@@@@@@@@@@@@@@@@@@@@@@@@@@@@@@@@@@@@@",
"@@@@@@@@@@@@@@@@@@@@@@@@@@@@@@@@@@@@@@@@@@@@@@@@@@@@@@@@@@@@@@@@@@@@@@@@@@@@@@@@@@@@@@@@@@@@@@@@@@@@@@@@@@@@@@@@@@@@@@@@@@@@@@@@@@@@@@@@@@@@@@@@@@@@@@@@@@@@@@@@@@@@@@@@@@@@@@@@@@@@@@@@@@@@@@@@@@@@@@@@@@@@@@@@@@@@@@@@@@@@@@@@@@@@@@@@@@@@@@@@@@@@@@@@@@@@@@@@@@@@@@@@@@@@@@@@@@@@@@@@@@@@@@@@@@@@@@@@@@@@@@@@@@@@@@@@@@@@@@@@",
"@@@@@@@@@@@@@@@@@@@@@@@@@@@@@@@@@@@@@@@@@@@@@@@@@@@@@@@@@@@@@@@@@@@@@@@@@@@@@@@@@@@@@@@@@@@@@@@@@@@@@@@@@@@@@@@@@@@@@@@@@@@@@@@@@@@@@@@@@@@@@@@@@@@@@@@@@@@@@@@@@@@@@@@@@@@@@@@@@@@@@@@@@@@@@@@@@@@@@@@@@@@@@@@@@@@@@@@@@@@@@@@@@@@@@@@@@@@@@@@@@@@@@@@@@@@@@@@@@@@@@@@@@@@@@@@@@@@@@@@@@@@@@@@@@@@@@@@@@@@@@@@@@@@@@@@@@@@@@@@@",
"@@@@@@@@@@@@@@@@@@@@@@@@@@@@@@@@@@@@@@@@@@@@@@@@@@@@@@@@@@@@@@@@@@@@@@@@@@@@@@@@@@@@@@@@@@@@@@@@@@@@@@@@@@@@@@@@@@@@@@@@@@@@@@@@@@@@@@@@@@@@@@@@@@@@@@@@@@@@@@@@@@@@@@@@@@@@@@@@@@@@@@@@@@@@@@@@@@@@@@@@@@@@@@@@@@@@@@@@@@@@@@@@@@@@@@@@@@@@@@@@@@@@@@@@@@@@@@@@@@@@@@@@@@@@@@@@@@@@@@@@@@@@@@@@@@@@@@@@@@@@@@@@@@@@@@@@@@@@@@@@",
"@@@@@@@@@@@@@@@@@@@@@@@@@@@@@@@@@@@@@@@@@@@@@@@@@@@@@@@@@@@@@@@@@@@@@@@@@@@@@@@@@@@@@@@@@@@@@@@@@@@@@@@@@@@@@@@@@@@@@@@@@@@@@@@@@@@@@@@@@@@@@@@@@@@@@@@@@@@@@@@@@@@@@@@@@@@@@@@@@@@@@@@@@@@@@@@@@@@@@@@@@@@@@@@@@@@@@@@@@@@@@@@@@@@@@@@@@@@@@@@@@@@@@@@@@@@@@@@@@@@@@@@@@@@@@@@@@@@@@@@@@@@@@@@@@@@@@@@@@@@@@@@@@@@@@@@@@@@@@@@@",
"@@@@@@@@@@@@@@@@@@@@@@@@@@@@@@@@@@@@@@@@@@@@@@@@@@@@@@@@@@@@@@@@@@@@@@@@@@@@@@@@@@@@@@@@@@@@@@@@@@@@@@@@@@@@@@@@@@@@@@@@@@@@@@@@@@@@@@@@@@@@@@@@@@@@@@@@@@@@@@@@@@@@@@@@@@@@@@@@@@@@@@@@@@@@@@@@@@@@@@@@@@@@@@@@@@@@@@@@@@@@@@@@@@@@@@@@@@@@@@@@@@@@@@@@@@@@@@@@@@@@@@@@@@@@@@@@@@@@@@@@@@@@@@@@@@@@@@@@@@@@@@@@@@@@@@@@@@@@@@@@",
"@@@@@@@@@@@@@@@@@@@@@@@@@@@@@@@@@@@@@@@@@@@@@@@@@@@@@@@@@@@@@@@@@@@@@@@@@@@@@@@@@@@@@@@@@@@@@@@@@@@@@@@@@@@@@@@@@@@@@@@@@@@@@@@@@@@@@@@@@@@@@@@@@@@@@@@@@@@@@@@@@@@@@@@@@@@@@@@@@@@@@@@@@@@@@@@@@@@@@@@@@@@@@@@@@@@@@@@@@@@@@@@@@@@@@@@@@@@@@@@@@@@@@@@@@@@@@@@@@@@@@@@@@@@@@@@@@@@@@@@@@@@@@@@@@@@@@@@@@@@@@@@@@@@@@@@@@@@@@@@@",
"@@@@@@@@@@@@@@@@@@@@@@@@@@@@@@@@@@@@@@@@@@@@@@@@@@@@@@@@@@@@@@@@@@@@@@@@@@@@@@@@@@@@@@@@@@@@@@@@@@@@@@@@@@@@@@@@@@@@@@@@@@@@@@@@@@@@@@@@@@@@@@@@@@@@@@@@@@@@@@@@@@@@@@@@@@@@@@@@@@@@@@@@@@@@@@@@@@@@@@@@@@@@@@@@@@@@@@@@@@@@@@@@@@@@@@@@@@@@@@@@@@@@@@@@@@@@@@@@@@@@@@@@@@@@@@@@@@@@@@@@@@@@@@@@@@@@@@@@@@@@@@@@@@@@@@@@@@@@@@@@",
"@@@@@@@@@@@@@@@@@@@@@@@@@@@@@@@@@@@@@@@@@@@@@@@@@@@@@@@@@@@@@@@@@@@@@@@@@@@@@@@@@@@@@@@@@@@@@@@@@@@@@@@@@@@@@@@@@@@@@@@@@@@@@@@@@@@@@@@@@@@@@@@@@@@@@@@@@@@@@@@@@@@@@@@@@@@@@@@@@@@@@@@@@@@@@@@@@@@@@@@@@@@@@@@@@@@@@@@@@@@@@@@@@@@@@@@@@@@@@@@@@@@@@@@@@@@@@@@@@@@@@@@@@@@@@@@@@@@@@@@@@@@@@@@@@@@@@@@@@@@@@@@@@@@@@@@@@@@@@@@@",
"@@@@@@@@@@@@@@@@@@@@@@@@@@@@@@@@@@@@@@@@@@@@@@@@@@@@@@@@@@@@@@@@@@@@@@@@@@@@@@@@@@@@@@@@@@@@@@@@@@@@@@@@@@@@@@@@@@@@@@@@@@@@@@@@@@@@@@@@@@@@@@@@@@@@@@@@@@@@@@@@@@@@@@@@@@@@@@@@@@@@@@@@@@@@@@@@@@@@@@@@@@@@@@@@@@@@@@@@@@@@@@@@@@@@@@@@@@@@@@@@@@@@@@@@@@@@@@@@@@@@@@@@@@@@@@@@@@@@@@@@@@@@@@@@@@@@@@@@@@@@@@@@@@@@@@@@@@@@@@@@",
"@@@@@@@@@@@@@@@@@@@@@@@@@@@@@@@@@@@@@@@@@@@@@@@@@@@@@@@@@@@@@@@@@@@@@@@@@@@@@@@@@@@@@@@@@@@@@@@@@@@@@@@@@@@@@@@@@@@@@@@@@@@@@@@@@@@@@@@@@@@@@@@@@@@@@@@@@@@@@@@@@@@@@@@@@@@@@@@@@@@@@@@@@@@@@@@@@@@@@@@@@@@@@@@@@@@@@@@@@@@@@@@@@@@@@@@@@@@@@@@@@@@@@@@@@@@@@@@@@@@@@@@@@@@@@@@@@@@@@@@@@@@@@@@@@@@@@@@@@@@@@@@@@@@@@@@@@@@@@@@@",
"@@@@@@@@@@@@@@@@@@@@@@@@@@@@@@@@@@@@@@@@@@@@@@@@@@@@@@@@@@@@@@@@@@@@@@@@@@@@@@@@@@@@@@@@@@@@@@@@@@@@@@@@@@@@@@@@@@@@@@@@@@@@@@@@@@@@@@@@@@@@@@@@@@@@@@@@@@@@@@@@@@@@@@@@@@@@@@@@@@@@@@@@@@@@@@@@@@@@@@@@@@@@@@@@@@@@@@@@@@@@@@@@@@@@@@@@@@@@@@@@@@@@@@@@@@@@@@@@@@@@@@@@@@@@@@@@@@@@@@@@@@@@@@@@@@@@@@@@@@@@@@@@@@@@@@@@@@@@@@@@",
"@@@@@@@@@@@@@@@@@@@@@@@@@@@@@@@@@@@@@@@@@@@@@@@@@@@@@@@@@@@@@@@@@@@@@@@@@@@@@@@@@@@@@@@@@@@@@@@@@@@@@@@@@@@@@@@@@@@@@@@@@@@@@@@@@@@@@@@@@@@@@@@@@@@@@@@@@@@@@@@@@@@@@@@@@@@@@@@@@@@@@@@@@@@@@@@@@@@@@@@@@@@@@@@@@@@@@@@@@@@@@@@@@@@@@@@@@@@@@@@@@@@@@@@@@@@@@@@@@@@@@@@@@@@@@@@@@@@@@@@@@@@@@@@@@@@@@@@@@@@@@@@@@@@@@@@@@@@@@@@@",
"@@@@@@@@@@@@@@@@@@@@@@@@@@@@@@@@@@@@@@@@@@@@@@@@@@@@@@@@@@@@@@@@@@@@@@@@@@@@@@@@@@@@@@@@@@@@@@@@@@@@@@@@@@@@@@@@@@@@@@@@@@@@@@@@@@@@@@@@@@@@@@@@@@@@@@@@@@@@@@@@@@@@@@@@@@@@@@@@@@@@@@@@@@@@@@@@@@@@@@@@@@@@@@@@@@@@@@@@@@@@@@@@@@@@@@@@@@@@@@@@@@@@@@@@@@@@@@@@@@@@@@@@@@@@@@@@@@@@@@@@@@@@@@@@@@@@@@@@@@@@@@@@@@@@@@@@@@@@@@@@",
"@@@@@@@@@@@@@@@@@@@@@@@@@@@@@@@@@@@@@@@@@@@@@@@@@@@@@@@@@@@@@@@@@@@@@@@@@@@@@@@@@@@@@@@@@@@@@@@@@@@@@@@@@@@@@@@@@@@@@@@@@@@@@@@@@@@@@@@@@@@@@@@@@@@@@@@@@@@@@@@@@@@@@@@@@@@@@@@@@@@@@@@@@@@@@@@@@@@@@@@@@@@@@@@@@@@@@@@@@@@@@@@@@@@@@@@@@@@@@@@@@@@@@@@@@@@@@@@@@@@@@@@@@@@@@@@@@@@@@@@@@@@@@@@@@@@@@@@@@@@@@@@@@@@@@@@@@@@@@@@@",
"@@@@@@@@@@@@@@@@@@@@@@@@@@@@@@@@@@@@@@@@@@@@@@@@@@@@@@@@@@@@@@@@@@@@@@@@@@@@@@@@@@@@@@@@@@@@@@@@@@@@@@@@@@@@@@@@@@@@@@@@@@@@@@@@@@@@@@@@@@@@@@@@@@@@@@@@@@@@@@@@@@@@@@@@@@@@@@@@@@@@@@@@@@@@@@@@@@@@@@@@@@@@@@@@@@@@@@@@@@@@@@@@@@@@@@@@@@@@@@@@@@@@@@@@@@@@@@@@@@@@@@@@@@@@@@@@@@@@@@@@@@@@@@@@@@@@@@@@@@@@@@@@@@@@@@@@@@@@@@@@"
};
