/* XPM */
static char *end_floor3_006[] = {
/* columns rows colors chars-per-pixel */
"320 200 72 1 ",
"  c #000000",
". c #0B0B0B",
"X c gray8",
"o c #1B1B1B",
"O c #00002C",
"+ c #081420",
"@ c #00003C",
"# c gray14",
"$ c #2C2C2C",
"% c #343434",
"& c #3C3C3C",
"* c #600000",
"= c #402810",
"- c #743804",
"; c #603814",
": c #004400",
"> c #005C00",
", c #007400",
"< c #000050",
"1 c #000064",
"2 c #244870",
"3 c #444444",
"4 c #4C4C4C",
"5 c #545454",
"6 c #5C5C5C",
"7 c #646464",
"8 c #6C6C6C",
"9 c #747474",
"0 c #7C7C7C",
"q c #F80000",
"w c #984C08",
"e c #AC580C",
"r c #C45018",
"t c #C4701C",
"y c #008C00",
"u c #00A400",
"i c #CC8038",
"p c #D09050",
"a c #D89C64",
"s c #DCAC7C",
"d c #040488",
"f c #0C0CAC",
"g c #2C5480",
"h c #346090",
"j c #3C6CA0",
"k c #4C78A8",
"l c #1010C0",
"z c #4040D0",
"x c #7878E0",
"c c #5884B0",
"v c #6C90BC",
"b c #848484",
"n c #8C8C8C",
"m c #939393",
"M c #989898",
"N c #A0A0A0",
"B c #A8A8A8",
"V c #B0B0B0",
"C c #BCBCBC",
"Z c #E4C098",
"A c #ECD0B4",
"S c #80A0C4",
"D c #C4C4C4",
"F c #CCCCCC",
"G c #D4D4D4",
"H c #DADADA",
"J c #ECF4D8",
"K c #D8D8F4",
"L c #E0E0E0",
"P c #E8E8E8",
"I c #F1F1F1",
"U c #FCFCFC",
/* pixels */
"################################################################################################################################################################################################################################################################################################################################",
"################################################################################################################################################################################################################################################################################################################################",
"################################################################################################################################################################################################################################################################################################################################",
"################################################################################################################################################################################################################################################################################################################################",
"################################################################################################################################################################################################################################################################################################################################",
"################################################################################################################################################################################################################################################################################################################################",
"################################################################################################################################################################################################################################################################################################################################",
"################################################################################################################################################################################################################################################################################################################################",
"################################################################################################################################################################################################################################################################################################################################",
"################################################################################################################################################################################################################################################################################################################################",
"################################################################################################################################################################################################################################################################################################################################",
"################################################################################################################################################################################################################################################################################################################################",
"################################################################################################################################################################################################################################################################################################################################",
"################################################################################################################################################################################################################################################################################################################################",
"################################################################################################################################################################################################################################################################################################################################",
"################################################################################################################################################################################################################################################################################################################################",
"################################################################################################################################################################################################################################################################################################################################",
"################################################################################################################################################################################################################################################################################################################################",
"################################################################################################################################################################################################################################################################################################################################",
"################################################################################################################################################################################################################################################################################################################################",
"################################################################################################################################################################################################################################################################################################################################",
"################################################################################################################################################################################################################################################################################################################################",
"################################################################################################################################################################################################################################################################################################################################",
"################################################################################################################################################################################################################################################################################################################################",
"################################################################################################################################################################################################################################################################################################################################",
"################################################################################################################################################################################################################################################################################################################################",
"################################################################################################################################################################################################################################################################################################################################",
"################################################################################################################################################################################################################################################################################################################################",
"################################################################################################################################################################################################################################################################################################################################",
"################################################################################################################################################################################################################################################################################################################################",
"################################################################################################################################################################################################################################################################################################################################",
"################################################################################################################################################################################################################################################################################################################################",
"################################################################################################################################################################################################################################################################################################################################",
"################################################################################################################################################################################################################################################################################################################################",
"################################################################################################################################################################################################################################################################################################################################",
"################################################################################################################################################################################################################################################################################################################################",
"################################################################################################################################################################################################################################################################################################################################",
"                          757567990bnMNBVCDFDCVBNMnb0989nMn6                             O     O                                                            l                                                                                                @                                          O                       ",
"                         &757567990bnMNBVCDFDCVBNMnb0989nMn6&                                                                       O                        <                                                                                                                                                              <O  ",
"                         3757567990bnMNBVCDFDCVBNMnb0989nMn63     <                                                                                                                                               <                                                                DB      DD                                   ",
"                         4757567990bnMNBVCDFDCVBNMnb0989nMn64                                                                                                                                                                                                                     DBCD    DBBB                                  ",
"     K                   5757567990bnMNBVCDFDCVBNMnb0989nMn65                                      O                    O                                                                   O                                                                       l            DBCD0   DBBC0           <                      ",
"                         6757567990bnMNBVCDFDCVBNMnb0989nMn66                                                                                                                                                                                                                   DBCD0   DBBC0  <                                ",
"       O    <            7757567990bnMNBVCDFDCVBNMnb0989nMn66              K                                                                                                                           O                                                                       DBCD0   DBBC0<                                   ",
"          O              7757567990bnMNBVCDFDCVBNMnb0989nMn66                K                                                                    O                                                        O                         K            @                           DBCD0   DBBC0                                     ",
"                 <       6757567990bnMMBVCDFDCVBNMnb0989nMn66  l     <                                                                      O                                   K O                                                 l                          3bbbbbbbbbbbbbbbbD0   DBBC0                                   <  ",
"                         6757567990bnMNBVCDFDCVBNMnb0989nMn66                                                O   X            l     <                                                                                       @                              3bbbb8888888888888888bbbbDBBC0    <                    <             ",
"                         6757567990bnMNBVCDFDCVBNMnb0989nMn66          O                           O           O                                                                                                                          <     O        3bb888888888888888888888888bbC0                                        ",
"                         6587567990bnMNBVCDFDCVBNMnb0989nMn66                                                                                                               O                                                                           3b888888666666666666666688888803                                        ",
"                         6587567990bnMNBVCDFDCVBNMnb0989nMn96                           <                                                      <                                O                                                                      3b8886666                6666888b3                      KO              O",
"        O                6587567990bnMNBVCDFDCVBNMnb0989nMn96                                                                                                                            <                                                             b8866   599999999999999995   6688b                                       ",
"                         6587567990bnMNBVCDFDCVBNMnb0989nMn06       O                                                                               <                                                                                                  886  599999MNBVCDFDCVBNM99995  688                                       ",
"                         6587567990bnMNBVCDFDCVBNMnb09890nMn6                                                                        O                                         <                          <                                     O      86 997990bnMNBVCDFDCVBNMnb08999 68                                   O   ",
"               O        O6587567990bnMNBVCDFDCVBNMnb09899nMn6         <                       <             <                               O                    O                                                                                     6 8756790bnMNBVCDFDCVBNMnb089nM9 6                                       ",
"                     K   6587567990bnMNBVCDFDCVBNMnb09899nMn6                                                            O                          <         O       <             O                                                          O        78756790bnMNBVCDFDCVBNMnb089nMn6                                        ",
"                        &6587567990bnMNBVCDFDCVBNMnb09899nMn6&                                            O                        O                         O             <                                                                           &78756790bnMNBVCDFDCVBNMnb089nMn6&                                       ",
"                        36587567990bnMNBVCDFDCVBNMnb09899nMn63                                     <                                                      <                                       @                                            @       378756790bnMNBVCDFDCVBNMnb089nMn63   K                                   ",
"        <          <    47587567990bnMNBVCDFDCVBNMnb09899nMn64                                                                                              <               l   O                            <                                     O   478756790bnMNBVCDFDCVBNMnb089nMn64                  O     <              ",
"                        56587567990bnMNBVCDFDCVBNMnb09899nMn65              O                                                                                                                        O                                                 578756790bnMNBVCDFDCVBMMnb089nMn65            O       <       Ol         ",
"              l         66587567990bnMNBVCDFDCVBNMnb09899nMn66                                   <            O            K           O O                         <     O                                               O                             678756790bnMNBVCDFDCVBNMnb089nMn66                                       ",
"         <              76587567990bnMNBVCDFDCVBNMnb09899nMn66       <        O                                                                                                                      <                                                 778756790bnMNBVCDFDCVBNMnb089nMn66                                       ",
"                        76587567990bnMMBVCDFDCVBNMnb09899nMn66                                                O                 <      <       O                  O                                                                                  l 778756790bnMNBVCDFDCVBNMnb089nMn66                                       ",
"            O           66587567990bnMNBVCDFDCBBNMnb09899nMn66                                                                                                                                                                                         678756790bnMNBVCDFDCVBNMnb089nMn66                                       ",
"                        66587567990bnMNBVCDFDCVBNMnb09899nMn66                                                            O     O                         O                                                   O          <                             678756790bnMNBVCDFDCVBNMnb089nMn06                                       ",
"                        66587567990bnMNBVCDFDCVBNMnb09899nMn66                                                                                                                       <     @               9MFF4                                       678756790bnMNBVCDFDCVBNMnb0890nMn6                                       ",
"                        66587567990bnMNBVCDFDCVBNMnb09899nMn66                                          OO                                                    <           @                              9BFF&&F4         MFF4              O          678756790bnMNBVCDFDCVBNMnb0899nMn6        O                              ",
"                        66587567990bnMNBVCDFDCVBNMnb09899nMn66                 <                  <                                                        O                  @                        9BFBBF  &F   <   BFF&&F4                        678756790bnMNBVCDFDCVBNMnb0899nMn6                                       ",
"      <                 66587567990bnMNBVCDFDCVBNMnb09899nMn66                          O                               O                                                                            9BFBBFVFN &F     BFBBF  &F    O                   678756790bnMNBBCDFDCVBNMnb0899nMn6                                       ",
"                        66587567990bnMMBVCDFDCVBNMnb09899nMn66             l                                                           O   O                             <                         9BFBBFFFVMFFFM   BFBBFVFM 3F      O                 678756790bnMNBVCDFDCVBNMnb0899nMn6               < O                     ",
"     O                  65786567990bnMNBVCDFDCVBNMnb09989nMn66                                                        <                                                              @           9BFBBFFFV00B006  BFBBFFFVMFFFM                        678756790bnMNBVCDFDCVBNMnb0989nMn6                                       ",
"                        65875678990bnMNBVCDFDCVBNMnb09989nMn66                                                          O                                                   Ap                 9BFBBFFFV00B006  BFBBFFFV00B006                         677567890bnMNBVCDFDCVBNMnb0989nMn6                                       ",
"                        65875679990bnMNBVCDFDCVBNMnb09989nMn96                                                                                                             pppp              9BFBBFFFV00B006  BFBBFFGB00B006                           787567990bnMNBVCDFDCVBNMnb0989nMn6                                       ",
"                       &65875679990bnMNBVCDFDCVBNMnb09989nMn06&                                                                                        <           3bDDDDDDDDDDDDDDDb3     9BFBBFFFV00B006  BFBBFFFV00B006                            &787567990bnMNBVCDFDCVBNMnb0989nMn6&     <                       <        ",
"       <               365875679990bnMNBVCDFDCVBNMnb099890nMn63             <                                                             O                   3bDDDDDVVVVBVVVVVVVVVBDDDDMbBFBBFFFV00B006 <BFBBFFFV00B006O                             3787567990bnMNBVCDFDCVBNMnb0989nMn63           <                          ",
"           <           465875679990bnMNBVCDFDCVBNMnb099899nMn64                                                                                           3bDDDDVVVVVBBBBBBBBBBBBBBBVVMMBFBBFFFV00B006  BFBBFGFB00B006  KO                            4787567990bnMNBVCDFDCVBNMnb0989nMn64                                      ",
"                       665875679990bnMNBVCDFDCVBNMnb099899nMn65                                                                         O              3bDDDVVVVBBBBBMMMMMMMMMMMMMMMMMBFBBFFFV00B006  BFBBFFFB0bB006                                  5787567990bnMNBVCDFDCVBNMnb0989nMn65                                     l",
"                       665875679990bnMN963&$&4360Mnb099899nMn66                                         z   <  O                   O                 3bDDVVVBBBBMMMMMMMMMMMMMMMMMMMMBFBBFFFV00B0063 BFBBFFFV00B006                     O              6787567990bnMNBVCDFDCVBMMnb0989nMn66                                      ",
"                       665875679990bn64#%744%#53%46b099899nMn66                                        lxl             <         <                 3bDDVBBBBMMMMMMMMMMMMMMMMMMMMMMBFBBFFFV00B00VVVBFBBFFFV00B006      O                              <7787567990bnMNBVCDFDCVBNMnb0989nMn66                           O          ",
"                       66587567999083&$9#0&n3 04$$34999899nMn66                                       zxKxz                                       bDDVVBMMMMMMMMMMMMMMMMMMMMMMMMM&BBFFFV00B00MMMBFBBFFFV00B006                                      < 7787567990bnMNBVCDFDCVBNMnb0989nMn66                                      ",
"                       665875679995%%4$Fb     o&H8o$&79899nMn66                                        lxl                                      3bDVVBMMMMMMMMMMMMMMMMMMMMMMMMMMM&VFFV00B00MMMM&BBFFFV00B006               <                          6787567990bnMNBVCDFDCVBNMnb0989nMn66               K                      ",
"                      &6658756799534%n8o$37897%X8n334&8899nMn66                      <                  z                                      6DDVMMMMMMMMMMMMMbbbbbbbbbbbbbbbbb&bMMMB00MMMMMM&BFFV00B006                                            6787567990bnMNBVCDFDCBBNMnb0989nMn66                  O                   ",
"         <            366587567983X7N#$6CIUUUUPV% 8N#$&899nMn66      <       DD      BD                                                       6DVMMMMMMbbbbbbbbb000000000b00000bnM&bM00&bbbbbbb&bMMMB00MD6                                            6787567990bnMN963&$&4460Mnb0989nMn66       O                              ",
"                      4665875679&& X% BUPHHGGHHUUbo&  4&99nMn66             BBBD    DCBD                                                     6VMMMbbbbb000000b00000000000b00000bnM7&&&&0b0000000&0M00&bMMV6                 O                         6787567990bn74#%744%#6&%46b0989nMn66                                      ",
"                      56658756754    GUGGPUUHHUPUUC   o389nMn66             0CBBD   0DCBD                                                   6M0bbb0b009000000b00000000000b00000bnMn77770b00000007&&&&00bb0M6                                          678756799083%$9#0&n3 04$$449989nMn66                                      ",
"                      666587567&%   BUGGUCn9FFn0MnD8   3&9nMn66              0CBBD   0DCBD        <                    O                    M890000b009000000b00000000000b00000bnMn97779b00000000777700b098M                 <              <         6787567996%%4$Fb     o&H8X$&789nMn66                                      ",
"                      6665875653.  4UGGUD  %Ub 85  G&  #39nMn66               0CBBD   0DCBD                                        O        8890000b009000000b00000000000b00000bnMnb7777b00000000977790b0988                         O                67875679434%n8X$37897%.8m334&69nMn06                                      ",
"   l                  66658756&%   VUGUD  4UU7&U8  HM   &5nMn66                0CBBD   0DCBD                                                8890000b009000000888888888888888888888887777888000000077770b0988      <                      l            678756773X8B#$6CIUUUUPV& 7B#$&90nMn6                                      ",
"                      666587563$  XPHUD  5UPHCIU$ .PG   &3nMn66                 0CBBD   0Dbbbbbbbbbbbbb3                                    8890000b888888888                              888888877770b0988                                          6787567&& .% BUPHHGHHHUUbo&  439nMn6                         <         <  ",
"                      66658756$b. 0PUD  5UUHFUU& .GUG5 $0&nMn66                  0CBBDbbbb8888888888888bbbb3                                88908888       40BBBBBBBBBBBBBBBBBBBBBBBB9999BB04        7880988      O               O  <                67875634    GUGGPUUHHUPUUC   o37nMn6                                      ",
"            <         66658656$Mn9BPD  6UIHLLP3 oFULDM9mb%nMn66     <             0Cbb888888888888888888888bb3                              8888   40BBBBBBBBNMMMMMMMMMMNBNMMMBVCFCVB77770MBBBBBBBB99   8888       O                                 &678756&%   VUGGUCn9FFn0MnD8   33nMn6&                                     ",
"                      66578566$bCMnU$  %%###BB  bUMVGbVB8%nMn66                   308888886666666666666888888b3                             8  40BBBBnbnMMMMMMMMMMMMMMMMNBNMMNBVCFCVB07777MMMMMMMMM779904  8           O                         O   36787543.  4UGGUD  $Ub 75  G&  #&nMn63      <                              ",
"                      66578566#0NMnPo       mB  MB BH0NN7&nMn66                  3b8886666             6666888b3                <            6BBNNMNMnbnMMMMMNMMMMMMMMMMNBNMMNBVCFCVBN7777MMMMMMMMM07770BB6                                          467875&%   BUGUD  4UU7&U8  HM   &7Mn64                                     ",
"                      66578566$b85nDBbnbM7  MCoo9#XHD94n64nMn66                  b8866   599999999999995   6688b                   %%      5nMnMNNMNMnbnMMMMMNMMMMMMMMMMNBNMMNBVCFCVBN77770MMMMMMMMM7777MnMn5                               <        567875&%  XPHUD  5UPHCIU% .PG   &5Mn65             <                       ",
"                      6657856635nMnmUUUUUV  8UHHDFHLnMmn%7nMn66                  886  599999MNBVCCVBNM99995  688                   0b%   N9bnMnMNNMNMnbnMMMMMNMMMMMMMMMMNBNMMNBVCFCVBM07777MMMMMMMMM7777MnMnb9              O             O  <       667875$b. 0PUD. 5UIHGUU& .FUH5 $03Mn66                             O       ",
"          <        l  665785666#MM99DPGGUM  9UPLHHUV89Bb#9nMn66                  86 997990bnMNBVCCVBNMnb08999 68                 O0bnb%%BNn%nMnMNNMNMnbnMMMMMMMMMMMMMMMMNBNMMNBVCFCVBNM7777MMMMMMMMM07770nMnb96                    O  O              767875#Mn8BIC  6UIHLLL3 oFUHFN9mb3Mn66                        <            ",
"                      665785667%9b4n0PPGHFCVFHGGGIF0b4M459nMn66&     K           6 8756790bnMNBVCCVBNMnb089nM9 6              l   bnnbNBNnb%nMnMNNMNMnbnMMMMnbbbbbbbbbbbbbbbbbbbbbbbbbbbbbbnMMMMMMMMM7777nMnb96                            O         767875$bCMnU$  %%#$#BB  nUmVGbVB8&Mn66                                     ",
"                      6657856678#mBBb0HIGHPILGGHIG0nBB0o99nMn663          <       78756790bnMNBVCCBBNMnb089nMn6       O       %%0 nnbNBNnn%%nMnMNNnbbbbbbbbb95&&&&&&&&&&&&&&&&&&&&&&&&&&&&59bbbbbbbbbn077nMnb96                                      667875#0NMbI#       mB  MB BL0NM74Mn66       1                             ",
"                      665785667944NN&6nCLIPLLPPHB959Bm%699nMn664                 &78756790bnMNBBDCVBNMnb089nMn6&              90bnnbnNBNnb%bnbbbbb95&&&&&&&&&&%%%%%%%%%%%%%%%%%%%%%%%%%%%%&&&&&&&&&&59bbbbbnb96  O                                   667875$b85nDBbnnM7  MCoo9#XHD94n65Mn66      <d<                            ",
"                     &66578566799$806758MCDDDCVm0735043899nMn965                 378756790bnMNBVCCVBNMnb089nMn63            %% bnnbnNBNnnb%bnM&&ww&&%%%79nNVCCCCCCCCCCCCCCCCCCCCCCCCCCCCCCCCVNn97%%%&&&&&&49b96          O     O                     667875&5nmnmUUUUUB  8UHHDFHLnMnm%0Mn66     1dfd1                           ",
"                     3665785667999$6B654&550b737%4b84&9899nMn066                 478756790bnMNBVCCVBNMnb089nMn64           %90b nnbNBNnnb0bnMNN-piiCCCCCCVNBVBNNBMNNNNNNBVBNBVCDHLPIPLHDCVBNNNNVCCCCCCCVNn97 46    l                               < 6678756#MM99DPGGUM  9ULLPHUV80Bb#nMn66      <d<                            ",
"                     46657856679990&480546659B4939b34999899nMn66                 578756790bnMNBVCCVBNMnb089nMn65          %90bnnnbnNBnnnb0%nsi;iJApitebnMNNB%BNNNNNNNNNNBVBNBVCDHHPIPHHDCVBNNNNuyyyyuNMNMnb094                    O                  6678756$904m0LPGHFCVFHGHGPG0n4M45nMn66       1    O                        ",
"                     56657856679990b7&69MbM89Bbm04%80999899nMn66                 678756790bnMNBVCCVBNMnb089nMn66          %0bnnnbnNBNnnb0%9iJZisUAZssseMNN%%N%NNNNNNNNNNBVBNNBVCDHLPIPLHDCVBNNNNuyyyyuNMNMnb094                                      66787567#MBBn0HIGHPILGHHIF9nBB0o9nMn66                                     ",
"l                    66657856679990bnM7%&578865%%9nb0999899nMn66                 778756790bnMNBVCCVBNMnb089nMn66          %bnnnbnNBNnnnb%96pUUUUUUUUUAiMN%MNNN%NNNNNNNNNBVBNNBVCDHLPIPLHDCVBNNNNuyyyyuNNMNMnb094                                     6678756734MN&6nCLPPLLPPHV969Nn$79nMn66                                     ",
" <                   66657856679990bnMN9990bb0990Mnb0999899nMn66                 778756790bnMNBVCCVBNMnb089nMn66           Knn%bn%%Nn%b0b%-aUUUUUUUUUApN%nMNNNB%NNNNNNNNMBVBNBVCDHLPIPHHDCVBNNNNNuyyyyuNNMNMnb094                                    667875679$806758MCDFCCVn0745b4389nMn66                 <         l         ",
"                     66657856679990bnMMB990bb099NMnb0999899nMn66                 678756790bnMNBVCCVBNMnb089nMn66          %nn% n%  %% bsbsAUUUUUUUUUUJAeN%NNN%%%NNNNNNNNNBVBNBVCDHHPIPLHDCVBMBMNNNuyyyyuNNMNMnb094          O                        6787567899$6B654&550b737%3b74&989nMn66           O                         ",
"                     66657856679990bnMNB990bb090NMnb0999899nMn66                 678756790bnMNBVCCVBNMnb089nMn06          %nnb %     b0bsAJUUUUUUUUUUUAtN%MBN%%BNNNNNNNNNBVBNNBVCDHLPIPLHDCVBNNNNNuyyyyuNNNMNMnb094                                  67875679990&480446650N4939b349989nMn66                                     ",
"               <     66657856679990bnMNBB90bb09BNMnb0999899nMn66             <   678756790bnMNBVCCVBNMnb0890nMn6          %nb%      460b%6UUUUUUUUUUU6NoNB%M%%MNNNNNNNNNNBVBNNBVCDHLPPPLGDCVBNNNNNNuyyyyuNNMNNMnb094   K                            &67875679990b7&69MbM89Bnnb4&809989nMn06&               <    O               ",
"                     66657856679990bnMNBV90bb00BNMnb0999899nMn66                 678756790bnMNBVCCVBNMnb0899nMn6           n%  O   466+n%UUUUUUUUUUUUJaNBVB%%%NNNNNNNNNNNBVBNNBVCDHLPIPLHDDBBNNNNNNNuyyyyuNNMNNMnb094                 O             367875679990bnM8%&578864%%9nb099890nMn63                                    ",
"      O              66657856679990bnMNBVC0bb0VBNMnb0999899nMn66             <   678756790bnMNBVCCVBNMnb0899nMn6           %      466rr%%UUUUUUUUUUUU6NNBVB%BNNNNNNNNNNNNBVBNNBVCDHLPPPLHDCVBNNNNNNNuyyyyuNNNMNNMnb094                            < 467875679990bnMN9990bb0990Mnb099899nMn64 O                           O      ",
"                     66658566789990bnMNBVC0bb0VBNMnb0999899nMn66                 678756790bnMNBVCCVBNMnb0899nMn6                 496rrrtAUUUUUUUUb6UU66NBVBNMNNNNNNNNNNNNBVBNNNBVCDHLPIPHHDCVBNNNNNNNuyyyyuNNNMNNMnb094   <                         567875679990bnMNB990bb099NMnb099899nMn65                                    ",
"                     66578566799990bnMNBVCDbbCVBNMnb0999899nMn66                 678756790bnMNBVCCVBNMnb0899nMn6               O49066r=iJUUUUUUUU6UUUA;6VBNNNNNNNNNNNNNNNMBVBNNBVCDGLPIPLHDCVBNNNMNNNNuyyyyuNNNMNNMnb094                            667875679990bnMNB990bb090NMnb099899nMn66                                    ",
"           <         66578566799990bnMNBVCDFDCVBNMnb0999899nMn66                 678756790bnMNBVCCVBNMnb0989nMn6               49 b666-sUNB6UUUU6n6UJA=BVBNNNNNNNNNNNNNNNBBBBNNBVCDHLPIPLHDCVBNNMBNNNNuyyyyuNNNNMNNMnb094                           767875679990bnMNBB90bb09BNMnb099899nMn66                                    ",
"                     66578566799090bnMMBVCDFDCVBNMnb0999899nMn66                 677567890bnMNBVCCVBNMnb0989nMn6          O   49  n6rr=tsBNn6UUU6nM6atBVBNNNNNNNNNNNNNNNNNBVBNNNBVCDHLPIPLHDCVBNNNNNNNNuyyyyuNNNNMNNMnb094             K       O    767875679990bnMNBV90bb00BNMnb099899nMn66                                    ",
"                     66578566799990bnMNBVCDFDCVBNMnb0999899nMn66                 787567990bnMNBVCCVBNMnb0989nMn6             490bnrrrrrNeZnn6UUUnMNNeNBVBNNNNNNNNNNNNNNNNNBVBNNNBVCDHHPIPLHDCVBNNNNNNNNNuyyyyuNNNNMNMMnb094                         667875679990bnMNBVC0bb0VBNMnb099899nMn66                                    ",
"       K             66578566799990bnMNBVCDFDCVBNMnb0999899nMn66                &787567990bnMNBVCCVBNMnb0989nMn6&           490bnnn6rn NBNnZnbAJnMNNN BVBNNNNNNNNNMNNNNNNNBVBMNNBVCDHHPIPHGDCVBNNNNNNNNNuyyyyuNNNNNMNNMnb094                 <      667875679990bnMNBVC0bb0VBNMnb099899nMn66                   O    <           ",
"           <        &66578566799990bnMNBVCDFDCVBNMnb0999899nMn66                3787567990bnMNBVCCVBNMnb0989nMn63          490bnnnrrrnNBNnn;b0bZMNNNNB BNNNNNNNNNMBNNNNNNNBVBNNNBVCDHLPIPLHDCVBNNNNNNNNNNuyyyyuNNNNNMNNMnb094                       667875679990bnMMBVCDbbCVBNMnb099899nMn66                         O          ",
"                    366578566799990bnMNBVCD777VBNMnb0999899nMn66  l   <         4787567990bnMBBVCCVBNMnb0989nMn64         590bnnn nbrNBNnnnnb0b MNNNNBVBNNNNNNNNNNNNNNNNNNBVBNNNNBVCDHHPIPLHDCVBNyyyyyNNNNuyyyyuNNNNMNNNMnb094      O               667875679990bnMBBVCDFDCV777nb099899nMn66         <                          ",
"           O        466578566799990bnMNBVC7***7BNMnb0999899nMn66                5787567990bnMMBVCCVBNMnb0989nMn65        490bnnnnnbnnNBNnnnb0bnM NNNNBBBNNNNNNNNNNNNNNNNNNBVBNNNNBVCDHLPIPHHDCVBNuyyyyuNNNuyyyyuNNNNNMNNNMnb094                     667875679990bnMMBVCDFDC7qqq7b099899nMn66                                    ",
"                    566578566799990bnMNBVC7***7BNMnb0999899nMn66                6787567990bnMMBVCCVBNMnb0989nMn66       490bnnnnnbnnNBNnnnnb0bnM NNNBVBNNNNNNNNNNNNNNNNNNNNBVBNNNBVCDHHPIPLHDCVBNNyyyyyNNNNuyyyyuNNNNNMNNNMnb094                    667875679990bnMNBVCDFDC7qqq7b099899nMn66                                    ",
"                    666578566799990bnMNBVC77777BNMnb0999899nMn66         <      7787567990bnMNBVCCVBMMnb0989nMn66      490bnnnnnnbnNBNnnnnb0bnM NNNNBVBNNNNNNNNNNNNNNNNNNNNBVBNNNBVCDHLPIPLHDCVBNNNNNNNNNNNNuyyyyuNNNNNMNNNMnb094                   667875679990bnMNBVCDFDC77777b099899nMn66                                    ",
"                    666578566799990bnMNBVC7***7BNMnb0999899nMn66         O      7787567990bnMNBVCCVBNMnb0989nMn66     490bnnnnnnbnnNBNnnnnb0bn NNNNBVBNNNNNNNNMBNNNNNNNNNNNBVBNNNNBVCDHHPPPLHDCVBNNNNNNNNNNNuyyyyuNNNNNNMNNNMnb094                  667875679990bnMNBVCDFDC7qqq7b099899nMn66                                    ",
"                    666578566799990bnMNBVC7***7BNMnb0999899nMn66                6787567990bnMNBVCCVBNMnb0989nMn66    490bnnnnnnbnnNBNnnnnb0bnMNNNNNBVBNNNNNNNNNMNNNNNNNNNNNBVBNNNNBVCDHLPIPLHDCVBNNNNNNNNNNNNuyyyyuNNNNNNMNNNMnb094                 667875679990bnMNBVCDFDC7qqq7b099999nMn66                                    ",
"                    666578566799990UUUUUUUUUUUUUUUUUUUUUUUUUUUUUUUUUUUUUUUUUUUUUUUUUUUUUUUUUUUUUUUUUUUUUUUUUUUUUUUUUUUUUUUUUUUUUUUUUUUUUUUUUUUUUUUUUUUUUUUUUUUUUUUUUUUUUUUUUUUUUUUUUUUUUUUUUUUUUUUUUUUUUUUUUUUUUUUUUUUUUUUUUUUUUUUUUUUUUUUUUUUUUUUUUUUUUUUUUUUUUUUUUUUUUUUUUUUUUUUUUUUUUMn66                                    ",
"                    666578566799990UUUUUUUUUUUUUUUUUUUUUUUUUUUUUUUUUUUUUUUUUUUUUUUUUUUUUUUUUUUUUUUUUUUUUUUUUUUUUUUUUUUUUUUUUUUUUUUUUUUUUUUUUUUUUUUUUUUUUUUUUUUUUUUUUUUUUUUUUUUUUUUUUUUUUUUUUUUUUUUUUUUUUUUUUUUUUUUUUUUUUUUUUUUUUUUUUUUUUUUUUUUUUUUUUUUUUUUUUUUUUUUUUUUUUUUUUUUUUUUUUUUUUMn66&                                   ",
"                    666578566799990PFFFFFFFFFFFFFFFFFFFFFFFFFFFFFFFFFFFFFFFFFFFFFFFFFFFFFFFFFFFFFFFFFFFFFFFFFFFFFFFFFFFFFFFFFFFFFFFFFFFFFFFFFFFFFFFFFFFFFFFFFFFFFFFFFFFFFFFFFFFFFFFFFFFFFFFFFFFFFFFFFFFFFFFFFFFFFFFFFFFFFFFFFFFFFFFFFFFFFFFFFFFFFFFFFFFFFFFFFFFFFFFFFFFFFFFFFFFFFFFFFFFPMn663                                   ",
"                    666578566799990PFFFFFFFFFFFFFFFFFFFFFFFFFFFFFFFFFFFFFFFFFFFFFFFFFFFFFFFFFFFFFFFFFFFFFFFFFFFFFFFFFFFFFFFFFFFFFFFFFFFFFFFFFFFFFFFFFFFFFFFFFFFFFFFFFFFFFFFFFFFFFFFFFFFFFFFFFFFFFFFFFFFFFFFFFFFFFFFFFFFFFFFFFFFFFFFFFFFFFFFFFFFFFFFFFFFFFFFFFFFFFFFFFFFFFFFFFFFFFFFFFFFPMn664      O                            ",
"                    666578566799990nnnnnnnnnnnnnnnnnnnnnnnnnnnnnnnnnnnnnnnnnnnnnnnnnnnnnnnnnnnnnnnnnnnnnnnnnnnnnnnnnnnnnnnnnnnnnnnnnnnnnnnnnnnnnnnnnnnnnnnnnnnnnnnnnnnnnnnnnnnnnnnnnnnnnnnnnnnnnnnnnnnnnnnnnnnnnnnnnnnnnnnnnnnnnnnnnnnnnnnnnnnnnnnnnnnnnnnnnnnnnnnnnnnnnnnnnnnnnnnnnnnnnMn665                                   ",
"                    666578566799990bnMDB66666666666NVN66666666666NVN66666666666NVN66666666666NVN66666666666NVN66666666666NVN66666666666NVN66666666666NVN66666666666NVN66666666666NVN66666666666NVN66666666666NVN66666666666NVN66666666666NVN66666666666NVN66666666666NVN66666666666BD99nMn666      l                            ",
"                    666578566799990bnMPD63333333336NDN63333333336NDN63333333336NDN63333333336NDN63333333336NDN63333333336NDN63333333336NDN63333333336NDN63333333336NDN63333333336NDN63333333336NDN63333333336NDN63333333336NDN63333333336NDN63333333336NDN63333333336NDN63333333336DP99nMn066          <                        ",
"                    666578566799990bnMPD66666666666NDN66666666666NDN66666666666NDN66666666666NDN66666666666NDN66666666666NDN66666666666NDM66666666666NDN66666666666MDN66666666666NDN66666666666NDN66666666666NDN66666666666NDN66666666666NDN66666666666NDN66666666666NDN66666666666DP990nMn66                           K       ",
"             l      666578566799990bnMPDUUUUUUUUUUUDDUUUUUUUUUUUUDDUUUUUUUUUUUUDDUUUUUUUUUUUUDDUUUUUUUUUUUUDDUUUUUUUUUUUUDDUUUUUUUUUUUUDDUUUUUUUUUUUUDDUUUUUUUUUUUUDDUUUUUUUUUUUUDDUUUUUUUUUUUUDDUUUUUUUUUUUUDDUUUUUUUUUUUUDDUUUUUUUUUUUUDDUUUUUUUUUUUUDDUUUUUUUUUUUUDDUUUUUUUUUUUUDP999nMn66                              <    ",
"                    665678566799990bnMPDDDDDDDDDDDDDDDDDDDDDDDDDDDDDDDDDDDDDDDDDDDDDDDDDDDDDDDDDDDDDDDDDDDDDDDDDDDDDDDDDDDDDDDDDDDDDDDDDDDDDDDDDDDDDDDDDDDDDDDDDDDDDDDDDDDDDDDDDDDDDDDDDDDDDDDDDDDDDDDDDDDDDDDDDDDDDDDDDDDDDDDDDDDDDDDDDDDDDDDDDDDDDDDDDDDDDDDDDDDDDDDDDDDDDDDDDDDDDP999nMn66                                   ",
"                   &665678566799990bnMPDDDDDDDDDDDDDDDDDDDDDDDDDDDDDDDDDDDDDDDDDDDDDDDDDDDDDDDDDDDDDDDDDDDDDDDDDDDDDDDDDDDDDDDDDDDDDDDDDDDDDDDDDDDDDDDDDDDDDDDDDDDDDDDDDDDDDDDDDDDDDDDDDDDDDDDDDDDDDDDDDDDDDDDDDDDDDDDDDDDDDDDDDDDDDDDDDDDDDDDDDDDDDDDDDDDDDDDDDDDDDDDDDDDDDDDDDDDDDP999nMn66                                   ",
"                   3665678566799990bnMPDDDDDDDDDDDDDDDDDDDDDDDDDDDDDDDDDDDDDDDDDDDDDDDDDDDDDDDDDDDDDDDDDDDDDDDDDDDDDDDDDDDDDDDDDDDDDDDDDDDDDDDDDDDDDDDDDDDDDDDDDDDDDDDDDDDDDDDDDDDDDDDDDDDDDDDDDDDDDDDDDDDDDDDDDDDDDDDDDDDDDDDDDDDDDDDDDDDDDDDDDDDDDDDDDDDDDDDDDDDDDDDDDDDDDDDDDDDDDP999nMn66  O                                ",
"                   4665678566799990bnMPDDDDDDDDDDDDDDDDDDDDDDDDDDDDDDDDDDDDDDDDDDDDDDDDDDDDDDDDDDDDDDDDDDDDDDDDDDDDDDDDDDDDDDDDDDDDDDDDDDDDDDDDDDDDDDDDDDDDDDDDDDDDDDDDDDDDDDDDDDDDDDDDDDDDDDDDDDDDDDDDDDDDDDDDDDDDDDDCDDDDDDDDDDDDDDDDDDDDDDDDDDDDDDDDDDDDDDDDDDDDDDDDDDDDDDDDCDDDDP999nMn66                                   ",
"&&&&&&&&&&&&&&&&&&&5665785667999990bnMPPPPPPPPPPPPPPPPPPPPPPPPPPPPPPPPPPPPPPPPPPPLPPPPPPUUUUUUUUUUUUUUUUUUUUUUUUUUUUUUUUDVPPPPPPPPPPPPPPPPPPPPPPPPPPPPPPPPPPPPPPPPPPPPPPPPPPPPPPPPPPPPPPPPPPPPPPPVDUUUUUUUUUUUUUUUUUUUUUUUUUUUUUUUUPPPPPPPPPPPPPPPPPPPPPPPPPPPPPPPPPPPPPPPPPPPPPPPPPP999nMn66&&&&&&&&&&&&&&&&&&&&&&&&&&&&&&&&&&&",
"&&&&&&&&&&&&&&&&&&&6665785667999990bnPLLLLLLLLLLLLLLLLLLLLLLLLLLLLLLHLLLLLLLLLLLLLLLLLLLUUUUUUUUUUUUUUUUUUUUUUUUUUUUUUUUBVLLLLLLLLLLLLLLLLLLLLLLLLLLLLLLLLLLLLLLLLLLLLLLLLLLLLLLLLLLLLLLLLLLLHLLLVBUUUUUUUUUUUUUUUUUUUUUUUUUUUUUUUULLLLLLLLLLLLLLLLLLLLLHLLLLLLLLLLLLLLLLLLLLLLLLLLLLP99nMn66&&&&&&&&&&&&&&&&&&&&&&&&&&&&&&&&&&&",
"&&&&&&&&&&&&&&&&&&&6665785667999990bPLLLLLLLLLLLLLLLLLLLLLLLLLLLLLLLLLLLLLLLLLLLLLLLLLLUUUUUUUUUUUUUUUUUUUUUUUUUUUUUUUUUNVLLLLLLLLLLLLLLLLLLLLLLLLHLLLLLLLLLLLLLLLLLLLLLLLLLLLLLLLLLLLLLLLLLLLLLLVNUUUUUUUUUUUUUUUUUUUUUUUUUUUUUUUUULLLLLLLLLLLLLLLLLLLLLLLLLLLLLLLLLLLLLLLLLLLLLLLLLLP9nMn66&&&&&3&&&&&&&&&&&&&&&&&&&&&&3&&&&&&",
"&&&&&&&3&&&&&&&3&&&6665785667999990PLLLLLLLLLLLLLLLLLLLLLLLLLLLLLLLLLLLLLLLLLLLLLLLLLLLUUUUUUUUUUUUUUUUUUUUUUUUUUUUUUUUUNBLLLLLLLLLLLLLLLLLLLLLLLLLLLLLLLLLLLLLLLLLLLLLLLLLLLLLLLLLLLLLLLLLLLLLLLVNUUUUUUUUUUUUUUUUUUUUUUUUUUUUUUUUULLLLLLLLLLLLLLLLLLLLLLLLLLLLLLLLLLLLLLLLLLLLLLLLLLLPnMn66&&&3&&&&&&&&3&&&&&&&&&3&&3&&&&3&&3&",
"&&&&33&&333&&&&&3&&666578566799999PLLLLLLLLLLLLLLLLLLLLLLLLLLLLLLLLLLLLLLLLLLLLLLLLLLLUUUUUUUUUUUUUUUUUUUUUUUUUUUUUUUUUFNVLLLLLLLLLLLLLLLLLLLLLLLLLLLLLLLLLLLLLLLLLLLLLLLLLLLLLLLLLLLLLLLLLLLLLLLVNFUUUUUUUUUUUUUUUUUUUUUUUUUUUUUUUUUHLLLLLLLLLLLLLLLLLLLLLLLLLLLLLLLLLLLLLLLLLLLLLLLLLLPMn66&&3&3333&&3&&&&3&&&&3333&&&3&&&&33&",
"3&&&&3&3&33333&3&3&66657856679999PLLLLLLLLLLLLLLLLLLLLLLLLLLLLLLLLLLLLLLLLLLLLLLLLLLLLUUUUUUUUUUUUUUUUUUUUUUUUUUUUUUUUUBNVLLLLLLLLLLLLLLLLLLLLLLLLLLLLLLLLLLLLLLLLLLLLLLLLLLLLLLLLLLLLLLLLLLLLLLHVNBUUUUUUUUUUUUUUUUUUUUUUUUUUUUUUUUULLLLLLLLLLLLLLLLLLLLLLLLLLLLLLLLLLLLLLLLLLLLLLLLLLLLPn66&&3333333&3&&33&3&3&3333&3333&&3333",
"34&33333433333433346665785667999PLLLLLLLLLLLLLLLLLLLLLLLLLLLLLLLLLLLLLLLLLLLLLLLLLLLLUUUUUUUUUUUUUUUUUUUUUUUUUUUUUUUUUUBNVLLLLLLLLLLLLLLLLLLLLLLLLLLLLLLLLLLLLLLLLLLLLLLLLLLLLLLLLLLLLLLLLLLLLLLLVNBUUUUUUUUUUUUUUUUUUUUUUUUUUUUUUUUUULLLLLLLLLLLLLLLLLLLLLLLLLLLLLLLLLLLLLLLLLLLLLLLLLLLLP6643333333343433444&33345343&&3434433",
"3333344434333343334666578566799PLLLLLLLHLLLLLLLLLLLLLLLLLLLLLLLLLLLLLLLLLLLLLLLLLLLLLUUUUUUUUUUUUUUUUUUUUUUUUUUUUUUUUUUNVLLLLLLLLLLLLLLLLLLLLLLLLLLLLLLLLLLLLLLLLLLLLLLLLLLLLLLLLLLLLLLLLLLLLLLLLLVNUUUUUUUUUUUUUUUUUUUUUUUUUUUUUUUUUULLLLLLLLLLLLLLLLLLLLLLLLLLLLLLLLLLLLLLLLLLLLLLLLLLLLLP633433434333433343334343434433334334",
"344334444443444444366657856679PLLLLLLLLLLLLLLHLLLLLLLLLLHLLLLLLLLLLLLLLLLLLLLLLLLLLLUUUUUUUUUUUUUUUUUUUUUUUUUUUUUUUUUUFNVLLLLLLLLLLLLLLLLLLLLLLLLLLLLLLLLLLLLLLLLLLLLLLLLLLLLLLLLLLLLLLLLLLLLLLLLLVNFUUUUUUUUUUUUUUUUUUUUUUUUUUUUUUUUUULLLLLLLLLLLLLLLLLLLLLLLLLLLLLLLLLLLLLLLLLLLLLLLLLLLLLP44433343334343334434443444333444433",
"43353444344444444546665785667PLLLLLLLLLLLLLLLLLLLLLLLLLLLLLLLLLLLLLLLLLLLLLLLLLLLLLLUUUUUUUUUUUUUUUUUUUUUUUUUUUUUUUUUUBNVLLLLLLLLLLLLLLLLLLLLLLLLLLLLLLLLLLLLLLLLLLLLLLLLLLLLLLLLLLLLLLLLLLLLLLLLLVNBUUUUUUUUUUUUUUUUUUUUUUUUUUUUUUUUUUHLLLLLLLLLLLLLLLLLLLLLLLLLLLLLLLLLLLLLLLLLLLLLLLLLLLLLP3444444344544444344444345434544554",
"4445455444554544444666578566PLLLLLLLLLLLLLLLLLLLLLLLLLLLLLLLLLLLLLLLLLLLLLLLLLLLLLLUUUUUUUUUUUUUUUUUUUUUUUUUUUUUUUUUUUBNVLLLLLLLLLLLLLLLLLLLLLLLLLLLLLLLLLLLLLLLLLLLLLLLLLLLLLLLLLLLLLLLLLLLLLLLLLVNBUUUUUUUUUUUUUUUUUUUUUUUUUUUUUUUUUUULLLLLLLLLLLLLLLLLLLLLLLLLLLLLLLLLLLLLLLLLLLLLLLLLLLLLLP544444455444445444554554554444554",
"444454554545445454466657856PLLLLLLLLLLLLLLLLLLLLLLLLLLLLLLLLLLLLLLLLLLLLLLLLLLLLLLLUUUUUUUUUUUUUUUUUUUUUUUUUUUUUUUUUUUBNVLLLLLLLLLLLLLLLLLLLLLLLLLLLLLLLLLLLLLLLLLLLLLLLLLLLLLLLLLLLLLLLLLLLLLLLLLVNBUUUUUUUUUUUUUUUUUUUUUUUUUUUUUUUUUUULLLLLLLLLLLLLLLLLLLLLLLLLLLLLLLLLLLLLLLLLLLLLLLLLLLLLLLP55555544545544445455454455554454",
"44555545465555445566665785PLLLLLLLLLLLLLLLLLLLLLLLLLLLLLLLLLLLLLLLLLLLLLLLLLLLLLLLUUUUUUUUUUUUUUUUUUUUUUUUUUUUUUUUUUUFBMVLLLLLLLLLLLLLLLLLLLLLLLLLLLLLLLLLLLLLLLLLLLLLLLLLLLLLLLLLLLLLLLLLLLLLLLLLVNBFUUUUUUUUUUUUUUUUUUUUUUUUUUUUUUUUUUULLLLLLLLLLLLLLLLLLLLLLLLLLLLLLLLLLLLLLLLLLLLLLLLLLLLLLLP5556555655555555545554455544555",
"5565565554565656645666578PLLLLLLLLLLLLLLLLLLLLLLLLLLLLLLLLLLLLLLLLLLLLLLLHLLLLLLLLUUUUUUUUUUUUUUUUUUUUUUUUUUUUUUUUUUUBBNVLLLLLLLLLLLLLLHLLLLLLLLLLLLLLLLLLLLLLLLLLLLLLLLLLHLLLLLLHLLLLLLLLLLLLLLLLVNBBUUUUUUUUUUUUUUUUUUUUUUUUUUUUUUUUUUULLLLLLLLLLLLLHLLLLLLLLLLLLLLLLLLLLLLLHLLLLLLLLHLLLLLLLLLP666455455656555646566456556555",
"656556566566565555666657PPPPPPPPPPPPPPPPPPPPPPPPPPPPPPPPPPPPPPPPPPPPPPPPPPPPPPPPPUUUUUUUUUUUUUUUUUUUUUUUUUUUUUUUUUUUUBBNVPPPPPPPPPPPPPPPPPPPPPPPPPPPPPPPPPPPPPPPPPPPPPPPPPPPPPPPPPPPPPPPPPPPPPPPPPVNBBUUUUUUUUUUUUUUUUUUUUUUUUUUUUUUUUUUUUPPPPPPPPPPPPPPPPPPPPPPPPPPPPPPPPPPPPPPPPPPPPPPPPPPPPPPPPP66566656656565655555665565556",
"666665655656656655666657PDDDDDDDDDDDDDDDCDDDDDDDDDDDDDDDDDDDDDDDDDDDDDDDDDDDDDDDCUUUUUUUUUUUUUUUUUUUUUUUUUUUUUUUUUUUUBBBNVDDDDDDDDDDDDDDDDDDDDDDDL22222222222222222222222LDDDDDDDDDDDDDDDDDDDDDDDVNBBBUUUUUUUUUUUUUUUUUUUUUUUUUUUUUUUUUUUUDDDDDDDDDDDDDDDDDDDDDDDDDDDDDDDDDDDDDDDDDDDDDDDDDDDDDDDDP76566566666566766656665566557",
"675656766566756666666657PDDDDDDDDDDDDDDDDDDDDDDDDDDDDDDDDDDDDDDDDDDDDDDDDDDDDDDDUUUUUUUUUUUUUUUUUUUUUUUUUUUUUUUUUUUUFBBBNVDDDDDDDDDDDDDDDDDDDB06DL22222222222222222222222LDB06DDDDDDDDDDDDDDDDDDDVNBBBFUUUUUUUUUUUUUUUUUUUUUUUUUUUUUUUUUUUUDDDDDDDDDDDDDDDDDDDDDDDDDDDDDDDDDDDDDDDDDDDDDDDDDDDDDDDP76656666666667657776766666776",
"677676677766676777766567PDDDDDDDDDDDDDDDDDDDDDDDDDDDDDDDDDDDDDDDDDDDDDDDDDDDDDDDUUUUUUUUUUUUUUUUUUUUUUUUUUUUUUUUUUUUBBBBNVDDDDDDDDDDDDDDDDDDDB06DH22ggggggggggggggggggg22LDB06DDDDDDDDDDDDDDDDDDDBBBBBBUUUUUUUUUUUUUUUUUUUUUUUUUUUUUUUUUUUUDDDDDDDDDDDDDDDDDDDDDDDDDDDDDDDDDDDDDDDDDDDDDDDDDDDDDDDP77776667776767677767776776776",
"776677777767677777666567PDDDDDDDDDDDDDDDDDDDDDDDDDDDDDDDDDDDDDDDDDDDDDDDDDDDDDDUUUUUUUUUUUUUUUUUUUUUUUUUUUUUUUUUUUUUBBBBNVDDDDDDDDDDDDDDDDDDDB06DL22gjjjjjjjhghjjjjjjjg22LDB06DDDDDDDDDDDDDDDDDDDVMBBBBUUUUUUUUUUUUUUUUUUUUUUUUUUUUUUUUUUUUUDDDDDDDDDDDDDDDDDDDDDDDDDDDDDDDDDDDDDDDDDDDDDDDDDDDDDDP77776777776776677777767777677",
"767888787787778777666567PDDDDDDDDDDDDDDDDDDDDDDDDDDDDDDDDDDDDDDDDDDDDDDDDDDDDDDUUUUUUUUUUUUUUUUUUUUUUUUUUUUUUUUUUUUUBBBBNVDDDDDDDDDDDDDDDDDDDUUUDL22gjjSSSSjhghjSSSSjjg22LDUUUDDDDDDDDDDDDDDDDDDDVNBBBBUUUUUUUUUUUUUUUUUUUUUUUUUUUUUUUUUUUUUDDDDDDDDDDDDDDDDDDDDDDDDDDDDDDDDDDDDDDDDDDDDDDDDDDDDDDP77667677776777777877778767787",
"787777777888887778666567PDDDDDDDDDDDDDDDDDDDDDDDDDDDDDDDDDDDDDDDDDDDDDDDDDDDDDUUUUUUUUUUUUUUUUUUUUUUUUUUUUUUUUUUUUUFBBBBNVDDDDDDDDDDDDDDDDDDIPIIIL22gjjvvvvjhghjvvvvjjg22LIPIIIDDDDDDDDDDDDDDDDDDVNBBBBFUUUUUUUUUUUUUUUUUUUUUUUUUUUUUUUUUUUUUDDDDDDDDDDDDDDDDDDDDDDDDDDDDDDDDDDDDDDDDDDDDDDDDDDDDDP77788887778777777878787787777",
"778888788888777788666567PDDDDDDDDDDDDDDDDDDDDDDDDDDDDDDDDDDDDDDDDDDDDDDDDDDDDDUUUUUUUUUUUUUUUUUUUUUUUUUUUUUUUUUUUUUBBBBBNVDDDDDDDDDDDDDDDDDIPPIPPL22gjjccccjhghjccccjjg22LPPIPPIDDDDDDDDDDDDDDDDDVNBBBBBUUUUUUUUUUUUUUUUUUUUUUUUUUUUUUUUUUUUUDDDDDDDDDDDDDDDDDDDDDDDDDDDDDDDDDDDDDDDDDDDDDDDDDDDDDP87888778888888878877878788787",
"987889888888898888666567y,,,,,,,,,,,,,,,,,,,,,,,,,,,,,,,,,,,,,,,,,,,,,,,,,,,,UUUUUUUUUUUUUUUUUUUUUUUUUUUUUUUUUUUUUUBBBB>:>,,,,,,,,,,,,,,,,yyyyyyyLgghjjkkkkjhghjkkkkjjhggLyyyyyyy,,,,,,,,,,,,,,,,>:BBBBBUUUUUUUUUUUUUUUUUUUUUUUUUUUUUUUUUUUUUU,,,,,,,,,,,,,,,,,,,,,,,,,,,,,,,,,,,,,,,,,,,,,,,,,,,,u89888898888788898898788989878",
"888999888898888899666567y,,,,,,,,,,,,,,,,,,,,,,,,,,,,,,,,,,,,,,,,,,,,,,,,,,,,UUUUUUUUUUUUUUUUUUUUUUUUUUUUUUUUUUUUUUBB>>>:>,,,,,,,,,,,,,,,yyyyyyyyLhhjjjjjjjjhghjjjjjjjjhhLyyyyyyyy,,,,,,,,,,,,,,,>:>>>BBUUUUUUUUUUUUUUUUUUUUUUUUUUUUUUUUUUUUUU,,,,,,,,,,,,,,,,,,,,,,,,,,,,,,,,,,,,,,,,,,,,,,,,,,,,u89998888889988889988888998889",
"898898889898898899666567y,,,,,,,,,,,,,,,,,,,,,,,,,,,,,,,,,,,,,,,,,,,,,,,,,,,yyyyyyyyyyyyyyyyyyyyyyyyyyyyyyyyyyyyyyu>>>>>:>,,,,,,,,,,,,,,yyyyyyyyyLjjjjjjjjjjhghjjjjjjjjjjLyyyyyyyyy,,,,,,,,,,,,,,>:>>>>>uyyyyyyyyyyyyyyyyyyyyyyyyyyyyyyyyyyyyyu,,,,,,,,,,,,,,,,,,,,,,,,,,,,,,,,,,,,,,,,,,,,,,,,,,,u88888988889889998999998899988",
"899888899898899989666567PFDDDDDDDDDDDDDDDDDDDDDDDDDDDDDDDDDDDDDDDDDDDDDDDDDDyyyyyyyyyyyyyyyyyyyyyyyyyyyyyyyyyyyyyu>>>>>BNVDDDDDDDDDDDDDDDDDDDDDDDLjjjjjjjjjjhghjjjjjjjjjjLDDDDDDDDDDDDDDDDDDDDDDDVN>>>>>>uyyyyyyyyyyyyyyyyyyyyyyyyyyyyyyyyyyyyuDDDDDDDDDDDDDDDDDDDDDDDDDDDDDDDDDDDDDDDDDDDDDDDDDDDP99899989899889988999999899999",
"999999999999989999666567PDDDDDDDDDDDDDDDDDDDDDDDDDDDDDDDDDDDDDDDDDDDDDDDDDDyyyyyyyyyyyyyyyyyyyyyyyyyyyyyyyyyyyyyyu>>BBBBNVDDDDDDDDDDDDDDDDDDDDDDDLjjjjjjjjjjhghjjjjjjjjjjLDDDDDDDDDDDDDDDDDDDDDDDVNBBBB>>uyyyyyyyyyyyyyyyyyyyyyyyyyyyyyyyyyyyyyuDDDDDDDDDDDDDDDDDDDDDDDDDDDDDDDDDDDDDDDDDDDDDDDDDDP99999999999998999999999999999",
"999999999999999999666567PDDDDDDDDDDDDDDDDDDDDDDDDDDDDDDDDDDDDDDDDDDDDDDDDDDUUUUUUUUUUUUUUUUUUUUUUUUUUUUUUUUUUUUUUUBBBBBBNVDCDDDDDDDDDDDDDDDDDDDDDLjjjjjjjjjjhghjjjjjjjjjjLDDDDDDDDDDDDDDDDDDDDDDDVNBBBBBBUUUUUUUUUUUUUUUUUUUUUUUUUUUUUUUUUUUUUUUDDDDDDDDDDDDDDDDDDDDDDDDDDDDDDDDDDDDDDDDDDDDDDDDDDP99999999999999999999999999999",
"################################################################################################################################################################################################################################################################################################################################",
"################################################################################################################################################################################################################################################################################################################################",
"################################################################################################################################################################################################################################################################################################################################",
"################################################################################################################################################################################################################################################################################################################################",
"################################################################################################################################################################################################################################################################################################################################",
"################################################################################################################################################################################################################################################################################################################################",
"################################################################################################################################################################################################################################################################################################################################",
"################################################################################################################################################################################################################################################################################################################################",
"################################################################################################################################################################################################################################################################################################################################",
"################################################################################################################################################################################################################################################################################################################################",
"################################################################################################################################################################################################################################################################################################################################",
"################################################################################################################################################################################################################################################################################################################################",
"################################################################################################################################################################################################################################################################################################################################",
"################################################################################################################################################################################################################################################################################################################################",
"################################################################################################################################################################################################################################################################################################################################",
"################################################################################################################################################################################################################################################################################################################################",
"################################################################################################################################################################################################################################################################################################################################",
"################################################################################################################################################################################################################################################################################################################################",
"################################################################################################################################################################################################################################################################################################################################",
"################################################################################################################################################################################################################################################################################################################################",
"################################################################################################################################################################################################################################################################################################################################",
"################################################################################################################################################################################################################################################################################################################################",
"################################################################################################################################################################################################################################################################################################################################",
"################################################################################################################################################################################################################################################################################################################################",
"################################################################################################################################################################################################################################################################################################################################",
"################################################################################################################################################################################################################################################################################################################################",
"################################################################################################################################################################################################################################################################################################################################",
"################################################################################################################################################################################################################################################################################################################################",
"################################################################################################################################################################################################################################################################################################################################",
"################################################################################################################################################################################################################################################################################################################################",
"################################################################################################################################################################################################################################################################################################################################",
"################################################################################################################################################################################################################################################################################################################################",
"################################################################################################################################################################################################################################################################################################################################",
"################################################################################################################################################################################################################################################################################################################################",
"################################################################################################################################################################################################################################################################################################################################",
"################################################################################################################################################################################################################################################################################################################################",
"################################################################################################################################################################################################################################################################################################################################"
};
