/* XPM */
static char *end_floor3_000[] = {
/* columns rows colors chars-per-pixel */
"320 200 255 2 ",
"   c black",
".  c #020202",
"X  c gray1",
"o  c #040404",
"O  c gray2",
"+  c gray3",
"@  c gray4",
"#  c #0B0B0B",
"$  c #0C0C0C",
"%  c gray5",
"&  c #0E0E0E",
"*  c #121212",
"=  c #131313",
"-  c #141414",
";  c #161616",
":  c #171717",
">  c #181818",
",  c #191919",
"<  c #1A1A1A",
"1  c #1B1B1B",
"2  c #1C1C1C",
"3  c #1D1D1D",
"4  c #1E1E1E",
"5  c #1F1F1F",
"6  c #00002C",
"7  c #00003C",
"8  c #202020",
"9  c gray13",
"0  c #222222",
"q  c #232323",
"w  c gray14",
"e  c #252525",
"r  c #262626",
"t  c #272727",
"y  c #282828",
"u  c #292929",
"i  c #2A2A2A",
"p  c #2B2B2B",
"a  c #2C2C2C",
"s  c #2D2D2D",
"d  c gray18",
"f  c #2F2F2F",
"g  c #303030",
"h  c #313131",
"j  c #323232",
"k  c #333333",
"l  c #343434",
"z  c #353535",
"x  c #363636",
"c  c #373737",
"v  c #383838",
"b  c #393939",
"n  c #3A3A3A",
"m  c #3B3B3B",
"M  c #3C3C3C",
"N  c #3D3D3D",
"B  c #3E3E3E",
"V  c #3F3F3F",
"C  c #600000",
"Z  c #004400",
"A  c #005C00",
"S  c #007400",
"D  c #000050",
"F  c #000064",
"G  c #244870",
"H  c gray25",
"J  c #414141",
"K  c gray26",
"L  c #434343",
"P  c #444444",
"I  c gray27",
"U  c #464646",
"Y  c gray28",
"T  c #484848",
"R  c #494949",
"E  c gray29",
"W  c #4B4B4B",
"Q  c #4C4C4C",
"!  c gray30",
"~  c #4E4E4E",
"^  c #4F4F4F",
"/  c #505050",
"(  c #515151",
")  c #525252",
"_  c #535353",
"`  c gray33",
"'  c #555555",
"]  c #565656",
"[  c gray34",
"{  c #585858",
"}  c #595959",
"|  c #5B5B5B",
" . c gray36",
".. c #5D5D5D",
"X. c #5E5E5E",
"o. c #5F5F5F",
"O. c gray38",
"+. c #626262",
"@. c gray39",
"#. c #646464",
"$. c #656565",
"%. c gray40",
"&. c #676767",
"*. c #686868",
"=. c DimGray",
"-. c #6A6A6A",
";. c #6B6B6B",
":. c #6C6C6C",
">. c #6D6D6D",
",. c #6E6E6E",
"<. c #6F6F6F",
"1. c gray44",
"2. c #717171",
"3. c #727272",
"4. c #747474",
"5. c gray46",
"6. c #767676",
"7. c #777777",
"8. c #797979",
"9. c gray48",
"0. c #7B7B7B",
"q. c #7C7C7C",
"w. c gray49",
"e. c #7E7E7E",
"r. c gray50",
"t. c #F80000",
"y. c #008C00",
"u. c #00A400",
"i. c #D09050",
"p. c #040488",
"a. c #0C0CAC",
"s. c #2C5480",
"d. c #346090",
"f. c #3C6CA0",
"g. c #4C78A8",
"h. c #1010C0",
"j. c #4040D0",
"k. c #7878E0",
"l. c #5884B0",
"z. c #6C90BC",
"x. c #808080",
"c. c #818181",
"v. c gray51",
"b. c #838383",
"n. c #848484",
"m. c gray52",
"M. c #868686",
"N. c #878787",
"B. c #888888",
"V. c #898989",
"C. c gray54",
"Z. c #8B8B8B",
"A. c gray55",
"S. c #8D8D8D",
"D. c #8E8E8E",
"F. c gray56",
"G. c #909090",
"H. c gray57",
"J. c #939393",
"K. c gray58",
"L. c gray59",
"P. c #979797",
"I. c #989898",
"U. c gray60",
"Y. c #9A9A9A",
"T. c #9B9B9B",
"R. c gray61",
"E. c #9D9D9D",
"W. c gray62",
"Q. c #9F9F9F",
"!. c #A0A0A0",
"~. c gray63",
"^. c #A2A2A2",
"/. c gray64",
"(. c #A4A4A4",
"). c #A5A5A5",
"_. c gray65",
"`. c #A7A7A7",
"'. c gray66",
"]. c #AAAAAA",
"[. c gray67",
"{. c #ACACAC",
"}. c gray68",
"|. c #AEAEAE",
" X c #AFAFAF",
".X c gray69",
"XX c #B1B1B1",
"oX c #B2B2B2",
"OX c gray70",
"+X c #B6B6B6",
"@X c #B7B7B7",
"#X c gray72",
"$X c #B9B9B9",
"%X c #BBBBBB",
"&X c #BCBCBC",
"*X c gray74",
"=X c gray",
"-X c #ECD0B4",
";X c #80A0C4",
":X c #C0C0C0",
">X c gray76",
",X c #C3C3C3",
"<X c gray77",
"1X c #C6C6C6",
"2X c gray78",
"3X c #C8C8C8",
"4X c gray79",
"5X c #CACACA",
"6X c #CBCBCB",
"7X c gray80",
"8X c #CDCDCD",
"9X c #CECECE",
"0X c #D0D0D0",
"qX c gray82",
"wX c #D2D2D2",
"eX c LightGray",
"rX c gray83",
"tX c #D5D5D5",
"yX c gray84",
"uX c #D8D8D8",
"iX c gray85",
"pX c #DADADA",
"aX c gray86",
"sX c gainsboro",
"dX c #DDDDDD",
"fX c gray87",
"gX c #DFDFDF",
"hX c #D8D8F4",
"jX c gray88",
"kX c #E1E1E1",
"lX c #E2E2E2",
"zX c #E4E4E4",
"xX c #E6E6E6",
"cX c gray91",
"vX c #E9E9E9",
"bX c #EAEAEA",
"nX c gray92",
"mX c #ECECEC",
"MX c gray93",
"NX c #EEEEEE",
"BX c #EFEFEF",
"VX c gray94",
"CX c #F1F1F1",
"ZX c gray95",
"AX c #F3F3F3",
"SX c #F4F4F4",
"DX c #F6F6F6",
"FX c gray97",
"GX c #F8F8F8",
"HX c #F9F9F9",
"JX c gray98",
"KX c gray99",
"LX c #FDFDFD",
"PX c #FEFEFE",
"IX c white",
/* pixels */
"w w w w w w w w w w w w w w w w w w w w w w w w w w w w w w w w w w w w w w w w w w w w w w w w w w w w w w w w w w w w w w w w w w w w w w w w w w w w w w w w w w w w w w w w w w w w w w w w w w w w w w w w w w w w w w w w w w w w w w w w w w w w w w w w w w w w w w w w w w w w w w w w w w w w w w w w w w w w w w w w w w w w w w w w w w w w w w w w w w w w w w w w w w w w w w w w w w w w w w w w w w w w w w w w w w w w w w w w w w w w w w w w w w w w w w w w w w w w w w w w w w w w w w w w w w w w w w w w w w w w w w w w w w w w w w w w w w w w w w w w w w w w w w w w w w w w w w w w w w w w w w w w w w w w w w w w w w w w w w w w ",
"w w w w w w w w w w w w w w w w w w w w w w w w w w w w w w w w w w w w w w w w w w w w w w w w w w w w w w w w w w w w w w w w w w w w w w w w w w w w w w w w w w w w w w w w w w w w w w w w w w w w w w w w w w w w w w w w w w w w w w w w w w w w w w w w w w w w w w w w w w w w w w w w w w w w w w w w w w w w w w w w w w w w w w w w w w w w w w w w w w w w w w w w w w w w w w w w w w w w w w w w w w w w w w w w w w w w w w w w w w w w w w w w w w w w w w w w w w w w w w w w w w w w w w w w w w w w w w w w w w w w w w w w w w w w w w w w w w w w w w w w w w w w w w w w w w w w w w w w w w w w w w w w w w w w w w w w w w w w w w w w ",
"w w w w w w w w w w w w w w w w w w w w w w w w w w w w w w w w w w w w w w w w w w w w w w w w w w w w w w w w w w w w w w w w w w w w w w w w w w w w w w w w w w w w w w w w w w w w w w w w w w w w w w w w w w w w w w w w w w w w w w w w w w w w w w w w w w w w w w w w w w w w w w w w w w w w w w w w w w w w w w w w w w w w w w w w w w w w w w w w w w w w w w w w w w w w w w w w w w w w w w w w w w w w w w w w w w w w w w w w w w w w w w w w w w w w w w w w w w w w w w w w w w w w w w w w w w w w w w w w w w w w w w w w w w w w w w w w w w w w w w w w w w w w w w w w w w w w w w w w w w w w w w w w w w w w w w w w w w w w w w w w ",
"w w w w w w w w w w w w w w w w w w w w w w w w w w w w w w w w w w w w w w w w w w w w w w w w w w w w w w w w w w w w w w w w w w w w w w w w w w w w w w w w w w w w w w w w w w w w w w w w w w w w w w w w w w w w w w w w w w w w w w w w w w w w w w w w w w w w w w w w w w w w w w w w w w w w w w w w w w w w w w w w w w w w w w w w w w w w w w w w w w w w w w w w w w w w w w w w w w w w w w w w w w w w w w w w w w w w w w w w w w w w w w w w w w w w w w w w w w w w w w w w w w w w w w w w w w w w w w w w w w w w w w w w w w w w w w w w w w w w w w w w w w w w w w w w w w w w w w w w w w w w w w w w w w w w w w w w w w w w w w w w ",
"w w w w w w w w w w w w w w w w w w w w w w w w w w w w w w w w w w w w w w w w w w w w w w w w w w w w w w w w w w w w w w w w w w w w w w w w w w w w w w w w w w w w w w w w w w w w w w w w w w w w w w w w w w w w w w w w w w w w w w w w w w w w w w w w w w w w w w w w w w w w w w w w w w w w w w w w w w w w w w w w w w w w w w w w w w w w w w w w w w w w w w w w w w w w w w w w w w w w w w w w w w w w w w w w w w w w w w w w w w w w w w w w w w w w w w w w w w w w w w w w w w w w w w w w w w w w w w w w w w w w w w w w w w w w w w w w w w w w w w w w w w w w w w w w w w w w w w w w w w w w w w w w w w w w w w w w w w w w w w w w ",
"w w w w w w w w w w w w w w w w w w w w w w w w w w w w w w w w w w w w w w w w w w w w w w w w w w w w w w w w w w w w w w w w w w w w w w w w w w w w w w w w w w w w w w w w w w w w w w w w w w w w w w w w w w w w w w w w w w w w w w w w w w w w w w w w w w w w w w w w w w w w w w w w w w w w w w w w w w w w w w w w w w w w w w w w w w w w w w w w w w w w w w w w w w w w w w w w w w w w w w w w w w w w w w w w w w w w w w w w w w w w w w w w w w w w w w w w w w w w w w w w w w w w w w w w w w w w w w w w w w w w w w w w w w w w w w w w w w w w w w w w w w w w w w w w w w w w w w w w w w w w w w w w w w w w w w w w w w w w w w w w ",
"w w w w w w w w w w w w w w w w w w w w w w w w w w w w w w w w w w w w w w w w w w w w w w w w w w w w w w w w w w w w w w w w w w w w w w w w w w w w w w w w w w w w w w w w w w w w w w w w w w w w w w w w w w w w w w w w w w w w w w w w w w w w w w w w w w w w w w w w w w w w w w w w w w w w w w w w w w w w w w w w w w w w w w w w w w w w w w w w w w w w w w w w w w w w w w w w w w w w w w w w w w w w w w w w w w w w w w w w w w w w w w w w w w w w w w w w w w w w w w w w w w w w w w w w w w w w w w w w w w w w w w w w w w w w w w w w w w w w w w w w w w w w w w w w w w w w w w w w w w w w w w w w w w w w w w w w w w w w w w w w ",
"w w w w w w w w w w w w w w w w w w w w w w w w w w w w w w w w w w w w w w w w w w w w w w w w w w w w w w w w w w w w w w w w w w w w w w w w w w w w w w w w w w w w w w w w w w w w w w w w w w w w w w w w w w w w w w w w w w w w w w w w w w w w w w w w w w w w w w w w w w w w w w w w w w w w w w w w w w w w w w w w w w w w w w w w w w w w w w w w w w w w w w w w w w w w w w w w w w w w w w w w w w w w w w w w w w w w w w w w w w w w w w w w w w w w w w w w w w w w w w w w w w w w w w w w w w w w w w w w w w w w w w w w w w w w w w w w w w w w w w w w w w w w w w w w w w w w w w w w w w w w w w w w w w w w w w w w w w w w w w w w ",
"w w w w w w w w w w w w w w w w w w w w w w w w w w w w w w w w w w w w w w w w w w w w w w w w w w w w w w w w w w w w w w w w w w w w w w w w w w w w w w w w w w w w w w w w w w w w w w w w w w w w w w w w w w w w w w w w w w w w w w w w w w w w w w w w w w w w w w w w w w w w w w w w w w w w w w w w w w w w w w w w w w w w w w w w w w w w w w w w w w w w w w w w w w w w w w w w w w w w w w w w w w w w w w w w w w w w w w w w w w w w w w w w w w w w w w w w w w w w w w w w w w w w w w w w w w w w w w w w w w w w w w w w w w w w w w w w w w w w w w w w w w w w w w w w w w w w w w w w w w w w w w w w w w w w w w w w w w w w w w w w ",
"w w w w w w w w w w w w w w w w w w w w w w w w w w w w w w w w w w w w w w w w w w w w w w w w w w w w w w w w w w w w w w w w w w w w w w w w w w w w w w w w w w w w w w w w w w w w w w w w w w w w w w w w w w w w w w w w w w w w w w w w w w w w w w w w w w w w w w w w w w w w w w w w w w w w w w w w w w w w w w w w w w w w w w w w w w w w w w w w w w w w w w w w w w w w w w w w w w w w w w w w w w w w w w w w w w w w w w w w w w w w w w w w w w w w w w w w w w w w w w w w w w w w w w w w w w w w w w w w w w w w w w w w w w w w w w w w w w w w w w w w w w w w w w w w w w w w w w w w w w w w w w w w w w w w w w w w w w w w w w w w ",
"w w w w w w w w w w w w w w w w w w w w w w w w w w w w w w w w w w w w w w w w w w w w w w w w w w w w w w w w w w w w w w w w w w w w w w w w w w w w w w w w w w w w w w w w w w w w w w w w w w w w w w w w w w w w w w w w w w w w w w w w w w w w w w w w w w w w w w w w w w w w w w w w w w w w w w w w w w w w w w w w w w w w w w w w w w w w w w w w w w w w w w w w w w w w w w w w w w w w w w w w w w w w w w w w w w w w w w w w w w w w w w w w w w w w w w w w w w w w w w w w w w w w w w w w w w w w w w w w w w w w w w w w w w w w w w w w w w w w w w w w w w w w w w w w w w w w w w w w w w w w w w w w w w w w w w w w w w w w w w w w ",
"w w w w w w w w w w w w w w w w w w w w w w w w w w w w w w w w w w w w w w w w w w w w w w w w w w w w w w w w w w w w w w w w w w w w w w w w w w w w w w w w w w w w w w w w w w w w w w w w w w w w w w w w w w w w w w w w w w w w w w w w w w w w w w w w w w w w w w w w w w w w w w w w w w w w w w w w w w w w w w w w w w w w w w w w w w w w w w w w w w w w w w w w w w w w w w w w w w w w w w w w w w w w w w w w w w w w w w w w w w w w w w w w w w w w w w w w w w w w w w w w w w w w w w w w w w w w w w w w w w w w w w w w w w w w w w w w w w w w w w w w w w w w w w w w w w w w w w w w w w w w w w w w w w w w w w w w w w w w w w w w ",
"w w w w w w w w w w w w w w w w w w w w w w w w w w w w w w w w w w w w w w w w w w w w w w w w w w w w w w w w w w w w w w w w w w w w w w w w w w w w w w w w w w w w w w w w w w w w w w w w w w w w w w w w w w w w w w w w w w w w w w w w w w w w w w w w w w w w w w w w w w w w w w w w w w w w w w w w w w w w w w w w w w w w w w w w w w w w w w w w w w w w w w w w w w w w w w w w w w w w w w w w w w w w w w w w w w w w w w w w w w w w w w w w w w w w w w w w w w w w w w w w w w w w w w w w w w w w w w w w w w w w w w w w w w w w w w w w w w w w w w w w w w w w w w w w w w w w w w w w w w w w w w w w w w w w w w w w w w w w w w w w ",
"w w w w w w w w w w w w w w w w w w w w w w w w w w w w w w w w w w w w w w w w w w w w w w w w w w w w w w w w w w w w w w w w w w w w w w w w w w w w w w w w w w w w w w w w w w w w w w w w w w w w w w w w w w w w w w w w w w w w w w w w w w w w w w w w w w w w w w w w w w w w w w w w w w w w w w w w w w w w w w w w w w w w w w w w w w w w w w w w w w w w w w w w w w w w w w w w w w w w w w w w w w w w w w w w w w w w w w w w w w w w w w w w w w w w w w w w w w w w w w w w w w w w w w w w w w w w w w w w w w w w w w w w w w w w w w w w w w w w w w w w w w w w w w w w w w w w w w w w w w w w w w w w w w w w w w w w w w w w w w w w ",
"w w w w w w w w w w w w w w w w w w w w w w w w w w w w w w w w w w w w w w w w w w w w w w w w w w w w w w w w w w w w w w w w w w w w w w w w w w w w w w w w w w w w w w w w w w w w w w w w w w w w w w w w w w w w w w w w w w w w w w w w w w w w w w w w w w w w w w w w w w w w w w w w w w w w w w w w w w w w w w w w w w w w w w w w w w w w w w w w w w w w w w w w w w w w w w w w w w w w w w w w w w w w w w w w w w w w w w w w w w w w w w w w w w w w w w w w w w w w w w w w w w w w w w w w w w w w w w w w w w w w w w w w w w w w w w w w w w w w w w w w w w w w w w w w w w w w w w w w w w w w w w w w w w w w w w w w w w w w w w w w ",
"w w w w w w w w w w w w w w w w w w w w w w w w w w w w w w w w w w w w w w w w w w w w w w w w w w w w w w w w w w w w w w w w w w w w w w w w w w w w w w w w w w w w w w w w w w w w w w w w w w w w w w w w w w w w w w w w w w w w w w w w w w w w w w w w w w w w w w w w w w w w w w w w w w w w w w w w w w w w w w w w w w w w w w w w w w w w w w w w w w w w w w w w w w w w w w w w w w w w w w w w w w w w w w w w w w w w w w w w w w w w w w w w w w w w w w w w w w w w w w w w w w w w w w w w w w w w w w w w w w w w w w w w w w w w w w w w w w w w w w w w w w w w w w w w w w w w w w w w w w w w w w w w w w w w w w w w w w w w w w w w ",
"w w w w w w w w w w w w w w w w w w w w w w w w w w w w w w w w w w w w w w w w w w w w w w w w w w w w w w w w w w w w w w w w w w w w w w w w w w w w w w w w w w w w w w w w w w w w w w w w w w w w w w w w w w w w w w w w w w w w w w w w w w w w w w w w w w w w w w w w w w w w w w w w w w w w w w w w w w w w w w w w w w w w w w w w w w w w w w w w w w w w w w w w w w w w w w w w w w w w w w w w w w w w w w w w w w w w w w w w w w w w w w w w w w w w w w w w w w w w w w w w w w w w w w w w w w w w w w w w w w w w w w w w w w w w w w w w w w w w w w w w w w w w w w w w w w w w w w w w w w w w w w w w w w w w w w w w w w w w w w w w ",
"w w w w w w w w w w w w w w w w w w w w w w w w w w w w w w w w w w w w w w w w w w w w w w w w w w w w w w w w w w w w w w w w w w w w w w w w w w w w w w w w w w w w w w w w w w w w w w w w w w w w w w w w w w w w w w w w w w w w w w w w w w w w w w w w w w w w w w w w w w w w w w w w w w w w w w w w w w w w w w w w w w w w w w w w w w w w w w w w w w w w w w w w w w w w w w w w w w w w w w w w w w w w w w w w w w w w w w w w w w w w w w w w w w w w w w w w w w w w w w w w w w w w w w w w w w w w w w w w w w w w w w w w w w w w w w w w w w w w w w w w w w w w w w w w w w w w w w w w w w w w w w w w w w w w w w w w w w w w w w w w ",
"w w w w w w w w w w w w w w w w w w w w w w w w w w w w w w w w w w w w w w w w w w w w w w w w w w w w w w w w w w w w w w w w w w w w w w w w w w w w w w w w w w w w w w w w w w w w w w w w w w w w w w w w w w w w w w w w w w w w w w w w w w w w w w w w w w w w w w w w w w w w w w w w w w w w w w w w w w w w w w w w w w w w w w w w w w w w w w w w w w w w w w w w w w w w w w w w w w w w w w w w w w w w w w w w w w w w w w w w w w w w w w w w w w w w w w w w w w w w w w w w w w w w w w w w w w w w w w w w w w w w w w w w w w w w w w w w w w w w w w w w w w w w w w w w w w w w w w w w w w w w w w w w w w w w w w w w w w w w w w w w ",
"w w w w w w w w w w w w w w w w w w w w w w w w w w w w w w w w w w w w w w w w w w w w w w w w w w w w w w w w w w w w w w w w w w w w w w w w w w w w w w w w w w w w w w w w w w w w w w w w w w w w w w w w w w w w w w w w w w w w w w w w w w w w w w w w w w w w w w w w w w w w w w w w w w w w w w w w w w w w w w w w w w w w w w w w w w w w w w w w w w w w w w w w w w w w w w w w w w w w w w w w w w w w w w w w w w w w w w w w w w w w w w w w w w w w w w w w w w w w w w w w w w w w w w w w w w w w w w w w w w w w w w w w w w w w w w w w w w w w w w w w w w w w w w w w w w w w w w w w w w w w w w w w w w w w w w w w w w w w w w w w ",
"w w w w w w w w w w w w w w w w w w w w w w w w w w w w w w w w w w w w w w w w w w w w w w w w w w w w w w w w w w w w w w w w w w w w w w w w w w w w w w w w w w w w w w w w w w w w w w w w w w w w w w w w w w w w w w w w w w w w w w w w w w w w w w w w w w w w w w w w w w w w w w w w w w w w w w w w w w w w w w w w w w w w w w w w w w w w w w w w w w w w w w w w w w w w w w w w w w w w w w w w w w w w w w w w w w w w w w w w w w w w w w w w w w w w w w w w w w w w w w w w w w w w w w w w w w w w w w w w w w w w w w w w w w w w w w w w w w w w w w w w w w w w w w w w w w w w w w w w w w w w w w w w w w w w w w w w w w w w w w w w ",
"w w w w w w w w w w w w w w w w w w w w w w w w w w w w w w w w w w w w w w w w w w w w w w w w w w w w w w w w w w w w w w w w w w w w w w w w w w w w w w w w w w w w w w w w w w w w w w w w w w w w w w w w w w w w w w w w w w w w w w w w w w w w w w w w w w w w w w w w w w w w w w w w w w w w w w w w w w w w w w w w w w w w w w w w w w w w w w w w w w w w w w w w w w w w w w w w w w w w w w w w w w w w w w w w w w w w w w w w w w w w w w w w w w w w w w w w w w w w w w w w w w w w w w w w w w w w w w w w w w w w w w w w w w w w w w w w w w w w w w w w w w w w w w w w w w w w w w w w w w w w w w w w w w w w w w w w w w w w w w w w ",
"w w w w w w w w w w w w w w w w w w w w w w w w w w w w w w w w w w w w w w w w w w w w w w w w w w w w w w w w w w w w w w w w w w w w w w w w w w w w w w w w w w w w w w w w w w w w w w w w w w w w w w w w w w w w w w w w w w w w w w w w w w w w w w w w w w w w w w w w w w w w w w w w w w w w w w w w w w w w w w w w w w w w w w w w w w w w w w w w w w w w w w w w w w w w w w w w w w w w w w w w w w w w w w w w w w w w w w w w w w w w w w w w w w w w w w w w w w w w w w w w w w w w w w w w w w w w w w w w w w w w w w w w w w w w w w w w w w w w w w w w w w w w w w w w w w w w w w w w w w w w w w w w w w w w w w w w w w w w w w w w ",
"w w w w w w w w w w w w w w w w w w w w w w w w w w w w w w w w w w w w w w w w w w w w w w w w w w w w w w w w w w w w w w w w w w w w w w w w w w w w w w w w w w w w w w w w w w w w w w w w w w w w w w w w w w w w w w w w w w w w w w w w w w w w w w w w w w w w w w w w w w w w w w w w w w w w w w w w w w w w w w w w w w w w w w w w w w w w w w w w w w w w w w w w w w w w w w w w w w w w w w w w w w w w w w w w w w w w w w w w w w w w w w w w w w w w w w w w w w w w w w w w w w w w w w w w w w w w w w w w w w w w w w w w w w w w w w w w w w w w w w w w w w w w w w w w w w w w w w w w w w w w w w w w w w w w w w w w w w w w w w w w ",
"w w w w w w w w w w w w w w w w w w w w w w w w w w w w w w w w w w w w w w w w w w w w w w w w w w w w w w w w w w w w w w w w w w w w w w w w w w w w w w w w w w w w w w w w w w w w w w w w w w w w w w w w w w w w w w w w w w w w w w w w w w w w w w w w w w w w w w w w w w w w w w w w w w w w w w w w w w w w w w w w w w w w w w w w w w w w w w w w w w w w w w w w w w w w w w w w w w w w w w w w w w w w w w w w w w w w w w w w w w w w w w w w w w w w w w w w w w w w w w w w w w w w w w w w w w w w w w w w w w w w w w w w w w w w w w w w w w w w w w w w w w w w w w w w w w w w w w w w w w w w w w w w w w w w w w w w w w w w w w w w ",
"w w w w w w w w w w w w w w w w w w w w w w w w w w w w w w w w w w w w w w w w w w w w w w w w w w w w w w w w w w w w w w w w w w w w w w w w w w w w w w w w w w w w w w w w w w w w w w w w w w w w w w w w w w w w w w w w w w w w w w w w w w w w w w w w w w w w w w w w w w w w w w w w w w w w w w w w w w w w w w w w w w w w w w w w w w w w w w w w w w w w w w w w w w w w w w w w w w w w w w w w w w w w w w w w w w w w w w w w w w w w w w w w w w w w w w w w w w w w w w w w w w w w w w w w w w w w w w w w w w w w w w w w w w w w w w w w w w w w w w w w w w w w w w w w w w w w w w w w w w w w w w w w w w w w w w w w w w w w w w w w ",
"w w w w w w w w w w w w w w w w w w w w w w w w w w w w w w w w w w w w w w w w w w w w w w w w w w w w w w w w w w w w w w w w w w w w w w w w w w w w w w w w w w w w w w w w w w w w w w w w w w w w w w w w w w w w w w w w w w w w w w w w w w w w w w w w w w w w w w w w w w w w w w w w w w w w w w w w w w w w w w w w w w w w w w w w w w w w w w w w w w w w w w w w w w w w w w w w w w w w w w w w w w w w w w w w w w w w w w w w w w w w w w w w w w w w w w w w w w w w w w w w w w w w w w w w w w w w w w w w w w w w w w w w w w w w w w w w w w w w w w w w w w w w w w w w w w w w w w w w w w w w w w w w w w w w w w w w w w w w w w w w ",
"w w w w w w w w w w w w w w w w w w w w w w w w w w w w w w w w w w w w w w w w w w w w w w w w w w w w w w w w w w w w w w w w w w w w w w w w w w w w w w w w w w w w w w w w w w w w w w w w w w w w w w w w w w w w w w w w w w w w w w w w w w w w w w w w w w w w w w w w w w w w w w w w w w w w w w w w w w w w w w w w w w w w w w w w w w w w w w w w w w w w w w w w w w w w w w w w w w w w w w w w w w w w w w w w w w w w w w w w w w w w w w w w w w w w w w w w w w w w w w w w w w w w w w w w w w w w w w w w w w w w w w w w w w w w w w w w w w w w w w w w w w w w w w w w w w w w w w w w w w w w w w w w w w w w w w w w w w w w w w w w ",
"w w w w w w w w w w w w w w w w w w w w w w w w w w w w w w w w w w w w w w w w w w w w w w w w w w w w w w w w w w w w w w w w w w w w w w w w w w w w w w w w w w w w w w w w w w w w w w w w w w w w w w w w w w w w w w w w w w w w w w w w w w w w w w w w w w w w w w w w w w w w w w w w w w w w w w w w w w w w w w w w w w w w w w w w w w w w w w w w w w w w w w w w w w w w w w w w w w w w w w w w w w w w w w w w w w w w w w w w w w w w w w w w w w w w w w w w w w w w w w w w w w w w w w w w w w w w w w w w w w w w w w w w w w w w w w w w w w w w w w w w w w w w w w w w w w w w w w w w w w w w w w w w w w w w w w w w w w w w w w w w ",
"w w w w w w w w w w w w w w w w w w w w w w w w w w w w w w w w w w w w w w w w w w w w w w w w w w w w w w w w w w w w w w w w w w w w w w w w w w w w w w w w w w w w w w w w w w w w w w w w w w w w w w w w w w w w w w w w w w w w w w w w w w w w w w w w w w w w w w w w w w w w w w w w w w w w w w w w w w w w w w w w w w w w w w w w w w w w w w w w w w w w w w w w w w w w w w w w w w w w w w w w w w w w w w w w w w w w w w w w w w w w w w w w w w w w w w w w w w w w w w w w w w w w w w w w w w w w w w w w w w w w w w w w w w w w w w w w w w w w w w w w w w w w w w w w w w w w w w w w w w w w w w w w w w w w w w w w w w w w w w w w ",
"w w w w w w w w w w w w w w w w w w w w w w w w w w w w w w w w w w w w w w w w w w w w w w w w w w w w w w w w w w w w w w w w w w w w w w w w w w w w w w w w w w w w w w w w w w w w w w w w w w w w w w w w w w w w w w w w w w w w w w w w w w w w w w w w w w w w w w w w w w w w w w w w w w w w w w w w w w w w w w w w w w w w w w w w w w w w w w w w w w w w w w w w w w w w w w w w w w w w w w w w w w w w w w w w w w w w w w w w w w w w w w w w w w w w w w w w w w w w w w w w w w w w w w w w w w w w w w w w w w w w w w w w w w w w w w w w w w w w w w w w w w w w w w w w w w w w w w w w w w w w w w w w w w w w w w w w w w w w w w w w ",
"w w w w w w w w w w w w w w w w w w w w w w w w w w w w w w w w w w w w w w w w w w w w w w w w w w w w w w w w w w w w w w w w w w w w w w w w w w w w w w w w w w w w w w w w w w w w w w w w w w w w w w w w w w w w w w w w w w w w w w w w w w w w w w w w w w w w w w w w w w w w w w w w w w w w w w w w w w w w w w w w w w w w w w w w w w w w w w w w w w w w w w w w w w w w w w w w w w w w w w w w w w w w w w w w w w w w w w w w w w w w w w w w w w w w w w w w w w w w w w w w w w w w w w w w w w w w w w w w w w w w w w w w w w w w w w w w w w w w w w w w w w w w w w w w w w w w w w w w w w w w w w w w w w w w w w w w w w w w w w w w ",
"w w w w w w w w w w w w w w w w w w w w w w w w w w w w w w w w w w w w w w w w w w w w w w w w w w w w w w w w w w w w w w w w w w w w w w w w w w w w w w w w w w w w w w w w w w w w w w w w w w w w w w w w w w w w w w w w w w w w w w w w w w w w w w w w w w w w w w w w w w w w w w w w w w w w w w w w w w w w w w w w w w w w w w w w w w w w w w w w w w w w w w w w w w w w w w w w w w w w w w w w w w w w w w w w w w w w w w w w w w w w w w w w w w w w w w w w w w w w w w w w w w w w w w w w w w w w w w w w w w w w w w w w w w w w w w w w w w w w w w w w w w w w w w w w w w w w w w w w w w w w w w w w w w w w w w w w w w w w w w w w ",
"w w w w w w w w w w w w w w w w w w w w w w w w w w w w w w w w w w w w w w w w w w w w w w w w w w w w w w w w w w w w w w w w w w w w w w w w w w w w w w w w w w w w w w w w w w w w w w w w w w w w w w w w w w w w w w w w w w w w w w w w w w w w w w w w w w w w w w w w w w w w w w w w w w w w w w w w w w w w w w w w w w w w w w w w w w w w w w w w w w w w w w w w w w w w w w w w w w w w w w w w w w w w w w w w w w w w w w w w w w w w w w w w w w w w w w w w w w w w w w w w w w w w w w w w w w w w w w w w w w w w w w w w w w w w w w w w w w w w w w w w w w w w w w w w w w w w w w w w w w w w w w w w w w w w w w w w w w w w w w w w ",
"w w w w w w w w w w w w w w w w w w w w w w w w w w w w w w w w w w w w w w w w w w w w w w w w w w w w w w w w w w w w w w w w w w w w w w w w w w w w w w w w w w w w w w w w w w w w w w w w w w w w w w w w w w w w w w w w w w w w w w w w w w w w w w w w w w w w w w w w w w w w w w w w w w w w w w w w w w w w w w w w w w w w w w w w w w w w w w w w w w w w w w w w w w w w w w w w w w w w w w w w w w w w w w w w w w w w w w w w w w w w w w w w w w w w w w w w w w w w w w w w w w w w w w w w w w w w w w w w w w w w w w w w w w w w w w w w w w w w w w w w w w w w w w w w w w w w w w w w w w w w w w w w w w w w w w w w w w w w w w w w ",
"w w w w w w w w w w w w w w w w w w w w w w w w w w w w w w w w w w w w w w w w w w w w w w w w w w w w w w w w w w w w w w w w w w w w w w w w w w w w w w w w w w w w w w w w w w w w w w w w w w w w w w w w w w w w w w w w w w w w w w w w w w w w w w w w w w w w w w w w w w w w w w w w w w w w w w w w w w w w w w w w w w w w w w w w w w w w w w w w w w w w w w w w w w w w w w w w w w w w w w w w w w w w w w w w w w w w w w w w w w w w w w w w w w w w w w w w w w w w w w w w w w w w w w w w w w w w w w w w w w w w w w w w w w w w w w w w w w w w w w w w w w w w w w w w w w w w w w w w w w w w w w w w w w w w w w w w w w w w w w w w ",
"w w w w w w w w w w w w w w w w w w w w w w w w w w w w w w w w w w w w w w w w w w w w w w w w w w w w w w w w w w w w w w w w w w w w w w w w w w w w w w w w w w w w w w w w w w w w w w w w w w w w w w w w w w w w w w w w w w w w w w w w w w w w w w w w w w w w w w w w w w w w w w w w w w w w w w w w w w w w w w w w w w w w w w w w w w w w w w w w w w w w w w w w w w w w w w w w w w w w w w w w w w w w w w w w w w w w w w w w w w w w w w w w w w w w w w w w w w w w w w w w w w w w w w w w w w w w w w w w w w w w w w w w w w w w w w w w w w w w w w w w w w w w w w w w w w w w w w w w w w w w w w w w w w w w w w w w w w w w w w w w ",
"                                                    #.` #.`  .#.4.4.q.n.A.I.!.'..X&X<X7X<X&X.X'.!.I.A.n.q.4.:.4.A.I.A. .                                                          6           6                                                                                                                         h.                                                                                                                                                                                                7                                                                                     6                                               ",
"                                                  M #.` #.`  .#.4.4.q.n.A.I.!.'..X&X<X7X<X&X.X'.!.I.A.n.q.4.:.4.A.I.A. .M                                                                                                                                               6                                                 D                                                                                                                                                                                                                                                                                                                             D 6     ",
"                                                  P #.` #.`  .#.4.4.q.n.A.I.!.'..X&X<X7X<X&X.X'.!.I.A.n.q.4.:.4.A.I.A. .P           D                                                                                                                                                                                                                                                                                               D                                                                                                                                 <X'.            <X<X                                                                      ",
"                                                  Q #.` #.`  .#.4.4.q.n.A.I.!.'..X&X<X7X<X&X.X'.!.I.A.n.q.4.:.4.A.I.A. .Q                                                                                                                                                                                                                                                                                                                                                                                                                                           <X'.&X<X        <X'.'.'.                                                                    ",
"          hX                                      ` #.` #.`  .#.4.4.q.n.A.I.!.'..X&X<X7X<X&X.X'.!.I.A.n.q.4.:.4.A.I.A. .`                                                                             6                                         6                                                                                                                                       6                                                                                                                                               h.                        <X'.&X<Xq.      <X'.'.&Xq.                      D                                             ",
"                                                   .#.` #.`  .#.4.4.q.n.A.I.!.'..X&X<X7X<X&X.X'.!.I.A.n.q.4.:.4.A.I.A. . .                                                                                                                                                                                                                                                                                                                                                                                                                                      <X'.&X<Xq.      <X'.'.&Xq.    D                                                                 ",
"              6         D                         #.#.` #.`  .#.4.4.q.n.A.I.!.'..X&X<X7X<X&X.X'.!.I.A.n.q.4.:.4.A.I.A. . .                            hX                                                                                                                                                                                                                                                      6                                                                                                                                               <X'.&X<Xq.      <X'.'.&Xq.D                                                                       ",
"                    6                             #.#.` #.`  .#.4.4.q.n.A.I.!.'..X&X<X7X<X&X.X'.!.I.A.n.q.4.:.4.A.I.A. . .                                hX                                                                                                                                        6                                                                                                                 6                                                   hX                        7                                                       <X'.&X<Xq.      <X'.'.&Xq.                                                                          ",
"                                  D                .#.` #.`  .#.4.4.q.n.A.I.!.'..X&X<X7X<X&X.X'.!.I.A.n.q.4.:.4.A.I.A. . .    h.          D                                                                                                                                             6                                                                       hX  6                                                                                                   h.                                                    P n.n.n.n.n.n.n.n.n.n.n.n.n.n.n.n.<Xq.      <X'.'.&Xq.                                                                      D     ",
"                                                   .#.` #.`  .#.4.4.q.n.A.I.!.'..X&X<X7X<X&X.X'.!.I.A.n.q.4.:.4.A.I.A. . .                                                                                                6                                 h.          D                                                                                                                                                                               7                                                             P n.n.n.n.:.:.:.:.:.:.:.:.:.:.:.:.:.:.:.:.n.n.n.n.<X'.'.&Xq.        D                                         D                           ",
"                                                   .#.` #.`  .#.4.4.q.n.A.I.!.'..X&X<X7X<X&X.X'.!.I.A.n.q.4.:.4.A.I.A. . .                    6                                                       6                       6                                                                                                                                                                                                                                                     D           6                 P n.n.:.:.:.:.:.:.:.:.:.:.:.:.:.:.:.:.:.:.:.:.:.:.:.:.n.n.&Xq.                                                                                ",
"                                                   .` :.#.`  .#.4.4.q.n.A.I.!.'..X&X<X7X<X&X.X'.!.I.A.n.q.4.:.4.A.I.A. . .                                                                                                                                                                                                                              6                                                                                                                                                       P n.:.:.:.:.:.:. . . . . . . . . . . . . . . . .:.:.:.:.:.:.q.P                                                                                 ",
"                                                   .` :.#.`  .#.4.4.q.n.A.I.!.'..X&X<X7X<X&X.X'.!.I.A.n.q.4.:.4.A.I.A.4. .                                                      D                                                                                                             D                                                                 6                                                                                                                                             P n.:.:.:. . . . .$ $ $ $ $ $ $ $ $ $ $ $ $ $ $ $  . . . .:.:.:.n.P                                             hX6                             6 ",
"                6                                  .` :.#.`  .#.4.4.q.n.A.I.!.'..X&X<X7X<X&X.X'.!.I.A.n.q.4.:.4.A.I.A.4. .                                                                                                                                                                                                                                                        D                                                                                                                           n.:.:. . .$ $ $ ` 4.4.4.4.4.4.4.4.4.4.4.4.4.4.4.4.` $ $ $  . .:.:.n.                                                                              ",
"                                                   .` :.#.`  .#.4.4.q.n.A.I.!.'..X&X<X7X<X&X.X'.!.I.A.n.q.4.:.4.A.I.A.q. .              6                                                                                                                                                               D                                                                                                                                                                                                     :.:. .$ $ ` 4.4.4.4.4.I.!.'..X&X<X7X<X&X.X'.!.I.4.4.4.4.` $ $  .:.:.                                                                              ",
"                                                   .` :.#.`  .#.4.4.q.n.A.I.!.'..X&X<X7X<X&X.X'.!.I.A.n.q.4.:.4.q.A.I.A. .                                                                                                                                                6                                                                                   D                                                     D                                                                           6             :. .$ 4.4.#.4.4.q.n.A.I.!.'..X&X<X7X<X&X.X'.!.I.A.n.q.:.4.4.4.$  .:.                                                                      6       ",
"                              6                 6  .` :.#.`  .#.4.4.q.n.A.I.!.'..X&X<X7X<X&X.X'.!.I.A.n.q.4.:.4.4.A.I.A. .                  D                                               D                           D                                                               6                                         6                                                                                                                                                                            .$ :.#.`  .#.4.q.n.A.I.!.'..X&X<X7X<X&X.X'.!.I.A.n.q.:.4.A.I.4.$  .                                                                              ",
"                                          hX       .` :.#.`  .#.4.4.q.n.A.I.!.'..X&X<X7X<X&X.X'.!.I.A.n.q.4.:.4.4.A.I.A. .                                                                                                                        6                                                     D                   6               D                           6                                                                                                                     6               $ #.:.#.`  .#.4.q.n.A.I.!.'..X&X<X7X<X&X.X'.!.I.A.n.q.:.4.A.I.A. .$                                                                               ",
"                                                M  .` :.#.`  .#.4.4.q.n.A.I.!.'..X&X<X7X<X&X.X'.!.I.A.n.q.4.:.4.4.A.I.A. .M                                                                                         6                                                 6                                                   6                           D                                                                                                                                                       M #.:.#.`  .#.4.q.n.A.I.!.'..X&X<X7X<X&X.X'.!.I.A.n.q.:.4.A.I.A. .M                                                                               ",
"                                                P  .` :.#.`  .#.4.4.q.n.A.I.!.'..X&X<X7X<X&X.X'.!.I.A.n.q.4.:.4.4.A.I.A. .P                                                                           D                                                                                                             D                                                                               7                                                                                         7               P #.:.#.`  .#.4.q.n.A.I.!.'..X&X<X7X<X&X.X'.!.I.A.n.q.:.4.A.I.A. .P       hX                                                                      ",
"                D                     D         Q  .` :.#.`  .#.4.4.q.n.A.I.!.'..X&X<X7X<X&X.X'.!.I.A.n.q.4.:.4.4.A.I.A. .Q                                                                                                                                                                                             D                               h.      6                                                         D                                                                           6       Q #.:.#.`  .#.4.q.n.A.I.!.'..X&X<X7X<X&X.X'.!.I.A.n.q.:.4.A.I.A. .Q                                     6           D                             ",
"                                                `  .` :.#.`  .#.4.4.q.n.A.I.!.'..X&X<X7X<X&X.X'.!.I.A.n.q.4.:.4.4.A.I.A. .`                             6                                                                                                                                                                                                                                                 6                                                                                                   ` #.:.#.`  .#.4.q.n.A.I.!.'..X&X<X7X<X&X.X'.!.I.A.n.q.:.4.A.I.A. .`                         6               D               6 h.                  ",
"                            h.                   . .` :.#.`  .#.4.4.q.n.A.I.!.'..X&X<X7X<X&X.X'.!.I.A.n.q.4.:.4.4.A.I.A. . .                                                                      D                         6                         hX                      6   6                                                   D           6                                                                                               6                                                            .#.:.#.`  .#.4.q.n.A.I.!.'..X&X<X7X<X&X.X'.!.I.A.n.q.:.4.A.I.A. . .                                                                              ",
"                  D                             #. .` :.#.`  .#.4.4.q.n.A.I.!.'..X&X<X7X<X&X.X'.!.I.A.n.q.4.:.4.4.A.I.A. . .              D                 6                                                                                                                                                                                                                                             D                                                                                                   #.#.:.#.`  .#.4.q.n.A.I.!.'..X&X<X7X<X&X.X'.!.I.A.n.q.:.4.A.I.A. . .                                                                              ",
"                                                #. .` :.#.`  .#.4.4.q.n.A.I.!.'..X&X<X7X<X&X.X'.!.I.A.n.q.4.:.4.4.A.I.A. . .                                                                                                6                                   D             D               6                                     6                                                                                                                                                                     h.  #.#.:.#.`  .#.4.q.n.A.I.!.'..X&X<X7X<X&X.X'.!.I.A.n.q.:.4.A.I.A. . .                                                                              ",
"                        6                        . .` :.#.`  .#.4.4.q.n.A.I.!.'..X&X<X7X<X&X.X'.!.I.A.n.q.4.:.4.4.A.I.A. . .                                                                                                                                                                                                                                                                                                                                                                                   .#.:.#.`  .#.4.q.n.A.I.!.'..X&X<X7X<X&X.X'.!.I.A.n.q.:.4.A.I.A. . .                                                                              ",
"                                                 . .` :.#.`  .#.4.4.q.n.A.I.!.'..X&X<X7X<X&X.X'.!.I.A.n.q.4.:.4.4.A.I.A. . .                                                                                                                        6           6                                                   6                                                                                                       6                     D                                                            .#.:.#.`  .#.4.q.n.A.I.!.'..X&X<X7X<X&X.X'.!.I.A.n.q.:.4.A.I.A.q. .                                                                              ",
"                                                 . .` :.#.`  .#.4.4.q.n.A.I.!.'..X&X<X7X<X&X.X'.!.I.A.n.q.4.:.4.4.A.I.A. . .                                                                                                                                                                                                                                              D           7                               4.I.7X7XQ                                                                                .#.:.#.`  .#.4.q.n.A.I.!.'..X&X<X7X<X&X.X'.!.I.A.n.q.:.4.q.A.I.A. .                                                                              ",
"                                                 . .` :.#.`  .#.4.4.q.n.A.I.!.'..X&X<X7X<X&X.X'.!.I.A.n.q.4.:.4.4.A.I.A. . .                                                                                    6 6                                                                                                         D                       7                                                             4.'.7X7XM M 7XQ                   I.7X7XQ                             6                      .#.:.#.`  .#.4.q.n.A.I.!.'..X&X<X7X<X&X.X'.!.I.A.n.q.:.4.4.A.I.A. .                6                                                             ",
"                                                 . .` :.#.`  .#.4.4.q.n.A.I.!.'..X&X<X7X<X&X.X'.!.I.A.n.q.4.:.4.4.A.I.A. . .                                  D                                     D                                                                                                                 6                                     7                                                 4.'.7X'.'.7X$ $ M 7X      D       '.7X7XM M 7XQ                                                  .#.:.#.`  .#.4.q.n.A.I.!.'..X&X<X7X<X&X.X'.!.I.A.n.q.:.4.4.A.I.A. .                                                                              ",
"            D                                    . .` :.#.`  .#.4.4.q.n.A.I.!.'..X&X<X7X<X&X.X'.!.I.A.n.q.4.:.4.4.A.I.A. . .                                                    6                                                               6                                                                                                                                                         4.'.7X'.'.7X.X7X!.$ M 7X          '.7X'.'.7X$ $ M 7X        6                                        .#.:.#.`  .#.4.q.n.A.I.!.'..X&X<X7X<X&X.X'.!.I.A.n.q.:.4.4.A.I.A. .                                                                              ",
"                                                 . .` :.#.`  .#.4.4.q.n.A.I.!.'..X&X<X7X<X&X.X'.!.I.A.n.q.4.:.4.4.A.I.A. . .                          h.                                                                                                                      6       6                                                           D                                                   4.'.7X'.'.7X7X7X.XI.7X7X7XI.      '.7X'.'.7X.X7X!.$ M 7X            6                                    .#.:.#.`  .#.4.q.n.A.I.!.'..X&X<X7X<X&X.X'.!.I.A.n.q.:.4.4.A.I.A. .                              D   6                                           ",
"          6                                      .` #.:. .`  .#.4.4.q.n.A.I.!.'..X&X<X7X<X&X.X'.!.I.A.n.q.4.4.:.4.A.I.A. . .                                                                                                                D                                                                                                                             7                       4.'.7X'.'.7X7X7X.Xq.q.'.q.q. .    '.7X'.'.7X7X7X.XI.7X7X7XI.                                                 .#.:.#.`  .#.4.q.n.A.I.!.'..X&X<X7X<X&X.X'.!.I.A.n.q.4.:.4.A.I.A. .                                                                              ",
"                                                 .` :.#.`  .#.:.4.4.q.n.A.I.!.'..X&X<X7X<X&X.X'.!.I.A.n.q.4.4.:.4.A.I.A. . .                                                                                                                    6                                                                                                       -Xi.                                  4.'.7X'.'.7X7X7X.Xq.q.'.q.q. .    '.7X'.'.7X7X7X.Xq.q.'.q.q. .                                                   .#.#.`  .#.:.4.q.n.A.I.!.'..X&X<X7X<X&X.X'.!.I.A.n.q.4.:.4.A.I.A. .                                                                              ",
"                                                 .` :.#.`  .#.4.4.4.q.n.A.I.!.'..X&X<X7X<X&X.X'.!.I.A.n.q.4.4.:.4.A.I.A.4. .                                                                                                                                                                                                                          i.i.i.i.                            4.'.7X'.'.7X7X7X.Xq.q.'.q.q. .    '.7X'.'.7X7X7X.Xq.q.'.q.q. .                                                      #.:.#.`  .#.4.4.q.n.A.I.!.'..X&X<X7X<X&X.X'.!.I.A.n.q.4.:.4.A.I.A. .                                                                              ",
"                                              M  .` :.#.`  .#.4.4.4.q.n.A.I.!.'..X&X<X7X<X&X.X'.!.I.A.n.q.4.4.:.4.A.I.A.q. .M                                                                                                                                                                                 D                       P n.<X<X<X<X<X<X<X<X<X<X<X<X<X<X<Xn.P           4.'.7X'.'.7X7X7X.Xq.q.'.q.q. .    '.7X'.'.7X7X7X.Xq.q.'.q.q. .                                                        M #.:.#.`  .#.4.4.q.n.A.I.!.'..X&X<X7X<X&X.X'.!.I.A.n.q.4.:.4.A.I.A. .M           D                                               D                 ",
"              D                               P  .` :.#.`  .#.4.4.4.q.n.A.I.!.'..X&X<X7X<X&X.X'.!.I.A.n.q.4.4.:.4.q.A.I.A. .P                           D                                                                                                                           6                                       P n.<X<X<X<X<X.X.X.X.X.X.X.X.X.X.X.X.X.X.X.X<X<X<X<XI.n.'.7X'.'.7X7X7X.Xq.q.'.q.q. .  D '.7X'.'.7X7X7X.Xq.q.'.q.q. .6                                                           P #.:.#.`  .#.4.4.q.n.A.I.!.'..X&X<X7X<X&X.X'.!.I.A.n.q.4.:.4.A.I.A. .P                       D                                                     ",
"                      D                       Q  .` :.#.`  .#.4.4.4.q.n.A.I.!.'..X&X<X7X<X&X.X'.!.I.A.n.q.4.4.:.4.4.A.I.A. .Q                                                                                                                                                                                       P n.<X<X<X<X.X.X.X.X.X'.'.'.'.'.'.'.'.'.'.'.'.'.'.'..X.XI.I.'.7X'.'.7X7X7X.Xq.q.'.q.q. .    '.7X'.'.7X7X7X.Xq.q.'.q.q. .    hX6                                                         Q #.:.#.`  .#.4.4.q.n.A.I.!.'..X&X<X7X<X&X.X'.!.I.A.n.q.4.:.4.A.I.A. .Q                                                                             ",
"                                               . .` :.#.`  .#.4.4.4.q.n.A.I.!.'..X&X<X7X<X&X.X'.!.I.A.n.q.4.4.:.4.4.A.I.A. .`                                                                                                                                                   6                             P n.<X<X<X.X.X.X.X'.'.'.'.'.I.I.I.I.I.I.I.I.I.I.I.I.I.I.I.I.I.'.7X'.'.7X7X7X.Xq.q.'.q.q. .    '.7X'.'.7X7X7X.Xq.q.'.q.q. .                                                                    ` #.:.#.`  .#.4.4.q.n.A.I.!.'..X&X<X7X<X&X.X'.!.I.A.n.q.4.:.4.A.I.A. .`                                                                           h.",
"                                               . .` :.#.`  .#.4.4.4.q.n.A.I.!.` M p p w j n d n  .I.A.n.q.4.4.:.4.4.A.I.A. . .                                                                                  j.      D     6                                       6                                   P n.<X<X.X.X.X'.'.'.'.I.I.I.I.I.I.I.I.I.I.I.I.I.I.I.I.I.I.I.I.'.7X'.'.7X7X7X.Xq.q.'.q.q. .P   '.7X'.'.7X7X7X.Xq.q.'.q.q. .                                          6                              .#.:.#.`  .#.4.4.q.n.A.I.!.'..X&X<X7X<X&X.X'.!.I.A.n.q.4.:.4.A.I.A. . .                                                                            ",
"                                               . .` :.#.`  .#.4.4.4.q.n.A.J J w j #.Q W x w ` J x M P n.q.4.4.:.4.4.A.I.A. . .                                                                                h.k.h.                          D                   D                                   P n.<X<X.X.X'.'.'.I.I.I.I.I.I.I.I.I.I.I.I.I.I.I.I.I.I.I.I.I.I.'.7X'.'.7X7X7X.Xq.q.'.q.q..X.X.X'.7X'.'.7X7X7X.Xq.q.'.q.q. .            6                                                             D #.#.:.#.`  .#.4.4.q.n.A.I.!.'..X&X<X7X<X&X.X'.!.I.A.n.q.4.:.4.A.I.A. . .                                                      6                     ",
"                                               . .` :.#.`  .#.4.4.4.q._ n x d 3.w 8.M C.P   q.W d p P x :.4.4.:.4.4.A.I.A. . .                                                                              j.k.hXk.j.                                                                              n.<X<X.X.X'.I.I.I.I.I.I.I.I.I.I.I.I.I.I.I.I.I.I.I.I.I.I.I.I.I.M '.'.7X7X7X.Xq.q.'.q.q.I.I.I.'.7X'.'.7X7X7X.Xq.q.'.q.q. .                                                                            D   #.#.:.#.`  .#.4.4.q.n.A.I.!.'..X&X<X7X<X&X.X'.!.I.A.n.q.4.:.4.A.I.A. . .                                                                            ",
"                                               . .` :.#.`  .#.4.4.4.M x j Q d 4Xc.O         1 J dX=.: d x _ 4.:.4.4.A.I.A. . .                                                                                h.k.h.                                                                            P n.<X.X.X'.I.I.I.I.I.I.I.I.I.I.I.I.I.I.I.I.I.I.I.I.I.I.I.I.I.I.I.M .X7X7X.Xq.q.'.q.q.I.I.I.I.M '.'.7X7X7X.Xq.q.'.q.q. .                              D                                                      .#.:.#.`  .#.4.4.q.n.A.I.!.'..X&X<X7X<X&X.X'.!.I.A.n.q.4.:.4.A.I.A. . .                              hX                                            ",
"                                            M  . .` :.#.`  .#.4.3.n J W j A.:.1 d J #.3.4.=.j $ :.G.P P W n  .:.4.4.A.I.A. . .                                            D                                     j.                                                                             .<X<X.XI.I.I.I.I.I.I.I.I.I.I.I.I.n.n.n.n.n.n.n.n.n.n.n.n.n.n.n.n.n.M n.I.I.I.'.q.q.I.I.I.I.I.I.M .X7X7X.Xq.q.'.q.q. .                                                                                         .#.:.#.`  .#.4.4.q.n.A.I.!.'..X#X<X7X>X&X.X'.!.I.A.n.q.4.:.4.A.I.A. . .                                    6                                       ",
"                  D                         P  . .` :.#.`  .#.4. .W : =._.w d } #XVXLXLXLXLXcX.Xx   =.(.w d x :.4.4.A.I.A. . ..           D               <X<X            '.<X                                                                                                               .<X.XI.I.I.I.I.I.n.n.n.n.n.n.n.n.n.q.q.q.q.q.q.q.q.q.n.q.q.q.q.q.n.A.I.M n.I.q.q.M n.n.n.n.n.n.n.M n.I.I.I.'.q.q.I.<X .                                                                                         .#.:.#.`  .#.4.4.q.n.A.I.!._ M p d w j n d n  .I.A.n.q.4.:.4.A.I.A. . .              6                                                             ",
"                                            Q  . .` :.#.`  .#.4.d M   $ x   _.LXNXaXtXaXtXtXaXJXLXn.1 n     Q y 4.4.A.I.A. .| .                         '.'.'.<X        <X&X'.<X                                                                                                           ..XI.I.I.n.n.n.n.n.q.q.q.q.q.q.n.q.q.q.q.q.q.q.q.q.q.q.n.q.q.q.q.q.n.A.I.#.M M M M q.n.q.q.q.q.q.q.q.M q.I.q.q.M n.I.I..X .                                  6                                                    .#.:.#.`  .#.4.4.q.n.A.M J w x #.Q W x w } J x M P n.q.4.:.4.A.I.A. . .                                                                            ",
"                                            `  . .` :.#.`  .#.n Q O       eXLXtXeXcXJXDXtXdXJXVXDXLX#X      1 Y  .4.A.I.A. .| .                         q.&X'.'.<X      q.<X&X'.<X                                                                                                       .I.q.n.n.n.q.n.q.q.4.q.q.q.q.q.q.n.q.q.q.q.q.q.q.q.q.q.q.n.q.q.q.q.q.n.A.I.A.#.#.#.#.q.n.q.q.q.q.q.q.q.#.M M M M q.q.n.n.q.I. .                                                                                     .#.:.#.`  .#.4.4.q._ n x d 3.w 8.M C.P   q.P d p P n :.4.:.4.A.I.A. . .                                                                            ",
"                                             . . .` :.#.`  .#.x x        XLXeXtXJX#XA.4.7X7XA.q.I.A.<X:.      L s 4.A.I.A.|  ..                           q.&X'.'.<X      q.<X&X'.<X                D                                         6                                         I.:.4.q.q.q.q.n.q.q.4.q.q.q.q.q.q.n.q.q.q.q.q.q.q.q.q.q.q.n.q.q.q.q.q.n.A.I.A.4.#.#.#.4.n.q.q.q.q.q.q.q.q.#.#.#.#.q.q.n.q.4.:.I.                                  D                             D                    .#.:.#.`  .#.4.4.M x j Q j 4Xc.O         1 M dX:.: d x ` :.4.A.I.A. . .                                                                            ",
"                                             . . .` :.#.`  .J J +     Q LXeXeXLX>X+   j JXc.  #._     eXc     w N 1.A.I.S. . .o                             q.&X'.'.<X      q.<X&X'.<X                                                                                6                 :.:.4.q.q.q.q.n.q.q.4.q.q.q.q.q.q.n.q.q.q.q.q.q.q.q.q.q.q.n.q.q.q.q.q.n.A.I.A.n.#.#.#.#.n.q.q.q.q.q.q.q.q.4.#.#.#.4.q.n.q.4.:.:.                                                  6                                  .#.:.#.`  .#.4.n P W j A.:.1 d J #.3.3.#.j $ =.G.P P Q n ` 4.A.I.A.q. .                                                                            ",
"      h.                                     . . .` :.#.`  .p x       .XJXeXLX>XO   W JXLX#.M LX=.    aXW.    . n N A.I.A.| | o                               q.&X'.'.<X      q.<X&X'.<X                                                                                                :.:.4.q.q.q.q.n.q.q.4.q.q.q.q.q.q.:.:.:.:.:.:.:.:.:.:.:.:.:.:.:.:.:.:.:.:.:.:.:.#.#.#.#.:.:.:.q.q.q.q.q.q.q.#.#.#.#.q.n.q.4.:.:.            D                                             h.                         .#.:.#.`  .#. .P : =._.w p } &XVXLXLXLXLXNX.Xx   =._.w d x 3.q.A.I.A. .                                                                            ",
"                                             . . .` :.#.`  .j d     = cXaXLX>X    Q LXcXaX&XDXLXj   $ cXtX    . n k A.I.S. .| o                                 q.&X'.'.<X      q.<Xn.n.n.n.n.n.n.n.n.n.n.n.n.P                                                                         :.:.4.q.q.q.q.n.:.:.:.:.:.:.:.:.:.$ $ $ $ $ $ $ $ $ $ $ $ $ $ $ $ $ $ $ $ $ $ $ $ $ $ $ $ $ $ :.:.:.:.:.:.:.#.#.#.#.q.n.q.4.:.:.                                                                                     .#.:.#.`  .#.d M   $ x   _.LXNXtXtXtXtXtXaXJXLXn.2 M     Q d 4.A.I.A. .                                                  D                   D     ",
"                                             . . .` :.#.`  .w n.+   8.cXLX<XO   ` LXVXdXeXJXLXM   $ eXDXtX_   p l.9 Z.I.A. . .o                                   q.&X'.'.<Xn.n.n.n.:.:.:.:.:.:.:.:.:.:.:.:.:.n.n.n.n.P                                                                 :.:.4.q.:.:.:.:.$ $ $ $ $ $ $ Q q.'.'.'.'.'.'.'.'.'.'.'.'.'.'.'.'.'.'.'.'.'.'.'.'.4.4.4.4.'.'.q.Q $ $ $ $ $ $ $ $ #.:.:.q.4.:.:.            6                               6     D                                  .#.:.#.`  .j W O       tXLXtXeXNXJXDXaXdXJXNXDXLX#X      1 P } A.I.A. .                                                                            ",
"                        D                    . . .` :. .`  .2 Q.C.3._.VX&XO   } LXDXdXjXjXzXP   1 <XLXdX4XQ.3.G.n.2 A.I.A. . .O         D                           q.&Xn.n.:.:.:.:.:.:.:.:.:.:.:.:.:.:.:.:.:.:.:.:.:.n.n.P                                                             :.:.:.:.$ $ $ Q q.'.'.'.'.'.'.'.'.!.I.I.I.I.I.I.I.I.I.I.!.'.!.I.I.!.'..X&X7X&X.X'.#.#.#.#.q.I.'.'.'.'.'.'.'.'.4.4.$ $ $ :.:.:.:.              6                                                                   M  .#.:.#.`  .x j        XLXeXeXJX&XA.4.7X7XA.8.Q.A.<X:.      J d A.I.A. .M                                                                           ",
"                                             . .` #.:.`  . .2 n.#XQ.A.LXp     x x 8 w w '._.    C.LXG. XaXc..X X:.2 A.I.A. . .O                                     P q.:.:.:.:.:.:. . . . . . . . . . . . . .:.:.:.:.:.:.n.P                                                           :.$ $ Q q.'.'.'.'.A.n.A.I.I.I.I.I.!.I.I.I.I.I.I.I.I.I.I.!.'.!.I.I.!.'..X&X7X&X.X'.q.#.#.#.#.I.I.I.I.I.I.I.I.I.#.#.4.4.q.Q $ $ :.                      6                                                   6       P  .#.:.#.` M J +     Q LXtXeXLX>X+   j JXn.  #._     eXx     w M n.I.A. .P             D                                                             ",
"                                             . .` #.:.`  . .1 c.!.P.C.NX2               P._.    Q._.   XaX8.Q.Q.*.8 A.I.A. . .+                                   P n.:.:.:. . . . .$ $ $ $ $ $ $ $ $ $ $ $ $  . . . .:.:.:.n.P                                 D                          .'.'.!.!.I.!.I.A.n.A.I.I.I.I.I.!.I.I.I.I.I.I.I.I.I.I.!.'.!.I.I.!.'..X&X7X&X.X'.!.#.#.#.#.I.I.I.I.I.I.I.I.I.q.#.#.#.q.'.'. .                                                                                    Q  .#.:.#.` d x       .XDXeXLX>X    W JXLX#.n LX=.    aXQ.      n _ I.A. .Q                                                                           ",
"                                             . .` #.:.`  . .: q.:._ C.<X Xn.C.C.Q.O.    P.@X2 2 3.8 : dX&X4.Q C.} d A.I.A. . .                                    n.:.:. . .$ $ $ ` 4.4.4.4.4.4.4.4.4.4.4.4.4.` $ $ $  . .:.:.n.                                                      ` A.I.A.I.!.!.I.!.I.A.n.A.I.I.I.I.I.!.I.I.I.I.I.I.I.I.I.I.!.'.!.I.I.!.'..X&X7X&X.X'.!.#.#.#.#.q.I.I.I.I.I.I.I.I.I.#.#.#.#.I.A.I.A.`                                                               D                 `  .#.:.#.` x d     : NXaXLX>X    _ LXcXaX&XVXLXj   $ cXeX      M n P.A. .`                           D                                               ",
"                                             . .` #.:.`  . .d _ A.P.A.G.LXDXJXJXLX X    3.LXaXaX<X4XaXjXC.I.G.G.j  .A.I.A. . .                                    :.:. .$ $ ` 4.4.4.4.4.I.!.'..X&X&X.X'.!.I.4.4.4.4.` $ $  .:.:.                                                    4.n.A.I.A.I.!.!.I.!.I.A.n.A.I.I.I.I.I.!.I.I.I.I.I.I.I.I.I.I.!.'.!.I.I.!.'..X&X7X&X.X'.!.q.#.#.#.#.I.I.I.I.I.I.I.I.I.#.#.#.#.I.A.I.A.n.4.                            6                           6     D                . .#.:.#.` w n.+   8.cXLX<XO   ` LXVXaXeXJXLXM   $ 7XDXaX`   p q.p I.A. . .                                                          6               ",
"                    D                 h.     . .` #.:.`  . . .w I.!.3.4.4XcXeXtXJXP.    3.LXjXjXjXdXLX.X:.8.'.c.: 3.A.I.A. . .                                    :. .$ 4.4.#.4.4.q.n.A.I.!.'..X&X&X.X'.!.I.A.n.q.:.4.4.4.$  .:.                                  6                .4.n.A.I.A.I.!.!.I.!.I.A.n.A.I.I.I.I.I.!.I.I.I.I.I.I.I.I.I.I.!.'.!.I.I.!.'..X&X7X&X.X'.!.I.#.#.#.#.I.I.I.I.I.I.I.I.I.q.#.#.#.q.A.I.A.n.4. .                                        6     6                             #. .#.:.#.` 2 Q.C.:.'.NX#XO   } LXVXdXdXjXzXJ   1 4XLXdX4X!.4.G.n.2 I.A. . .                                                D                         ",
"                                             . .` #.:.`  . .O.1 3.c.Q G.q.zXzXeXaX7X@X@X4XdXtXtXtXNX7X8.n.Q P.Q n 4.A.I.A. . .M           hX                       .$ :.#.`  .#.4.q.n.A.I.!.'..X&X&X.X'.!.I.A.n.q.:.4.A.I.4.$  .                            h.                     .4.n.A.I.A.I.!.!.I.!.I.A.n.A.I.I.I.I.A.n.n.n.n.n.n.n.n.n.n.n.n.n.n.n.n.n.n.n.n.n.n.n.n.n.n.n.n.n.n.A.I.I.I.I.I.I.I.I.I.#.#.#.#.A.I.A.n.4. .                                                        6                   #. .#.:.#.` 8 c.#XQ.A.LXp     x x 8 p w  X_.    C.LXG. XaXc..X.X:.8 I.A. . .                                                                          ",
"                                             . .` #.:.`  . .#.#.w G. X'.C.q.dXVXtXdXNXNXjXeXtXaXVXeX8.G.'..X8.= 4.4.A.I.A. . .P                     D             $ #.:.#.`  .#.4.q.n.A.I.!.'..X&X&X.X'.!.I.A.n.q.:.4.A.I.A. .$             6               6                      .4.n.A.I.A.I.!.!.A.n.n.n.n.n.n.n.n.n.4.` M M n M M n M M n n M n M M M M M M M M n M M n M M n M ` 4.n.n.n.n.n.n.n.n.n.A.q.#.#.A.I.A.n.4. .                                                                             . .#.:.#._ 1 q.!.P.C.NX2               G._.    !.'.   XaXq.!.Q.#.p P.A. . .              F                                                           ",
"                                             . .` #.:.`  . .#.4.p W Q.!.M } C.&XjXNXcXjXzXcXNXaX.X4.` 3._.G.j Q 4.4.A.I.A. . .Q                                   M #.:.#.`  .#.4.q.n.A.I.!.'..X&X&X.X'.!.I.A.n.q.:.4.A.I.A. .M                                                    .4.n.A.n.n.n.n.n.4.` M n M M M M M M M M x x j x x x j x x x x x j x x x x j j x j x x x j x j x M M M M M M M M M n ` 4.n.n.n.n.n.A.n.4. .    6                                                                        . .#.:.#._ : q.3._ n.<X XC.C.n.Q.O.    P.#X2 2 3.8 : aX&X4.Q C.} x P.A. . .            D p.D                                                         ",
"                                          M  . .` #.:.`  . .#.4.3.: #.q. .#.` :.P.#X4X<X>X&X XA.q.#.W _ q.Q p :.4.4.A.I.A.4. .`                                   P #.:.#.`  .#.4.q.n.A.I.!.'..X&X&X.X'.!.I.A.n.q.:.4.A.I.A. .P                                                    .4.n.4.Q M M M M M M x j x #.4.A.!..X&X&X#X&X&X&X&X&X&X&X&X&X&X&X#X&X&X&X&X&X#X&X&X&X&X&X#X&X&X&X&X&X.X!.A.4.#.x x j M M M M M M Q 4.n.4. .                    6           6                                            . .#.:.#.` p _ A.P.A.G.LXJXJXJXLX X    3.LXaXdX<X4XaXjXC.Q.G.G.j :.I.A. . .          F p.a.p.F                                                       ",
"                                          P  . .` #.:.`  . .#.4.4.3.: O._.O._ Q M ` _ 8.c.#.P O.j W c.=.Q 2 4.:.4.4.A.I.A.q. . .                                  Q #.:.#.`  .#.4.q.n.A.I.!.'..X&X&X.X'.!.I.A.n.q.:.4.A.I.A. .Q                                                    .Q   #.4.A.!.&X&X&X&X&X&X&X&X&X.X!.'..X'.!.!.!.!.!.!.!.!.!.!.'..X'.!.'..X&X<XdXdXcXVXcXdXdX<X&X.X'.!.!.!.!..X&X&X&X&X&X&X&X.X!.A.4.#.  Q  .        h.                                                              D    . .#.:.#.` ` w I.Q.3.4.4XcXtXtXJXI.    3.LXjXjXjXdXLX.X:.4.'.c.: A.I.A. . .            D p.D                                                         ",
"                                          Q  . .` #.:.`  . .#.4.4.4.q.2 W =.c.Q Q  . .` 4.!._ 4.P 3.n.J d 4.4.4.:.4.4.A.I.A. . .                                  ` #.:.#.`  .#.4.q.n.A.I.!.'..X&X&X.X'.!.I.A.n.q.:.4.A.I.A. .`                                                     Q 4.q.n.A.n.!.'.!.A.n.q.n.A.I.!.!.'..X'.!.!.!.!.!.!.!.!.!.!.'..X'.!.'..X&X<XaXdXcXVXcXjXaX>X&X.X'.!.!.!.!.u.y.y.y.y.u.!.I.!.I.A.n.q.4.Q                                         6                                      . .#.:.#.`  .: 3.q._ G.q.zXzXeXaX7X#X@X<XaXtXtXtXNX7X8.n.Q P.W n A.I.A. . .              F         6                                                 ",
"                                          `  . .` #.:.`  . .#.4.4.4.q.n.J d  .3.I.c.Q.=.4. Xn.G.q./ 8 } 8.4.4.4.:.4.4.A.I.A. . .                                   .#.:.#.`  .#.4.q.n.A.I.!.'..X&X&X.X'.!.I.A.n.q.:.4.A.I.A. . .                                                  Q 4.q.n.A.n.!.'.!.A.n.q.n.A.I.!.!.!.'..X'.!.!.!.!.!.!.!.!.!.!.'..X'.!.!.'..X&X>XaXjXcXVXcXdXaX<X&X.X'.!.!.!.!.u.y.y.y.y.u.!.I.!.I.A.n.q.4.Q                                                                              . .#.:.#.`  .` w A. X'.C.q.dXNXtXdXNXVXjXeXtXdXVX7X8.G.'. X8.= 3.A.I.A. . .                                                                          ",
"h.                                         . . .` #.:.`  . .#.4.4.4.q.n.A.I.P w x _ O.:.=.} _ d 2 ` A.n.q.4.4.4.:.4.4.A.I.A. . .                                  #.#.:.#.`  .#.4.q.n.A.I.!.'..X&X&X.X'.!.I.A.n.q.:.4.A.I.A. . .                                                Q 4.q.n.A.n.A.!.'.!.A.n.q.n.A.I.!.!.'..X'.!.!.!.!.!.!.!.!.!.!.!.'..X'.!.!.'..X&X<XaXjXcXVXcXjXaX<X&X.X'.!.!.!.!.u.y.y.y.y.u.!.!.I.!.I.A.n.q.4.Q                                                                            . .#.:.#.`  .O.p Q Q.!.M } A.&XjXNXzXjXjXcXNXaX.X4.} 3._.A.j _ 4.A.I.A. . .                                                                          ",
"  D                                        . . .` #.:.`  . .#.4.4.4.q.n.A.I.!.4.4.4.q.n.n.q.4.3.q.I.A.n.q.4.4.4.:.4.4.A.I.A. . .                                  #.#.:.#.`  .#.4.q.n.A.I.!.'..X&X&X.X'.!.I.A.n.q.:.4.A.I.A. . .                      hX                      Q 4.q.n.A.A.n.!.'.!.A.n.q.n.A.I.!.!.!.'..X'.!.!.!.!.!.!.!.!.!.!.!.!.'..X'.!.'..X&X<XtXjXcXVXcXjXtX<X&X.X'.!.!.!.!.!.u.y.y.y.y.u.!.!.I.!.I.A.n.q.4.Q                                                                          . .#.:.#.`  .#.4.: #.q.o.#.` =.I.@X4X4X>X#X.XA.q.#.W ` q.W p =.4.A.I.A. . .                                  D                   h.                  ",
"                                           . . .` #.:.`  . .#.4.4.4.q.n.A.I.!.'.4.4.q.n.n.q.4.4.!.I.A.n.q.4.4.4.:.4.4.A.I.A. . .                                   .#.:.#.`  .#.4.q.n.A.I.!.'..X&X&X.X'.!.I.A.n.q.:.4.A.I.A. . .                                            Q 4.q.n.A.A.n.!.'.!.A.A.n.q.n.A.I.!.!.'..X'.!.!.!.!.!.!.!.!.!.!.!.!.!.'..X'.!.'..X&X<XaXdXcXVXcXjXaX>X&X.X'.!.!.!.!.!.!.u.y.y.y.y.u.!.!.I.!.I.A.n.q.4.Q                     6                                                  .#.:.#.`  .#.:.4.4.:  .'.O._ W M ` ` 8.c.#.P O.x W n.=.Q 2 4.:.4.A.I.A. . .                      6                                                   ",
"                                           . . .` #.:.`  . .#.4.4.4.q.n.A.I.!.'.4.4.q.n.n.q.4.q.!.I.A.n.q.4.4.4.:.4.4.A.I.A. . .                                   .#.:.#.`  .#.4.q.n.A.I.!.'..X&X&X.X'.!.I.A.n.q.:.4.A.I.A.q. .                                          Q 4.q.n.A.A.n.A.!.'.!.A.n.q.n.A.I.!.!.!.'..X'.!.!.!.!.!.!.!.!.!.!.!.!.!.'..X'.!.!.'..X&X<XaXjXcXVXcXjXtX<X&X.X'.!.!.!.!.!.u.y.y.y.y.u.!.!.!.I.!.I.A.n.q.4.Q                                                                      .#.:.#.`  .#.4.4.4.8.2 W =.c._ Q  . .` 8.!.Q 4.J 3.n.J d 4.4.:.4.A.I.A. . .                                                                          ",
"                              D            . . .` #.:.`  . .#.4.4.4.q.n.A.I.!.'..X4.q.n.n.q.4.'.!.I.A.n.q.4.4.4.:.4.4.A.I.A. . .                          D        .#.:.#.`  .#.4.q.n.A.I.!.'..X&X&X.X'.!.I.A.n.q.:.4.q.A.I.A. .                                        Q 4.q.n.A.A.n.A.!.'.!.A.A.n.q.n.A.I.!.!.!.'..X'.!.!.!.!.!.!.!.!.!.!.!.!.!.'..X'.!.!.'..X&X>XtXjXcXVXcXjXaX<X&X.X'.!.!.!.!.!.!.u.y.y.y.y.u.!.!.I.!.!.I.A.n.q.4.Q       hX                                                        M  .#.:.#.`  .#.4.4.4.q.n.J j  .3.I.n.I.:.4. XC.G.c.Q 8 } q.4.4.:.4.A.I.A.q. .M                               D         6                               ",
"                                           . . .` #.:.`  . .#.4.4.4.q.n.A.I.!.'..X4.q.n.n.q.q.'.!.I.A.n.q.4.4.4.:.4.4.A.I.A. . .                                   .#.:.#.`  .#.4.q.n.A.I.!.'..X&X&X.X'.!.I.A.n.q.:.4.4.A.I.A. .                              6       Q 4.q.n.A.A.A.n.!.'.!.A.A.n.q.n.A.I.!.!.!.'..X'.!.!.!.!.!.!.!.!.!.!.!.!.!.!.'..X'.!.!.'..X&X>XaXjXcXVXcXjXtX<X&X.X'.!.!.!.!.!.!.!.u.y.y.y.y.u.!.!.I.!.!.I.A.n.q.4.Q                                   6                           P  .#.:.#.`  .#.4.4.4.q.n.A.I.J 8 x _ O.:.:.} Q d 2 ` A.n.q.4.4.:.4.q.A.I.A. .P                                                                         ",
"            6                              . . .` #.:.`  . .#.4.4.4.q.n.A.I.!.'..X&Xq.n.n.q..X'.!.I.A.n.q.4.4.4.:.4.4.A.I.A. . .                          D        .#.:.#.`  .#.4.q.n.A.I.!.'..X&X&X.X'.!.I.A.n.q.:.4.4.A.I.A. .                                    Q 4.q.n.A.A.A.n.A.!.'.A.A.A.n.q.n.A.I.!.!.!.'..X'.!.!.!.!.!.!.!.!.!.!.!.!.!.!.'..X'.!.!.'..X&X<XaXdXcXVXcXjXaX>X&X.X'.!.!.!.!.!.!.!.u.y.y.y.y.u.!.!.!.I.!.!.I.A.n.q.4.Q                                                         D   Q  .#.:.#.`  .#.4.4.4.q.n.A.I.!.4.4.4.q.n.n.q.4.4.q.I.A.n.q.4.4.:.4.4.A.I.A. .Q   6                                                       6             ",
"                                           . . .` :.`  . .#.:.4.4.4.q.n.A.I.!.'..X&Xq.n.n.q..X'.!.I.A.n.q.4.4.4.:.4.4.A.I.A. . .                                   .#.:.#.`  .#.4.q.n.A.I.!.'..X&X&X.X'.!.I.A.n.q.:.4.4.A.I.A. .                                  Q 4.q.n.A.A.A.n.A.!.'.!.A.A.n.q.n.A.I.!.!.!.!.'..X'.!.!.!.!.!.!.!.!.!.!.!.!.!.!.'..X'.!.!.!.'..X&X>XaXjXcXVXcXdXaX<X&X.X'.!.!.!.!.!.!.!.u.y.y.y.y.u.!.!.!.I.!.!.I.A.n.q.4.Q       D                                                   `  .#.:.#.`  .#.4.4.4.q.n.A.I.!.'.4.4.q.n.n.q.4.4.!.I.A.n.q.4.4.:.4.4.A.I.A. .`                                                                         ",
"                                           . .` #.:.`  . .#.4.4.4.4.q.n.A.I.!.'..X&X<Xn.n.&X.X'.!.I.A.n.q.4.4.4.:.4.4.A.I.A. . .                                   .#.:.#.`  .#.4.q.n.A.I.!.'..X&X&X.X'.!.I.A.n.q.:.4.4.A.I.A. .                              6 Q 4.q.n.A.A.A.n.A.!.'.!.A.A.A.n.q.n.A.I.!.!.!.'..X'.!.!.!.!.!.!.!.!.!.!.!.!.!.!.!.!.'..X'.!.!.'..X&X<XtXjXcXVXcXjXtX<X&X.X'.!.!.!.!.!.!.!.!.u.y.y.y.y.u.!.!.!.I.!.!.I.A.n.q.4.Q                                                          . .#.:.#.`  .#.4.4.4.q.n.A.I.!.'.4.4.q.n.n.q.4.q.!.I.A.n.q.4.4.:.4.4.A.I.A. . .                                                                        ",
"                      D                    . .` #.:.`  . .#.4.4.4.4.q.n.A.I.!.'..X&X<X7X<X&X.X'.!.I.A.n.q.4.4.4.:.4.4.A.I.A. . .                                   .#.:.#.`  .#.4.q.n.A.I.!.'..X&X&X.X'.!.I.A.n.q.4.:.4.A.I.A. .                              Q 4.q.n.A.A.A.A.n.A.!.'.!.A.A.n.q.n.A.I.!.!.!.!.'..X'.!.!.!.!.!.!.!.!.!.!.!.!.!.!.!.!.'..X'.!.!.'..X&X<XaXjXcXVXcXjXaX<X&X.X'.!.!.!.!.!.!.!.!.u.y.y.y.y.u.!.!.!.!.I.!.!.I.A.n.q.4.Q                                                       #. .#.:.#.`  .#.4.4.4.q.n.A.I.!.'..X4.q.n.n.q.4.'.!.I.A.n.q.4.4.:.4.4.A.I.A. . .                                                                        ",
"                                           . .` #.:.`  . .#.4.4.4.4.q.n.A.I.!.'..X&X<X7X<X&X.X'.!.I.A.n.q.4.4.4.:.4.4.A.I.A. . .                                   .#.#.`  .#.:.4.q.n.A.I.!.'..X&X&X.X'.!.I.A.n.q.4.:.4.A.I.A. .                    6       Q 4.q.n.A.A.A.A.n.A.!.'.!.A.A.A.n.q.n.A.I.!.!.!.'..X'.!.!.!.!.!.!.!.!.!.!.!.!.!.!.!.!.!.'..X'.!.!.!.'..X&X<XaXjXcXVXcXjXaX<X&X.X'.!.!.!.!.!.!.!.!.u.y.y.y.y.u.!.!.!.!.I.!.!.I.A.n.q.4.Q                           hX              6         #. .#.:.#.`  .#.4.4.4.q.n.A.I.!.'..X4.q.n.n.q.q.'.!.I.A.n.q.4.4.:.4.4.A.I.A. . .                                                                        ",
"                                           . .` #.:.`  . .#.4.4.4.4.q.n.A.I.!.'..X&X<X7X<X&X.X'.!.I.A.n.q.4.4.4.:.4.4.A.I.A. . .                                  #.:.#.`  .#.4.4.q.n.A.I.!.'..X&X&X.X'.!.I.A.n.q.4.:.4.A.I.A. .                          Q 4.q.n.A.A.A.A.n.A.!.'.!.A.A.A.n.q.n.A.I.!.!.!.!.'..X'.!.!.!.!.!.!.!.!.!.!.!.!.!.!.!.!.!.'..X'.!.!.!.'..X&X<XtXjXcXVXcXjXtX<X&X.X'.!.!.!.!.!.!.!.!.!.u.y.y.y.y.u.!.!.!.!.I.!.!.I.A.n.q.4.Q                                                    . .#.:.#.`  .#.4.4.4.q.n.A.I.!.'..X&Xq.n.n.q..X'.!.I.A.n.q.4.4.:.4.4.A.I.A. . .                                                                        ",
"              hX                           . .` #.:.`  . .#.4.4.4.4.q.n.A.I.!.'..X&X<X7X<X&X.X'.!.I.A.n.q.4.4.4.:.4.4.A.I.A. . .                                M #.:.#.`  .#.4.4.q.n.A.I.!.'..X&X&X.X'.!.I.A.n.q.4.:.4.A.I.A. .M                       Q 4.q.n.A.A.A.A.n.A.A.!.'.!.A.A.A.n.q.n.A.I.!.!.!.!.'..X'.!.!.!.!.!.!.!.!.!.!.!.!.!.!.!.!.!.'..X'.!.!.!.'..X&X<XaXdXcXVXcXjXtX<X&X.X'.!.!.!.!.!.!.!.!.!.u.y.y.y.y.u.!.!.!.!.!.I.!.!.I.A.n.q.4.Q                                   D              . .#.:.#.`  .#.4.4.4.q.n.A.I.!.'..X&Xq.n.n.q..X'.!.I.A.n.q.4.4.:.4.4.A.I.A. . .                                      6         D                       ",
"                      D                 M  . .` #.:.`  . .#.4.4.4.4.q.n.A.I.!.'..X&X<X7X<X&X.X'.!.I.A.n.q.4.4.4.:.4.4.A.I.A. . .                                P #.:.#.`  .#.4.4.q.n.A.I.!.'..X&X&X.X'.!.I.A.n.q.4.:.4.A.I.A. .P                     Q 4.q.n.A.A.A.A.A.n.A.!.'.!.A.A.A.n.q.n.A.I.!.!.!.!.'..X'.!.!.!.!.!.!.!.!.!.!.!.!.!.!.!.!.!.!.'..X'.!.!.!.'..X#X>XaXjXcXVXcXjXaX<X&X.X'.!.!.!.!.!.!.!.!.!.!.u.y.y.y.y.u.!.!.!.!.!.I.!.!.I.A.n.q.4.Q                                                . .#.:.#.`  .#.4.4.4.q.n.A.I.!.'..X&X<Xn.n.&X.X'.!.I.A.n.q.4.4.:.4.4.A.I.A. . .                                                  6                     ",
"                                        P  . .` #.:.`  . .#.4.4.4.4.q.n.A.I.!.'..X&X<X#.#.#..X'.!.I.A.n.q.4.4.4.:.4.4.A.I.A. . .    h.      D                   Q #.:.#.`  .#.4.4.q.n.A.I.!.'..X&X&X.X'.!.I.A.n.q.4.:.4.A.I.A. .Q                   Q 4.q.n.A.A.A.A.A.n.A.!.'.!.A.A.A.A.n.q.n.A.I.!.!.!.!.'..X'.!.!.!.!.!.!.!.!.!.!.!.!.!.!.!.!.!.!.'..X'.!.!.!.!.'..X&X<XaXdXcXVXcXjXaX<X&X.X'.!.y.y.y.y.y.!.!.!.!.u.y.y.y.y.u.!.!.!.!.I.!.!.!.I.A.n.q.4.Q             6                                . .#.:.#.`  .#.4.4.4.q.n.A.I.!.'..X&X<X7X<X&X.X#.#.#.A.n.q.4.4.:.4.4.A.I.A. . .                  D                                                     ",
"                      6                 Q  . .` #.:.`  . .#.4.4.4.4.q.n.A.I.!.'..X&X#.C C C #.'.!.I.A.n.q.4.4.4.:.4.4.A.I.A. . .                                ` #.:.#.`  .#.4.4.q.n.A.I.!.'..X&X&X.X'.!.I.A.n.q.4.:.4.A.I.A. .`                 Q 4.q.n.A.A.A.A.A.n.A.A.!.'.!.A.A.A.n.q.n.A.I.!.!.!.!.!.'..X'.!.!.!.!.!.!.!.!.!.!.!.!.!.!.!.!.!.!.'..X'.!.!.!.!.'..X&X<XtXjXcXVXcXjXtX<X&X.X'.!.u.y.y.y.y.u.!.!.!.u.y.y.y.y.u.!.!.!.!.!.I.!.!.!.I.A.n.q.4.Q                                            . .#.:.#.`  .#.4.4.4.q.n.A.I.!.'..X&X<X7X<X&X#.t.t.t.#.n.q.4.4.:.4.4.A.I.A. . .                                                                        ",
"                                        `  . .` #.:.`  . .#.4.4.4.4.q.n.A.I.!.'..X&X#.C C C #.'.!.I.A.n.q.4.4.4.:.4.4.A.I.A. . .                                 .#.:.#.`  .#.4.4.q.n.A.I.!.'..X&X&X.X'.!.I.A.n.q.4.:.4.A.I.A. . .              Q 4.q.n.A.A.A.A.A.n.A.A.!.'.!.A.A.A.A.n.q.n.A.I.!.!.!.!.'..X'.!.!.!.!.!.!.!.!.!.!.!.!.!.!.!.!.!.!.!.!.'..X'.!.!.!.'..X&X<XaXjXcXVXcXjXaX<X&X.X'.!.!.y.y.y.y.y.!.!.!.!.u.y.y.y.y.u.!.!.!.!.!.I.!.!.!.I.A.n.q.4.Q                                          . .#.:.#.`  .#.4.4.4.q.n.A.I.!.'..X&X<X7X<X&X#.t.t.t.#.n.q.4.4.:.4.4.A.I.A. . .                                                                        ",
"                                         . . .` #.:.`  . .#.4.4.4.4.q.n.A.I.!.'..X&X#.#.#.#.#.'.!.I.A.n.q.4.4.4.:.4.4.A.I.A. . .                  D             #.#.:.#.`  .#.4.4.q.n.A.I.!.'..X&X&X.X'.!.I.A.n.q.4.:.4.A.I.A. . .            Q 4.q.n.A.A.A.A.A.A.n.A.!.'.!.A.A.A.A.n.q.n.A.I.!.!.!.!.!.'..X'.!.!.!.!.!.!.!.!.!.!.!.!.!.!.!.!.!.!.!.!.'..X'.!.!.!.'..X&X>XaXjXcXVXcXjXtX<X&X.X'.!.!.!.!.!.!.!.!.!.!.!.!.u.y.y.y.y.u.!.!.!.!.!.I.!.!.!.I.A.n.q.4.Q                                        . .#.:.#.`  .#.4.4.4.q.n.A.I.!.'..X&X<X7X<X&X#.#.#.#.#.n.q.4.4.:.4.4.A.I.A. . .                                                                        ",
"                                         . . .` #.:.`  . .#.4.4.4.4.q.n.A.I.!.'..X&X#.C C C #.'.!.I.A.n.q.4.4.4.:.4.4.A.I.A. . .                  6             #.#.:.#.`  .#.4.4.q.n.A.I.!.'..X&X&X.X'.!.I.A.n.q.4.:.4.A.I.A. . .          Q 4.q.n.A.A.A.A.A.A.n.A.A.!.'.!.A.A.A.A.n.q.n.A.I.!.!.!.!.'..X'.!.!.!.!.!.!.!.!.!.!.!.!.!.!.!.!.!.!.!.!.!._..X'.!.!.!.!.'..X&X<XaXdXcXVXcXjXaX>X&X.X'.!.!.!.!.!.!.!.!.!.!.!.u.y.y.y.y.u.!.!.!.!.!.!.I.!.!.!.I.A.n.q.4.Q                                      . .#.:.#.`  .#.4.4.4.q.n.A.I.!.'..X&X<X7X<X&X#.t.t.t.#.n.q.4.4.:.4.4.A.I.A. . .                                                                        ",
"                                         . . .` #.:.`  . .#.4.4.4.4.q.n.A.P.!.'..X&X#.C C C #.'.!.I.A.n.q.3.4.4.:.4.4.A.I.A. . .                                 .#.:.#.` } #.4.4.q.n.A.I.Q.'..X&X&X.X'.!.P.A.n.q.4.:.4.A.P.A. . .        W 4.q.n.A.A.A.A.C.A.n.A.A.!._.!.A.A.A.A.c.q.n.A.I.!.Q.!.!.!._..X'.!.Q.!.!.Q.Q.!.!.!.!.!.!.!.!.!.!.!.!.!.!.!._..X'.!.!.!.!.'..X&X<XaXjXcXVXcXjXaX<X&X.X'.!.!.!.!.!.!.!.!.!.!.Q.!.u.y.y.y.y.u.!.!.!.!.!.!.I.!.Q.!.I.A.n.q.4.Q                                    . .#.:.#.`  .#.4.4.4.q.n.C.I.!.'..X&X>X7X<X&XO.t.t.t.#.n.q.4.3.4.4.4.A.I.A. . .                                                                        ",
"                                         . . .` #.:.`  . .#.4.4.4.4.q.LXLXLXJXLXLXLXLXJXLXLXJXLXLXLXLXJXLXLXJXLXLXJXLXLXJXLXLXLXLXJXLXLXJXLXLXLXLXLXLXJXLXLXJXLXLXLXLXJXLXLXJXLXLXLXLXLXLXLXJXLXLXLXLXJXLXLXJXLXLXLXLXJXLXLXJXLXLXLXLXJXLXLXJXLXLXLXLXJXLXLXJXLXLXLXLXLXLXJXLXLXLXLXLXLXLXJXLXLXLXLXJXLXLXLXLXJXLXLXLXLXLXJXLXLXJXLXLXLXLXLXJXJXLXLXLXLXLXLXLXJXLXLXJXJXLXJXJXLXLXJXLXJXJXLXJXJXLXLXLXJXLXJXJXLXLXLXLXLXLXLXLXJXJXLXLXLXLXLXJXJXLXJXLXLXLXLXLXJXLXLXJXJXLXJXLXLXLXJXLXJXLXLXLXLXLXLXLXJXLXJXJXLXLXJXLXLXLXLXLXJXLXLXJXLXLXLXLXLXLXLXLXLXLXLXLXJXLXLXLXLXLXJXLXLXI.A. . .                                                                        ",
"                                         . . .` #.:.`  . .#.4.4.4.4.q.LXJXLXLXLXJXJXLXLXJXLXLXLXJXJXLXLXJXLXLXLXLXLXLXJXLXLXJXLXLXLXLXLXLXLXJXLXJXJXLXLXJXLXLXLXJXJXLXLXJXLXLXLXJXJXLXLXJXLXLXLXJXJXLXLXJXLXLXLXJXJXLXLXJXLXLXLXJXJXLXLXJXLXLXLXJXJXLXLXJXLXLXLXLXJXJXLXLXLXLXJXJXLXLXLXLXLXLXJXJXLXLXLXJXLXLXLXLXLXJXLXLXLXLXJXLXLXJXLXJXLXLXLXLXLXJXLXLXJXLXLXLXLXLXLXLXLXLXJXLXJXLXLXJXLXLXLXLXJXLXJXLXLXLXLXLXJXJXLXJXJXLXLXLXLXJXLXJXLXLXLXLXLXJXLXLXJXLXLXJXLXLXLXLXLXLXJXLXJXLXLXLXJXJXLXLXJXLXJXLXLXLXLXLXLXLXJXJXJXLXLXJXLXLXLXLXJXJXLXJXLXJXLXLXJXLXLXLXJXJXLXLXLXLXJXI.A. . .M                                                                       ",
"                                         . . .` #.:.`  . .#.4.4.4.4.q.cX7X7X7X7X7X7X7X7X7X7X7X7X7X7X7X7X7X7X7X7X4X7X7X7X7X7X7X7X4X7X7X7X7X7X7X7X7X7X7X7X7X7X7X7X7X7X7X7X7X7X7X7X7X7X7X7X7X7X7X7X7X7X7X7X7X7X7X7X7X7X7X7X7X7X7X7X7X7X7X7X7X7X7X7X7X7X7X7X7X7X7X7X7X7X7X7X4X7X7X7X7X7X7X7X7X7X7X7X4X7X7X7X7X7X7X7X7X7X7X7X4X7X7X7X7X7X7X7X7X7X7X7X4X7X7X7X7X7X7X7X7X7X7X7X4X7X7X7X7X7X7X7X7X7X7X7X7X7X7X7X7X7X7X7X7X7X7X7X7X7X7X7X7X7X7X7X7X7X7X7X4X7X7X7X7X7X7X7X7X7X7X7X4X7X7X7X7X7X7X7X7X7X7X7X7X7X7X7X7X7X7X7X7X7X7X7X7X7X7X7X7X7X7X7X7X7X7X7X7X7X7X7X7X7X7X7X7X7X7X7X4X7X7XcXI.A. . .P                                                                       ",
"                                         . . .` #.:.`  . .#.4.4.4.4.q.cX7X7X7X7X7X7X7X7X7X7X7X7X7X7X7X7X7X7X7X7X7X7X7X7X7X7X7X7X7X7X7X7X7X7X7X7X7X7X7X7X7X7X7X7X7X7X7X7X7X7X7X7X7X7X7X7X7X7X7X7X7X7X7X7X7X7X7X7X7X7X7X7X7X7X7X7X7X7X7X7X7X7X7X7X7X7X7X7X7X7X7X7X7X7X7X7X7X7X7X7X7X7X7X7X7X7X7X7X7X7X7X7X7X7X7X7X7X7X7X7X7X7X7X7X7X7X7X7X7X7X7X7X7X7X7X7X7X7X7X7X7X7X7X7X7X7X7X7X7X7X7X7X7X7X7X7X7X7X7X7X7X7X7X7X7X7X7X7X7X7X7X7X7X7X7X7X7X7X7X7X7X7X7X7X7X7X7X7X7X7X7X7X7X7X7X7X7X7X7X7X7X7X7X7X7X7X7X7X7X7X7X7X7X7X7X7X7X7X7X7X7X7X7X7X7X7X7X7X7X7X7X7X7X7X7X7X7X7X7X7X7X7X7XcXI.A. . .Q             6                                                         ",
"                                         . . .` #.:.`  . .#.4.4.4.4.q.A.A.A.A.A.A.A.A.A.A.A.A.A.A.A.A.A.A.A.A.A.A.A.A.A.A.A.A.A.A.A.A.A.A.A.A.A.A.A.A.A.A.A.A.A.A.A.A.A.A.A.A.A.A.A.A.A.A.A.A.A.A.A.A.A.A.A.A.A.A.A.A.A.A.A.A.A.A.A.A.A.A.A.A.A.A.A.A.A.A.A.A.A.A.A.A.A.A.A.A.A.A.A.A.A.A.A.A.A.A.A.A.A.A.A.A.A.A.A.A.A.A.A.A.A.A.A.A.A.A.A.A.A.A.A.A.A.A.A.A.A.A.A.A.A.A.A.A.A.A.A.A.A.A.A.A.A.A.A.A.A.A.A.A.A.A.A.A.A.A.A.A.A.A.A.A.A.A.A.A.A.A.A.A.A.A.A.A.A.A.A.A.A.A.A.A.A.A.A.A.A.A.A.A.A.A.A.A.A.A.A.A.A.A.A.A.A.A.A.A.A.A.A.A.A.A.A.A.A.A.A.A.A.A.A.A.A.A.A.A.A.A.A.A.A.I.A. . .`                                                                       ",
"                                         . . .` #.:.`  . .#.4.4.4.4.q.n.A.I.<X'. . . . . . . . . . . .!..X!. . . . . . . . . . . .!..X!. . . . . . . . . . . .!..X!. . . . . . . . . . . .!..X!. . . . . . . . . . . .!..X!. . . . . . . . . . . .!..X!. . . . . . . . . . . .!..X!. . . . . . . . . . . .!..X!. . . . . . . . . . . .!..X!. . . . . . . . . . . .!..X!. . . . . . . . . . . .!..X!. . . . . . . . . . . .!..X!. . . . . . . . . . . .!..X!. . . . . . . . . . . .!..X!. . . . . . . . . . . .!..X!. . . . . . . . . . . .!..X!. . . . . . . . . . . .'.<X4.4.A.I.A. . . .            h.                                                        ",
"                                         . . .` #.:.`  . .#.4.4.4.4.q.n.A.I.cX<X .P P J P P P J P P  .!.<X!. .J P P P J P P P J  .!.<XQ. .P P J P P P J P P  .!.<X!. .J P P P J P P P J  .!.<X!. .P P J P P P J P P  .!.<X!. .J P P P J P P P J  .!.<X!. .P P L P P P P P P  .!.<X!. .P P P P P P P P P  .!.<X!. .P P P P P P P J P  .!.<X!. .P P P P P J P P P  .!.<X!. .P P P J P P P P P  .!.<X!. .P J P P P P P J P  .!.<X!. .J P P P P L P P P  .!.<X!. .P P P L P P P P P  .!.<X!. .P L P P P P P J P  .!.<X!. .J P P P P J P P P  .!.<X!. .P P P J P P P P P  .<XcX4.4.A.I.A.q. . .                    D                                                 ",
"                                         . . .` #.:.`  . .#.4.4.4.4.q.n.A.I.cX<X . . . . . . . . . . .Q.<X!. . . . . . . . . . . .!.<XQ. . . . . . . . . . . .Q.<X!. . . . . . . . . . . .!.<XQ. . . . . . . . . . . .Q.<X!. . . . . . . . . . . .!.<XQ. . . . . . . . . . . .!.<X!. . . . . . . . . . . .!.<X!. . . . . . . . . . . .!.<X!. . . . . . . . . . . .!.<XQ. . . . . . . . . . . .!.<X!. . . . . . . . . . . .!.<X!. . . . . . . . . . . .!.<XQ. . . . . . . . . . . .!.<X!. . . . . . . . . . . .!.<X!. . . . . . . . . . . .!.<X!. . . . . . . . . . . .<XcX4.4.q.A.I.A. . .                                                      hX              ",
"                          h.             . . .` #.:.`  . .#.4.4.4.4.q.n.A.I.cX<XLXLXLXKXLXLXLXLXLXLXLX<X<XLXLXKXLXLXLXKXLXLXLXLXLX<X<XLXLXLXLXKXLXLXLXLXLXLXLX<X<XLXLXKXLXLXLXKXLXLXLXKXLX<X<XLXLXLXLXKXLXLXLXLXLXLXLX<X<XLXLXLXLXLXLXKXLXLXLXLXLX<X<XLXLXLXLXLXLXLXLXLXLXLXLX>X<XLXLXLXLXLXLXLXLXLXLXLXLX<X>XLXLXLXLXLXLXLXLXLXLXLXLX<X<XLXLXLXLXLXLXLXLXLXLXLXLX<X<XLXLXLXLXLXLXLXLXLXLXLXLX<X>XLXLXLXLXLXLXLXLXLXLXLXLX<X<XLXLXLXLXLXLXLXLXLXKXLXLX<X<XLXLXLXLXLXKXLXLXLXLXLXLX>X<XLXLXLXKXLXLXLXLXLXLXKXLX<X<XLXLXLXKXLXLXLXLXLXLXLXLX<X<XLXLXLXLXLXLXLXLXLXLXLXLX<XcX4.4.4.A.I.A. . .                                                            D         ",
"                                         . .`  .#.:.`  . .#.4.4.4.4.q.n.A.I.cX<X<X<X<X<X<X<X<X<X<X>X<X<X<X<X<X<X<X<X<X<X<X<X<X<X<X<X<X<X<X<X<X<X<X<X<X<X<X>X<X<X<X<X<X<X<X<X<X<X<X<X<X<X<X<X<X<X<X<X<X<X<X<X<X<X<X>X<X<X<X<X<X<X<X<X<X<X<X<X<X<X<X<X<X<X<X>X<X<X>X<X>X<X>X<X<X<X<X<X>X<X>X<X>X<X>X<X<X>X<X<X<X<X>X<X>X<X>X<X<X>X<X<X<X<X<X<X>X<X>X<X<X>X<X<X>X<X<X<X<X<X>X<X<X>X<X<X>X<X<X<X>X<X<X<X<X>X<X<X>X<X<X<X>X<X<X<X<X<X<X<X>X<X<X<X>X<X>X<X<X<X<X<X>X<X<X<X>X<X>X<X<X>X<X<X<X<X<X<X>X<X>X<X<X>X<X<X<X<X<X<X<X<X>X<X<X<X<X<X>X<X<X<X<X<X>X<X<X>X<X<X>X<X<X<X>X<XcX4.4.4.A.I.A. . .                                                                      ",
"                                      M  . .`  .#.:.`  . .#.4.4.4.4.q.n.A.I.cX<X<X<X<X<X<X<X<X<X<X<X<X<X<X<X<X<X<X<X<X<X<X<X<X<X<X<X<X<X<X<X<X<X<X<X<X<X<X<X<X<X<X<X<X<X<X<X<X<X<X<X<X<X<X<X<X<X<X<X<X<X<X<X<X<X<X<X<X<X<X<X<X<X<X<X<X<X<X<X<X<X<X<X<X<X<X<X<X<X<X<X<X<X<X<X<X<X<X<X<X<X<X<X<X<X<X<X<X<X<X<X<X<X<X<X<X<X<X<X<X<X<X<X<X<X<X<X<X<X<X<X<X<X<X<X<X<X<X<X<X<X<X<X<X<X<X<X<X<X<X<X<X<X<X<X<X<X<X<X<X<X<X<X<X<X<X<X<X<X<X<X<X<X<X<X<X<X<X<X<X<X<X<X<X<X<X<X<X<X<X<X<X<X<X<X<X<X<X<X<X<X<X<X<X<X<X<X<X<X<X<X<X<X<X<X<X<X<X<X<X<X<X<X<X<X<X<X<X<X<X<X<X<X<X<X<X<XcX4.4.4.A.I.A. . .                                                                      ",
"                                      P  . .`  .#.:.`  . .#.4.4.4.4.q.n.A.I.cX<X<X<X<X<X<X<X<X<X<X<X<X<X<X<X<X<X<X<X<X<X<X<X<X<X<X<X<X<X<X<X<X<X<X<X<X<X<X<X<X<X<X<X<X<X<X<X<X<X<X<X<X<X<X<X<X<X<X<X<X<X<X<X<X<X<X<X<X<X<X<X<X<X<X<X<X<X<X<X<X<X<X<X<X<X<X<X<X<X<X<X<X<X<X<X<X<X<X<X<X<X<X<X<X<X<X<X<X<X<X<X<X<X<X<X<X<X<X<X<X<X<X<X<X<X<X<X<X<X<X<X<X<X<X<X<X<X<X<X<X<X<X<X<X<X<X<X<X<X<X<X<X<X<X<X<X<X<X<X<X<X<X<X<X<X<X<X<X<X<X<X<X<X<X<X<X<X<X<X<X<X<X<X<X<X<X<X<X<X<X<X<X<X<X<X<X<X<X<X<X<X<X<X<X<X<X<X<X<X<X<X<X<X<X<X<X<X<X<X<X<X<X<X<X<X<X<X<X<X<X<X<X<X<X<X<X<XcX4.4.4.A.I.A. . .    6                                                                 ",
"                                      Q  . .`  .#.:.`  . .#.4.4.4.4.q.n.A.I.cX<X<X<X<X<X<X<X<X<X<X<X<X<X<X<X<X<X<X<X<X<X<X<X<X<X<X<X<X<X<X<X<X<X<X<X<X<X<X<X<X>X<X<X<X<X<X<X<X<X<X>X<X<X>X<X<X>X<X>X<X<X>X<X<X>X<X>X<X<X>X<X<X>X<X>X<X<X>X<X<X>X<X<X<X<X<X<X<X<X<X<X<X<X<X<X<X<X<X<X<X<X<X<X<X<X<X<X<X<X<X<X<X<X<X<X<X<X<X<X<X<X<X<X<X<X<X<X<X<X<X<X<X<X<X<X<X<X<X<X<X<X<X<X<X<X<X<X<X<X<X<X<X<X<X<X<X<X<X>X<X>X<X<X>X<X<X>X<X<X>X<X<X>X<X<X>X<X<X>X<X>X<X>X<X>X<X<X<X<X<X<X<X<X<X<X<X<X<X<X>X<X<X<X<X<X<X<X<X<X<X<X<X<X<X<X<X<X<X<X<X<X<X<X<X<X<X<X<X<X<X<X<X<X<X<X<X<XcX4.4.4.A.I.A. . .                                                                      ",
"M M M M M M M M M M M M M M M M M M M `  . .` #.:.`  . .#.4.4.4.4.4.q.n.A.I.cXcXcXcXcXcXcXcXcXcXcXcXcXcXcXcXcXcXcXcXcXcXcXcXcXcXcXcXcXcXcXcXcXcXcXcXcXcXcXcXcXcXcXcXcXcXcXcXcXcXLXKXKXLXKXLXLXKXLXKXKXLXKXLXLXLXLXKXLXLXKXLXLXKXLXKXKXLXKXLXLXLX<X.XcXcXcXcXcXcXcXcXcXcXcXcXcXcXcXcXcXcXcXcXcXcXcXcXcXcXcXcXcXcXcXcXcXcXcXcXcXcXcXcXcXcXcXcXcXcXcXcXcXcXcXcXcXcXcXcXcXcXcXcXcXcXcXcXcXcXcXcXcXcXcX.X<XLXLXLXLXLXLXLXJXLXLXLXLXLXKXLXLXKXLXLXKXKXLXLXLXLXLXLXLXLXKXLXLXcXcXcXcXcXcXcXcXcXcXcXcXcXcXcXcXcXcXcXcXcXcXcXcXcXcXcXcXcXcXcXcXcXcXcXcXcXcXcXcXcXcXcXcXcXcXcXcXcXcX4.4.4.A.I.A. . .M M M M M M M M M M M M M M M M M M M M M M M M M M M M M M M M M M M ",
"M M M M M M M M M M M M M M M M M M M  . . .` #.:.`  . .#.4.4.4.4.4.q.n.A.cXjXjXjXjXjXjXjXjXjXjXjXjXjXjXjXjXjXjXjXjXjXjXjXjXjXjXjXjXjXjXjXjXjXjXjXjXjXjXjXjXjXjXjXjXjXjXjXjXjXjXKXKXKXKXKXKXKXKXLXKXKXKXKXKXKXKXKXKXKXKXKXKXKXKXLXKXKXKXKXKXKXKX'..XjXjXjXjXjXjXjXjXjXjXjXjXjXjXjXjXjXjXjXjXjXjXjXjXjXjXjXjXjXjXjXjXjXjXjXjXjXjXjXjXjXjXjXjXjXjXjXjXjXjXjXjXjXjXjXjXjXjXjXjXjXjXjXjXjXjXjXjXjXjXjX.X_.LXJXLXLXLXLXLXJXLXLXLXJXLXKXKXKXKXKXKXKXKXKXKXKXKXKXKXKXKXKXKXKXjXjXjXjXjXjXjXjXjXjXjXjXjXjXjXjXjXjXjXjXjXjXjXjXjXjXjXjXjXjXjXjXjXjXjXjXjXjXjXjXjXjXjXjXjXjXjXjXjXjXcX4.4.A.I.A. . .M M M M M M M M M M M M M M M M M M M M M M M M M M M M M M M M M M M ",
"M M M M M M M M M M M M M M M M M M M  . . .` #.:.`  . .#.4.4.4.4.4.q.n.cXjXjXjXjXjXjXjXjXjXjXjXjXjXjXjXjXjXjXjXjXjXjXjXjXjXjXjXjXjXjXjXjXjXjXjXjXjXjXjXjXjXjXjXjXjXjXjXjXjXjXLXKXKXKXKXKXKXKXKXKXKXKXKXKXKXKXKXKXKXKXKXKXKXKXKXKXKXKXKXKXKXKXKX!..XjXjXjXjXjXjXjXjXjXjXjXjXjXjXjXjXjXjXjXjXjXjXjXjXjXjXjXjXjXjXjXjXjXjXjXjXjXjXjXjXjXjXjXjXjXjXjXjXjXjXjXjXjXjXjXjXjXjXjXjXjXjXjXjXjXjXjXjXjXjXjX.X!.LXLXLXJXJXLXJXLXLXJXLXJXLXKXKXKXKXKXKXKXKXKXKXKXKXKXKXKXKXKXKXKXKXjXjXjXjXjXjXjXjXjXjXjXjXjXjXjXjXjXjXjXjXjXjXjXjXjXjXjXjXjXjXjXjXjXjXjXjXjXjXjXjXjXjXjXjXjXjXjXjXjXjXcX4.A.I.A. . .M M M M M P M M M M M M M M M M M M M M M M M M M M M M P M M M M M M ",
"M M M M M M M P M M M M M M M P M M M  . . .` #.:.`  . .#.4.4.4.4.4.q.cXjXjXjXjXjXjXjXjXjXjXjXjXjXjXjXjXjXjXjXjXjXjXjXjXjXjXjXjXjXjXjXjXjXjXjXjXjXjXjXjXjXjXjXjXjXjXjXjXjXjXjXLXKXKXKXKXKXKXKXKXKXKXKXKXKXKXKXKXKXKXKXKXKXKXKXKXKXKXKXKXKXLXKXKX!..XjXjXjXjXjXjXjXjXjXjXjXjXjXjXjXjXjXjXjXjXjXjXjXjXjXjXjXjXjXjXjXjXjXjXjXjXjXjXjXjXjXjXjXjXjXjXjXjXjXjXjXjXjXjXjXjXjXjXjXjXjXjXjXjXjXjXjXjXjXjXjX.X!.LXLXJXLXLXLXLXJXJXLXJXLXLXKXKXKXKXKXKXKXKXKXKXKXKXKXKXKXKXKXKXKXKXjXjXjXjXjXjXjXjXjXjXjXjXjXjXjXjXjXjXjXjXjXjXjXjXjXjXjXjXjXjXjXjXjXjXjXjXjXjXjXjXjXjXjXjXjXjXjXjXjXjXjXcXA.I.A. . .M M M P M M M M M M M M P M M M M M M M M M P M M P M M M M P M M P M ",
"M M M M P P M M P P P M M M M M P M M  . . .` #.:.`  . .#.4.4.4.4.4.cXjXjXjXjXjXjXjXjXjXjXjXjXjXjXjXjXjXjXjXjXjXjXjXjXjXjXjXjXjXjXjXjXjXjXjXjXjXjXjXjXjXjXjXjXjXjXjXjXjXjXjXKXKXKXKXKXKXKXKXKXKXKXKXKXKXKXKXKXKXKXKXKXKXKXKXKXKXKXKXKXKXKXLXLX4X!..XjXjXjXjXjXjXjXjXjXjXjXjXjXjXjXjXjXjXjXjXjXjXjXjXjXjXjXjXjXjXjXjXjXjXjXjXjXjXjXjXjXjXjXjXjXjXjXjXjXjXjXjXjXjXjXjXjXjXjXjXjXjXjXjXjXjXjXjXjXjXjX.X!.4XLXLXJXLXJXLXLXLXLXLXLXJXKXKXKXKXKXKXKXKXKXKXKXKXKXKXKXKXKXKXKXKXKXjXjXjXjXjXjXjXjXjXjXjXjXjXjXjXjXjXjXjXjXjXjXjXjXjXjXjXjXjXjXjXjXjXjXjXjXjXjXjXjXjXjXjXjXjXjXjXjXjXjXjXcXI.A. . .M M P M P P P P M M P M M M M P M M M M P P P P M M M P M M M M P P M ",
"P M M M M P M P M P P P P P M P M P M  . . .` #.:.`  . .#.4.4.4.4.cXjXjXjXjXjXjXjXjXjXjXjXjXjXjXjXjXjXjXjXjXjXjXjXjXjXjXjXjXjXjXjXjXjXjXjXjXjXjXjXjXjXjXjXjXjXjXjXjXjXjXjXjXKXKXKXKXKXKXKXKXKXKXKXKXKXKXKXKXKXKXKXKXKXKXKXKXKXKXKXKXKXKXKXKXKX_.!..XjXjXjXjXjXjXjXjXjXjXjXjXjXjXjXjXjXjXjXjXjXjXjXjXjXjXjXjXjXjXjXjXjXjXjXjXjXjXjXjXjXjXjXjXjXjXjXjXjXjXjXjXjXjXjXjXjXjXjXjXjXjXjXjXjXjXjXjXjXjXjX.X!.'.LXJXLXLXLXLXLXJXJXJXLXLXKXKXKXKXKXKXKXKXKXKXKXKXKXKXKXKXKXKXKXKXKXjXjXjXjXjXjXjXjXjXjXjXjXjXjXjXjXjXjXjXjXjXjXjXjXjXjXjXjXjXjXjXjXjXjXjXjXjXjXjXjXjXjXjXjXjXjXjXjXjXjXjXjXcXA. . .M M P P P P P P P M P M M P P M P M P M P P P P M P P P P M M P P P P ",
"P Q M P P P P P Q P P P P P Q P P P Q  . . .` #.:.`  . .#.4.4.4.cXjXjXjXjXjXjXjXjXjXjXjXjXjXjXjXjXjXjXjXjXjXjXjXjXjXjXjXjXjXjXjXjXjXjXjXjXjXjXjXjXjXjXjXjXjXjXjXjXjXjXjXjXKXKXKXKXKXKXKXKXKXKXKXKXKXKXKXKXKXKXKXKXKXKXKXKXKXKXKXKXKXKXKXKXKXLX'.!..XjXjXjXjXjXjXjXjXjXjXjXjXjXjXjXjXjXjXjXjXjXjXjXjXjXjXjXjXjXjXjXjXjXjXjXjXjXjXjXjXjXjXjXjXjXjXjXjXjXjXjXjXjXjXjXjXjXjXjXjXjXjXjXjXjXjXjXjXjXjXjX.X!.'.LXLXLXJXJXJXLXLXLXLXLXJXKXKXKXKXKXKXKXKXKXKXKXKXKXKXKXKXKXKXKXKXKXKXjXjXjXjXjXjXjXjXjXjXjXjXjXjXjXjXjXjXjXjXjXjXjXjXjXjXjXjXjXjXjXjXjXjXjXjXjXjXjXjXjXjXjXjXjXjXjXjXjXjXjXjXcX . .Q P P P P P P P P Q P Q P P Q Q Q M P P P Q Q P Q P M M P Q P Q Q P P ",
"P P P P P Q Q Q P Q P P P P Q P P P Q  . . .` #.:.`  . .#.4.4.cXjXjXjXjXjXjXjXjXjXjXjXjXjXjXjXjXjXjXjXjXjXjXjXjXjXjXjXjXjXjXjXjXjXjXjXjXjXjXjXjXjXjXjXjXjXjXjXjXjXjXjXjXjXKXKXKXKXKXKXKXKXKXKXKXKXKXKXKXKXKXKXKXKXKXKXKXKXKXKXKXKXKXKXKXKXLXLXQ..XjXjXjXjXjXjXjXjXjXjXjXjXjXjXjXjXjXjXjXjXjXjXjXjXjXjXjXjXjXjXjXjXjXjXjXjXjXjXjXjXjXjXjXjXjXjXjXjXjXjXjXjXjXjXjXjXjXjXjXjXjXjXjXjXjXjXjXjXjXjXjXjXjX.X!.LXLXLXJXLXLXJXLXLXLXLXJXKXKXKXKXKXKXKXKXKXKXKXKXKXKXKXKXKXKXKXKXKXKXjXjXjXjXjXjXjXjXjXjXjXjXjXjXjXjXjXjXjXjXjXjXjXjXjXjXjXjXjXjXjXjXjXjXjXjXjXjXjXjXjXjXjXjXjXjXjXjXjXjXjXjXjXcX .P P Q P P Q P Q P P P Q P P P Q P P P Q P Q P Q P Q Q P P P P Q P P Q ",
"P Q Q P P Q Q Q Q Q Q P Q Q Q Q Q Q P  . . .` #.:.`  . .#.4.cXjXjXjXjXjXjXjXjXjXjXjXjXjXjXjXjXjXjXjXjXjXjXjXjXjXjXjXjXjXjXjXjXjXjXjXjXjXjXjXjXjXjXjXjXjXjXjXjXjXjXjXjXjXKXKXKXKXKXKXKXKXKXKXKXKXKXKXKXKXKXKXKXKXKXKXKXKXKXKXKXKXKXKXKXKXKXLX7XQ..XjXjXjXjXjXjXjXjXjXjXjXjXjXjXjXjXjXjXjXjXjXjXjXjXjXjXjXjXjXjXjXjXjXjXjXjXjXjXjXjXjXjXjXjXjXjXjXjXjXjXjXjXjXjXjXjXjXjXjXjXjXjXjXjXjXjXjXjXjXjXjXjXjX.X!.4XJXLXLXLXJXLXLXJXJXLXLXKXKXKXKXKXKXKXKXKXKXKXKXKXKXKXKXKXKXKXKXKXKXKXjXjXjXjXjXjXjXjXjXjXjXjXjXjXjXjXjXjXjXjXjXjXjXjXjXjXjXjXjXjXjXjXjXjXjXjXjXjXjXjXjXjXjXjXjXjXjXjXjXjXjXjXjXcXQ Q Q P P P Q P P P Q P Q P P P Q Q P Q Q Q P Q Q Q P P P Q Q Q Q P P ",
"Q P P ` P Q Q Q P Q Q Q Q Q Q Q Q ` Q  . . .` #.:.`  . .#.cXjXjXjXjXjXjXjXjXjXjXjXjXjXjXjXjXjXjXjXjXjXjXjXjXjXjXjXjXjXjXjXjXjXjXjXjXjXjXjXjXjXjXjXjXjXjXjXjXjXjXjXjXjXjXKXKXKXKXKXKXKXKXKXKXKXKXKXKXKXKXKXKXKXKXKXKXKXKXKXKXKXKXKXKXKXKXKXKX'.!..XjXjXjXjXjXjXjXjXjXjXjXjXjXjXjXjXjXjXjXjXjXjXjXjXjXjXjXjXjXjXjXjXjXjXjXjXjXjXjXjXjXjXjXjXjXjXjXjXjXjXjXjXjXjXjXjXjXjXjXjXjXjXjXjXjXjXjXjXjXjXjXjXjX.X!.'.LXJXLXKXKXKXKXKXKXKXKXKXKXKXKXKXKXKXKXKXKXKXKXKXKXKXKXKXKXKXKXKXKXKXjXjXjXjXjXjXjXjXjXjXjXjXjXjXjXjXjXjXjXjXjXjXjXjXjXjXjXjXjXjXjXjXjXjXjXjXjXjXjXjXjXjXjXjXjXjXjXjXjXjXjXjXjXjXcXP Q Q Q Q Q Q P Q Q ` Q Q Q Q Q P Q Q Q Q Q P Q Q Q P Q ` Q Q ` ` Q ",
"Q Q Q ` Q ` ` Q Q Q ` Q Q ` Q Q Q Q Q  . . .` #.:.`  . .cXjXjXjXjXjXjXjXjXjXjXjXjXjXjXjXjXjXjXjXjXjXjXjXjXjXjXjXjXjXjXjXjXjXjXjXjXjXjXjXjXjXjXjXjXjXjXjXjXjXjXjXjXjXjXKXKXKXKXKXKXKXKXKXKXKXKXKXKXKXKXKXKXKXKXKXKXKXKXKXKXKXKXKXKXKXKXKXKXKX'.!..XjXjXjXjXjXjXjXjXjXjXjXjXjXjXjXjXjXjXjXjXjXjXjXjXjXjXjXjXjXjXjXjXjXjXjXjXjXjXjXjXjXjXjXjXjXjXjXjXjXjXjXjXjXjXjXjXjXjXjXjXjXjXjXjXjXjXjXjXjXjXjXjXjX.X!.'.LXJXLXKXKXKXKXKXKXKXKXKXKXKXKXKXKXKXKXKXKXKXKXKXKXKXKXKXKXKXKXKXKXKXKXjXjXjXjXjXjXjXjXjXjXjXjXjXjXjXjXjXjXjXjXjXjXjXjXjXjXjXjXjXjXjXjXjXjXjXjXjXjXjXjXjXjXjXjXjXjXjXjXjXjXjXjXjXjXcX` Q Q Q Q Q Q ` ` Q Q Q Q Q ` Q Q Q ` ` Q ` ` Q ` ` Q Q Q Q ` ` Q ",
"Q Q Q Q ` Q ` ` Q ` Q ` Q Q ` Q ` Q Q  . . .` #.:.`  .cXjXjXjXjXjXjXjXjXjXjXjXjXjXjXjXjXjXjXjXjXjXjXjXjXjXjXjXjXjXjXjXjXjXjXjXjXjXjXjXjXjXjXjXjXjXjXjXjXjXjXjXjXjXjXjXKXKXKXKXKXKXKXKXKXKXKXKXKXKXKXKXKXKXKXKXKXKXKXKXKXKXKXKXKXKXKXKXKXKXLX`.!..XjXjXjXjXjXjXjXjXjXjXjXjXjXjXjXjXjXjXjXjXjXjXjXjXjXjXjXjXjXjXjXjXjXjXjXjXjXjXjXjXjXjXjXjXjXjXjXjXjXjXjXjXjXjXjXjXjXjXjXjXjXjXjXjXjXjXjXjXjXjXjXjXjX.X!.'.LXLXLXKXKXKXKXKXKXKXKXKXKXKXKXKXKXKXKXKXKXKXKXKXKXKXKXKXKXKXKXKXKXKXKXjXjXjXjXjXjXjXjXjXjXjXjXjXjXjXjXjXjXjXjXjXjXjXjXjXjXjXjXjXjXjXjXjXjXjXjXjXjXjXjXjXjXjXjXjXjXjXjXjXjXjXjXjXjXjXcX` ` ` ` ` ` Q Q ` Q ` ` Q Q Q Q ` Q ` ` Q ` Q Q ` ` ` ` Q Q ` Q ",
"Q Q ` ` ` ` Q ` Q  .` ` ` ` Q Q ` `  . . . .` #.:.` cXjXjXjXjXjXjXjXjXjXjXjXjXjXjXjXjXjXjXjXjXjXjXjXjXjXjXjXjXjXjXjXjXjXjXjXjXjXjXjXjXjXjXjXjXjXjXjXjXjXjXjXjXjXjXjXKXKXKXKXKXKXKXKXKXKXKXKXKXKXKXKXKXKXKXKXKXKXKXKXKXKXKXKXKXKXKXKXKXKXKX4X'.!..XjXjXjXjXjXjXjXjXjXjXjXjXjXjXjXjXjXjXjXjXjXjXjXjXjXjXjXjXjXjXjXjXjXjXjXjXjXjXjXjXjXjXjXjXjXjXjXjXjXjXjXjXjXjXjXjXjXjXjXjXjXjXjXjXjXjXjXjXjXjXjXjXjX.X!.'.4XLXJXKXKXKXKXKXKXKXKXKXKXKXKXKXKXKXKXKXKXKXKXKXKXKXKXKXKXKXKXKXKXKXKXLXjXjXjXjXjXjXjXjXjXjXjXjXjXjXjXjXjXjXjXjXjXjXjXjXjXjXjXjXjXjXjXjXjXjXjXjXjXjXjXjXjXjXjXjXjXjXjXjXjXjXjXjXjXjXjXcX` ` `  .` ` `  .` ` ` ` ` ` ` ` ` Q ` ` ` Q Q ` ` ` Q Q ` ` ` ",
"` `  .` `  .` ` ` Q `  .`  .`  . .Q `  . . .` #.:.cXjXjXjXjXjXjXjXjXjXjXjXjXjXjXjXjXjXjXjXjXjXjXjXjXjXjXjXjXjXjXjXjXjXjXjXjXjXjXjXjXjXjXjXjXjXjXjXjXjXjXjXjXjXjXjXjXKXKXKXKXKXKXKXKXKXKXKXKXKXKXKXKXKXKXKXKXKXKXKXKXKXKXKXKXKXKXKXKXKXKXLX'.'.!..XjXjXjXjXjXjXjXjXjXjXjXjXjXjXjXjXjXjXjXjXjXjXjXjXjXjXjXjXjXjXjXjXjXjXjXjXjXjXjXjXjXjXjXjXjXjXjXjXjXjXjXjXjXjXjXjXjXjXjXjXjXjXjXjXjXjXjXjXjXjXjXjXjX.X!.'.'.LXLXKXKXKXKXKXKXKXKXKXKXKXKXKXKXKXKXKXKXKXKXKXKXKXKXKXKXKXKXKXKXKXKXKXjXjXjXjXjXjXjXjXjXjXjXjXjXjXjXjXjXjXjXjXjXjXjXjXjXjXjXjXjXjXjXjXjXjXjXjXjXjXjXjXjXjXjXjXjXjXjXjXjXjXjXjXjXjXjXjXcX . . .Q ` ` Q ` `  .`  .` ` `  .Q  .`  . .Q `  .` `  .` ` ` ",
" .`  .` `  .`  . .`  . .`  .` ` ` `  . . . .` #.cXcXcXcXcXcXcXcXcXcXcXcXcXcXcXcXcXcXcXcXcXcXcXcXcXcXcXcXcXcXcXcXcXcXcXcXcXcXcXcXcXcXcXcXcXcXcXcXcXcXcXcXcXcXcXcXcXLXKXKXKXKXKXKXKXKXKXKXKXKXKXKXKXKXKXKXKXKXKXKXKXKXKXKXKXKXKXKXKXKXKXKXLX'.'.!..XcXcXcXcXcXcXcXcXcXcXcXcXcXcXcXcXcXcXcXcXcXcXcXcXcXcXcXcXcXcXcXcXcXcXcXcXcXcXcXcXcXcXcXcXcXcXcXcXcXcXcXcXcXcXcXcXcXcXcXcXcXcXcXcXcXcXcXcXcXcXcXcXcX.X!.'.'.JXLXKXKXKXKXKXKXKXKXKXKXKXKXKXKXKXKXKXKXKXKXKXKXKXKXKXKXKXKXKXKXKXKXKXKXcXcXcXcXcXcXcXcXcXcXcXcXcXcXcXcXcXcXcXcXcXcXcXcXcXcXcXcXcXcXcXcXcXcXcXcXcXcXcXcXcXcXcXcXcXcXcXcXcXcXcXcXcXcXcXcXcX . .`  . . .`  . .`  .`  .`  .` ` ` ` `  . .` `  .` ` `  .",
" . . . . .`  .` `  .`  . .`  . .` `  . . . .` #.cX<X<X<X<X<X<X<X<X<X<X<X<X<X<X<X<X<X<X<X<X<X<X<X<X<X<X<X<X<X<X<X<X<X<X<X<X<X<X<X<X<X<X<X<X<X<X<X<X<X<X<X<X<X<X<X>XLXKXKXKXKXKXKXKXKXKXKXKXKXKXKXKXKXKXKXKXKXKXKXKXKXKXKXKXKXKXKXKXKXKXLXKX_.'.'.!..X<X<X<X<X<X<X<X<X<X<X<X<X<X<X<X<X<X<X<X<X<X<X<XjXG G G G G G G G G G G G G G G G G G G G G G G jX<X<X<X<X<X<X<X<X<X<X<X<X<X<X<X<X<X<X<X<X<X<X<X.X!.'.'.'.LXLXKXKXKXKXKXKXKXKXKXKXKXKXKXKXKXKXKXKXKXKXKXKXKXKXKXKXKXKXKXKXKXKXKXKX>X<X<X<X<X<X<X<X<X<X<X<X<X<X<X<X<X<X<X<X<X<X<X<X<X<X<X<X<X<X<X<X<X<X<X<X<X<X<X<X<X<X<X<X<X<X<X<X<X<X<X<X<X<X<X<XcX#. .`  . .`  . . . . .`  . .#. . . .`  . . .` `  . .` ` #.",
" .#.`  .`  .#. . .`  . .#.`  . . . . . . . .` #.cX<X<X<X<X<X<X<X<X<X<X<X<X<X<X<X<X<X<X<X<X<X<X<X<X<X<X<X<X<X<X<X<X<X<X<X<X<X<X<X<X<X<X<X<X<X<X<X<X<X<X<X<X<X<X<XKXKXKXKXKXKXKXKXKXKXKXKXKXKXKXKXKXKXKXKXKXKXKXKXKXKXKXKXKXKXKXKXKXKXKXLX7X'.'.'.!..X<X<X<X<X<X<X<X<X<X<X<X<X<X<X<X<X<X<X<X'.q. .<XjXG G G G G G G G G G G G G G G G G G G G G G G jX<X'.q. .<X<X<X<X<X<X<X<X<X<X<X<X<X<X<X<X<X<X<X.X!.'.'.'.4XJXKXKXKXKXKXKXKXKXKXKXKXKXKXKXKXKXKXKXKXKXKXKXKXKXKXKXKXKXKXKXKXKXKXLXLX<X<X<X<X<X<X<X<X<X<X<X<X<X<X<X<X<X<X<X<X<X<X<X<X<X<X<X<X<X<X<X<X<X<X<X<X<X<X<X<X<X<X<X<X<X<X<X<X<X<X<X<X<X<X<XcX#. . .`  . . . . . . . . .#. .` #.#.#. .#. . . . . .#.#. .",
" .#.#. .#. . .#.#.#. . . .#. .#.#.#.#. . .`  .#.cX<X<X<X<X<X<X<X<X<X<X<X<X<X<X<X<X<X<X<X<X<X<X<X<X<X<X<X<X<X<X<X<X<X<X<X<X<X<X<X<X<X<X<X<X<X<X<X<X<X<X<X<X<X<X<XKXKXKXKXKXKXKXKXKXKXKXKXKXKXKXKXKXKXKXKXKXKXKXKXKXKXKXKXKXKXKXKXKXKXKXKX_.'.'.'.!..X<X<X<X<X<X<X<X<X<X<X<X<X<X<X<X<X<X<X<X'.q. .<XjXG G s.s.s.s.s.s.s.s.s.s.s.s.s.s.s.s.s.s.s.G G jX<X'.q. .<X<X<X<X<X<X<X<X<X<X<X<X<X<X<X<X<X<X<X.X!.'.'.'.'.LXLXLXLXJXKXKXKXKXKXKXKXKXKXKXKXKXKXKXKXKXKXKXKXKXKXKXKXKXKXKXKXKXKXKXKX>X<X<X<X<X<X<X<X<X<X<X<X<X<X<X<X<X<X<X<X<X<X<X<X<X<X<X<X<X<X<X<X<X<X<X<X<X<X<X<X<X<X<X<X<X<X<X<X<X<X<X<X<X<X<XcX#.#.#.#. . . .#.#.#. .#. .#. .#.#.#. .#.#.#. .#.#. .#.#. .",
"#.#. . .#.#.#.#.#.#. .#. .#.#.#.#.#. . . .`  .#.cX<X<X<X<X<X<X<X<X<X<X<X<X<X<X<X<X<X<X<X<X<X<X<X<X<X<X<X<X<X<X<X<X<X<X<X<X<X<X<X<X<X<X<X<X<X<X<X<X<X<X<X<X<X>XLXKXKXKXKXKXKXKXKXKXKXKXKXKXKXKXKXKXKXKXKXKXKXKXKXKXKXKXKXKXKXKXKXKXKXKXKX'.'.'.'.!..X<X<X<X<X<X<X<X<X<X<X<X<X<X<X<X<X<X<X<X'.8. .<XjXG G s.f.f.f.f.f.f.f.d.s.d.f.f.f.f.f.f.f.s.G G jX<X_.q. .<X<X<X<X<X<X<X<X<X<X<X<X<X<X<X<X<X<X<X.X!.'.'.'.'.LXLXJXLXLXKXKXKXKXKXKXKXKXKXKXKXKXKXKXKXKXKXKXKXKXKXKXKXKXKXKXKXKXKXKXKXKX<X<X<X<X<X<X<X<X<X<X<X<X<X<X<X<X<X<X<X<X<X<X<X<X<X<X<X<X<X<X<X<X<X<X<X<X<X<X<X<X<X<X<X<X<X<X<X<X<X<X<X<X<X<XcX#.#.#.#. .#.#.#.#.#. .#.#. . .#.#.#.#.#.#. .#.#.#.#. .#.#.",
"#. .#.:.:.:.#.:.#.#.:.#.#.#.:.#.#.#. . . .`  .#.cX<X<X<X<X<X<X<X<X<X<X<X<X<X<X<X<X<X<X<X<X<X<X<X<X<X<X<X<X<X<X<X<X<X<X<X<X<X<X<X<X<X<X<X<X<X<X<X<X<X<X<X<X<X<XLXKXKXKXKXKXKXKXKXKXKXKXKXKXKXKXKXKXKXKXKXKXKXKXKXKXKXKXKXKXKXKXKXKXKXLXLX'.'.'.'.!..X<X<X<X<X<X<X<X<X<X<X<X<X<X<X<X<X<X<X<XLXLXLX<XjXG G s.f.f.;X;X;X;Xf.d.s.d.f.;X;X;X;Xf.f.s.G G jX<XLXLXLX<X<X<X<X<X<X<X<X<X<X<X<X<X<X<X<X<X<X<X.X!.'.'.'.'.LXJXLXJXLXKXKXKXKXKXKXKXKXKXKXKXKXKXKXKXKXKXKXKXKXKXKXKXKXKXKXKXKXKXKXKXKX<X<X<X<X<X<X<X<X<X<X<X<X<X<X<X<X<X<X<X<X<X<X<X<X<X<X<X<X<X<X<X<X<X<X<X<X<X<X<X<X<X<X<X<X<X<X<X<X<X<X<X<X<X<XcX#.#. . .#. .#.#.#.#. .#.#.#.#.#.#.:.#.#.#.#.:.#. .#.#.:.#.",
"#.:.#.#.#.#.#.#.#.:.:.:.:.:.#.#.#.:. . . .`  .#.cX<X<X<X<X<X<X<X<X<X<X<X<X<X<X<X<X<X<X<X<X<X<X<X<X<X<X<X<X<X<X<X<X<X<X<X<X<X<X<X<X<X<X<X<X<X<X<X<X<X<X<X<X>XKXLXKXKXKXKXKXKXKXKXKXKXKXKXKXKXKXKXKXKXKXKXKXKXKXKXKXKXKXKXKXKXKXKXKXKXKX7X'.'.'.'.!..X<X<X<X<X<X<X<X<X<X<X<X<X<X<X<X<X<X<XVXVXNXVXVXjXG G s.f.f.z.z.z.z.f.d.s.d.f.z.z.z.z.f.f.s.G G jXVXVXVXVXVX<X<X<X<X<X<X<X<X<X<X<X<X<X<X<X<X<X<X.X!.'.'.'.'.7XLXLXJXLXKXKXKXKXKXKXKXKXKXKXKXKXKXKXKXKXKXKXKXKXKXKXKXKXKXKXKXKXKXKXKXKXLX<X<X<X<X<X<X<X<X<X<X<X<X<X<X<X<X<X<X<X<X<X<X<X<X<X<X<X<X<X<X<X<X<X<X<X<X<X<X<X<X<X<X<X<X<X<X<X<X<X<X<X<X<XcX#.#.#.:.:.:.:.#.#.#.:.#.#.#.#.#.#.:.#.:.#.:.#.#.:.#.#.#.#.",
"#.#.:.:.:.:.#.:.:.:.:.:.#.#.#.#.:.:. . . .`  .#.cX<X<X<X<X<X<X<X<X<X<X<X<X<X<X<X<X<X<X<X<X<X<X<X<X<X<X<X<X<X<X<X<X<X<X<X<X<X<X<X<X<X<X<X<X<X<X<X<X<X<X>X<X<XLXKXKXKXKXKXKXKXKXKXKXKXKXKXKXKXKXKXKXKXKXKXKXKXKXKXKXKXKXKXKXKXKXKXKXKXKX'.'.'.'.'.!..X<X<X<X<X<X<X<X<X<X<X<X<X<X<X<X<X<XVXcXcXVXcXcXjXG G s.f.f.l.l.l.l.f.d.s.d.f.l.l.l.l.f.f.s.G G jXcXcXVXcXcXVX<X<X<X<X<X<X<X<X<X<X<X<X<X<X<X<X<X.X!.'.'.'.'.'.LXJXKXKXKXKXKXKXKXKXKXKXKXKXKXKXKXKXKXKXKXKXKXKXKXKXKXKXKXKXKXKXKXKXKXKXLX<X<X<X<X<X<X<X<X<X<X<X<X<X<X<X<X<X<X<X<X<X<X<X<X<X<X<X<X<X<X<X<X<X<X<X<X<X<X<X<X<X<X<X<X<X<X<X<X<X<X<X<X<XcX:.#.:.:.:.#.#.:.:.:.:.:.:.:.:.#.:.:.#.#.:.#.:.#.:.:.#.:.#.",
"4.:.#.:.:.4.:.:.:.:.:.:.:.4.:.:.:.:. . . .`  .#.y.S S S S S S S S S S S S S S S S S S S S S S S S S S S S S S S S S S S S S S S S S S S S S S S S S S S S LXKXKXKXKXKXKXKXKXKXKXKXKXKXKXKXKXKXKXKXKXKXKXKXKXKXKXKXKXKXKXKXKXKXKXKXKXKX_.'.'.'.A Z A S S S S S S S S S S S S S S S S y.y.y.y.y.y.y.jXs.s.d.f.f.g.g.g.g.f.d.s.d.f.g.g.g.g.f.f.d.s.s.jXy.y.y.y.y.y.y.S S S S S S S S S S S S S S S S A Z '.'.'.'.'.LXLXKXKXKXKXKXKXKXKXKXKXKXKXKXKXKXKXKXKXKXKXKXKXKXKXKXKXKXKXKXKXKXKXKXKXKXLXS S S S S S S S S S S S S S S S S S S S S S S S S S S S S S S S S S S S S S S S S S S S S S S S S S S S u.:.4.:.:.:.:.4.:.:.:.:.#.:.:.:.4.:.:.4.:.#.:.:.4.:.4.:.#.:.",
":.:.:.4.4.4.:.:.:.:.4.:.:.:.:.:.4.4. . . .`  .#.y.S S S S S S S S S S S S S S S S S S S S S S S S S S S S S S S S S S S S S S S S S S S S S S S S S S S S KXKXKXKXKXKXKXKXKXKXKXKXKXKXKXKXKXKXKXKXKXKXKXKXKXKXKXKXKXKXKXKXKXKXKXLXKXLX'.'.A A A Z A S S S S S S S S S S S S S S S y.y.y.y.y.y.y.y.jXd.d.f.f.f.f.f.f.f.f.d.s.d.f.f.f.f.f.f.f.f.d.d.jXy.y.y.y.y.y.y.y.S S S S S S S S S S S S S S S A Z A A A '.'.JXLXLXKXKXKXKXKXKXKXKXKXKXKXKXKXKXKXKXKXKXKXKXKXKXKXKXKXKXKXKXKXKXKXKXKXKXKXS S S S S S S S S S S S S S S S S S S S S S S S S S S S S S S S S S S S S S S S S S S S S S S S S S S S u.:.4.4.4.:.:.:.:.:.:.4.4.:.:.:.:.4.4.:.:.:.:.:.4.4.:.:.:.4.",
":.4.:.:.4.:.:.:.4.:.4.:.:.4.:.:.4.4. . . .`  .#.y.S S S S S S S S S S S S S S S S S S S S S S S S S S S S S S S S S S S S S S S S S S S S S S S S S S S y.y.y.y.y.y.y.y.y.y.y.y.y.y.y.y.y.y.y.y.y.y.y.y.y.y.y.y.y.y.y.y.y.y.y.y.y.y.u.A A A A A Z A S S S S S S S S S S S S S S y.y.y.y.y.y.y.y.y.jXf.f.f.f.f.f.f.f.f.f.d.s.d.f.f.f.f.f.f.f.f.f.f.jXy.y.y.y.y.y.y.y.y.S S S S S S S S S S S S S S A Z A A A A A u.y.y.y.y.y.y.y.y.y.y.y.y.y.y.y.y.y.y.y.y.y.y.y.y.y.y.y.y.y.y.y.y.y.y.y.y.y.u.S S S S S S S S S S S S S S S S S S S S S S S S S S S S S S S S S S S S S S S S S S S S S S S S S S S u.:.:.:.:.:.4.:.:.:.:.4.:.:.4.4.4.:.4.4.4.4.4.:.:.4.4.4.:.:.",
":.4.4.:.:.:.:.4.4.:.4.:.:.4.4.4.:.4. . . .`  .#.cX<X<X<X<X<X<X<X<X<X<X<X<X<X<X<X<X<X<X<X<X<X<X<X<X<X<X<X<X<X<X<X<X<X<X<X<X<X<X<X<X<X<X<X<X<X<X<X<X<X<X<Xy.y.y.y.y.y.y.y.y.y.y.y.y.y.y.y.y.y.y.y.y.y.y.y.y.y.y.y.y.y.y.y.y.y.y.y.y.u.A A A A A '.!..X<X<X<X<X<X<X<X<X<X<X<X<X<X<X<X<X<X<X<X<X<X<X<XjXf.f.f.f.f.f.f.f.f.f.d.s.d.f.f.f.f.f.f.f.f.f.f.jX<X<X<X<X<X<X<X<X<X<X<X<X<X<X<X<X<X<X<X<X<X<X<X.X!.A A A A A A u.y.y.y.y.y.y.y.y.y.y.y.y.y.y.y.y.y.y.y.y.y.y.y.y.y.y.y.y.y.y.y.y.y.y.y.y.u.>X<X<X<X<X<X<X<X<X<X<X<X<X<X<X<X<X<X<X<X<X<X<X<X<X<X<X<X<X<X<X<X<X<X<X<X<X<X<X<X<X<X<X<X<X<X<X<X<X<X<XcX4.4.:.4.4.4.:.4.:.4.4.:.:.4.4.:.:.4.4.4.4.4.4.:.4.4.4.4.4.",
"4.4.4.4.4.4.4.4.4.4.4.4.4.:.4.4.4.4. . . .`  .#.cX<X<X<X<X<X<X<X<X<X<X<X<X<X<X<X<X<X<X<X<X<X<X<X<X<X<X<X<X<X<X<X<X<X<X<X<X<X<X<X<X<X<X<X<X<X<X<X<X<X<Xy.y.y.y.y.y.y.y.y.y.y.y.y.y.y.y.y.y.y.y.y.y.y.y.y.y.y.y.y.y.y.y.y.y.y.y.y.y.u.A A '.'.'.'.!..X<X<X<X<X<X<X<X<X<X<X<X<X<X<X<X<X<X<X<X<X<X<X<XjXf.f.f.f.f.f.f.f.f.f.d.s.d.f.f.f.f.f.f.f.f.f.f.jX<X<X<X<X<X<X<X<X<X<X<X<X<X<X<X<X<X<X<X<X<X<X<X.X!.'.'.'.'.A A u.y.y.y.y.y.y.y.y.y.y.y.y.y.y.y.y.y.y.y.y.y.y.y.y.y.y.y.y.y.y.y.y.y.y.y.y.y.u.<X<X<X<X<X<X<X<X<X<X<X<X<X<X<X<X<X<X<X<X<X<X<X<X<X<X<X<X<X<X<X<X<X<X<X<X<X<X<X<X<X<X<X<X<X<X<X<X<X<XcX4.4.4.4.4.4.4.4.4.4.4.4.4.:.4.4.4.4.4.4.4.4.4.4.4.4.4.4.4.",
"4.4.4.4.4.4.4.4.4.4.4.4.4.4.4.4.4.4. . . .`  .#.cX<X<X<X<X<X<X<X<X<X<X>X<X<X<X<X<X<X<X<X<X<X<X<X<X<X<X<X<X<X<X<X<X<X<X<X<X<X<X<X<X<X<X<X<X<X<X<X<X<X<XLXLXKXKXKXKXKXKXKXKXKXKXKXKXKXKXKXKXKXKXKXKXKXLXLXKXKXKXKXKXKXKXKXKXKXKXKXKXKX_.'.'.'.'.'.!..X<X<X<X<X<X<X<X<X<X<X<X<X<X<X<X<X<X<X<X<X<X<X<XjXf.f.f.f.f.f.f.f.f.f.d.s.d.f.f.f.f.f.f.f.f.f.f.jX<X<X<X<X<X<X<X<X<X<X<X<X<X<X<X<X<X<X<X<X<X<X<X.X!.'.'.'.`.'._.LXKXKXKXKXKXKXKXKXKXKXKXKXKXKXKXKXKXKXKXKXLXLXKXKXKXKXKXKXKXKXKXKXKXKXKXKXKXKX<X<X<X<X<X<X<X<X<X<X<X<X<X<X<X<X<X<X<X<X<X<X<X<X<X<X<X<X<X<X<X<X<X<X<X<X<X<X<X<X<X<X<X<X<X<X<X<X<X<XcX4.4.4.4.4.4.4.4.4.4.4.4.4.4.4.4.4.4.4.4.4.4.4.4.4.4.4.4.4.",
"w w w w w w w w w w w w w w w w w w w w w w w w w w w w w w w w w w w w w w w w w w w w w w w w w w w w w w w w w w w w w w w w w w w w w w w w w w w w w w w w w w w w w w w w w w w w w w w w w w w w w w w w w w w w w w w w w w w w w w w w w w w w w w w w w w w w w w w w w w w w w w w w w w w w w w w w w w w w w w w w w w w w w w w w w w w w w w w w w w w w w w w w w w w w w w w w w w w w w w w w w w w w w w w w w w w w w w w w w w w w w w w w w w w w w w w w w w w w w w w w w w w w w w w w w w w w w w w w w w w w w w w w w w w w w w w w w w w w w w w w w w w w w w w w w w w w w w w w w w w w w w w w w w w w w w w w w w w w w w w w ",
"w w w w w w w w w w w w w w w w w w w w w w w w w w w w w w w w w w w w w w w w w w w w w w w w w w w w w w w w w w w w w w w w w w w w w w w w w w w w w w w w w w w w w w w w w w w w w w w w w w w w w w w w w w w w w w w w w w w w w w w w w w w w w w w w w w w w w w w w w w w w w w w w w w w w w w w w w w w w w w w w w w w w w w w w w w w w w w w w w w w w w w w w w w w w w w w w w w w w w w w w w w w w w w w w w w w w w w w w w w w w w w w w w w w w w w w w w w w w w w w w w w w w w w w w w w w w w w w w w w w w w w w w w w w w w w w w w w w w w w w w w w w w w w w w w w w w w w w w w w w w w w w w w w w w w w w w w w w w w w w w ",
"w w w w w w w w w w w w w w w w w w w w w w w w w w w w w w w w w w w w w w w w w w w w w w w w w w w w w w w w w w w w w w w w w w w w w w w w w w w w w w w w w w w w w w w w w w w w w w w w w w w w w w w w w w w w w w w w w w w w w w w w w w w w w w w w w w w w w w w w w w w w w w w w w w w w w w w w w w w w w w w w w w w w w w w w w w w w w w w w w w w w w w w w w w w w w w w w w w w w w w w w w w w w w w w w w w w w w w w w w w w w w w w w w w w w w w w w w w w w w w w w w w w w w w w w w w w w w w w w w w w w w w w w w w w w w w w w w w w w w w w w w w w w w w w w w w w w w w w w w w w w w w w w w w w w w w w w w w w w w w w w ",
"w w w w w w w w w w w w w w w w w w w w w w w w w w w w w w w w w w w w w w w w w w w w w w w w w w w w w w w w w w w w w w w w w w w w w w w w w w w w w w w w w w w w w w w w w w w w w w w w w w w w w w w w w w w w w w w w w w w w w w w w w w w w w w w w w w w w w w w w w w w w w w w w w w w w w w w w w w w w w w w w w w w w w w w w w w w w w w w w w w w w w w w w w w w w w w w w w w w w w w w w w w w w w w w w w w w w w w w w w w w w w w w w w w w w w w w w w w w w w w w w w w w w w w w w w w w w w w w w w w w w w w w w w w w w w w w w w w w w w w w w w w w w w w w w w w w w w w w w w w w w w w w w w w w w w w w w w w w w w w w w ",
"w w w w w w w w w w w w w w w w w w w w w w w w w w w w w w w w w w w w w w w w w w w w w w w w w w w w w w w w w w w w w w w w w w w w w w w w w w w w w w w w w w w w w w w w w w w w w w w w w w w w w w w w w w w w w w w w w w w w w w w w w w w w w w w w w w w w w w w w w w w w w w w w w w w w w w w w w w w w w w w w w w w w w w w w w w w w w w w w w w w w w w w w w w w w w w w w w w w w w w w w w w w w w w w w w w w w w w w w w w w w w w w w w w w w w w w w w w w w w w w w w w w w w w w w w w w w w w w w w w w w w w w w w w w w w w w w w w w w w w w w w w w w w w w w w w w w w w w w w w w w w w w w w w w w w w w w w w w w w w w w ",
"w w w w w w w w w w w w w w w w w w w w w w w w w w w w w w w w w w w w w w w w w w w w w w w w w w w w w w w w w w w w w w w w w w w w w w w w w w w w w w w w w w w w w w w w w w w w w w w w w w w w w w w w w w w w w w w w w w w w w w w w w w w w w w w w w w w w w w w w w w w w w w w w w w w w w w w w w w w w w w w w w w w w w w w w w w w w w w w w w w w w w w w w w w w w w w w w w w w w w w w w w w w w w w w w w w w w w w w w w w w w w w w w w w w w w w w w w w w w w w w w w w w w w w w w w w w w w w w w w w w w w w w w w w w w w w w w w w w w w w w w w w w w w w w w w w w w w w w w w w w w w w w w w w w w w w w w w w w w w w w w ",
"w w w w w w w w w w w w w w w w w w w w w w w w w w w w w w w w w w w w w w w w w w w w w w w w w w w w w w w w w w w w w w w w w w w w w w w w w w w w w w w w w w w w w w w w w w w w w w w w w w w w w w w w w w w w w w w w w w w w w w w w w w w w w w w w w w w w w w w w w w w w w w w w w w w w w w w w w w w w w w w w w w w w w w w w w w w w w w w w w w w w w w w w w w w w w w w w w w w w w w w w w w w w w w w w w w w w w w w w w w w w w w w w w w w w w w w w w w w w w w w w w w w w w w w w w w w w w w w w w w w w w w w w w w w w w w w w w w w w w w w w w w w w w w w w w w w w w w w w w w w w w w w w w w w w w w w w w w w w w w w w ",
"w w w w w w w w w w w w w w w w w w w w w w w w w w w w w w w w w w w w w w w w w w w w w w w w w w w w w w w w w w w w w w w w w w w w w w w w w w w w w w w w w w w w w w w w w w w w w w w w w w w w w w w w w w w w w w w w w w w w w w w w w w w w w w w w w w w w w w w w w w w w w w w w w w w w w w w w w w w w w w w w w w w w w w w w w w w w w w w w w w w w w w w w w w w w w w w w w w w w w w w w w w w w w w w w w w w w w w w w w w w w w w w w w w w w w w w w w w w w w w w w w w w w w w w w w w w w w w w w w w w w w w w w w w w w w w w w w w w w w w w w w w w w w w w w w w w w w w w w w w w w w w w w w w w w w w w w w w w w w w w w ",
"w w w w w w w w w w w w w w w w w w w w w w w w w w w w w w w w w w w w w w w w w w w w w w w w w w w w w w w w w w w w w w w w w w w w w w w w w w w w w w w w w w w w w w w w w w w w w w w w w w w w w w w w w w w w w w w w w w w w w w w w w w w w w w w w w w w w w w w w w w w w w w w w w w w w w w w w w w w w w w w w w w w w w w w w w w w w w w w w w w w w w w w w w w w w w w w w w w w w w w w w w w w w w w w w w w w w w w w w w w w w w w w w w w w w w w w w w w w w w w w w w w w w w w w w w w w w w w w w w w w w w w w w w w w w w w w w w w w w w w w w w w w w w w w w w w w w w w w w w w w w w w w w w w w w w w w w w w w w w w w w ",
"w w w w w w w w w w w w w w w w w w w w w w w w w w w w w w w w w w w w w w w w w w w w w w w w w w w w w w w w w w w w w w w w w w w w w w w w w w w w w w w w w w w w w w w w w w w w w w w w w w w w w w w w w w w w w w w w w w w w w w w w w w w w w w w w w w w w w w w w w w w w w w w w w w w w w w w w w w w w w w w w w w w w w w w w w w w w w w w w w w w w w w w w w w w w w w w w w w w w w w w w w w w w w w w w w w w w w w w w w w w w w w w w w w w w w w w w w w w w w w w w w w w w w w w w w w w w w w w w w w w w w w w w w w w w w w w w w w w w w w w w w w w w w w w w w w w w w w w w w w w w w w w w w w w w w w w w w w w w w w w w ",
"w w w w w w w w w w w w w w w w w w w w w w w w w w w w w w w w w w w w w w w w w w w w w w w w w w w w w w w w w w w w w w w w w w w w w w w w w w w w w w w w w w w w w w w w w w w w w w w w w w w w w w w w w w w w w w w w w w w w w w w w w w w w w w w w w w w w w w w w w w w w w w w w w w w w w w w w w w w w w w w w w w w w w w w w w w w w w w w w w w w w w w w w w w w w w w w w w w w w w w w w w w w w w w w w w w w w w w w w w w w w w w w w w w w w w w w w w w w w w w w w w w w w w w w w w w w w w w w w w w w w w w w w w w w w w w w w w w w w w w w w w w w w w w w w w w w w w w w w w w w w w w w w w w w w w w w w w w w w w w w w ",
"w w w w w w w w w w w w w w w w w w w w w w w w w w w w w w w w w w w w w w w w w w w w w w w w w w w w w w w w w w w w w w w w w w w w w w w w w w w w w w w w w w w w w w w w w w w w w w w w w w w w w w w w w w w w w w w w w w w w w w w w w w w w w w w w w w w w w w w w w w w w w w w w w w w w w w w w w w w w w w w w w w w w w w w w w w w w w w w w w w w w w w w w w w w w w w w w w w w w w w w w w w w w w w w w w w w w w w w w w w w w w w w w w w w w w w w w w w w w w w w w w w w w w w w w w w w w w w w w w w w w w w w w w w w w w w w w w w w w w w w w w w w w w w w w w w w w w w w w w w w w w w w w w w w w w w w w w w w w w w w w ",
"w w w w w w w w w w w w w w w w w w w w w w w w w w w w w w w w w w w w w w w w w w w w w w w w w w w w w w w w w w w w w w w w w w w w w w w w w w w w w w w w w w w w w w w w w w w w w w w w w w w w w w w w w w w w w w w w w w w w w w w w w w w w w w w w w w w w w w w w w w w w w w w w w w w w w w w w w w w w w w w w w w w w w w w w w w w w w w w w w w w w w w w w w w w w w w w w w w w w w w w w w w w w w w w w w w w w w w w w w w w w w w w w w w w w w w w w w w w w w w w w w w w w w w w w w w w w w w w w w w w w w w w w w w w w w w w w w w w w w w w w w w w w w w w w w w w w w w w w w w w w w w w w w w w w w w w w w w w w w w w w ",
"w w w w w w w w w w w w w w w w w w w w w w w w w w w w w w w w w w w w w w w w w w w w w w w w w w w w w w w w w w w w w w w w w w w w w w w w w w w w w w w w w w w w w w w w w w w w w w w w w w w w w w w w w w w w w w w w w w w w w w w w w w w w w w w w w w w w w w w w w w w w w w w w w w w w w w w w w w w w w w w w w w w w w w w w w w w w w w w w w w w w w w w w w w w w w w w w w w w w w w w w w w w w w w w w w w w w w w w w w w w w w w w w w w w w w w w w w w w w w w w w w w w w w w w w w w w w w w w w w w w w w w w w w w w w w w w w w w w w w w w w w w w w w w w w w w w w w w w w w w w w w w w w w w w w w w w w w w w w w w w w ",
"w w w w w w w w w w w w w w w w w w w w w w w w w w w w w w w w w w w w w w w w w w w w w w w w w w w w w w w w w w w w w w w w w w w w w w w w w w w w w w w w w w w w w w w w w w w w w w w w w w w w w w w w w w w w w w w w w w w w w w w w w w w w w w w w w w w w w w w w w w w w w w w w w w w w w w w w w w w w w w w w w w w w w w w w w w w w w w w w w w w w w w w w w w w w w w w w w w w w w w w w w w w w w w w w w w w w w w w w w w w w w w w w w w w w w w w w w w w w w w w w w w w w w w w w w w w w w w w w w w w w w w w w w w w w w w w w w w w w w w w w w w w w w w w w w w w w w w w w w w w w w w w w w w w w w w w w w w w w w w w w ",
"w w w w w w w w w w w w w w w w w w w w w w w w w w w w w w w w w w w w w w w w w w w w w w w w w w w w w w w w w w w w w w w w w w w w w w w w w w w w w w w w w w w w w w w w w w w w w w w w w w w w w w w w w w w w w w w w w w w w w w w w w w w w w w w w w w w w w w w w w w w w w w w w w w w w w w w w w w w w w w w w w w w w w w w w w w w w w w w w w w w w w w w w w w w w w w w w w w w w w w w w w w w w w w w w w w w w w w w w w w w w w w w w w w w w w w w w w w w w w w w w w w w w w w w w w w w w w w w w w w w w w w w w w w w w w w w w w w w w w w w w w w w w w w w w w w w w w w w w w w w w w w w w w w w w w w w w w w w w w w w w ",
"w w w w w w w w w w w w w w w w w w w w w w w w w w w w w w w w w w w w w w w w w w w w w w w w w w w w w w w w w w w w w w w w w w w w w w w w w w w w w w w w w w w w w w w w w w w w w w w w w w w w w w w w w w w w w w w w w w w w w w w w w w w w w w w w w w w w w w w w w w w w w w w w w w w w w w w w w w w w w w w w w w w w w w w w w w w w w w w w w w w w w w w w w w w w w w w w w w w w w w w w w w w w w w w w w w w w w w w w w w w w w w w w w w w w w w w w w w w w w w w w w w w w w w w w w w w w w w w w w w w w w w w w w w w w w w w w w w w w w w w w w w w w w w w w w w w w w w w w w w w w w w w w w w w w w w w w w w w w w w w w ",
"w w w w w w w w w w w w w w w w w w w w w w w w w w w w w w w w w w w w w w w w w w w w w w w w w w w w w w w w w w w w w w w w w w w w w w w w w w w w w w w w w w w w w w w w w w w w w w w w w w w w w w w w w w w w w w w w w w w w w w w w w w w w w w w w w w w w w w w w w w w w w w w w w w w w w w w w w w w w w w w w w w w w w w w w w w w w w w w w w w w w w w w w w w w w w w w w w w w w w w w w w w w w w w w w w w w w w w w w w w w w w w w w w w w w w w w w w w w w w w w w w w w w w w w w w w w w w w w w w w w w w w w w w w w w w w w w w w w w w w w w w w w w w w w w w w w w w w w w w w w w w w w w w w w w w w w w w w w w w w w w ",
"w w w w w w w w w w w w w w w w w w w w w w w w w w w w w w w w w w w w w w w w w w w w w w w w w w w w w w w w w w w w w w w w w w w w w w w w w w w w w w w w w w w w w w w w w w w w w w w w w w w w w w w w w w w w w w w w w w w w w w w w w w w w w w w w w w w w w w w w w w w w w w w w w w w w w w w w w w w w w w w w w w w w w w w w w w w w w w w w w w w w w w w w w w w w w w w w w w w w w w w w w w w w w w w w w w w w w w w w w w w w w w w w w w w w w w w w w w w w w w w w w w w w w w w w w w w w w w w w w w w w w w w w w w w w w w w w w w w w w w w w w w w w w w w w w w w w w w w w w w w w w w w w w w w w w w w w w w w w w w w w ",
"w w w w w w w w w w w w w w w w w w w w w w w w w w w w w w w w w w w w w w w w w w w w w w w w w w w w w w w w w w w w w w w w w w w w w w w w w w w w w w w w w w w w w w w w w w w w w w w w w w w w w w w w w w w w w w w w w w w w w w w w w w w w w w w w w w w w w w w w w w w w w w w w w w w w w w w w w w w w w w w w w w w w w w w w w w w w w w w w w w w w w w w w w w w w w w w w w w w w w w w w w w w w w w w w w w w w w w w w w w w w w w w w w w w w w w w w w w w w w w w w w w w w w w w w w w w w w w w w w w w w w w w w w w w w w w w w w w w w w w w w w w w w w w w w w w w w w w w w w w w w w w w w w w w w w w w w w w w w w w w w ",
"w w w w w w w w w w w w w w w w w w w w w w w w w w w w w w w w w w w w w w w w w w w w w w w w w w w w w w w w w w w w w w w w w w w w w w w w w w w w w w w w w w w w w w w w w w w w w w w w w w w w w w w w w w w w w w w w w w w w w w w w w w w w w w w w w w w w w w w w w w w w w w w w w w w w w w w w w w w w w w w w w w w w w w w w w w w w w w w w w w w w w w w w w w w w w w w w w w w w w w w w w w w w w w w w w w w w w w w w w w w w w w w w w w w w w w w w w w w w w w w w w w w w w w w w w w w w w w w w w w w w w w w w w w w w w w w w w w w w w w w w w w w w w w w w w w w w w w w w w w w w w w w w w w w w w w w w w w w w w w w w ",
"w w w w w w w w w w w w w w w w w w w w w w w w w w w w w w w w w w w w w w w w w w w w w w w w w w w w w w w w w w w w w w w w w w w w w w w w w w w w w w w w w w w w w w w w w w w w w w w w w w w w w w w w w w w w w w w w w w w w w w w w w w w w w w w w w w w w w w w w w w w w w w w w w w w w w w w w w w w w w w w w w w w w w w w w w w w w w w w w w w w w w w w w w w w w w w w w w w w w w w w w w w w w w w w w w w w w w w w w w w w w w w w w w w w w w w w w w w w w w w w w w w w w w w w w w w w w w w w w w w w w w w w w w w w w w w w w w w w w w w w w w w w w w w w w w w w w w w w w w w w w w w w w w w w w w w w w w w w w w w w w ",
"w w w w w w w w w w w w w w w w w w w w w w w w w w w w w w w w w w w w w w w w w w w w w w w w w w w w w w w w w w w w w w w w w w w w w w w w w w w w w w w w w w w w w w w w w w w w w w w w w w w w w w w w w w w w w w w w w w w w w w w w w w w w w w w w w w w w w w w w w w w w w w w w w w w w w w w w w w w w w w w w w w w w w w w w w w w w w w w w w w w w w w w w w w w w w w w w w w w w w w w w w w w w w w w w w w w w w w w w w w w w w w w w w w w w w w w w w w w w w w w w w w w w w w w w w w w w w w w w w w w w w w w w w w w w w w w w w w w w w w w w w w w w w w w w w w w w w w w w w w w w w w w w w w w w w w w w w w w w w w w w ",
"w w w w w w w w w w w w w w w w w w w w w w w w w w w w w w w w w w w w w w w w w w w w w w w w w w w w w w w w w w w w w w w w w w w w w w w w w w w w w w w w w w w w w w w w w w w w w w w w w w w w w w w w w w w w w w w w w w w w w w w w w w w w w w w w w w w w w w w w w w w w w w w w w w w w w w w w w w w w w w w w w w w w w w w w w w w w w w w w w w w w w w w w w w w w w w w w w w w w w w w w w w w w w w w w w w w w w w w w w w w w w w w w w w w w w w w w w w w w w w w w w w w w w w w w w w w w w w w w w w w w w w w w w w w w w w w w w w w w w w w w w w w w w w w w w w w w w w w w w w w w w w w w w w w w w w w w w w w w w w w w ",
"w w w w w w w w w w w w w w w w w w w w w w w w w w w w w w w w w w w w w w w w w w w w w w w w w w w w w w w w w w w w w w w w w w w w w w w w w w w w w w w w w w w w w w w w w w w w w w w w w w w w w w w w w w w w w w w w w w w w w w w w w w w w w w w w w w w w w w w w w w w w w w w w w w w w w w w w w w w w w w w w w w w w w w w w w w w w w w w w w w w w w w w w w w w w w w w w w w w w w w w w w w w w w w w w w w w w w w w w w w w w w w w w w w w w w w w w w w w w w w w w w w w w w w w w w w w w w w w w w w w w w w w w w w w w w w w w w w w w w w w w w w w w w w w w w w w w w w w w w w w w w w w w w w w w w w w w w w w w w w w w ",
"w w w w w w w w w w w w w w w w w w w w w w w w w w w w w w w w w w w w w w w w w w w w w w w w w w w w w w w w w w w w w w w w w w w w w w w w w w w w w w w w w w w w w w w w w w w w w w w w w w w w w w w w w w w w w w w w w w w w w w w w w w w w w w w w w w w w w w w w w w w w w w w w w w w w w w w w w w w w w w w w w w w w w w w w w w w w w w w w w w w w w w w w w w w w w w w w w w w w w w w w w w w w w w w w w w w w w w w w w w w w w w w w w w w w w w w w w w w w w w w w w w w w w w w w w w w w w w w w w w w w w w w w w w w w w w w w w w w w w w w w w w w w w w w w w w w w w w w w w w w w w w w w w w w w w w w w w w w w w w w w ",
"w w w w w w w w w w w w w w w w w w w w w w w w w w w w w w w w w w w w w w w w w w w w w w w w w w w w w w w w w w w w w w w w w w w w w w w w w w w w w w w w w w w w w w w w w w w w w w w w w w w w w w w w w w w w w w w w w w w w w w w w w w w w w w w w w w w w w w w w w w w w w w w w w w w w w w w w w w w w w w w w w w w w w w w w w w w w w w w w w w w w w w w w w w w w w w w w w w w w w w w w w w w w w w w w w w w w w w w w w w w w w w w w w w w w w w w w w w w w w w w w w w w w w w w w w w w w w w w w w w w w w w w w w w w w w w w w w w w w w w w w w w w w w w w w w w w w w w w w w w w w w w w w w w w w w w w w w w w w w w w w ",
"w w w w w w w w w w w w w w w w w w w w w w w w w w w w w w w w w w w w w w w w w w w w w w w w w w w w w w w w w w w w w w w w w w w w w w w w w w w w w w w w w w w w w w w w w w w w w w w w w w w w w w w w w w w w w w w w w w w w w w w w w w w w w w w w w w w w w w w w w w w w w w w w w w w w w w w w w w w w w w w w w w w w w w w w w w w w w w w w w w w w w w w w w w w w w w w w w w w w w w w w w w w w w w w w w w w w w w w w w w w w w w w w w w w w w w w w w w w w w w w w w w w w w w w w w w w w w w w w w w w w w w w w w w w w w w w w w w w w w w w w w w w w w w w w w w w w w w w w w w w w w w w w w w w w w w w w w w w w w w w w ",
"w w w w w w w w w w w w w w w w w w w w w w w w w w w w w w w w w w w w w w w w w w w w w w w w w w w w w w w w w w w w w w w w w w w w w w w w w w w w w w w w w w w w w w w w w w w w w w w w w w w w w w w w w w w w w w w w w w w w w w w w w w w w w w w w w w w w w w w w w w w w w w w w w w w w w w w w w w w w w w w w w w w w w w w w w w w w w w w w w w w w w w w w w w w w w w w w w w w w w w w w w w w w w w w w w w w w w w w w w w w w w w w w w w w w w w w w w w w w w w w w w w w w w w w w w w w w w w w w w w w w w w w w w w w w w w w w w w w w w w w w w w w w w w w w w w w w w w w w w w w w w w w w w w w w w w w w w w w w w w w w ",
"w w w w w w w w w w w w w w w w w w w w w w w w w w w w w w w w w w w w w w w w w w w w w w w w w w w w w w w w w w w w w w w w w w w w w w w w w w w w w w w w w w w w w w w w w w w w w w w w w w w w w w w w w w w w w w w w w w w w w w w w w w w w w w w w w w w w w w w w w w w w w w w w w w w w w w w w w w w w w w w w w w w w w w w w w w w w w w w w w w w w w w w w w w w w w w w w w w w w w w w w w w w w w w w w w w w w w w w w w w w w w w w w w w w w w w w w w w w w w w w w w w w w w w w w w w w w w w w w w w w w w w w w w w w w w w w w w w w w w w w w w w w w w w w w w w w w w w w w w w w w w w w w w w w w w w w w w w w w w w w w ",
"w w w w w w w w w w w w w w w w w w w w w w w w w w w w w w w w w w w w w w w w w w w w w w w w w w w w w w w w w w w w w w w w w w w w w w w w w w w w w w w w w w w w w w w w w w w w w w w w w w w w w w w w w w w w w w w w w w w w w w w w w w w w w w w w w w w w w w w w w w w w w w w w w w w w w w w w w w w w w w w w w w w w w w w w w w w w w w w w w w w w w w w w w w w w w w w w w w w w w w w w w w w w w w w w w w w w w w w w w w w w w w w w w w w w w w w w w w w w w w w w w w w w w w w w w w w w w w w w w w w w w w w w w w w w w w w w w w w w w w w w w w w w w w w w w w w w w w w w w w w w w w w w w w w w w w w w w w w w w w w w ",
"w w w w w w w w w w w w w w w w w w w w w w w w w w w w w w w w w w w w w w w w w w w w w w w w w w w w w w w w w w w w w w w w w w w w w w w w w w w w w w w w w w w w w w w w w w w w w w w w w w w w w w w w w w w w w w w w w w w w w w w w w w w w w w w w w w w w w w w w w w w w w w w w w w w w w w w w w w w w w w w w w w w w w w w w w w w w w w w w w w w w w w w w w w w w w w w w w w w w w w w w w w w w w w w w w w w w w w w w w w w w w w w w w w w w w w w w w w w w w w w w w w w w w w w w w w w w w w w w w w w w w w w w w w w w w w w w w w w w w w w w w w w w w w w w w w w w w w w w w w w w w w w w w w w w w w w w w w w w w w w w ",
"w w w w w w w w w w w w w w w w w w w w w w w w w w w w w w w w w w w w w w w w w w w w w w w w w w w w w w w w w w w w w w w w w w w w w w w w w w w w w w w w w w w w w w w w w w w w w w w w w w w w w w w w w w w w w w w w w w w w w w w w w w w w w w w w w w w w w w w w w w w w w w w w w w w w w w w w w w w w w w w w w w w w w w w w w w w w w w w w w w w w w w w w w w w w w w w w w w w w w w w w w w w w w w w w w w w w w w w w w w w w w w w w w w w w w w w w w w w w w w w w w w w w w w w w w w w w w w w w w w w w w w w w w w w w w w w w w w w w w w w w w w w w w w w w w w w w w w w w w w w w w w w w w w w w w w w w w w w w w w w w ",
"w w w w w w w w w w w w w w w w w w w w w w w w w w w w w w w w w w w w w w w w w w w w w w w w w w w w w w w w w w w w w w w w w w w w w w w w w w w w w w w w w w w w w w w w w w w w w w w w w w w w w w w w w w w w w w w w w w w w w w w w w w w w w w w w w w w w w w w w w w w w w w w w w w w w w w w w w w w w w w w w w w w w w w w w w w w w w w w w w w w w w w w w w w w w w w w w w w w w w w w w w w w w w w w w w w w w w w w w w w w w w w w w w w w w w w w w w w w w w w w w w w w w w w w w w w w w w w w w w w w w w w w w w w w w w w w w w w w w w w w w w w w w w w w w w w w w w w w w w w w w w w w w w w w w w w w w w w w w w w w w ",
"w w w w w w w w w w w w w w w w w w w w w w w w w w w w w w w w w w w w w w w w w w w w w w w w w w w w w w w w w w w w w w w w w w w w w w w w w w w w w w w w w w w w w w w w w w w w w w w w w w w w w w w w w w w w w w w w w w w w w w w w w w w w w w w w w w w w w w w w w w w w w w w w w w w w w w w w w w w w w w w w w w w w w w w w w w w w w w w w w w w w w w w w w w w w w w w w w w w w w w w w w w w w w w w w w w w w w w w w w w w w w w w w w w w w w w w w w w w w w w w w w w w w w w w w w w w w w w w w w w w w w w w w w w w w w w w w w w w w w w w w w w w w w w w w w w w w w w w w w w w w w w w w w w w w w w w w w w w w w w w w ",
"w w w w w w w w w w w w w w w w w w w w w w w w w w w w w w w w w w w w w w w w w w w w w w w w w w w w w w w w w w w w w w w w w w w w w w w w w w w w w w w w w w w w w w w w w w w w w w w w w w w w w w w w w w w w w w w w w w w w w w w w w w w w w w w w w w w w w w w w w w w w w w w w w w w w w w w w w w w w w w w w w w w w w w w w w w w w w w w w w w w w w w w w w w w w w w w w w w w w w w w w w w w w w w w w w w w w w w w w w w w w w w w w w w w w w w w w w w w w w w w w w w w w w w w w w w w w w w w w w w w w w w w w w w w w w w w w w w w w w w w w w w w w w w w w w w w w w w w w w w w w w w w w w w w w w w w w w w w w w w w w ",
"w w w w w w w w w w w w w w w w w w w w w w w w w w w w w w w w w w w w w w w w w w w w w w w w w w w w w w w w w w w w w w w w w w w w w w w w w w w w w w w w w w w w w w w w w w w w w w w w w w w w w w w w w w w w w w w w w w w w w w w w w w w w w w w w w w w w w w w w w w w w w w w w w w w w w w w w w w w w w w w w w w w w w w w w w w w w w w w w w w w w w w w w w w w w w w w w w w w w w w w w w w w w w w w w w w w w w w w w w w w w w w w w w w w w w w w w w w w w w w w w w w w w w w w w w w w w w w w w w w w w w w w w w w w w w w w w w w w w w w w w w w w w w w w w w w w w w w w w w w w w w w w w w w w w w w w w w w w w w w w w "
};
