/* XPM */
static char *end_floor3_039[] = {
/* columns rows colors chars-per-pixel */
"320 200 65 1 ",
"  c #000000",
". c #0B0B0B",
"X c gray8",
"o c #1C1C1C",
"O c #00002C",
"+ c #00003C",
"@ c gray14",
"# c #2C2C2C",
"$ c #343434",
"% c #3C3C3C",
"& c #600000",
"* c #743804",
"= c #004400",
"- c #005C00",
"; c #007400",
": c #000050",
"> c #000064",
", c #244870",
"< c #444444",
"1 c #4C4C4C",
"2 c #545454",
"3 c #5C5C5C",
"4 c #646464",
"5 c #6C6C6C",
"6 c #747474",
"7 c #7C7C7C",
"8 c #F80000",
"9 c #884404",
"0 c #984C08",
"q c #AC580C",
"w c #C47024",
"e c #008C00",
"r c #00A400",
"t c #CC8038",
"y c #D09050",
"u c #040488",
"i c #0C0CAC",
"p c #2C5480",
"a c #346090",
"s c #3C6CA0",
"d c #4C78A8",
"f c #1010C0",
"g c #4040D0",
"h c #7878E0",
"j c #5884B0",
"k c #6C90BC",
"l c #848484",
"z c #8C8C8C",
"x c #939393",
"c c #989898",
"v c #A0A0A0",
"b c #A8A8A8",
"n c #B0B0B0",
"m c #BCBCBC",
"M c #ECD0B4",
"N c #80A0C4",
"B c #C4C4C4",
"V c #CCCCCC",
"C c #D4D4D4",
"Z c #DADADA",
"A c #D8D8F4",
"S c #E0E0E0",
"D c #E8E8E8",
"F c #F1F1F1",
"G c #FCFCFC",
/* pixels */
"@@@@@@@@@@@@@@@@@@@@@@@@@@@@@@@@@@@@@@@@@@@@@@@@@@@@@@@@@@@@@@@@@@@@@@@@@@@@@@@@@@@@@@@@@@@@@@@@@@@@@@@@@@@@@@@@@@@@@@@@@@@@@@@@@@@@@@@@@@@@@@@@@@@@@@@@@@@@@@@@@@@@@@@@@@@@@@@@@@@@@@@@@@@@@@@@@@@@@@@@@@@@@@@@@@@@@@@@@@@@@@@@@@@@@@@@@@@@@@@@@@@@@@@@@@@@@@@@@@@@@@@@@@@@@@@@@@@@@@@@@@@@@@@@@@@@@@@@@@@@@@@@@@@@@@@@@@@@@@@@",
"@@@@@@@@@@@@@@@@@@@@@@@@@@@@@@@@@@@@@@@@@@@@@@@@@@@@@@@@@@@@@@@@@@@@@@@@@@@@@@@@@@@@@@@@@@@@@@@@@@@@@@@@@@@@@@@@@@@@@@@@@@@@@@@@@@@@@@@@@@@@@@@@@@@@@@@@@@@@@@@@@@@@@@@@@@@@@@@@@@@@@@@@@@@@@@@@@@@@@@@@@@@@@@@@@@@@@@@@@@@@@@@@@@@@@@@@@@@@@@@@@@@@@@@@@@@@@@@@@@@@@@@@@@@@@@@@@@@@@@@@@@@@@@@@@@@@@@@@@@@@@@@@@@@@@@@@@@@@@@@@",
"@@@@@@@@@@@@@@@@@@@@@@@@@@@@@@@@@@@@@@@@@@@@@@@@@@@@@@@@@@@@@@@@@@@@@@@@@@@@@@@@@@@@@@@@@@@@@@@@@@@@@@@@@@@@@@@@@@@@@@@@@@@@@@@@@@@@@@@@@@@@@@@@@@@@@@@@@@@@@@@@@@@@@@@@@@@@@@@@@@@@@@@@@@@@@@@@@@@@@@@@@@@@@@@@@@@@@@@@@@@@@@@@@@@@@@@@@@@@@@@@@@@@@@@@@@@@@@@@@@@@@@@@@@@@@@@@@@@@@@@@@@@@@@@@@@@@@@@@@@@@@@@@@@@@@@@@@@@@@@@@",
"@@@@@@@@@@@@@@@@@@@@@@@@@@@@@@@@@@@@@@@@@@@@@@@@@@@@@@@@@@@@@@@@@@@@@@@@@@@@@@@@@@@@@@@@@@@@@@@@@@@@@@@@@@@@@@@@@@@@@@@@@@@@@@@@@@@@@@@@@@@@@@@@@@@@@@@@@@@@@@@@@@@@@@@@@@@@@@@@@@@@@@@@@@@@@@@@@@@@@@@@@@@@@@@@@@@@@@@@@@@@@@@@@@@@@@@@@@@@@@@@@@@@@@@@@@@@@@@@@@@@@@@@@@@@@@@@@@@@@@@@@@@@@@@@@@@@@@@@@@@@@@@@@@@@@@@@@@@@@@@@",
"@@@@@@@@@@@@@@@@@@@@@@@@@@@@@@@@@@@@@@@@@@@@@@@@@@@@@@@@@@@@@@@@@@@@@@@@@@@@@@@@@@@@@@@@@@@@@@@@@@@@@@@@@@@@@@@@@@@@@@@@@@@@@@@@@@@@@@@@@@@@@@@@@@@@@@@@@@@@@@@@@@@@@@@@@@@@@@@@@@@@@@@@@@@@@@@@@@@@@@@@@@@@@@@@@@@@@@@@@@@@@@@@@@@@@@@@@@@@@@@@@@@@@@@@@@@@@@@@@@@@@@@@@@@@@@@@@@@@@@@@@@@@@@@@@@@@@@@@@@@@@@@@@@@@@@@@@@@@@@@@",
"@@@@@@@@@@@@@@@@@@@@@@@@@@@@@@@@@@@@@@@@@@@@@@@@@@@@@@@@@@@@@@@@@@@@@@@@@@@@@@@@@@@@@@@@@@@@@@@@@@@@@@@@@@@@@@@@@@@@@@@@@@@@@@@@@@@@@@@@@@@@@@@@@@@@@@@@@@@@@@@@@@@@@@@@@@@@@@@@@@@@@@@@@@@@@@@@@@@@@@@@@@@@@@@@@@@@@@@@@@@@@@@@@@@@@@@@@@@@@@@@@@@@@@@@@@@@@@@@@@@@@@@@@@@@@@@@@@@@@@@@@@@@@@@@@@@@@@@@@@@@@@@@@@@@@@@@@@@@@@@@",
"@@@@@@@@@@@@@@@@@@@@@@@@@@@@@@@@@@@@@@@@@@@@@@@@@@@@@@@@@@@@@@@@@@@@@@@@@@@@@@@@@@@@@@@@@@@@@@@@@@@@@@@@@@@@@@@@@@@@@@@@@@@@@@@@@@@@@@@@@@@@@@@@@@@@@@@@@@@@@@@@@@@@@@@@@@@@@@@@@@@@@@@@@@@@@@@@@@@@@@@@@@@@@@@@@@@@@@@@@@@@@@@@@@@@@@@@@@@@@@@@@@@@@@@@@@@@@@@@@@@@@@@@@@@@@@@@@@@@@@@@@@@@@@@@@@@@@@@@@@@@@@@@@@@@@@@@@@@@@@@@",
"@@@@@@@@@@@@@@@@@@@@@@@@@@@@@@@@@@@@@@@@@@@@@@@@@@@@@@@@@@@@@@@@@@@@@@@@@@@@@@@@@@@@@@@@@@@@@@@@@@@@@@@@@@@@@@@@@@@@@@@@@@@@@@@@@@@@@@@@@@@@@@@@@@@@@@@@@@@@@@@@@@@@@@@@@@@@@@@@@@@@@@@@@@@@@@@@@@@@@@@@@@@@@@@@@@@@@@@@@@@@@@@@@@@@@@@@@@@@@@@@@@@@@@@@@@@@@@@@@@@@@@@@@@@@@@@@@@@@@@@@@@@@@@@@@@@@@@@@@@@@@@@@@@@@@@@@@@@@@@@@",
"@@@@@@@@@@@@@@@@@@@@@@@@@@@@@@@@@@@@@@@@@@@@@@@@@@@@@@@@@@@@@@@@@@@@@@@@@@@@@@@@@@@@@@@@@@@@@@@@@@@@@@@@@@@@@@@@@@@@@@@@@@@@@@@@@@@@@@@@@@@@@@@@@@@@@@@@@@@@@@@@@@@@@@@@@@@@@@@@@@@@@@@@@@@@@@@@@@@@@@@@@@@@@@@@@@@@@@@@@@@@@@@@@@@@@@@@@@@@@@@@@@@@@@@@@@@@@@@@@@@@@@@@@@@@@@@@@@@@@@@@@@@@@@@@@@@@@@@@@@@@@@@@@@@@@@@@@@@@@@@@",
"@@@@@@@@@@@@@@@@@@@@@@@@@@@@@@@@@@@@@@@@@@@@@@@@@@@@@@@@@@@@@@@@@@@@@@@@@@@@@@@@@@@@@@@@@@@@@@@@@@@@@@@@@@@@@@@@@@@@@@@@@@@@@@@@@@@@@@@@@@@@@@@@@@@@@@@@@@@@@@@@@@@@@@@@@@@@@@@@@@@@@@@@@@@@@@@@@@@@@@@@@@@@@@@@@@@@@@@@@@@@@@@@@@@@@@@@@@@@@@@@@@@@@@@@@@@@@@@@@@@@@@@@@@@@@@@@@@@@@@@@@@@@@@@@@@@@@@@@@@@@@@@@@@@@@@@@@@@@@@@@",
"@@@@@@@@@@@@@@@@@@@@@@@@@@@@@@@@@@@@@@@@@@@@@@@@@@@@@@@@@@@@@@@@@@@@@@@@@@@@@@@@@@@@@@@@@@@@@@@@@@@@@@@@@@@@@@@@@@@@@@@@@@@@@@@@@@@@@@@@@@@@@@@@@@@@@@@@@@@@@@@@@@@@@@@@@@@@@@@@@@@@@@@@@@@@@@@@@@@@@@@@@@@@@@@@@@@@@@@@@@@@@@@@@@@@@@@@@@@@@@@@@@@@@@@@@@@@@@@@@@@@@@@@@@@@@@@@@@@@@@@@@@@@@@@@@@@@@@@@@@@@@@@@@@@@@@@@@@@@@@@@",
"@@@@@@@@@@@@@@@@@@@@@@@@@@@@@@@@@@@@@@@@@@@@@@@@@@@@@@@@@@@@@@@@@@@@@@@@@@@@@@@@@@@@@@@@@@@@@@@@@@@@@@@@@@@@@@@@@@@@@@@@@@@@@@@@@@@@@@@@@@@@@@@@@@@@@@@@@@@@@@@@@@@@@@@@@@@@@@@@@@@@@@@@@@@@@@@@@@@@@@@@@@@@@@@@@@@@@@@@@@@@@@@@@@@@@@@@@@@@@@@@@@@@@@@@@@@@@@@@@@@@@@@@@@@@@@@@@@@@@@@@@@@@@@@@@@@@@@@@@@@@@@@@@@@@@@@@@@@@@@@@",
"@@@@@@@@@@@@@@@@@@@@@@@@@@@@@@@@@@@@@@@@@@@@@@@@@@@@@@@@@@@@@@@@@@@@@@@@@@@@@@@@@@@@@@@@@@@@@@@@@@@@@@@@@@@@@@@@@@@@@@@@@@@@@@@@@@@@@@@@@@@@@@@@@@@@@@@@@@@@@@@@@@@@@@@@@@@@@@@@@@@@@@@@@@@@@@@@@@@@@@@@@@@@@@@@@@@@@@@@@@@@@@@@@@@@@@@@@@@@@@@@@@@@@@@@@@@@@@@@@@@@@@@@@@@@@@@@@@@@@@@@@@@@@@@@@@@@@@@@@@@@@@@@@@@@@@@@@@@@@@@@",
"@@@@@@@@@@@@@@@@@@@@@@@@@@@@@@@@@@@@@@@@@@@@@@@@@@@@@@@@@@@@@@@@@@@@@@@@@@@@@@@@@@@@@@@@@@@@@@@@@@@@@@@@@@@@@@@@@@@@@@@@@@@@@@@@@@@@@@@@@@@@@@@@@@@@@@@@@@@@@@@@@@@@@@@@@@@@@@@@@@@@@@@@@@@@@@@@@@@@@@@@@@@@@@@@@@@@@@@@@@@@@@@@@@@@@@@@@@@@@@@@@@@@@@@@@@@@@@@@@@@@@@@@@@@@@@@@@@@@@@@@@@@@@@@@@@@@@@@@@@@@@@@@@@@@@@@@@@@@@@@@",
"@@@@@@@@@@@@@@@@@@@@@@@@@@@@@@@@@@@@@@@@@@@@@@@@@@@@@@@@@@@@@@@@@@@@@@@@@@@@@@@@@@@@@@@@@@@@@@@@@@@@@@@@@@@@@@@@@@@@@@@@@@@@@@@@@@@@@@@@@@@@@@@@@@@@@@@@@@@@@@@@@@@@@@@@@@@@@@@@@@@@@@@@@@@@@@@@@@@@@@@@@@@@@@@@@@@@@@@@@@@@@@@@@@@@@@@@@@@@@@@@@@@@@@@@@@@@@@@@@@@@@@@@@@@@@@@@@@@@@@@@@@@@@@@@@@@@@@@@@@@@@@@@@@@@@@@@@@@@@@@@",
"@@@@@@@@@@@@@@@@@@@@@@@@@@@@@@@@@@@@@@@@@@@@@@@@@@@@@@@@@@@@@@@@@@@@@@@@@@@@@@@@@@@@@@@@@@@@@@@@@@@@@@@@@@@@@@@@@@@@@@@@@@@@@@@@@@@@@@@@@@@@@@@@@@@@@@@@@@@@@@@@@@@@@@@@@@@@@@@@@@@@@@@@@@@@@@@@@@@@@@@@@@@@@@@@@@@@@@@@@@@@@@@@@@@@@@@@@@@@@@@@@@@@@@@@@@@@@@@@@@@@@@@@@@@@@@@@@@@@@@@@@@@@@@@@@@@@@@@@@@@@@@@@@@@@@@@@@@@@@@@@",
"@@@@@@@@@@@@@@@@@@@@@@@@@@@@@@@@@@@@@@@@@@@@@@@@@@@@@@@@@@@@@@@@@@@@@@@@@@@@@@@@@@@@@@@@@@@@@@@@@@@@@@@@@@@@@@@@@@@@@@@@@@@@@@@@@@@@@@@@@@@@@@@@@@@@@@@@@@@@@@@@@@@@@@@@@@@@@@@@@@@@@@@@@@@@@@@@@@@@@@@@@@@@@@@@@@@@@@@@@@@@@@@@@@@@@@@@@@@@@@@@@@@@@@@@@@@@@@@@@@@@@@@@@@@@@@@@@@@@@@@@@@@@@@@@@@@@@@@@@@@@@@@@@@@@@@@@@@@@@@@@",
"@@@@@@@@@@@@@@@@@@@@@@@@@@@@@@@@@@@@@@@@@@@@@@@@@@@@@@@@@@@@@@@@@@@@@@@@@@@@@@@@@@@@@@@@@@@@@@@@@@@@@@@@@@@@@@@@@@@@@@@@@@@@@@@@@@@@@@@@@@@@@@@@@@@@@@@@@@@@@@@@@@@@@@@@@@@@@@@@@@@@@@@@@@@@@@@@@@@@@@@@@@@@@@@@@@@@@@@@@@@@@@@@@@@@@@@@@@@@@@@@@@@@@@@@@@@@@@@@@@@@@@@@@@@@@@@@@@@@@@@@@@@@@@@@@@@@@@@@@@@@@@@@@@@@@@@@@@@@@@@@",
"@@@@@@@@@@@@@@@@@@@@@@@@@@@@@@@@@@@@@@@@@@@@@@@@@@@@@@@@@@@@@@@@@@@@@@@@@@@@@@@@@@@@@@@@@@@@@@@@@@@@@@@@@@@@@@@@@@@@@@@@@@@@@@@@@@@@@@@@@@@@@@@@@@@@@@@@@@@@@@@@@@@@@@@@@@@@@@@@@@@@@@@@@@@@@@@@@@@@@@@@@@@@@@@@@@@@@@@@@@@@@@@@@@@@@@@@@@@@@@@@@@@@@@@@@@@@@@@@@@@@@@@@@@@@@@@@@@@@@@@@@@@@@@@@@@@@@@@@@@@@@@@@@@@@@@@@@@@@@@@@",
"@@@@@@@@@@@@@@@@@@@@@@@@@@@@@@@@@@@@@@@@@@@@@@@@@@@@@@@@@@@@@@@@@@@@@@@@@@@@@@@@@@@@@@@@@@@@@@@@@@@@@@@@@@@@@@@@@@@@@@@@@@@@@@@@@@@@@@@@@@@@@@@@@@@@@@@@@@@@@@@@@@@@@@@@@@@@@@@@@@@@@@@@@@@@@@@@@@@@@@@@@@@@@@@@@@@@@@@@@@@@@@@@@@@@@@@@@@@@@@@@@@@@@@@@@@@@@@@@@@@@@@@@@@@@@@@@@@@@@@@@@@@@@@@@@@@@@@@@@@@@@@@@@@@@@@@@@@@@@@@@",
"@@@@@@@@@@@@@@@@@@@@@@@@@@@@@@@@@@@@@@@@@@@@@@@@@@@@@@@@@@@@@@@@@@@@@@@@@@@@@@@@@@@@@@@@@@@@@@@@@@@@@@@@@@@@@@@@@@@@@@@@@@@@@@@@@@@@@@@@@@@@@@@@@@@@@@@@@@@@@@@@@@@@@@@@@@@@@@@@@@@@@@@@@@@@@@@@@@@@@@@@@@@@@@@@@@@@@@@@@@@@@@@@@@@@@@@@@@@@@@@@@@@@@@@@@@@@@@@@@@@@@@@@@@@@@@@@@@@@@@@@@@@@@@@@@@@@@@@@@@@@@@@@@@@@@@@@@@@@@@@@",
"@@@@@@@@@@@@@@@@@@@@@@@@@@@@@@@@@@@@@@@@@@@@@@@@@@@@@@@@@@@@@@@@@@@@@@@@@@@@@@@@@@@@@@@@@@@@@@@@@@@@@@@@@@@@@@@@@@@@@@@@@@@@@@@@@@@@@@@@@@@@@@@@@@@@@@@@@@@@@@@@@@@@@@@@@@@@@@@@@@@@@@@@@@@@@@@@@@@@@@@@@@@@@@@@@@@@@@@@@@@@@@@@@@@@@@@@@@@@@@@@@@@@@@@@@@@@@@@@@@@@@@@@@@@@@@@@@@@@@@@@@@@@@@@@@@@@@@@@@@@@@@@@@@@@@@@@@@@@@@@@",
"@@@@@@@@@@@@@@@@@@@@@@@@@@@@@@@@@@@@@@@@@@@@@@@@@@@@@@@@@@@@@@@@@@@@@@@@@@@@@@@@@@@@@@@@@@@@@@@@@@@@@@@@@@@@@@@@@@@@@@@@@@@@@@@@@@@@@@@@@@@@@@@@@@@@@@@@@@@@@@@@@@@@@@@@@@@@@@@@@@@@@@@@@@@@@@@@@@@@@@@@@@@@@@@@@@@@@@@@@@@@@@@@@@@@@@@@@@@@@@@@@@@@@@@@@@@@@@@@@@@@@@@@@@@@@@@@@@@@@@@@@@@@@@@@@@@@@@@@@@@@@@@@@@@@@@@@@@@@@@@@",
"@@@@@@@@@@@@@@@@@@@@@@@@@@@@@@@@@@@@@@@@@@@@@@@@@@@@@@@@@@@@@@@@@@@@@@@@@@@@@@@@@@@@@@@@@@@@@@@@@@@@@@@@@@@@@@@@@@@@@@@@@@@@@@@@@@@@@@@@@@@@@@@@@@@@@@@@@@@@@@@@@@@@@@@@@@@@@@@@@@@@@@@@@@@@@@@@@@@@@@@@@@@@@@@@@@@@@@@@@@@@@@@@@@@@@@@@@@@@@@@@@@@@@@@@@@@@@@@@@@@@@@@@@@@@@@@@@@@@@@@@@@@@@@@@@@@@@@@@@@@@@@@@@@@@@@@@@@@@@@@@",
"@@@@@@@@@@@@@@@@@@@@@@@@@@@@@@@@@@@@@@@@@@@@@@@@@@@@@@@@@@@@@@@@@@@@@@@@@@@@@@@@@@@@@@@@@@@@@@@@@@@@@@@@@@@@@@@@@@@@@@@@@@@@@@@@@@@@@@@@@@@@@@@@@@@@@@@@@@@@@@@@@@@@@@@@@@@@@@@@@@@@@@@@@@@@@@@@@@@@@@@@@@@@@@@@@@@@@@@@@@@@@@@@@@@@@@@@@@@@@@@@@@@@@@@@@@@@@@@@@@@@@@@@@@@@@@@@@@@@@@@@@@@@@@@@@@@@@@@@@@@@@@@@@@@@@@@@@@@@@@@@",
"@@@@@@@@@@@@@@@@@@@@@@@@@@@@@@@@@@@@@@@@@@@@@@@@@@@@@@@@@@@@@@@@@@@@@@@@@@@@@@@@@@@@@@@@@@@@@@@@@@@@@@@@@@@@@@@@@@@@@@@@@@@@@@@@@@@@@@@@@@@@@@@@@@@@@@@@@@@@@@@@@@@@@@@@@@@@@@@@@@@@@@@@@@@@@@@@@@@@@@@@@@@@@@@@@@@@@@@@@@@@@@@@@@@@@@@@@@@@@@@@@@@@@@@@@@@@@@@@@@@@@@@@@@@@@@@@@@@@@@@@@@@@@@@@@@@@@@@@@@@@@@@@@@@@@@@@@@@@@@@@",
"@@@@@@@@@@@@@@@@@@@@@@@@@@@@@@@@@@@@@@@@@@@@@@@@@@@@@@@@@@@@@@@@@@@@@@@@@@@@@@@@@@@@@@@@@@@@@@@@@@@@@@@@@@@@@@@@@@@@@@@@@@@@@@@@@@@@@@@@@@@@@@@@@@@@@@@@@@@@@@@@@@@@@@@@@@@@@@@@@@@@@@@@@@@@@@@@@@@@@@@@@@@@@@@@@@@@@@@@@@@@@@@@@@@@@@@@@@@@@@@@@@@@@@@@@@@@@@@@@@@@@@@@@@@@@@@@@@@@@@@@@@@@@@@@@@@@@@@@@@@@@@@@@@@@@@@@@@@@@@@@",
"@@@@@@@@@@@@@@@@@@@@@@@@@@@@@@@@@@@@@@@@@@@@@@@@@@@@@@@@@@@@@@@@@@@@@@@@@@@@@@@@@@@@@@@@@@@@@@@@@@@@@@@@@@@@@@@@@@@@@@@@@@@@@@@@@@@@@@@@@@@@@@@@@@@@@@@@@@@@@@@@@@@@@@@@@@@@@@@@@@@@@@@@@@@@@@@@@@@@@@@@@@@@@@@@@@@@@@@@@@@@@@@@@@@@@@@@@@@@@@@@@@@@@@@@@@@@@@@@@@@@@@@@@@@@@@@@@@@@@@@@@@@@@@@@@@@@@@@@@@@@@@@@@@@@@@@@@@@@@@@@",
"@@@@@@@@@@@@@@@@@@@@@@@@@@@@@@@@@@@@@@@@@@@@@@@@@@@@@@@@@@@@@@@@@@@@@@@@@@@@@@@@@@@@@@@@@@@@@@@@@@@@@@@@@@@@@@@@@@@@@@@@@@@@@@@@@@@@@@@@@@@@@@@@@@@@@@@@@@@@@@@@@@@@@@@@@@@@@@@@@@@@@@@@@@@@@@@@@@@@@@@@@@@@@@@@@@@@@@@@@@@@@@@@@@@@@@@@@@@@@@@@@@@@@@@@@@@@@@@@@@@@@@@@@@@@@@@@@@@@@@@@@@@@@@@@@@@@@@@@@@@@@@@@@@@@@@@@@@@@@@@@",
"@@@@@@@@@@@@@@@@@@@@@@@@@@@@@@@@@@@@@@@@@@@@@@@@@@@@@@@@@@@@@@@@@@@@@@@@@@@@@@@@@@@@@@@@@@@@@@@@@@@@@@@@@@@@@@@@@@@@@@@@@@@@@@@@@@@@@@@@@@@@@@@@@@@@@@@@@@@@@@@@@@@@@@@@@@@@@@@@@@@@@@@@@@@@@@@@@@@@@@@@@@@@@@@@@@@@@@@@@@@@@@@@@@@@@@@@@@@@@@@@@@@@@@@@@@@@@@@@@@@@@@@@@@@@@@@@@@@@@@@@@@@@@@@@@@@@@@@@@@@@@@@@@@@@@@@@@@@@@@@@",
"@@@@@@@@@@@@@@@@@@@@@@@@@@@@@@@@@@@@@@@@@@@@@@@@@@@@@@@@@@@@@@@@@@@@@@@@@@@@@@@@@@@@@@@@@@@@@@@@@@@@@@@@@@@@@@@@@@@@@@@@@@@@@@@@@@@@@@@@@@@@@@@@@@@@@@@@@@@@@@@@@@@@@@@@@@@@@@@@@@@@@@@@@@@@@@@@@@@@@@@@@@@@@@@@@@@@@@@@@@@@@@@@@@@@@@@@@@@@@@@@@@@@@@@@@@@@@@@@@@@@@@@@@@@@@@@@@@@@@@@@@@@@@@@@@@@@@@@@@@@@@@@@@@@@@@@@@@@@@@@@",
"@@@@@@@@@@@@@@@@@@@@@@@@@@@@@@@@@@@@@@@@@@@@@@@@@@@@@@@@@@@@@@@@@@@@@@@@@@@@@@@@@@@@@@@@@@@@@@@@@@@@@@@@@@@@@@@@@@@@@@@@@@@@@@@@@@@@@@@@@@@@@@@@@@@@@@@@@@@@@@@@@@@@@@@@@@@@@@@@@@@@@@@@@@@@@@@@@@@@@@@@@@@@@@@@@@@@@@@@@@@@@@@@@@@@@@@@@@@@@@@@@@@@@@@@@@@@@@@@@@@@@@@@@@@@@@@@@@@@@@@@@@@@@@@@@@@@@@@@@@@@@@@@@@@@@@@@@@@@@@@@",
"@@@@@@@@@@@@@@@@@@@@@@@@@@@@@@@@@@@@@@@@@@@@@@@@@@@@@@@@@@@@@@@@@@@@@@@@@@@@@@@@@@@@@@@@@@@@@@@@@@@@@@@@@@@@@@@@@@@@@@@@@@@@@@@@@@@@@@@@@@@@@@@@@@@@@@@@@@@@@@@@@@@@@@@@@@@@@@@@@@@@@@@@@@@@@@@@@@@@@@@@@@@@@@@@@@@@@@@@@@@@@@@@@@@@@@@@@@@@@@@@@@@@@@@@@@@@@@@@@@@@@@@@@@@@@@@@@@@@@@@@@@@@@@@@@@@@@@@@@@@@@@@@@@@@@@@@@@@@@@@@",
"@@@@@@@@@@@@@@@@@@@@@@@@@@@@@@@@@@@@@@@@@@@@@@@@@@@@@@@@@@@@@@@@@@@@@@@@@@@@@@@@@@@@@@@@@@@@@@@@@@@@@@@@@@@@@@@@@@@@@@@@@@@@@@@@@@@@@@@@@@@@@@@@@@@@@@@@@@@@@@@@@@@@@@@@@@@@@@@@@@@@@@@@@@@@@@@@@@@@@@@@@@@@@@@@@@@@@@@@@@@@@@@@@@@@@@@@@@@@@@@@@@@@@@@@@@@@@@@@@@@@@@@@@@@@@@@@@@@@@@@@@@@@@@@@@@@@@@@@@@@@@@@@@@@@@@@@@@@@@@@@",
"@@@@@@@@@@@@@@@@@@@@@@@@@@@@@@@@@@@@@@@@@@@@@@@@@@@@@@@@@@@@@@@@@@@@@@@@@@@@@@@@@@@@@@@@@@@@@@@@@@@@@@@@@@@@@@@@@@@@@@@@@@@@@@@@@@@@@@@@@@@@@@@@@@@@@@@@@@@@@@@@@@@@@@@@@@@@@@@@@@@@@@@@@@@@@@@@@@@@@@@@@@@@@@@@@@@@@@@@@@@@@@@@@@@@@@@@@@@@@@@@@@@@@@@@@@@@@@@@@@@@@@@@@@@@@@@@@@@@@@@@@@@@@@@@@@@@@@@@@@@@@@@@@@@@@@@@@@@@@@@@",
"@@@@@@@@@@@@@@@@@@@@@@@@@@@@@@@@@@@@@@@@@@@@@@@@@@@@@@@@@@@@@@@@@@@@@@@@@@@@@@@@@@@@@@@@@@@@@@@@@@@@@@@@@@@@@@@@@@@@@@@@@@@@@@@@@@@@@@@@@@@@@@@@@@@@@@@@@@@@@@@@@@@@@@@@@@@@@@@@@@@@@@@@@@@@@@@@@@@@@@@@@@@@@@@@@@@@@@@@@@@@@@@@@@@@@@@@@@@@@@@@@@@@@@@@@@@@@@@@@@@@@@@@@@@@@@@@@@@@@@@@@@@@@@@@@@@@@@@@@@@@@@@@@@@@@@@@@@@@@@@@",
"@@@@@@@@@@@@@@@@@@@@@@@@@@@@@@@@@@@@@@@@@@@@@@@@@@@@@@@@@@@@@@@@@@@@@@@@@@@@@@@@@@@@@@@@@@@@@@@@@@@@@@@@@@@@@@@@@@@@@@@@@@@@@@@@@@@@@@@@@@@@@@@@@@@@@@@@@@@@@@@@@@@@@@@@@@@@@@@@@@@@@@@@@@@@@@@@@@@@@@@@@@@@@@@@@@@@@@@@@@@@@@@@@@@@@@@@@@@@@@@@@@@@@@@@@@@@@@@@@@@@@@@@@@@@@@@@@@@@@@@@@@@@@@@@@@@@@@@@@@@@@@@@@@@@@@@@@@@@@@@@",
"                          424234667lzcvbnmBVBmnbvczl7656zcz3                             O     O                                                            f                                                                                                +                                          O                       ",
"                         %424234667lzcvbnmBVBmnbvczl7656zcz3%                                                                       O                        :                                                                                                                                                              :O  ",
"                         <424234667lzcvbnmBVBmnbvczl7656zcz3<     :                                                                                                                                               :                                                                Bb      BB                                   ",
"                         1424234667lzcvbnmBVBmnbvczl7656zcz31                                                                                                                                                                                                                     BbmB    Bbbb                                  ",
"     A                   2424234667lzcvbnmBVBmnbvczl7656zcz32                                      O                    O                                                                   O                                                                       f            BbmB7   Bbbm7           :                      ",
"                         3424234667lzcvbnmBVBmnbvczl7656zcz33                                                                                                                                                                                                                   BbmB7   Bbbm7  :                                ",
"       O    :            4424234667lzcvbnmBVBmnbvczl7656zcz33              A                                                                                                                           O                                                                       BbmB7   Bbbm7:                                   ",
"          O              4424234667lzcvbnmBVBmnbvczl7656zcz33                A                                                                    O                                                        O                         A            +                           BbmB7   Bbbm7                                     ",
"                 :       3424234667lzccbnmBVBmnbvczl7656zcz33  f     :                                                                      O                                   A O                                                 f                          <llllllllllllllllB7   Bbbm7                                   :  ",
"                         3424234667lzcvbnmBVBmnbvczl7656zcz33                                                O                f     :                                                                                       +                              <llll5555555555555555llllBbbm7    :                    :             ",
"                         3424234667lzcvbnmBVBmnbvczl7656zcz33          O                           O           O                                                                                                                          :     O        <ll555555556555555555555555llm7                                        ",
"                         3254234667lzcvbnmBVBmnbcczl7656zcz33                                                                                                               O                                                                           <l55555533333333333333335555557<                                        ",
"                         3254234667lzcvbnmBVBmnbbczl7656zcz63                           :                                                      :                                O                                                                      <l5553333                3333555l<                      AO              O",
"        O                3254234667lzcvbnmBVBmnbcczl7656zcz63                                                                                                                            :                                                             l5533   266666666666666662   3355l                                       ",
"                         3254234667lzcvbnmBVBmnbvczl7656zcz73       O                                                                               :                                                                                                  553  266666cvbnmBVBmnbcc66662  355                                       ",
"                         3254234667lzcvbnmBVBmnbvczl76567zcz3                                                                        O                                         :                          :                                     O      53 664667lzcvbnmBVBmnbvczl75666 35                                   O   ",
"               O        O3254234667lzcvbnmBVBmnbvczl76566zcz3         :                       :             :                               O                    O                                                                                     3 5423467lzcvbnmBVBmnbvczl756zc6 3                                       ",
"                     A   3254234667lzccbnmBVBmnbvczl76566zcz3                                                            O                          :         O       :             O                                                          O        45423467lzcvbnmBVBmnbbczl756zcz3                                        ",
"                        %3254234667lzcvbnmBVBmnbvczl76566zcz3%                                            O                        O                         O             :                                                                           %45423467lzcvbnmBVBmnbcczl756zcz3%                                       ",
"                        <3254234667lzcvbnmBVBmnbvczl76566zcz3<                                     :                                                      :                                       +                                            +       <45423467lzcvbnmBVBmnbvczl756zcz3<   A                                   ",
"        :          :    13254234667lzcvbnmBVBmnbvczl76566zcz31                                                                                              :               f   O                            :                                     O   145423467lzcvbnmBVBmnbvczl756zcz31                  O     :              ",
"                        23254234667lzcvbnmBVBmnbvczl76566zcz32              O                                                                                                                        O                                                 245423467lzcvbnmBVBmnbcczl756zcz32            O       :       Of         ",
"              f         33254234667lzcvbnmBVBmnbvczl76566zcz33                                   :            O            A           O O                         :     O                                               O                             345423467lzcvbnmBVBmnbvczl756zcz33                                       ",
"         :              43254234667lzcvbnmBVBmnbvczl76566zcz33       :        O                                                                                                                      :                                                 445423467lzcvbnmBVBmnbvczl756zcz33                                       ",
"                        43254234667lzcvbnmBVBmnbvczl76566zcz33                                                O                 :      :       O                  O                                                                                  f 445423467lzcvbnmBVBmnbvczl756zcz33                                       ",
"            O           33254234667lzcvbnmBVBmnbvczl76566zcz33                                                                                                                                                                                         345423467lzcvbnmBVBmnbvczl756zcz33                                       ",
"                        33254234667lzcvbnmBVBmnbvczl76566zcz33                                                            O     O                         O                                                   O          :                             345423467lzcvbnmBVBmnbvczl756zcz73                                       ",
"                        33254234667lzcvbnmBVBmnbvczl76566zcz33                                                                                                                       :     +                                                           345423467lzcvbnmBVBmnbvczl7567zcz3                                       ",
"                        33254234667lzcvbnmBVBmnbvczl76566zcz33                                          OO                                                    :           +                                                                 O          345423467lzcvbnmBVBmnbvczl7566zcz3        O                              ",
"                        33254234667lzcvbnmBVBmnbvczl76566zcz33                 :                  :                                                        O                  +                                     :                                  345423467lzcvbnmBVBmnbvczl7566zcz3                                       ",
"      :                 33254234667lzcvbnmBVBmnbvczl76566zcz33                          O                               O                                                                                                          O                   345423467lzcvbnmBVBmnbcczl7566zcz3                                       ",
"                        33254234667lzccbnmBVBmnbvczl76566zcz33             f                                                           O   O                             :                                                           O                 345423467lzcvbnmBVBmnbvczl7566zcz3               : O                     ",
"     O                  32453234667lzcvbnmBVBmnbvczl76656zcz33                                                        :                                                              +                                                                 345423467lzcvbnmBVBmnbvczl7656zcz3                                       ",
"                        32542345667lzcvbnmBVBmnbvczl76656zcz33                                                          O                                                                                                                              344234567lzcvbnmBVBmnbvczl7656zcz3                                       ",
"                        32542346667lzcvbnmBVBmnbvczl76656zcz63                                                                                                                                          :                                              454234667lzcvbnmBVBmnbvczl7656zcz3                                       ",
"                       %32542346667lzcvbnmBVBmnbvczl76656zcz73%                                                                                        :                      +                                                                       %454234667lzcvbnmBVBmnbvczl7656zcz3%     :                       :        ",
"       :               <32542346667lzcvbnmBVBmnbvczl766567zcz3<             :                                                             O                                                              :              O                             <454234667lzcvbnmBVBmnbvczl7656zcz3<           :                          ",
"           :           132542346667lzcvbnmBVBmnbvczl766566zcz31                                                                                                                                                         AO                            1454234667lzccbnmBVBmnbvczl7656zcz31                                      ",
"                       332542346667lzcvbnmBVBmnbvczl766566zcz32                                                                         O                                                                                                             2454234667lzcbbnmBVBmnbvczl7656zcz32                                     f",
"                       332542346667lzcv63<%#%1<37czl766566zcz33                                         g   :  O                   O                     +                                                                             O              3454234667lzccbnmBVBmnbvczl7656zcz33                                      ",
"                       332542346667lz31@$411$@3%$13l766566zcz33                                        fhf             :         :                                                                                    O                              :4454234667lzcvbnmBVBmnbvczl7666zcz33                           O          ",
"                       3325423466675<%#6@7%z< 7<##<1666566zcz33                                       ghAhg                                                     :                           f     +                                                 : 4454234667lzcvbnmBVBmnbvczl7656zcz33                                      ",
"                       332542346662$$1#Vl     o<Z5X$%46566zcz33                                        fhf                                                    :                                                            :                          3454234667lzcvbnmBVBmnbvczl7656zcz33               A                      ",
"                      %33254234662<1$z5o#%4665$.5z<<1%5566zcz33                      :                  g                                                                                                                                             3454234667lzcvbnmBVBmbbcczl7656zcz33                  O                   ",
"         :            <33254234641X4b@#3mFGGGGDn$ 5v@#%566zcz33      :       BB      bB                                                                   +                                                                                           3454234667lzcv63<%#%1137czl7656zcz33       O                              ",
"                      1332542346$% .$ bGFCCZCCZGGlo%  1%66zcz33             bbbB    BmbB                                                                                                                                    O                         3454234667lz41@$411$@3<$14l7656zcz33                                      ",
"                      23325423421.   CGCCDGGZZGDGGm   o<46zcz33             7mbbB   7BmbB                                                                                     :   +                     +                                             34542346675<$#6@7%z< 7<##<16656zcz33                                      ",
"                      333254234%$   bGCCGmz6VVz7czB5   <<6zcz33              7mbbB   7BmbB        :                    O                                                                                                     :              :         3454234663$$1#Vl     o%Z5X#%456zcz33                                      ",
"                      333254232<.  1GCCGm. $Gl 52  C%  @%6zcz33               7mbbB   7BmbB                                        O           +                                                                                     O                345423461<1$z5X#<4565$.5x<<1%36zcz73                                      ",
"   f                  33325423%$   mGCGB  1GG4%G5  Zc   %2zcz33                7mbbB   7BmbB                                                                A                                   +                 :                      f            34542344<X5b@#3mFGGGGDn$ 5b@#%67zcz3                                      ",
"                      33325423<#  XDZGm  1GDZmFG# .DC   %1zcz33                 7mbbB   7Blllllllllllll<                                                                                         +                                                    3454234%% .$ bGDZCCZCZGGlo%  1<6zcz3                         :         :  ",
"                      33325423#l. 7DGB. 2GGZVGG% .CGC2 #7%zcz33                  7mbbBllll5555555555555llll<                                               17bbbbbbbbbbbbbbbbbbbbbbbb6666bb71                     O               O  :                345423<1.   CGCCDGGZZGDGGm   o<4zcz3                                      ",
"            :         33325323#cz6bDm. 3GFZSSD< oVGSBc6xl$zcz33     :             7mll555555555555555555555ll<                                     17bbbbbbbbvccccccccccvbvccvbnmVmnbccccccbbbbbbbb66              O                                 %345423%$   nGCCGmz6VVz7czB5   <<zcz3%                                     ",
"                      33245233#lmczG@  $$@@@bb  lGcnClnb5%zcz33                   <75555553333333333333555555l<                                17bbbbzlzcccccvccccccccccvbcccvbnmVmnbcccccccccccccccc6671              O                         O   <345421<.  1GCCGB. #Gl 42  C%  @%lcz3<      :                              ",
"                      33245233@7vczD@       xb  cb bZlcv4%zcz33                  <l5553333             3333555l<                :            3bbvvcvczlzcccccvccccccccccvbvccvbnmVmnbvccccccccccccccccccbb3                                          134542%$   nGCGB  1GG4%G5  Zc   %5cz31                                     ",
"                      33245233#l52lBblzlc4  cmoo6@XZB61z3<zcz33                  l5533   266666666666662   3355l                           2zczcvvcvczlzcccccvccccccccccvbvccvbnmVmnbvccccccccccccccccccczcz2                               :        234542%#  XDZGm  2GDZmFG$ .DC   %2cz32             :                       ",
"                      33245233<2zczxGGGGGn  5GZZBVZSzcxz$5zcz33                  553  266666cvbnmmnbvc66662  355                          6lzczcvvcvczlzcccccvccccccccccvbvccvbnmVmnbcccccccccccccccccccczczl6              O             O  :       334542#l. 7DGB. 2GFZCGG% .VGZ2 #7<cz33                             O       ",
"          :        f  332452333@cv66BDCCGc  6GSSZZGn56bl@6zcz33                  53 664667lzcvbnmmnbvczl75666 35                 O       36lzczcvvcvczlzccccccccccxcccccvbvccvbnmVmnbvccccccccccccccccccczczl63                    O  O              434542@cz5bFm. 3GFZSSS< oVGZVc6xl<cz33                        :            ",
"                      332452334$671x7DDCCBmmVZZCCFV7l1c126zcz33%     A           3 5423467lzcvbnmmnbvczl756zc6 3              f          36lzczcvvccczlzcccczllllllllllllllllllllllllllllllzccccccccccccczczl63                            O         434542#lmczG@  $$@#@bb  zGcbZ7mb5%cz33                                     ",
"                      3324523345@xbbl7ZFCZDFSCCZFV7xbb7o66zcz33<          :       45423467lzcvbnmmnbvczl756zcz3       O       O          36lzczcvvzlllllllll62%%%%%%%%%%%%%%%%%%%%%%%%%%%%26lllllllllzccczczl63                                      334542@7vclF@       xb  cb bS7vc4<cz33       >                             ",
"                      332452334611vv%3zmDDDSSDDZn635bx#366zcz331                 %45423467lzcvbnmmnbvczl756zcz3%                         36lzlllll62%%%%%%%%%%$$$$$$$$$$$$$$$$$$$$$$$$$$$$%%%%%%%%%%26lllllzl63  O                                   334542#761zBblzzc4  cmoo6@XZB61z33cz33      :u:                            ",
"                     %33245233466#573425cmBBBmnx741271<566zcz632                 <45423467lzcvbnmmnbvczl756zcz3<                         36l61%%%%%%$$$46zvnmmmmmmmmmmmmmmmmmmmmmmmmmmmmmmmmnvz64$$$%%%%%%16l63          O     O                     334542%2zczxGGGGGb  5GZZBVZSzczx$7cz33     >uiu>                           ",
"                     <332452334666#3b321%227l4<4$<l41%6566zcz733                 145423467lzccbnmmnbvczl756zcz31                         31 46zvmmmmmmmmmnvbnbvvvvvvvvvvbnbvbnmBZSDFDZZBm  vvvvnmmm  mmnvz64 13    f                               : 3345423@cc66BDCCGc  6GSDSZGn57bl@zcz33      :u:                            ",
"                     13324523346667%157213326b16<6l<1666566zcz33                 245423467lzcvbnmmnbvczl756zcz32                          167lzlvbvzl7lzcvvbnbvvvvvvvvvvbnbvbnmBZSDFDSZBmn vvvvreeeer 333z 761                    O                  3345423#671x7SDCZVmmBZCZCDC7l1c12zcz33       >    O                        ",
"                     23324523346667l4%36clc56blxl1$57666566zcz33                 345423467lzcvbnmmnbvczl756zcz33                         1633z vb3zl7lzcvvvbnbvvvvvvvvvvbnbvvbnmBZSDFDSZBm 33vv3333eer  33 376                                       33454234@xnbz7ZFCZDDSCCZFV6xbb7o6zcz33                                     ",
"f                    33324523346667lzc4$%245532$$6zl7666566zcz33                 445423467lzcvbnmmnbvczl756zcz33                        163333zv3 3l7lzcvvbnbvvvvvvvvvbcbnbvvbnmBZSDFDS Bmn##33####333   vc 3 61                                     33454234<1cv%3zmSDDDSDFZn636vz$46zcz33                                     ",
" :                   33324523346667lzcv6667ll7667czl7666566zcz33                 445423467lzcvbnmmnbvczl756zcz33           A           1333   33   3  cvvvbbbvvvvvvvvvcvvbnbvbnmBCSDDD  Bm###3####%##3   33  l 61                                    334542346#573425cmBBBmbz7412l1%56zcz33                 :         f         ",
"                     33324523346667lzccb667ll766vczl7666566zcz33                 345423467lzcvbnmmnbvczl756zcz33                      16333    3    l  vvbnbvvvvvvvvvvvvvbnbvbnmBZSDFDZ Bm33#######%          l761          O                        3454234566#3b321%227l4<4$1l41%656zcz33           O                         ",
"                     33324523346667lzcvb667ll767vczl7666566zcz33                 345423467lzcvbnmmnbvczl756zcz73                     13333         33cvvvbnbvvvvvvvvvvvvvbnbvvbnmBZSDFD  B3########%         c l761                                  34542346667%157113327v16<6l<16656zcz33                                     ",
"               :     33324523346667lzcbbb67ll76bvczl7666566zcz33             :   345423467lzcvbnmmnbvczl7567zcz3                    133  3           3v vbnbvvvvvvvvvvvvvbnbvvbnmBCSDFDS B3#########%%      33 zl  1   A                            %34542346667l4%36clc56bzzl1$576656zcz73%               :    O               ",
"                     33324523346667lzccbn67ll77bvczl7666566zcz33                 345423467lzcvbnmmnbvczl7566zcz3               O   133                 vbnbvvvvvvvvvvvvvvbnbvvbnmBZSDFDSZ3############$      3 3   61                 O             <34542346667lzc5$%245531$$6zl766567zcz3<                                    ",
"      O              33324523346667lzcvbnm7ll7nbvczl7666566zcz33             :   345423467lzcvbnmmnbvczl7566zcz3                  133      6cVV1     3vvbnbcvvvvvvvvvvvvvbbbvvbnmBZSDFDSZ##############         czl 61                            : 134542346667lzcv6667ll7667czl766566zcz31 O                           O      ",
"                     33325233456667lzcvbnm7ll7nbvczl7666566zcz33                 345423467lzcvbnmmnbvczl7566zcz3                 163     6bVV%%V1l3  33vbnbvvvvvvvvvvvvvvbnbvvvbnmBCSDD######b3######$          33zl761   :                         234542346667lzcvb667ll766vczl766566zcz32                                    ",
"                     33245233466667lzcvbnmBllmnbvczl7666566zcz33                 345423467lzcvbnmmbbvczl7566zcz3               O16733  6bVbbV  %V3     3nbvvvvvvvvvvvvvvvvbnbvvbnmBZSD##S#Bmnbc#v3###%            3zl761                            334542346667lzcvb667ll767vczl766566zcz33                                    ",
"           :         33245233466667lzcvbnmBVBmnbvczl7666566zcz33                 345423467lzcvbnmmnbvczl7656zcz3               16 l336bVbbVnVv %Vz3    bnbvvvvvvvvvvvvvvvvbnbvvbnmB SD#DSZ mnb.cv33##$             cz 761                           434542346667lzcvbb67ll76bvczl766566zcz33                                    ",
"                     33245233466667lzcvbnmBVBmnbvczl7666566zcz33                 344234567lzcvbnmmnbvczl7656zcz3          O   16  z6bVbbVVVncVVVczc3  bnbvvvvvvvvvvvvvvvvvbnbvvvbnmBZSDDDSZBmnbv####%%           3v    761             A       O    434542346667lzcvbn67ll77bvczl766566zcz33                                    ",
"                     33245233466667lzcvbnmBVBmnbcczl7666566zcz33                 454234667lzcvbnmmnbvczl7656zcz3             167l6bVbbVVVn77b77 zcvv vbnbvvvvvvvvvvvvvvvvvbnbvvvbnmBZSDFDZZBm33vv3#%$            vcvv  l761                         334542346667lzcvbnm7ll7nbvczl766566zcz33                                    ",
"       A             33245233466667lzcvbnmBVBmnbbczl7766566zcz33                %454234667lzcvbnmmnbvczl7656Myz3%           1676bVbbVVVn77b77l  zcvvv bbbvvvvvvvvvvvcvvvvvbnbcvvbbmBZSDFDS3333##v3#$           3vvvcvvczl761                 :      334542346667lzcvbnm7ll7nbvczl766566zcz33                   O    :           ",
"           :        %33245233466667lzcvbnmBVBmnbcczl7666566zcz33                <454234667lzcvbnmmnbvczl765yyyy3<          166bVbbVVVn77b77 l7l cvvvvb bvvvvvvvvvvvvbcvvvvbnbvvvbnmBZSDFDSZ#####33###     %#    3vv    czl761                       334542346667lzccbnmBllmnbvczl766566zcz33                         O          ",
"                    <33245233466667lzcvbnmB444nbcczl7666566zcz33  f   :         1454234667lzcvbnmmn<lBBBBBBBBBBBBBBBl<    16bVbbVVVn77b77zzzl7l cvvvvbnbvvvvvvvvvvvvvvvvvvbnbvvvvbnmBZZDFD3#Bm###3#%     #%#     33 3vv czl761      O               334542346667lzcbbnmBVBmn444zl766566zcz33         :                          ",
"           O        133245233466667lzcvbnm4&&&4bbczl7666566zcz33                2454234667lzcv<lBBBBBnnnnnnnnnnnnnnbBBBBclbVbbVVVn77b77vzzzl7lzc vvvvbnbvvvvvvvvvvvvvvvvvvbnbvvvvbnmBZSDFD ZBmn3##%#     %#         3cvvvczl761                     334542346667lzccbnmBVBm48884l766566zcz33                                    ",
"                    233245233466667lzcvbnm4&&&4bcczl7666566zcz33                3454234667<lBBBBnnnnnbbbbbbbbbbbbbbbnnccbVbbVVVn77b7vbvzzzzl7lzc vvvbnbvvvvvvvvvvvvvvvvvvvvbnbvvvbnmBCSD DZZBm33##%#     %#          33vvvczl761                    334542346667lzcvbnmBVBm48884l766566zcz33                                    ",
"                    333245233466667lzcvbnm44444bvczl7666566zcz33         :      4454234<lBBBnnnbbbbbbcccccccccccccccccbVbbVVVn77b7zvbvzzzzl7lzc vvvvbnbvvvvvvvvvvvvvvvvvvvvbnbvvvbnmBZSDFDSZBm3##$#     %%##           cvvvczl761                   334542346667lzcvbnmBVBm44444l766566zcz33                                    ",
"                    333245233466667lzcvbnm4&&&4bvczl7666566zcz33         O      44542<lBBnnnbbbbccccccccccccccccccccbVbbVVVn77b7lzzvbbzzzzl7lz vvvvbnbvvcbvvvvvvvvvvvvvvvvcbnbvvvvbnmBZSDDDS#######    %#####        vv cvvvczl761                  334542346667lzcvbnmBVBm48884l766566zcz33                                    ",
"                    333245233466667lzcvbnm4&&&4bvczl7666566zcz33                345<lBBnnbbbccccccccccccccccccccccbVbbVVVn77b7zlzzvbczzzzl7lzcvvvvvbnbvvvcvvvvvvvvvvvvvvvvvbnbvvvvbnmBZSDFDSZBm#b# vv ####v vree erv  vvvcvvvczl761                 334542346667lzcvbnmBVBm48884l766666zcz33                                    ",
"                    333245233466667GGGGGGGGGGGGGGGGGGGGGGGGGGGGGGGGGGGGGGGGGGGGGGGGGGGGGGGGGGGGGGGGGGGGGGGGGGGGGGGGGGGGGGGGGGGGGGGGGGGGGGGGGGGGGGGGGGGGGGGGGGGGGGGGGGGGGGGGGGGGGGGGGGGGGGGGGGGGGGGGGGGGGGGGGGGGGGGGGGGGGGGGGGGGGGGGGGGGGGGGGGGGGGGGGGGGGGGGGGGGGGGGGGGGGGGGGGGGGGGGGGGGGcz33                                    ",
"                    333245233466667GGGGGGGGGGGGGGGGGGGGGGGGGGGGGGGGGGGGGGGGGGGGGGGGGGGGGGGGGGGGGGGGGGGGGGGGGGGGGGGGGGGGGGGGGGGGGGGGGGGGGGGGGGGGGGGGGGGGGGGGGGGGGGGGGGGGGGGGGGGGGGGGGGGGGGGGGGGGGGGGGGGGGGGGGGGGGGGGGGGGGGGGGGGGGGGGGGGGGGGGGGGGGGGGGGGGGGGGGGGGGGGGGGGGGGGGGGGGGGGGGGGGGcz33%                                   ",
"                    333245233466667DVVVVVVVVVVVVVVVVVVVVVVVVVVVVVVVVVVVVVVVVVVVVVVVVVVVVVVVVVVVVVVVVVVVVVVVVVVVVVVVVVVVVVVVVVVVVVVVVVVVVVVVVVVVVVVVVVVVVVVVVVVVVVVVVVVVVVVVVVVVVVVVVVVVVVVVVVVVVVVVVVVVVVVVVVVVVVVVVVVVVVVVVVVVVVVVVVVVVVVVVVVVVVVVVVVVVVVVVVVVVVVVVVVVVVVVVVVVVVVVVVVVDcz33<                                   ",
"                    333245233466667DVVVVVVVVVVVVVVVVVVVVVVVVVVVVVVVVVVVVVVVVVVVVVVVVVVVVVVVVVVVVVVVVVVVVVVVVVVVVVVVVVVVVVVVVVVVVVVVVVVVVVVVVVVVVVVVVVVVVVVVVVVVVVVVVVVVVVVVVVVVVVVVVVVVVVVVVVVVVVVVVVVVVVVVVVVVVVVVVVVVVVVVVVVVVVVVVVVVVVVVVVVVVVVVVVVVVVVVVVVVVVVVVVVVVVVVVVVVVVVVVVVVDcz331      O                            ",
"                    333245233466667zzzzzzzzzzzzzzzzzzzzzzzzzzzzzzzzzzzzzzzzzzzzzzzzzzzzzzzzzzzzzzzzzzzzzzzzzzzzzzzzzzzzzzzzzzzzzzzzzzzzzzzzzzzzzzzzzzzzzzzzzzzzzzzzzzzzzzzzzzzzzzzzzzzzzzzzzzzzzzzzzzzzzzzzzzzzzzzzzzzzzzzzzzzzzzzzzzzzzzzzzzzzzzzzzzzzzzzzzzzzzzzzzzzzzzzzzzzzzzzzzzzzzcz332                                   ",
"                    333245233466667lzcBb33333333333vnv33333333333vnv33333333333vnv33333333333vnv33333333333cnv33333333333vnv33333333433cnv33333333333vnv33333333333vnv33333333333vnv33333333333vnv33333333333vnv33333333333vnv33333333333vnv33333333333vnv33333333333vnv33333333333bB66zcz333      f                            ",
"                    333245233466667lzcDB3<<<<<<<<<3vBv3<<<<<<<<<3vBv3<<<<<<<<<3vBv3<<<<<<<<<3vBv3<<<<<<<<<3vBv3<<<<<<<<<3vBv3<<<<<<<<<3vBv3<<<<<<<<<3vBv3<<<<<<<<<3vBv3<<<<<<<<<3vBv3<<<<<<<<<3cBv3<<<<<<<<<3vBv3<<<<<<<<<3vBv3<<<<<<<<<3vBv3<<<<<<<<<3vBv3<<<<<<<<<3cBv3<<<<<<<<<3BD66zcz733          :                        ",
"                    333245233466667lzcDB33333333333vBv33333333333vBv33333333333vBv33333333333vBv33333333333vBv33333333333vBv33333333333vBc33333333333vBv33333333333vBv33333333333vBv33333333333vBv33333333333vBv33333333333vBv33333333333vBv33333333333cBv33333333333vBv33333333333BD667zcz33                           A       ",
"             f      333245233466667lzcDBGGGGGGGGGGGBBGGGGGGGGGGGGBBGGGGGGGGGGGGBBGGGGGGGGGGGGBBGGGGGGGGGGGGBBGGGGGGGGGGGGBBGGGGGGGGGGGGBBGGGGGGGGGGGGBBGGGGGGGGGGGGBBGGGGGGGGGGGGBBGGGGGGGGGGGGBBGGGGGGGGGGGGBBGGGGGGGGGGGGBBGGGGGGGGGGGGBBGGGGGGGGGGGGBBGGGGGGGGGGGGBBGGGGGGGGGGGGBD666zcz33                              :    ",
"                    332345233466667lzcDBBBBBBBBBBBBBBBBBBBBBBBBBBBBBBBBBBBBBBBBBBBBBBBBBBBBBBBBBBBBBBBBBBBBBBBBBBBBBBBBBBBBBBBBBBBBBBBBBBBBBBBBBBBBBBBBBBBBBBBBBBBBBBBBBBBBBBBBBBBBBBBBBBBBBBBBBBBBBBBBBBBBBBBBBBBBBBBBBBBBBBBBBBBBBBBBBBBBBBBBBBBBBBBBBBBBBBBBBBBBBBBBBBBBBBBBBBBBBD666zcz33                                   ",
"                   %332345233466667lzcDBBBBBBBBBBBBBBBBBBBBBBBBBBBBBBBBBBBBBBBBBBBBBBBBBBBBBBBBBBBBBBBBBBBBBBBBBBBBBBBBBBBBBBBBBBBBBBBBBBBBBBBBBBBBBBBBBBBBBBBBBBBBBBBBBBBBBBBBBBBBBBBBBBBBBBBBBBBBBBBBBBBBBBBBBBBBBBBBBBBBBBBBBBBBBBBBBBBBBBBBBBBBBBBBBBBBBBBBBBBBBBBBBBBBBBBBBBBBBD666zcz33                                   ",
"                   <332345233466667lzcDBBBBBBBBBBBBBBBBBBBBBBBBBBBBBBBBBBBBBBBBBBBBBBBBBBBBBBBBBBBBBBBBBBBBBBBBBBBBBBBBBBBBBBBBBBBBBBBBBBBBBBBBBBBBBBBBBBBBBBBBBBBBBBBBBBBBBBBBBBBBBBBBBBBBBBBBBBBBBBBBBBBBBBBBBBBBBBBBBBBBBBBBBBBBBBBBBBBBBBBBBBBBBBBBBBBBBBBBBBBBBBBBBBBBBBBBBBBBBD666zcz33  O                                ",
"                   1332345233466667lzcDBBBBBBBBBBBBBBBBBBBBBBBBBBBBBBBBBBBBBBBBBBBBBBBBBBBBBBBBBBBBBBBBBBBBBBBBBBBBBBBBBBBBBBBBBBBBBBBBBBBBBBBBBBBBBBBBBBBBBBBBBBBBBBBBBBBBBBBBBBBBBBBBBBBBBBBBBBBBBBBBBBBBBBBBBBBBBBBBBBBBBBBBBBBBBBBBBBBBBBBBBBBBBBBBBBBBBBBBBBBBBBBBBBBBBBBBBBBBBD666zcz33                                   ",
"%%%%%%%%%%%%%%%%%%%2332452334666667lzcDDDDDDDDDDDDDDDDDDDDDDDDDDDDDDSDDDDDDDDDDDDDDDDSDDGGGGGGGGGGGGGGGGGGGGGGGGGGGGGGGGBbDDDDDDDDDDDDDDDDDDDDDDDDDDDDDDDDDDDDDDDDDDDDDDDDDDDDDDDDDDDDDDDDDDDDDDDnBGGGGGGGGGGGGGGGGGGGGGGGGGGGGGGGGDDDDDDDDDDDDDDDDDDDDDDDDDDDDDDDDDDDDDDDDDDDDDDDDDD666zcz33%%%%%%%%%%%%%%%%%%%%%%%%%%%%%%%%%%%",
"%%%%%%%%%%%%%%%%%%%3332452334666667lzDZSSSSSSSSSSSSSSSSSSSSSSSSSSSSSSSSSSSSSSSSSSSSSSSSSGGGGGGGGGGGGGGGGGGGGGGGGGGGGGGGGbnSSSSSSZSSSSSSSSSSSSSSSSSSSSSSSSSSSSSSSSSSSSSSSSSSSSSSSZSSSSSSSSSSSSSSSSnbGGGGGGGGGGGGGGGGGGGGGGGGGGGGGGGGZSSSSSSSSSSSSSSSSSSSSSSSSSSSSSSSSSSSSSSSSSSSSSSSSSD66zcz33%%%%%%%%%%%%%%%%%%%%%%%%%%%%%%%%%%%",
"%%%%%%%%%%%%%%%%%%%3332452334666667lDSSSSSSSSSSSSSSSSSSSSSSSSSSSSSSSSSSSSSSSSSSSSSSSSSSGGGGGGGGGGGGGGGGGGGGGGGGGGGGGGGGGvnSSSSSSSSSSSSSSSSSSSSSSSSSSSSSSSSSSSSSSSSSSSSSSSSSSSSSSSSSSSSSSSSSSSSSSSnvGGGGGGGGGGGGGGGGGGGGGGGGGGGGGGGGGSSSSSSSSSSSSSSSSSSSSSSSSSSSSSSSSSSSSSSSSSSSSSSSSSSD6zcz33%%%%%<%%%%%%%%%%%%%%%%%%%%%%<%%%%%%",
"%%%%%%%<%%%%%%%<%%%3332452334666667DSSSSSSSSSSSSSSSSSSSSSSSSSSSSSSSSSSSSSSSSSSSSSSSSSSSGGGGGGGGGGGGGGGGGGGGGGGGGGGGGGGGGvnSSSSSSSSSSSSSSSSSSSSSSSSSSSSSSSSSSSSSSSSSSSSSSSSSSSSSSSSSSSSSSSSSSSSSSSnvGGGGGGGGGGGGGGGGGGGGGGGGGGGGGGGGGSSSSSSSSSSSSSSSSSSSSSSSSSSSSSSSSSSSSSSSSSSSSSSSSSSSDzcz33%%%<%%%%%%%%<%%%%%%%%%<%%<%%%%<%%<%",
"%%%%<<%%<<<%%%%%<%%333245233466666DSSSSSSSSSSSSSSSSSSSSSSSSSSSSSSSSSSSSSSSSSSSSSSSSSSSGGGGGGGGGGGGGGGGGGGGGGGGGGGGGGGGGVvnSSSSSSSSSSSSSSSSSSSSSSSSSSSSSSSSSSSSSSSSSSSSSSSSSSSSSSSSSSSSSSSSSSSSSSSnvVGGGGGGGGGGGGGGGGGGGGGGGGGGGGGGGGGSSSSSSSSSSSSSSSSSSSSSSSSSSSSSSSSSSSSSSSSSSSSSSSSSSSDcz33%%<%<<<<%%<%%%%<%%%%<<<<%%%<%%%%<<%",
"<%%%%<%<%<<<<<%<%<%33324523346666DSSSSSSSSSSSSSSSSSSSSSSSSSSSSSSSSSSSSSSSSSSSSSSSSSSSSGGGGGGGGGGGGGGGGGGGGGGGGGGGGGGGGGbvnSSSSSSSSSSSSSSSSSSSSSSSSSZSSSSSSSSSSSSSSSSSSSSSSSSSSSSSSSSSSSSSSSSSSSSSnvbGGGGGGGGGGGGGGGGGGGGGGGGGGGGGGGGGSSSSSSSSSSSSSSSSSSSSSSSSSSSSSSSSSSSSSSSSSSSSSSSSSSSZDz33%%<<<<<<<%<%%<<%<%<%<<<<%<<<<%%<<<<",
"<1%<<<<<1<<<<<1<<<13332452334666DSSSSSSSSSSSSSSSSSSSSSSSSSSSSSSSSSSSSSSSSSSSSSSSSSSSSGGGGGGGGGGGGGGGGGGGGGGGGGGGGGGGGGGbvnSSSSSSSSSSSSSSSSSSSSSSSSSSSSSSSSSSSSSSSSSSSSSSSZSSSSSSSSSSSSSSSSSSSSSSSnvbGGGGGGGGGGGGGGGGGGGGGGGGGGGGGGGGGGSSSSSSSSSSSSSSSSSSSSSSSSSSSSSSSSSSSSSSSSSSSSSSSSSSSSD331<<<<<<<<1<1<<111%<<<11<1<%%<1<11<<",
"<<<<<111<1<<<<1<<<1333245233466DSSSSSSSSSSSSSSSZSSSSSSSSSSSSSSSSSSSSSSSSSSSSSSSSSSSSSGGGGGGGGGGGGGGGGGGGGGGGGGGGGGGGGGGvnSSSSSSSSSSSSSSSSSSSSSSSSSSSSSSSSSSSSSSSSSSSSSSSSSSSSSSSSSSSSSSSSSSSSSSSSSnvGGGGGGGGGGGGGGGGGGGGGGGGGGGGGGGGGGSSSSSSSSSSSSSSSSSSSSSSSSSSSSSSSSSSSSSSSSSSSSSSSSSSSSSD3<<1<<1<1<<<1<<<1<<<1<1<1<11<<<<1<<1",
"<11<<111111<111111<33324523346DSSSSSSSSSSSSSSSSSSSSSSSSSSSSSSSSSSSSSSSSSSSSSSSSSSSSSGGGGGGGGGGGGGGGGGGGGGGGGGGGGGGGGGGVvnSSSSSSSSSSSSSSSSSSSSSSSSSSSSSSSSSSSSSSSSSSSSSSSSSSSSSSSSSSSSSSSSSSSSSSSSSnvVGGGGGGGGGGGGGGGGGGGGGGGGGGGGGGGGGGSSSSSSSSSSSSSSSSSSSSSSSSSSSSSSSSSSSSSSSSSSSSSSSSSSSSSD111<<<1<<<1<1<<<11<1111111<<<1111<<",
"1<<2<111<11112111213332452334DSSSSSSSSSSSSSSSSSSSSSSSSSSSSSSSSSSSSSSSSSSSSSSSSSSSSSSGGGGGGGGGGGGGGGGGGGGGGGGGGGGGGGGGGbvnSSSSSSSSSSSSSSSSSSSSSSSSSSSSSSSSSSSSSSSSSSSSSSSSSSSSSSSSSSSSSSSSSSSSSSSSSnvbGGGGGGGGGGGGGGGGGGGGGGGGGGGGGGGGGGSSSZSSSSSSSSSSSSSSSSSSSSSZSSSSSSSSSSSSSSSSSSSSSSSSSSSSD<111111<11211111<11111<111<1211221",
"1112122111211211111333245233DSSSSSSSSSSSSSSSSSSSSSSSSSSSSSSSSSSSSSSSSSSSSSSSSSSSSSSGGGGGGGGGGGGGGGGGGGGGGGGGGGGGGGGGGGbvbSSSSSSSSSSSSSSSSSSSSSSSSSSSSSSSSSSSSSSSSSSSSSSSSSSSSSSSSSSSSSSSSSSSSSSSZSnvbGGGGGGGGGGGGGGGGGGGGGGGGGGGGGGGGGGGSSSSSSSSSSSSSSSSSSSSSSSSSSSSSSSSSSSSSSSSSSSSSSSSSSSSSSD211111122111112111231221221111221",
"111121221212112121133324523DSSSSSSSSSSSSSSSSSSSSSSSSSSSSSSSSSSSSSSSSSSSSSSSSSSSSSSSGGGGGGGGGGGGGGGGGGGGGGGGGGGGGGGGGGGbvnSSSSSSSSSSSSSSSSSSSSSSSSSSSSSSSSSSSSSSSSSSSSSSSSSSSSSSSSSSSSSSSSSSSSSSSSSnvbGGGGGGGGGcvvcvcvvvvvvvvvvvvGGGGGGGGSSSSSSSSSSSSSSSSSSSSSSSSSSSSSSSSSSSSSSSSSSSSSSSSSSSSSSSD22222211212211112122121122221121",
"11222212132222112233332452DSSSSSSSSSSSSSSSSSSSSSSSSSSSSSSSSSSSSSSSSSSSSSSSSSSSSSSSGGGGGGGGGGGGGGGGGGGGGGGGGGGGGGGGGGGVbvnSSSSSSSSSSSSSSSSSSSSSSSSSSSSSSSSSSSSSSSSSSSSSSSSSSSSSSSSSSSSSSSSSSSSSSSSSnvbVGGGGGGGG.  ..991$$$$$$99<zzGGGGGGGGSSSSSSSSSSSSSSSSSSSSSSSSSSSSSSSSSSSSSSSSSSSSSSSSSSSSZSSD2223222322222222212221122211222",
"2232232221232323312333245DSSSSSSSSSSSSSSSSSZSSSSSSSSSSSSSSSSSSSSSSSSSSSSSSSSSZSSSSGGGGGGGGGGGGGGGGGGGGGGGGGGGGGGGGGGGbbvnSSSSSSSSZSSSSSSSSSSSSSSSSSSSSSSSSSSSSSSZSSSSSSSSSSSSSSSSSSSSSSSSSSSSSSSSSnvbbGGGGGGGG.    .qqqqqqqqq1<<zGGGGGGGGSSSSSSSSSSSSSZSSSSSSSSSSSSSSSSSSSSSSSSSSSSSSSSSSSSSSSSSSD333122122323222313233123223222",
"323223233233232222333324DDDDDDDDDDDDDDDDDDDDDDDDDDDDDDDDDDDDDSDDDDDDDDDDDDDDDDDDSGGGGGGGGGGGGGGGGGGGGGGGGGGGGGGGGGGGGbbcnDDDDDDDDDDDDDDDDDDDDDDDDDDDDDDDDDDDDDDDDDDDDDDDDDDDDDDDDDDDDDDDDDDDDDDDDDnvbbGGGGGGGGG .. yyyyyyyyyyw<<zzGGGGGGGGDDDDDDDDDDDDDDDDDDDDDDDDDDDDDDDDDDDDDDDDDDDDDDDDDDDDDDDDD33233323323232322222332232223",
"333332322323323322333324DBBBBBBBBBBBBBBBBBBBBBBBBBBBBBBBBBBBBBBBBBBBBBBBBBBBBBBBBGGGGGGGGGGGGGGGGGGGGGGGGGGGGGGGGGGGGbbbvnBBBBBBBBBBBBBBBBBBBBBBBS,,,,,,,,,,,,,,,,,,,,,,,SBBBBBBBBBBBBBBBBBBBBBBBnvbbbGGGGGGGGG. qqtttttttttttqw<zGGGGGGGGBBBBBBBBBBBBBBBBBBBBBBBBBBBBBBBBBBBBBBBBBBBBBBBBBBBBBBBBD43233233333233433323332233224",
"342323433233423333333324DBBBBBBBBBBBBBBBBBBBBBBBBBBBBBBBBBBBBBBBBBBBBBBBBBBBBBBBGGGGGGGGGGGGGGGGGGGGGGGGGGGGGGGGGGGGVbbbvnBBBBBBBBBBBBBBBBBBBb73BS,,,,,,,,,,,,,,,,,,,,,,,SBb73BBBBBBBBBBBBBBBBBBBnvbbbVGGGGGGGG woo***********oowzzGGGGGGGGBBBBBBBBBBBBBBBBBBBBBBBBBBBBBBBBBBBBBBBBBBBBBBBBBBBBBBBD43323333333334324443433333443",
"344343344433343444433234DBBBBBBBBBBBBBBBBBBBBBBBBBBBBBBBBBBBBBBBBBBBBBBBBBBBBBBBGGGGGGGGGGGGGGGGGGGGGGGGGGGGGGGGGGGGbbbbvnBBBBBBBBBBBBBBBBBBBb73BS,,ppppppppppppppppppp,,SBb73BBBBBBBBBBBBBBBBBBBnvbbbbGGGGGGGGGwooooooooooooooow<zGGGGGGGGBBBBBBBBBBBBBBBBBBBBBBBBBBBBBBBBBBBBBBBBBBBBBBBBBBBBBBBD44443334443434344434443443443",
"443344444434344444333234DBBBBBBBBBBBBBBBBBBBBBBBBBBBBBBBBBBBBBBBBBBBBBBBBBBBBBBGGGGGGGGGGGGGGGGGGGGGGGGGGGGGGGGGGGGGbbbbvnBBBBBBBBBBBBBBBBBBBb73BS,,psssssssapasssssssp,,SBb73BBBBBBBBBBBBBBBBBBBncbbbbGGGGGGGGG.www000000000www<<zGGGGGGGGGBBBBBBBBBBBBBBBBBBBBBBBBBBBBBBBBBBBBBBBBBBBBBBBBBBBBBBD44443444443443344444434444344",
"434555454454445444333234DBBBBBBBBBBBBBBBBBBBBBBBBBBBBBBBBBBBBBBBBBBBBBBBBBBBBBBGGGGGGGGGGGGGGGGGGGGGGGGGGGGGGGGGGGGGbbbbvnBBBBBBBBBBBBBBBBBBBGGGBS,,pssNNNNsapasNNNNssp,,SBGGGBBBBBBBBBBBBBBBBBBBnvbbbbGGGGGGGGGGGGGGGGGGGGGGGGGGGGGGGGGGGGGBBBBBBBBBBBBBBBBBBBBBBBBBBBBBBBBBBBBBBBBBBBBBBBBBBBBBBD44334344443444444544445434454",
"454444444555554445333234DBBBBBBBBBBBBBBBBBBBBBBBBBBBBBBBBBBBBBBBBBBBBBBBBBBBBBGGGGGGGGGGGGGGGGGGGGGGGGGGGGGGGGGGGGGVbbbbvnBBBBBBBBBBBBBBBBBBFFDFFS,,psskkkksapaskkkkssp,,SFFFFDBBBBBBBBBBBBBBBBBBnvbbbbVGGGGGGGGGGGGGGGGGGGGGGGGGGGGGGGGGGGGGBBBBBBBBBBBBBBBBBBBBBBBBBBBBBBBBBBBBBBBBBBBBBBBBBBBBBD44455554445444444545454454444",
"445555455555444455333234DBBBBBBBBBBBBBBBBBBBBBBBBBBBBBBBBBBBBBBBBBBBBBBBBBBBBBGGGGGGGGGGGGGGGGGGGGGGGGGGGGGGGGGGGGGbbbbbvnBBBBBBBBBBBBBBBBBFDDFDDS,,pssjjjjsapasjjjjssp,,SDDFDDFBBBBBBBBBBBBBBBBBnvbbbbbGGGGGGGGGGGGGGGGGGGGGGGGGGGGGGGGGGGGGBBBBBBBBBBBBBBBBBBBBBBBBBBBBBBBBBBBBBBBBBBBBBBBBBBBBBD54555445555555545544545455454",
"654556555555565555333234e;;;;;;;;;;;;;;;;;;;;;;;;;;;;;;;;;;;;;;;;;;;;;;;;;;;;GGGGGGGGGGGGGGGGGGGGGGGGGGGGGGGGGGGGGGbbbb-=-;;;;;;;;;;;;;;;;eeeeeeeZppassddddsapasddddssappSeeeeeee;;;;;;;;;;;;;;;;-=bbbbbGGGGGGGGGGGGGGGGGGGGGGGGGGGGGGGGGGGGGG;;;;;;;;;;;;;;;;;;;;;;;;;;;;;;;;;;;;;;;;;;;;;;;;;;;;r56555565555455565565455656545",
"555666555565555566333234e;;;;;;;;;;;;;;;;;;;;;;;;;;;;;;;;;;;;;;;;;;;;;;;;;;;;GGGGGGGGGGGGGGGGGGGGGGGGGGGGGGGGGGGGGGbb---=-;;;;;;;;;;;;;;;eeeeeeeeSaassssssssapassssssssaaSeeeeeeee;;;;;;;;;;;;;;;-=---bbGGGGGGGGGGGGGGGGGGGGGGGGGGGGGGGGGGGGGG;;;;;;;;;;;;;;;;;;;;;;;;;;;;;;;;;;;;;;;;;;;;;;;;;;;;r56665555556655556655555665556",
"565565556565565566333234e;;;;;;;;;;;;;;;;;;;;;;;;;;;;;;;;;;;;;;;;;;;;;;;;;;;eeeeeeeeeeeeeeeeeeeeeeeeeeeeeeeeeeeeeer-----=-;;;;;;;;;;;;;;eeeeeeeeeSssssssssssapassssssssssSeeeeeeeee;;;;;;;;;;;;;;-=-----reeeeeeeeeeeeeeeeeeeeeeeeeeeeeeeeeeeeer;;;;;;;;;;;;;;;;;;;;;;;;;;;;;;;;;;;;;;;;;;;;;;;;;;;r55555655556556665666665566655",
"566555566565566656333234DBBBBBBBBBBBBBBBBBBBBBBBBBBBBBBBBBBBBBBBBBBBBBBBBBBBeeeeeeeeeeeeeeeeeeeeeeeeeeeeeeeeeeeeer-----bvnBBBBBBBBBBBBBBBBBBBBBBBSssssssssssapassssssssssSBBBBBBBBBBBBBBBBBBBBBBBnv------reeeeeeeeeeeeeeeeeeeeeeeeeeeeeeeeeeeerBBBBBBBBBBBBBBBBBBBBBBBBBBBBBBBBBBBBBBBBBBBBBBBBBBBD66566656566556655666666566666",
"666666666666656666333234DBBBBBBBBBBBBBBBBBBBBBBBBBBBBBBBBBBBBBBBBBBBBBBBBBBeeeeeeeeeeeeeeeeeeeeeeeeeeeeeeeeeeeeeer--bbbbvnBBBBBBBBBBBBBBBBBBBBBBBSssssssssssapassssssssssSBBBBBBBBBBBBBBBBBBBBBBBnvbbbb--reeeeeeeeeeeeeeeeeeeeeeeeeeeeeeeeeeeeerBBBBBBBBBBBBBBBBBBBBBBBBBBBBBBBBBBBBBBBBBBBBBBBBBBD66666666666665666666666666666",
"666667666666666666333234DBBBBBBBBBBBBBBBBBBBBBBBBBBBBBBBBBBBBBBBBBBBBBBBBBBGGGGGGGGGGGGGGGGGGGGGGGGGGGGGGGGGGGGGGGbbbbbbvnBBBBBBBBBBBBBBBBBBBBBBBSssssssssssapassssssssssSBBBBBBBBBBBBBBBBBBBBBBBbvbbbbbbGGGGGGGGGGGGGGGGGGGGGGGGGGGGGGGGGGGGGGGBBBBBBBBBBBBBBBBBBBBBBBBBBBBBBBBBBBBBBBBBBBBBBBBBBD66666666666666666666666666666",
"@@@@@@@@@@@@@@@@@@@@@@@@@@@@@@@@@@@@@@@@@@@@@@@@@@@@@@@@@@@@@@@@@@@@@@@@@@@@@@@@@@@@@@@@@@@@@@@@@@@@@@@@@@@@@@@@@@@@@@@@@@@@@@@@@@@@@@@@@@@@@@@@@@@@@@@@@@@@@@@@@@@@@@@@@@@@@@@@@@@@@@@@@@@@@@@@@@@@@@@@@@@@@@@@@@@@@@@@@@@@@@@@@@@@@@@@@@@@@@@@@@@@@@@@@@@@@@@@@@@@@@@@@@@@@@@@@@@@@@@@@@@@@@@@@@@@@@@@@@@@@@@@@@@@@@@@@@@@@@@@",
"@@@@@@@@@@@@@@@@@@@@@@@@@@@@@@@@@@@@@@@@@@@@@@@@@@@@@@@@@@@@@@@@@@@@@@@@@@@@@@@@@@@@@@@@@@@@@@@@@@@@@@@@@@@@@@@@@@@@@@@@@@@@@@@@@@@@@@@@@@@@@@@@@@@@@@@@@@@@@@@@@@@@@@@@@@@@@@@@@@@@@@@@@@@@@@@@@@@@@@@@@@@@@@@@@@@@@@@@@@@@@@@@@@@@@@@@@@@@@@@@@@@@@@@@@@@@@@@@@@@@@@@@@@@@@@@@@@@@@@@@@@@@@@@@@@@@@@@@@@@@@@@@@@@@@@@@@@@@@@@@",
"@@@@@@@@@@@@@@@@@@@@@@@@@@@@@@@@@@@@@@@@@@@@@@@@@@@@@@@@@@@@@@@@@@@@@@@@@@@@@@@@@@@@@@@@@@@@@@@@@@@@@@@@@@@@@@@@@@@@@@@@@@@@@@@@@@@@@@@@@@@@@@@@@@@@@@@@@@@@@@@@@@@@@@@@@@@@@@@@@@@@@@@@@@@@@@@@@@@@@@@@@@@@@@@@@@@@@@@@@@@@@@@@@@@@@@@@@@@@@@@@@@@@@@@@@@@@@@@@@@@@@@@@@@@@@@@@@@@@@@@@@@@@@@@@@@@@@@@@@@@@@@@@@@@@@@@@@@@@@@@@",
"@@@@@@@@@@@@@@@@@@@@@@@@@@@@@@@@@@@@@@@@@@@@@@@@@@@@@@@@@@@@@@@@@@@@@@@@@@@@@@@@@@@@@@@@@@@@@@@@@@@@@@@@@@@@@@@@@@@@@@@@@@@@@@@@@@@@@@@@@@@@@@@@@@@@@@@@@@@@@@@@@@@@@@@@@@@@@@@@@@@@@@@@@@@@@@@@@@@@@@@@@@@@@@@@@@@@@@@@@@@@@@@@@@@@@@@@@@@@@@@@@@@@@@@@@@@@@@@@@@@@@@@@@@@@@@@@@@@@@@@@@@@@@@@@@@@@@@@@@@@@@@@@@@@@@@@@@@@@@@@@",
"@@@@@@@@@@@@@@@@@@@@@@@@@@@@@@@@@@@@@@@@@@@@@@@@@@@@@@@@@@@@@@@@@@@@@@@@@@@@@@@@@@@@@@@@@@@@@@@@@@@@@@@@@@@@@@@@@@@@@@@@@@@@@@@@@@@@@@@@@@@@@@@@@@@@@@@@@@@@@@@@@@@@@@@@@@@@@@@@@@@@@@@@@@@@@@@@@@@@@@@@@@@@@@@@@@@@@@@@@@@@@@@@@@@@@@@@@@@@@@@@@@@@@@@@@@@@@@@@@@@@@@@@@@@@@@@@@@@@@@@@@@@@@@@@@@@@@@@@@@@@@@@@@@@@@@@@@@@@@@@@",
"@@@@@@@@@@@@@@@@@@@@@@@@@@@@@@@@@@@@@@@@@@@@@@@@@@@@@@@@@@@@@@@@@@@@@@@@@@@@@@@@@@@@@@@@@@@@@@@@@@@@@@@@@@@@@@@@@@@@@@@@@@@@@@@@@@@@@@@@@@@@@@@@@@@@@@@@@@@@@@@@@@@@@@@@@@@@@@@@@@@@@@@@@@@@@@@@@@@@@@@@@@@@@@@@@@@@@@@@@@@@@@@@@@@@@@@@@@@@@@@@@@@@@@@@@@@@@@@@@@@@@@@@@@@@@@@@@@@@@@@@@@@@@@@@@@@@@@@@@@@@@@@@@@@@@@@@@@@@@@@@",
"@@@@@@@@@@@@@@@@@@@@@@@@@@@@@@@@@@@@@@@@@@@@@@@@@@@@@@@@@@@@@@@@@@@@@@@@@@@@@@@@@@@@@@@@@@@@@@@@@@@@@@@@@@@@@@@@@@@@@@@@@@@@@@@@@@@@@@@@@@@@@@@@@@@@@@@@@@@@@@@@@@@@@@@@@@@@@@@@@@@@@@@@@@@@@@@@@@@@@@@@@@@@@@@@@@@@@@@@@@@@@@@@@@@@@@@@@@@@@@@@@@@@@@@@@@@@@@@@@@@@@@@@@@@@@@@@@@@@@@@@@@@@@@@@@@@@@@@@@@@@@@@@@@@@@@@@@@@@@@@@",
"@@@@@@@@@@@@@@@@@@@@@@@@@@@@@@@@@@@@@@@@@@@@@@@@@@@@@@@@@@@@@@@@@@@@@@@@@@@@@@@@@@@@@@@@@@@@@@@@@@@@@@@@@@@@@@@@@@@@@@@@@@@@@@@@@@@@@@@@@@@@@@@@@@@@@@@@@@@@@@@@@@@@@@@@@@@@@@@@@@@@@@@@@@@@@@@@@@@@@@@@@@@@@@@@@@@@@@@@@@@@@@@@@@@@@@@@@@@@@@@@@@@@@@@@@@@@@@@@@@@@@@@@@@@@@@@@@@@@@@@@@@@@@@@@@@@@@@@@@@@@@@@@@@@@@@@@@@@@@@@@",
"@@@@@@@@@@@@@@@@@@@@@@@@@@@@@@@@@@@@@@@@@@@@@@@@@@@@@@@@@@@@@@@@@@@@@@@@@@@@@@@@@@@@@@@@@@@@@@@@@@@@@@@@@@@@@@@@@@@@@@@@@@@@@@@@@@@@@@@@@@@@@@@@@@@@@@@@@@@@@@@@@@@@@@@@@@@@@@@@@@@@@@@@@@@@@@@@@@@@@@@@@@@@@@@@@@@@@@@@@@@@@@@@@@@@@@@@@@@@@@@@@@@@@@@@@@@@@@@@@@@@@@@@@@@@@@@@@@@@@@@@@@@@@@@@@@@@@@@@@@@@@@@@@@@@@@@@@@@@@@@@",
"@@@@@@@@@@@@@@@@@@@@@@@@@@@@@@@@@@@@@@@@@@@@@@@@@@@@@@@@@@@@@@@@@@@@@@@@@@@@@@@@@@@@@@@@@@@@@@@@@@@@@@@@@@@@@@@@@@@@@@@@@@@@@@@@@@@@@@@@@@@@@@@@@@@@@@@@@@@@@@@@@@@@@@@@@@@@@@@@@@@@@@@@@@@@@@@@@@@@@@@@@@@@@@@@@@@@@@@@@@@@@@@@@@@@@@@@@@@@@@@@@@@@@@@@@@@@@@@@@@@@@@@@@@@@@@@@@@@@@@@@@@@@@@@@@@@@@@@@@@@@@@@@@@@@@@@@@@@@@@@@",
"@@@@@@@@@@@@@@@@@@@@@@@@@@@@@@@@@@@@@@@@@@@@@@@@@@@@@@@@@@@@@@@@@@@@@@@@@@@@@@@@@@@@@@@@@@@@@@@@@@@@@@@@@@@@@@@@@@@@@@@@@@@@@@@@@@@@@@@@@@@@@@@@@@@@@@@@@@@@@@@@@@@@@@@@@@@@@@@@@@@@@@@@@@@@@@@@@@@@@@@@@@@@@@@@@@@@@@@@@@@@@@@@@@@@@@@@@@@@@@@@@@@@@@@@@@@@@@@@@@@@@@@@@@@@@@@@@@@@@@@@@@@@@@@@@@@@@@@@@@@@@@@@@@@@@@@@@@@@@@@@",
"@@@@@@@@@@@@@@@@@@@@@@@@@@@@@@@@@@@@@@@@@@@@@@@@@@@@@@@@@@@@@@@@@@@@@@@@@@@@@@@@@@@@@@@@@@@@@@@@@@@@@@@@@@@@@@@@@@@@@@@@@@@@@@@@@@@@@@@@@@@@@@@@@@@@@@@@@@@@@@@@@@@@@@@@@@@@@@@@@@@@@@@@@@@@@@@@@@@@@@@@@@@@@@@@@@@@@@@@@@@@@@@@@@@@@@@@@@@@@@@@@@@@@@@@@@@@@@@@@@@@@@@@@@@@@@@@@@@@@@@@@@@@@@@@@@@@@@@@@@@@@@@@@@@@@@@@@@@@@@@@",
"@@@@@@@@@@@@@@@@@@@@@@@@@@@@@@@@@@@@@@@@@@@@@@@@@@@@@@@@@@@@@@@@@@@@@@@@@@@@@@@@@@@@@@@@@@@@@@@@@@@@@@@@@@@@@@@@@@@@@@@@@@@@@@@@@@@@@@@@@@@@@@@@@@@@@@@@@@@@@@@@@@@@@@@@@@@@@@@@@@@@@@@@@@@@@@@@@@@@@@@@@@@@@@@@@@@@@@@@@@@@@@@@@@@@@@@@@@@@@@@@@@@@@@@@@@@@@@@@@@@@@@@@@@@@@@@@@@@@@@@@@@@@@@@@@@@@@@@@@@@@@@@@@@@@@@@@@@@@@@@@",
"@@@@@@@@@@@@@@@@@@@@@@@@@@@@@@@@@@@@@@@@@@@@@@@@@@@@@@@@@@@@@@@@@@@@@@@@@@@@@@@@@@@@@@@@@@@@@@@@@@@@@@@@@@@@@@@@@@@@@@@@@@@@@@@@@@@@@@@@@@@@@@@@@@@@@@@@@@@@@@@@@@@@@@@@@@@@@@@@@@@@@@@@@@@@@@@@@@@@@@@@@@@@@@@@@@@@@@@@@@@@@@@@@@@@@@@@@@@@@@@@@@@@@@@@@@@@@@@@@@@@@@@@@@@@@@@@@@@@@@@@@@@@@@@@@@@@@@@@@@@@@@@@@@@@@@@@@@@@@@@@",
"@@@@@@@@@@@@@@@@@@@@@@@@@@@@@@@@@@@@@@@@@@@@@@@@@@@@@@@@@@@@@@@@@@@@@@@@@@@@@@@@@@@@@@@@@@@@@@@@@@@@@@@@@@@@@@@@@@@@@@@@@@@@@@@@@@@@@@@@@@@@@@@@@@@@@@@@@@@@@@@@@@@@@@@@@@@@@@@@@@@@@@@@@@@@@@@@@@@@@@@@@@@@@@@@@@@@@@@@@@@@@@@@@@@@@@@@@@@@@@@@@@@@@@@@@@@@@@@@@@@@@@@@@@@@@@@@@@@@@@@@@@@@@@@@@@@@@@@@@@@@@@@@@@@@@@@@@@@@@@@@",
"@@@@@@@@@@@@@@@@@@@@@@@@@@@@@@@@@@@@@@@@@@@@@@@@@@@@@@@@@@@@@@@@@@@@@@@@@@@@@@@@@@@@@@@@@@@@@@@@@@@@@@@@@@@@@@@@@@@@@@@@@@@@@@@@@@@@@@@@@@@@@@@@@@@@@@@@@@@@@@@@@@@@@@@@@@@@@@@@@@@@@@@@@@@@@@@@@@@@@@@@@@@@@@@@@@@@@@@@@@@@@@@@@@@@@@@@@@@@@@@@@@@@@@@@@@@@@@@@@@@@@@@@@@@@@@@@@@@@@@@@@@@@@@@@@@@@@@@@@@@@@@@@@@@@@@@@@@@@@@@@",
"@@@@@@@@@@@@@@@@@@@@@@@@@@@@@@@@@@@@@@@@@@@@@@@@@@@@@@@@@@@@@@@@@@@@@@@@@@@@@@@@@@@@@@@@@@@@@@@@@@@@@@@@@@@@@@@@@@@@@@@@@@@@@@@@@@@@@@@@@@@@@@@@@@@@@@@@@@@@@@@@@@@@@@@@@@@@@@@@@@@@@@@@@@@@@@@@@@@@@@@@@@@@@@@@@@@@@@@@@@@@@@@@@@@@@@@@@@@@@@@@@@@@@@@@@@@@@@@@@@@@@@@@@@@@@@@@@@@@@@@@@@@@@@@@@@@@@@@@@@@@@@@@@@@@@@@@@@@@@@@@",
"@@@@@@@@@@@@@@@@@@@@@@@@@@@@@@@@@@@@@@@@@@@@@@@@@@@@@@@@@@@@@@@@@@@@@@@@@@@@@@@@@@@@@@@@@@@@@@@@@@@@@@@@@@@@@@@@@@@@@@@@@@@@@@@@@@@@@@@@@@@@@@@@@@@@@@@@@@@@@@@@@@@@@@@@@@@@@@@@@@@@@@@@@@@@@@@@@@@@@@@@@@@@@@@@@@@@@@@@@@@@@@@@@@@@@@@@@@@@@@@@@@@@@@@@@@@@@@@@@@@@@@@@@@@@@@@@@@@@@@@@@@@@@@@@@@@@@@@@@@@@@@@@@@@@@@@@@@@@@@@@",
"@@@@@@@@@@@@@@@@@@@@@@@@@@@@@@@@@@@@@@@@@@@@@@@@@@@@@@@@@@@@@@@@@@@@@@@@@@@@@@@@@@@@@@@@@@@@@@@@@@@@@@@@@@@@@@@@@@@@@@@@@@@@@@@@@@@@@@@@@@@@@@@@@@@@@@@@@@@@@@@@@@@@@@@@@@@@@@@@@@@@@@@@@@@@@@@@@@@@@@@@@@@@@@@@@@@@@@@@@@@@@@@@@@@@@@@@@@@@@@@@@@@@@@@@@@@@@@@@@@@@@@@@@@@@@@@@@@@@@@@@@@@@@@@@@@@@@@@@@@@@@@@@@@@@@@@@@@@@@@@@",
"@@@@@@@@@@@@@@@@@@@@@@@@@@@@@@@@@@@@@@@@@@@@@@@@@@@@@@@@@@@@@@@@@@@@@@@@@@@@@@@@@@@@@@@@@@@@@@@@@@@@@@@@@@@@@@@@@@@@@@@@@@@@@@@@@@@@@@@@@@@@@@@@@@@@@@@@@@@@@@@@@@@@@@@@@@@@@@@@@@@@@@@@@@@@@@@@@@@@@@@@@@@@@@@@@@@@@@@@@@@@@@@@@@@@@@@@@@@@@@@@@@@@@@@@@@@@@@@@@@@@@@@@@@@@@@@@@@@@@@@@@@@@@@@@@@@@@@@@@@@@@@@@@@@@@@@@@@@@@@@@",
"@@@@@@@@@@@@@@@@@@@@@@@@@@@@@@@@@@@@@@@@@@@@@@@@@@@@@@@@@@@@@@@@@@@@@@@@@@@@@@@@@@@@@@@@@@@@@@@@@@@@@@@@@@@@@@@@@@@@@@@@@@@@@@@@@@@@@@@@@@@@@@@@@@@@@@@@@@@@@@@@@@@@@@@@@@@@@@@@@@@@@@@@@@@@@@@@@@@@@@@@@@@@@@@@@@@@@@@@@@@@@@@@@@@@@@@@@@@@@@@@@@@@@@@@@@@@@@@@@@@@@@@@@@@@@@@@@@@@@@@@@@@@@@@@@@@@@@@@@@@@@@@@@@@@@@@@@@@@@@@@",
"@@@@@@@@@@@@@@@@@@@@@@@@@@@@@@@@@@@@@@@@@@@@@@@@@@@@@@@@@@@@@@@@@@@@@@@@@@@@@@@@@@@@@@@@@@@@@@@@@@@@@@@@@@@@@@@@@@@@@@@@@@@@@@@@@@@@@@@@@@@@@@@@@@@@@@@@@@@@@@@@@@@@@@@@@@@@@@@@@@@@@@@@@@@@@@@@@@@@@@@@@@@@@@@@@@@@@@@@@@@@@@@@@@@@@@@@@@@@@@@@@@@@@@@@@@@@@@@@@@@@@@@@@@@@@@@@@@@@@@@@@@@@@@@@@@@@@@@@@@@@@@@@@@@@@@@@@@@@@@@@",
"@@@@@@@@@@@@@@@@@@@@@@@@@@@@@@@@@@@@@@@@@@@@@@@@@@@@@@@@@@@@@@@@@@@@@@@@@@@@@@@@@@@@@@@@@@@@@@@@@@@@@@@@@@@@@@@@@@@@@@@@@@@@@@@@@@@@@@@@@@@@@@@@@@@@@@@@@@@@@@@@@@@@@@@@@@@@@@@@@@@@@@@@@@@@@@@@@@@@@@@@@@@@@@@@@@@@@@@@@@@@@@@@@@@@@@@@@@@@@@@@@@@@@@@@@@@@@@@@@@@@@@@@@@@@@@@@@@@@@@@@@@@@@@@@@@@@@@@@@@@@@@@@@@@@@@@@@@@@@@@@",
"@@@@@@@@@@@@@@@@@@@@@@@@@@@@@@@@@@@@@@@@@@@@@@@@@@@@@@@@@@@@@@@@@@@@@@@@@@@@@@@@@@@@@@@@@@@@@@@@@@@@@@@@@@@@@@@@@@@@@@@@@@@@@@@@@@@@@@@@@@@@@@@@@@@@@@@@@@@@@@@@@@@@@@@@@@@@@@@@@@@@@@@@@@@@@@@@@@@@@@@@@@@@@@@@@@@@@@@@@@@@@@@@@@@@@@@@@@@@@@@@@@@@@@@@@@@@@@@@@@@@@@@@@@@@@@@@@@@@@@@@@@@@@@@@@@@@@@@@@@@@@@@@@@@@@@@@@@@@@@@@",
"@@@@@@@@@@@@@@@@@@@@@@@@@@@@@@@@@@@@@@@@@@@@@@@@@@@@@@@@@@@@@@@@@@@@@@@@@@@@@@@@@@@@@@@@@@@@@@@@@@@@@@@@@@@@@@@@@@@@@@@@@@@@@@@@@@@@@@@@@@@@@@@@@@@@@@@@@@@@@@@@@@@@@@@@@@@@@@@@@@@@@@@@@@@@@@@@@@@@@@@@@@@@@@@@@@@@@@@@@@@@@@@@@@@@@@@@@@@@@@@@@@@@@@@@@@@@@@@@@@@@@@@@@@@@@@@@@@@@@@@@@@@@@@@@@@@@@@@@@@@@@@@@@@@@@@@@@@@@@@@@",
"@@@@@@@@@@@@@@@@@@@@@@@@@@@@@@@@@@@@@@@@@@@@@@@@@@@@@@@@@@@@@@@@@@@@@@@@@@@@@@@@@@@@@@@@@@@@@@@@@@@@@@@@@@@@@@@@@@@@@@@@@@@@@@@@@@@@@@@@@@@@@@@@@@@@@@@@@@@@@@@@@@@@@@@@@@@@@@@@@@@@@@@@@@@@@@@@@@@@@@@@@@@@@@@@@@@@@@@@@@@@@@@@@@@@@@@@@@@@@@@@@@@@@@@@@@@@@@@@@@@@@@@@@@@@@@@@@@@@@@@@@@@@@@@@@@@@@@@@@@@@@@@@@@@@@@@@@@@@@@@@",
"@@@@@@@@@@@@@@@@@@@@@@@@@@@@@@@@@@@@@@@@@@@@@@@@@@@@@@@@@@@@@@@@@@@@@@@@@@@@@@@@@@@@@@@@@@@@@@@@@@@@@@@@@@@@@@@@@@@@@@@@@@@@@@@@@@@@@@@@@@@@@@@@@@@@@@@@@@@@@@@@@@@@@@@@@@@@@@@@@@@@@@@@@@@@@@@@@@@@@@@@@@@@@@@@@@@@@@@@@@@@@@@@@@@@@@@@@@@@@@@@@@@@@@@@@@@@@@@@@@@@@@@@@@@@@@@@@@@@@@@@@@@@@@@@@@@@@@@@@@@@@@@@@@@@@@@@@@@@@@@@",
"@@@@@@@@@@@@@@@@@@@@@@@@@@@@@@@@@@@@@@@@@@@@@@@@@@@@@@@@@@@@@@@@@@@@@@@@@@@@@@@@@@@@@@@@@@@@@@@@@@@@@@@@@@@@@@@@@@@@@@@@@@@@@@@@@@@@@@@@@@@@@@@@@@@@@@@@@@@@@@@@@@@@@@@@@@@@@@@@@@@@@@@@@@@@@@@@@@@@@@@@@@@@@@@@@@@@@@@@@@@@@@@@@@@@@@@@@@@@@@@@@@@@@@@@@@@@@@@@@@@@@@@@@@@@@@@@@@@@@@@@@@@@@@@@@@@@@@@@@@@@@@@@@@@@@@@@@@@@@@@@",
"@@@@@@@@@@@@@@@@@@@@@@@@@@@@@@@@@@@@@@@@@@@@@@@@@@@@@@@@@@@@@@@@@@@@@@@@@@@@@@@@@@@@@@@@@@@@@@@@@@@@@@@@@@@@@@@@@@@@@@@@@@@@@@@@@@@@@@@@@@@@@@@@@@@@@@@@@@@@@@@@@@@@@@@@@@@@@@@@@@@@@@@@@@@@@@@@@@@@@@@@@@@@@@@@@@@@@@@@@@@@@@@@@@@@@@@@@@@@@@@@@@@@@@@@@@@@@@@@@@@@@@@@@@@@@@@@@@@@@@@@@@@@@@@@@@@@@@@@@@@@@@@@@@@@@@@@@@@@@@@@",
"@@@@@@@@@@@@@@@@@@@@@@@@@@@@@@@@@@@@@@@@@@@@@@@@@@@@@@@@@@@@@@@@@@@@@@@@@@@@@@@@@@@@@@@@@@@@@@@@@@@@@@@@@@@@@@@@@@@@@@@@@@@@@@@@@@@@@@@@@@@@@@@@@@@@@@@@@@@@@@@@@@@@@@@@@@@@@@@@@@@@@@@@@@@@@@@@@@@@@@@@@@@@@@@@@@@@@@@@@@@@@@@@@@@@@@@@@@@@@@@@@@@@@@@@@@@@@@@@@@@@@@@@@@@@@@@@@@@@@@@@@@@@@@@@@@@@@@@@@@@@@@@@@@@@@@@@@@@@@@@@",
"@@@@@@@@@@@@@@@@@@@@@@@@@@@@@@@@@@@@@@@@@@@@@@@@@@@@@@@@@@@@@@@@@@@@@@@@@@@@@@@@@@@@@@@@@@@@@@@@@@@@@@@@@@@@@@@@@@@@@@@@@@@@@@@@@@@@@@@@@@@@@@@@@@@@@@@@@@@@@@@@@@@@@@@@@@@@@@@@@@@@@@@@@@@@@@@@@@@@@@@@@@@@@@@@@@@@@@@@@@@@@@@@@@@@@@@@@@@@@@@@@@@@@@@@@@@@@@@@@@@@@@@@@@@@@@@@@@@@@@@@@@@@@@@@@@@@@@@@@@@@@@@@@@@@@@@@@@@@@@@@",
"@@@@@@@@@@@@@@@@@@@@@@@@@@@@@@@@@@@@@@@@@@@@@@@@@@@@@@@@@@@@@@@@@@@@@@@@@@@@@@@@@@@@@@@@@@@@@@@@@@@@@@@@@@@@@@@@@@@@@@@@@@@@@@@@@@@@@@@@@@@@@@@@@@@@@@@@@@@@@@@@@@@@@@@@@@@@@@@@@@@@@@@@@@@@@@@@@@@@@@@@@@@@@@@@@@@@@@@@@@@@@@@@@@@@@@@@@@@@@@@@@@@@@@@@@@@@@@@@@@@@@@@@@@@@@@@@@@@@@@@@@@@@@@@@@@@@@@@@@@@@@@@@@@@@@@@@@@@@@@@@",
"@@@@@@@@@@@@@@@@@@@@@@@@@@@@@@@@@@@@@@@@@@@@@@@@@@@@@@@@@@@@@@@@@@@@@@@@@@@@@@@@@@@@@@@@@@@@@@@@@@@@@@@@@@@@@@@@@@@@@@@@@@@@@@@@@@@@@@@@@@@@@@@@@@@@@@@@@@@@@@@@@@@@@@@@@@@@@@@@@@@@@@@@@@@@@@@@@@@@@@@@@@@@@@@@@@@@@@@@@@@@@@@@@@@@@@@@@@@@@@@@@@@@@@@@@@@@@@@@@@@@@@@@@@@@@@@@@@@@@@@@@@@@@@@@@@@@@@@@@@@@@@@@@@@@@@@@@@@@@@@@",
"@@@@@@@@@@@@@@@@@@@@@@@@@@@@@@@@@@@@@@@@@@@@@@@@@@@@@@@@@@@@@@@@@@@@@@@@@@@@@@@@@@@@@@@@@@@@@@@@@@@@@@@@@@@@@@@@@@@@@@@@@@@@@@@@@@@@@@@@@@@@@@@@@@@@@@@@@@@@@@@@@@@@@@@@@@@@@@@@@@@@@@@@@@@@@@@@@@@@@@@@@@@@@@@@@@@@@@@@@@@@@@@@@@@@@@@@@@@@@@@@@@@@@@@@@@@@@@@@@@@@@@@@@@@@@@@@@@@@@@@@@@@@@@@@@@@@@@@@@@@@@@@@@@@@@@@@@@@@@@@@",
"@@@@@@@@@@@@@@@@@@@@@@@@@@@@@@@@@@@@@@@@@@@@@@@@@@@@@@@@@@@@@@@@@@@@@@@@@@@@@@@@@@@@@@@@@@@@@@@@@@@@@@@@@@@@@@@@@@@@@@@@@@@@@@@@@@@@@@@@@@@@@@@@@@@@@@@@@@@@@@@@@@@@@@@@@@@@@@@@@@@@@@@@@@@@@@@@@@@@@@@@@@@@@@@@@@@@@@@@@@@@@@@@@@@@@@@@@@@@@@@@@@@@@@@@@@@@@@@@@@@@@@@@@@@@@@@@@@@@@@@@@@@@@@@@@@@@@@@@@@@@@@@@@@@@@@@@@@@@@@@@",
"@@@@@@@@@@@@@@@@@@@@@@@@@@@@@@@@@@@@@@@@@@@@@@@@@@@@@@@@@@@@@@@@@@@@@@@@@@@@@@@@@@@@@@@@@@@@@@@@@@@@@@@@@@@@@@@@@@@@@@@@@@@@@@@@@@@@@@@@@@@@@@@@@@@@@@@@@@@@@@@@@@@@@@@@@@@@@@@@@@@@@@@@@@@@@@@@@@@@@@@@@@@@@@@@@@@@@@@@@@@@@@@@@@@@@@@@@@@@@@@@@@@@@@@@@@@@@@@@@@@@@@@@@@@@@@@@@@@@@@@@@@@@@@@@@@@@@@@@@@@@@@@@@@@@@@@@@@@@@@@@",
"@@@@@@@@@@@@@@@@@@@@@@@@@@@@@@@@@@@@@@@@@@@@@@@@@@@@@@@@@@@@@@@@@@@@@@@@@@@@@@@@@@@@@@@@@@@@@@@@@@@@@@@@@@@@@@@@@@@@@@@@@@@@@@@@@@@@@@@@@@@@@@@@@@@@@@@@@@@@@@@@@@@@@@@@@@@@@@@@@@@@@@@@@@@@@@@@@@@@@@@@@@@@@@@@@@@@@@@@@@@@@@@@@@@@@@@@@@@@@@@@@@@@@@@@@@@@@@@@@@@@@@@@@@@@@@@@@@@@@@@@@@@@@@@@@@@@@@@@@@@@@@@@@@@@@@@@@@@@@@@@"
};
