/* XPM */
static char *end_floor3_013[] = {
/* columns rows colors chars-per-pixel */
"320 200 80 1 ",
"  c #000000",
". c #0B0B0B",
"X c gray8",
"o c #1B1B1B",
"O c #00002C",
"+ c #00003C",
"@ c gray14",
"# c #2C2C2C",
"$ c #343434",
"% c #3C3C3C",
"& c #600000",
"* c #700404",
"= c #004400",
"- c #005C00",
"; c #007400",
": c #000050",
"> c #000064",
", c #244870",
"< c #444444",
"1 c #4C4C4C",
"2 c #545454",
"3 c #5C5C5C",
"4 c #646464",
"5 c #6C6C6C",
"6 c #747474",
"7 c #7C7C7C",
"8 c #840404",
"9 c #980808",
"0 c #AC0C0C",
"q c #C01010",
"w c #F80000",
"e c #C42424",
"r c #CC3838",
"t c #C06410",
"y c #C47024",
"u c #008C00",
"i c #00A400",
"p c #CC8038",
"a c #B08458",
"s c #D09050",
"d c #D89C64",
"f c #DCAC7C",
"g c #D0D450",
"h c #D8D868",
"j c #040488",
"k c #0C0CAC",
"l c #2C5480",
"z c #346090",
"x c #3C6CA0",
"c c #4C78A8",
"v c #1010C0",
"b c #4040D0",
"n c #7878E0",
"m c #5884B0",
"M c #6C90BC",
"N c #848484",
"B c #8C8C8C",
"V c #939393",
"C c #989898",
"Z c #A0A0A0",
"A c #A8A8A8",
"S c #B0B0B0",
"D c #BCBCBC",
"F c #C4A080",
"G c #D0B094",
"H c #E4C098",
"J c #E0E080",
"K c #ECD0B4",
"L c #E0ECB4",
"P c #ECECB8",
"I c #80A0C4",
"U c #C4C4C4",
"Y c #CCCCCC",
"T c #D4D4D4",
"R c #DADADA",
"E c #D8D8F4",
"W c #E0E0E0",
"Q c #E8E8E8",
"! c #F1F1F1",
"~ c #FCFCFC",
/* pixels */
"@@@@@@@@@@@@@@@@@@@@@@@@@@@@@@@@@@@@@@@@@@@@@@@@@@@@@@@@@@@@@@@@@@@@@@@@@@@@@@@@@@@@@@@@@@@@@@@@@@@@@@@@@@@@@@@@@@@@@@@@@@@@@@@@@@@@@@@@@@@@@@@@@@@@@@@@@@@@@@@@@@@@@@@@@@@@@@@@@@@@@@@@@@@@@@@@@@@@@@@@@@@@@@@@@@@@@@@@@@@@@@@@@@@@@@@@@@@@@@@@@@@@@@@@@@@@@@@@@@@@@@@@@@@@@@@@@@@@@@@@@@@@@@@@@@@@@@@@@@@@@@@@@@@@@@@@@@@@@@@@",
"@@@@@@@@@@@@@@@@@@@@@@@@@@@@@@@@@@@@@@@@@@@@@@@@@@@@@@@@@@@@@@@@@@@@@@@@@@@@@@@@@@@@@@@@@@@@@@@@@@@@@@@@@@@@@@@@@@@@@@@@@@@@@@@@@@@@@@@@@@@@@@@@@@@@@@@@@@@@@@@@@@@@@@@@@@@@@@@@@@@@@@@@@@@@@@@@@@@@@@@@@@@@@@@@@@@@@@@@@@@@@@@@@@@@@@@@@@@@@@@@@@@@@@@@@@@@@@@@@@@@@@@@@@@@@@@@@@@@@@@@@@@@@@@@@@@@@@@@@@@@@@@@@@@@@@@@@@@@@@@@",
"@@@@@@@@@@@@@@@@@@@@@@@@@@@@@@@@@@@@@@@@@@@@@@@@@@@@@@@@@@@@@@@@@@@@@@@@@@@@@@@@@@@@@@@@@@@@@@@@@@@@@@@@@@@@@@@@@@@@@@@@@@@@@@@@@@@@@@@@@@@@@@@@@@@@@@@@@@@@@@@@@@@@@@@@@@@@@@@@@@@@@@@@@@@@@@@@@@@@@@@@@@@@@@@@@@@@@@@@@@@@@@@@@@@@@@@@@@@@@@@@@@@@@@@@@@@@@@@@@@@@@@@@@@@@@@@@@@@@@@@@@@@@@@@@@@@@@@@@@@@@@@@@@@@@@@@@@@@@@@@@",
"@@@@@@@@@@@@@@@@@@@@@@@@@@@@@@@@@@@@@@@@@@@@@@@@@@@@@@@@@@@@@@@@@@@@@@@@@@@@@@@@@@@@@@@@@@@@@@@@@@@@@@@@@@@@@@@@@@@@@@@@@@@@@@@@@@@@@@@@@@@@@@@@@@@@@@@@@@@@@@@@@@@@@@@@@@@@@@@@@@@@@@@@@@@@@@@@@@@@@@@@@@@@@@@@@@@@@@@@@@@@@@@@@@@@@@@@@@@@@@@@@@@@@@@@@@@@@@@@@@@@@@@@@@@@@@@@@@@@@@@@@@@@@@@@@@@@@@@@@@@@@@@@@@@@@@@@@@@@@@@@",
"@@@@@@@@@@@@@@@@@@@@@@@@@@@@@@@@@@@@@@@@@@@@@@@@@@@@@@@@@@@@@@@@@@@@@@@@@@@@@@@@@@@@@@@@@@@@@@@@@@@@@@@@@@@@@@@@@@@@@@@@@@@@@@@@@@@@@@@@@@@@@@@@@@@@@@@@@@@@@@@@@@@@@@@@@@@@@@@@@@@@@@@@@@@@@@@@@@@@@@@@@@@@@@@@@@@@@@@@@@@@@@@@@@@@@@@@@@@@@@@@@@@@@@@@@@@@@@@@@@@@@@@@@@@@@@@@@@@@@@@@@@@@@@@@@@@@@@@@@@@@@@@@@@@@@@@@@@@@@@@@",
"@@@@@@@@@@@@@@@@@@@@@@@@@@@@@@@@@@@@@@@@@@@@@@@@@@@@@@@@@@@@@@@@@@@@@@@@@@@@@@@@@@@@@@@@@@@@@@@@@@@@@@@@@@@@@@@@@@@@@@@@@@@@@@@@@@@@@@@@@@@@@@@@@@@@@@@@@@@@@@@@@@@@@@@@@@@@@@@@@@@@@@@@@@@@@@@@@@@@@@@@@@@@@@@@@@@@@@@@@@@@@@@@@@@@@@@@@@@@@@@@@@@@@@@@@@@@@@@@@@@@@@@@@@@@@@@@@@@@@@@@@@@@@@@@@@@@@@@@@@@@@@@@@@@@@@@@@@@@@@@@",
"@@@@@@@@@@@@@@@@@@@@@@@@@@@@@@@@@@@@@@@@@@@@@@@@@@@@@@@@@@@@@@@@@@@@@@@@@@@@@@@@@@@@@@@@@@@@@@@@@@@@@@@@@@@@@@@@@@@@@@@@@@@@@@@@@@@@@@@@@@@@@@@@@@@@@@@@@@@@@@@@@@@@@@@@@@@@@@@@@@@@@@@@@@@@@@@@@@@@@@@@@@@@@@@@@@@@@@@@@@@@@@@@@@@@@@@@@@@@@@@@@@@@@@@@@@@@@@@@@@@@@@@@@@@@@@@@@@@@@@@@@@@@@@@@@@@@@@@@@@@@@@@@@@@@@@@@@@@@@@@@",
"@@@@@@@@@@@@@@@@@@@@@@@@@@@@@@@@@@@@@@@@@@@@@@@@@@@@@@@@@@@@@@@@@@@@@@@@@@@@@@@@@@@@@@@@@@@@@@@@@@@@@@@@@@@@@@@@@@@@@@@@@@@@@@@@@@@@@@@@@@@@@@@@@@@@@@@@@@@@@@@@@@@@@@@@@@@@@@@@@@@@@@@@@@@@@@@@@@@@@@@@@@@@@@@@@@@@@@@@@@@@@@@@@@@@@@@@@@@@@@@@@@@@@@@@@@@@@@@@@@@@@@@@@@@@@@@@@@@@@@@@@@@@@@@@@@@@@@@@@@@@@@@@@@@@@@@@@@@@@@@@",
"@@@@@@@@@@@@@@@@@@@@@@@@@@@@@@@@@@@@@@@@@@@@@@@@@@@@@@@@@@@@@@@@@@@@@@@@@@@@@@@@@@@@@@@@@@@@@@@@@@@@@@@@@@@@@@@@@@@@@@@@@@@@@@@@@@@@@@@@@@@@@@@@@@@@@@@@@@@@@@@@@@@@@@@@@@@@@@@@@@@@@@@@@@@@@@@@@@@@@@@@@@@@@@@@@@@@@@@@@@@@@@@@@@@@@@@@@@@@@@@@@@@@@@@@@@@@@@@@@@@@@@@@@@@@@@@@@@@@@@@@@@@@@@@@@@@@@@@@@@@@@@@@@@@@@@@@@@@@@@@@",
"@@@@@@@@@@@@@@@@@@@@@@@@@@@@@@@@@@@@@@@@@@@@@@@@@@@@@@@@@@@@@@@@@@@@@@@@@@@@@@@@@@@@@@@@@@@@@@@@@@@@@@@@@@@@@@@@@@@@@@@@@@@@@@@@@@@@@@@@@@@@@@@@@@@@@@@@@@@@@@@@@@@@@@@@@@@@@@@@@@@@@@@@@@@@@@@@@@@@@@@@@@@@@@@@@@@@@@@@@@@@@@@@@@@@@@@@@@@@@@@@@@@@@@@@@@@@@@@@@@@@@@@@@@@@@@@@@@@@@@@@@@@@@@@@@@@@@@@@@@@@@@@@@@@@@@@@@@@@@@@@",
"@@@@@@@@@@@@@@@@@@@@@@@@@@@@@@@@@@@@@@@@@@@@@@@@@@@@@@@@@@@@@@@@@@@@@@@@@@@@@@@@@@@@@@@@@@@@@@@@@@@@@@@@@@@@@@@@@@@@@@@@@@@@@@@@@@@@@@@@@@@@@@@@@@@@@@@@@@@@@@@@@@@@@@@@@@@@@@@@@@@@@@@@@@@@@@@@@@@@@@@@@@@@@@@@@@@@@@@@@@@@@@@@@@@@@@@@@@@@@@@@@@@@@@@@@@@@@@@@@@@@@@@@@@@@@@@@@@@@@@@@@@@@@@@@@@@@@@@@@@@@@@@@@@@@@@@@@@@@@@@@",
"@@@@@@@@@@@@@@@@@@@@@@@@@@@@@@@@@@@@@@@@@@@@@@@@@@@@@@@@@@@@@@@@@@@@@@@@@@@@@@@@@@@@@@@@@@@@@@@@@@@@@@@@@@@@@@@@@@@@@@@@@@@@@@@@@@@@@@@@@@@@@@@@@@@@@@@@@@@@@@@@@@@@@@@@@@@@@@@@@@@@@@@@@@@@@@@@@@@@@@@@@@@@@@@@@@@@@@@@@@@@@@@@@@@@@@@@@@@@@@@@@@@@@@@@@@@@@@@@@@@@@@@@@@@@@@@@@@@@@@@@@@@@@@@@@@@@@@@@@@@@@@@@@@@@@@@@@@@@@@@@",
"@@@@@@@@@@@@@@@@@@@@@@@@@@@@@@@@@@@@@@@@@@@@@@@@@@@@@@@@@@@@@@@@@@@@@@@@@@@@@@@@@@@@@@@@@@@@@@@@@@@@@@@@@@@@@@@@@@@@@@@@@@@@@@@@@@@@@@@@@@@@@@@@@@@@@@@@@@@@@@@@@@@@@@@@@@@@@@@@@@@@@@@@@@@@@@@@@@@@@@@@@@@@@@@@@@@@@@@@@@@@@@@@@@@@@@@@@@@@@@@@@@@@@@@@@@@@@@@@@@@@@@@@@@@@@@@@@@@@@@@@@@@@@@@@@@@@@@@@@@@@@@@@@@@@@@@@@@@@@@@@",
"@@@@@@@@@@@@@@@@@@@@@@@@@@@@@@@@@@@@@@@@@@@@@@@@@@@@@@@@@@@@@@@@@@@@@@@@@@@@@@@@@@@@@@@@@@@@@@@@@@@@@@@@@@@@@@@@@@@@@@@@@@@@@@@@@@@@@@@@@@@@@@@@@@@@@@@@@@@@@@@@@@@@@@@@@@@@@@@@@@@@@@@@@@@@@@@@@@@@@@@@@@@@@@@@@@@@@@@@@@@@@@@@@@@@@@@@@@@@@@@@@@@@@@@@@@@@@@@@@@@@@@@@@@@@@@@@@@@@@@@@@@@@@@@@@@@@@@@@@@@@@@@@@@@@@@@@@@@@@@@@",
"@@@@@@@@@@@@@@@@@@@@@@@@@@@@@@@@@@@@@@@@@@@@@@@@@@@@@@@@@@@@@@@@@@@@@@@@@@@@@@@@@@@@@@@@@@@@@@@@@@@@@@@@@@@@@@@@@@@@@@@@@@@@@@@@@@@@@@@@@@@@@@@@@@@@@@@@@@@@@@@@@@@@@@@@@@@@@@@@@@@@@@@@@@@@@@@@@@@@@@@@@@@@@@@@@@@@@@@@@@@@@@@@@@@@@@@@@@@@@@@@@@@@@@@@@@@@@@@@@@@@@@@@@@@@@@@@@@@@@@@@@@@@@@@@@@@@@@@@@@@@@@@@@@@@@@@@@@@@@@@@",
"@@@@@@@@@@@@@@@@@@@@@@@@@@@@@@@@@@@@@@@@@@@@@@@@@@@@@@@@@@@@@@@@@@@@@@@@@@@@@@@@@@@@@@@@@@@@@@@@@@@@@@@@@@@@@@@@@@@@@@@@@@@@@@@@@@@@@@@@@@@@@@@@@@@@@@@@@@@@@@@@@@@@@@@@@@@@@@@@@@@@@@@@@@@@@@@@@@@@@@@@@@@@@@@@@@@@@@@@@@@@@@@@@@@@@@@@@@@@@@@@@@@@@@@@@@@@@@@@@@@@@@@@@@@@@@@@@@@@@@@@@@@@@@@@@@@@@@@@@@@@@@@@@@@@@@@@@@@@@@@@",
"@@@@@@@@@@@@@@@@@@@@@@@@@@@@@@@@@@@@@@@@@@@@@@@@@@@@@@@@@@@@@@@@@@@@@@@@@@@@@@@@@@@@@@@@@@@@@@@@@@@@@@@@@@@@@@@@@@@@@@@@@@@@@@@@@@@@@@@@@@@@@@@@@@@@@@@@@@@@@@@@@@@@@@@@@@@@@@@@@@@@@@@@@@@@@@@@@@@@@@@@@@@@@@@@@@@@@@@@@@@@@@@@@@@@@@@@@@@@@@@@@@@@@@@@@@@@@@@@@@@@@@@@@@@@@@@@@@@@@@@@@@@@@@@@@@@@@@@@@@@@@@@@@@@@@@@@@@@@@@@@",
"@@@@@@@@@@@@@@@@@@@@@@@@@@@@@@@@@@@@@@@@@@@@@@@@@@@@@@@@@@@@@@@@@@@@@@@@@@@@@@@@@@@@@@@@@@@@@@@@@@@@@@@@@@@@@@@@@@@@@@@@@@@@@@@@@@@@@@@@@@@@@@@@@@@@@@@@@@@@@@@@@@@@@@@@@@@@@@@@@@@@@@@@@@@@@@@@@@@@@@@@@@@@@@@@@@@@@@@@@@@@@@@@@@@@@@@@@@@@@@@@@@@@@@@@@@@@@@@@@@@@@@@@@@@@@@@@@@@@@@@@@@@@@@@@@@@@@@@@@@@@@@@@@@@@@@@@@@@@@@@@",
"@@@@@@@@@@@@@@@@@@@@@@@@@@@@@@@@@@@@@@@@@@@@@@@@@@@@@@@@@@@@@@@@@@@@@@@@@@@@@@@@@@@@@@@@@@@@@@@@@@@@@@@@@@@@@@@@@@@@@@@@@@@@@@@@@@@@@@@@@@@@@@@@@@@@@@@@@@@@@@@@@@@@@@@@@@@@@@@@@@@@@@@@@@@@@@@@@@@@@@@@@@@@@@@@@@@@@@@@@@@@@@@@@@@@@@@@@@@@@@@@@@@@@@@@@@@@@@@@@@@@@@@@@@@@@@@@@@@@@@@@@@@@@@@@@@@@@@@@@@@@@@@@@@@@@@@@@@@@@@@@",
"@@@@@@@@@@@@@@@@@@@@@@@@@@@@@@@@@@@@@@@@@@@@@@@@@@@@@@@@@@@@@@@@@@@@@@@@@@@@@@@@@@@@@@@@@@@@@@@@@@@@@@@@@@@@@@@@@@@@@@@@@@@@@@@@@@@@@@@@@@@@@@@@@@@@@@@@@@@@@@@@@@@@@@@@@@@@@@@@@@@@@@@@@@@@@@@@@@@@@@@@@@@@@@@@@@@@@@@@@@@@@@@@@@@@@@@@@@@@@@@@@@@@@@@@@@@@@@@@@@@@@@@@@@@@@@@@@@@@@@@@@@@@@@@@@@@@@@@@@@@@@@@@@@@@@@@@@@@@@@@@",
"@@@@@@@@@@@@@@@@@@@@@@@@@@@@@@@@@@@@@@@@@@@@@@@@@@@@@@@@@@@@@@@@@@@@@@@@@@@@@@@@@@@@@@@@@@@@@@@@@@@@@@@@@@@@@@@@@@@@@@@@@@@@@@@@@@@@@@@@@@@@@@@@@@@@@@@@@@@@@@@@@@@@@@@@@@@@@@@@@@@@@@@@@@@@@@@@@@@@@@@@@@@@@@@@@@@@@@@@@@@@@@@@@@@@@@@@@@@@@@@@@@@@@@@@@@@@@@@@@@@@@@@@@@@@@@@@@@@@@@@@@@@@@@@@@@@@@@@@@@@@@@@@@@@@@@@@@@@@@@@@",
"@@@@@@@@@@@@@@@@@@@@@@@@@@@@@@@@@@@@@@@@@@@@@@@@@@@@@@@@@@@@@@@@@@@@@@@@@@@@@@@@@@@@@@@@@@@@@@@@@@@@@@@@@@@@@@@@@@@@@@@@@@@@@@@@@@@@@@@@@@@@@@@@@@@@@@@@@@@@@@@@@@@@@@@@@@@@@@@@@@@@@@@@@@@@@@@@@@@@@@@@@@@@@@@@@@@@@@@@@@@@@@@@@@@@@@@@@@@@@@@@@@@@@@@@@@@@@@@@@@@@@@@@@@@@@@@@@@@@@@@@@@@@@@@@@@@@@@@@@@@@@@@@@@@@@@@@@@@@@@@@",
"@@@@@@@@@@@@@@@@@@@@@@@@@@@@@@@@@@@@@@@@@@@@@@@@@@@@@@@@@@@@@@@@@@@@@@@@@@@@@@@@@@@@@@@@@@@@@@@@@@@@@@@@@@@@@@@@@@@@@@@@@@@@@@@@@@@@@@@@@@@@@@@@@@@@@@@@@@@@@@@@@@@@@@@@@@@@@@@@@@@@@@@@@@@@@@@@@@@@@@@@@@@@@@@@@@@@@@@@@@@@@@@@@@@@@@@@@@@@@@@@@@@@@@@@@@@@@@@@@@@@@@@@@@@@@@@@@@@@@@@@@@@@@@@@@@@@@@@@@@@@@@@@@@@@@@@@@@@@@@@@",
"@@@@@@@@@@@@@@@@@@@@@@@@@@@@@@@@@@@@@@@@@@@@@@@@@@@@@@@@@@@@@@@@@@@@@@@@@@@@@@@@@@@@@@@@@@@@@@@@@@@@@@@@@@@@@@@@@@@@@@@@@@@@@@@@@@@@@@@@@@@@@@@@@@@@@@@@@@@@@@@@@@@@@@@@@@@@@@@@@@@@@@@@@@@@@@@@@@@@@@@@@@@@@@@@@@@@@@@@@@@@@@@@@@@@@@@@@@@@@@@@@@@@@@@@@@@@@@@@@@@@@@@@@@@@@@@@@@@@@@@@@@@@@@@@@@@@@@@@@@@@@@@@@@@@@@@@@@@@@@@@",
"@@@@@@@@@@@@@@@@@@@@@@@@@@@@@@@@@@@@@@@@@@@@@@@@@@@@@@@@@@@@@@@@@@@@@@@@@@@@@@@@@@@@@@@@@@@@@@@@@@@@@@@@@@@@@@@@@@@@@@@@@@@@@@@@@@@@@@@@@@@@@@@@@@@@@@@@@@@@@@@@@@@@@@@@@@@@@@@@@@@@@@@@@@@@@@@@@@@@@@@@@@@@@@@@@@@@@@@@@@@@@@@@@@@@@@@@@@@@@@@@@@@@@@@@@@@@@@@@@@@@@@@@@@@@@@@@@@@@@@@@@@@@@@@@@@@@@@@@@@@@@@@@@@@@@@@@@@@@@@@@",
"@@@@@@@@@@@@@@@@@@@@@@@@@@@@@@@@@@@@@@@@@@@@@@@@@@@@@@@@@@@@@@@@@@@@@@@@@@@@@@@@@@@@@@@@@@@@@@@@@@@@@@@@@@@@@@@@@@@@@@@@@@@@@@@@@@@@@@@@@@@@@@@@@@@@@@@@@@@@@@@@@@@@@@@@@@@@@@@@@@@@@@@@@@@@@@@@@@@@@@@@@@@@@@@@@@@@@@@@@@@@@@@@@@@@@@@@@@@@@@@@@@@@@@@@@@@@@@@@@@@@@@@@@@@@@@@@@@@@@@@@@@@@@@@@@@@@@@@@@@@@@@@@@@@@@@@@@@@@@@@@",
"@@@@@@@@@@@@@@@@@@@@@@@@@@@@@@@@@@@@@@@@@@@@@@@@@@@@@@@@@@@@@@@@@@@@@@@@@@@@@@@@@@@@@@@@@@@@@@@@@@@@@@@@@@@@@@@@@@@@@@@@@@@@@@@@@@@@@@@@@@@@@@@@@@@@@@@@@@@@@@@@@@@@@@@@@@@@@@@@@@@@@@@@@@@@@@@@@@@@@@@@@@@@@@@@@@@@@@@@@@@@@@@@@@@@@@@@@@@@@@@@@@@@@@@@@@@@@@@@@@@@@@@@@@@@@@@@@@@@@@@@@@@@@@@@@@@@@@@@@@@@@@@@@@@@@@@@@@@@@@@@",
"@@@@@@@@@@@@@@@@@@@@@@@@@@@@@@@@@@@@@@@@@@@@@@@@@@@@@@@@@@@@@@@@@@@@@@@@@@@@@@@@@@@@@@@@@@@@@@@@@@@@@@@@@@@@@@@@@@@@@@@@@@@@@@@@@@@@@@@@@@@@@@@@@@@@@@@@@@@@@@@@@@@@@@@@@@@@@@@@@@@@@@@@@@@@@@@@@@@@@@@@@@@@@@@@@@@@@@@@@@@@@@@@@@@@@@@@@@@@@@@@@@@@@@@@@@@@@@@@@@@@@@@@@@@@@@@@@@@@@@@@@@@@@@@@@@@@@@@@@@@@@@@@@@@@@@@@@@@@@@@@",
"@@@@@@@@@@@@@@@@@@@@@@@@@@@@@@@@@@@@@@@@@@@@@@@@@@@@@@@@@@@@@@@@@@@@@@@@@@@@@@@@@@@@@@@@@@@@@@@@@@@@@@@@@@@@@@@@@@@@@@@@@@@@@@@@@@@@@@@@@@@@@@@@@@@@@@@@@@@@@@@@@@@@@@@@@@@@@@@@@@@@@@@@@@@@@@@@@@@@@@@@@@@@@@@@@@@@@@@@@@@@@@@@@@@@@@@@@@@@@@@@@@@@@@@@@@@@@@@@@@@@@@@@@@@@@@@@@@@@@@@@@@@@@@@@@@@@@@@@@@@@@@@@@@@@@@@@@@@@@@@@",
"@@@@@@@@@@@@@@@@@@@@@@@@@@@@@@@@@@@@@@@@@@@@@@@@@@@@@@@@@@@@@@@@@@@@@@@@@@@@@@@@@@@@@@@@@@@@@@@@@@@@@@@@@@@@@@@@@@@@@@@@@@@@@@@@@@@@@@@@@@@@@@@@@@@@@@@@@@@@@@@@@@@@@@@@@@@@@@@@@@@@@@@@@@@@@@@@@@@@@@@@@@@@@@@@@@@@@@@@@@@@@@@@@@@@@@@@@@@@@@@@@@@@@@@@@@@@@@@@@@@@@@@@@@@@@@@@@@@@@@@@@@@@@@@@@@@@@@@@@@@@@@@@@@@@@@@@@@@@@@@@",
"@@@@@@@@@@@@@@@@@@@@@@@@@@@@@@@@@@@@@@@@@@@@@@@@@@@@@@@@@@@@@@@@@@@@@@@@@@@@@@@@@@@@@@@@@@@@@@@@@@@@@@@@@@@@@@@@@@@@@@@@@@@@@@@@@@@@@@@@@@@@@@@@@@@@@@@@@@@@@@@@@@@@@@@@@@@@@@@@@@@@@@@@@@@@@@@@@@@@@@@@@@@@@@@@@@@@@@@@@@@@@@@@@@@@@@@@@@@@@@@@@@@@@@@@@@@@@@@@@@@@@@@@@@@@@@@@@@@@@@@@@@@@@@@@@@@@@@@@@@@@@@@@@@@@@@@@@@@@@@@@",
"@@@@@@@@@@@@@@@@@@@@@@@@@@@@@@@@@@@@@@@@@@@@@@@@@@@@@@@@@@@@@@@@@@@@@@@@@@@@@@@@@@@@@@@@@@@@@@@@@@@@@@@@@@@@@@@@@@@@@@@@@@@@@@@@@@@@@@@@@@@@@@@@@@@@@@@@@@@@@@@@@@@@@@@@@@@@@@@@@@@@@@@@@@@@@@@@@@@@@@@@@@@@@@@@@@@@@@@@@@@@@@@@@@@@@@@@@@@@@@@@@@@@@@@@@@@@@@@@@@@@@@@@@@@@@@@@@@@@@@@@@@@@@@@@@@@@@@@@@@@@@@@@@@@@@@@@@@@@@@@@",
"@@@@@@@@@@@@@@@@@@@@@@@@@@@@@@@@@@@@@@@@@@@@@@@@@@@@@@@@@@@@@@@@@@@@@@@@@@@@@@@@@@@@@@@@@@@@@@@@@@@@@@@@@@@@@@@@@@@@@@@@@@@@@@@@@@@@@@@@@@@@@@@@@@@@@@@@@@@@@@@@@@@@@@@@@@@@@@@@@@@@@@@@@@@@@@@@@@@@@@@@@@@@@@@@@@@@@@@@@@@@@@@@@@@@@@@@@@@@@@@@@@@@@@@@@@@@@@@@@@@@@@@@@@@@@@@@@@@@@@@@@@@@@@@@@@@@@@@@@@@@@@@@@@@@@@@@@@@@@@@@",
"@@@@@@@@@@@@@@@@@@@@@@@@@@@@@@@@@@@@@@@@@@@@@@@@@@@@@@@@@@@@@@@@@@@@@@@@@@@@@@@@@@@@@@@@@@@@@@@@@@@@@@@@@@@@@@@@@@@@@@@@@@@@@@@@@@@@@@@@@@@@@@@@@@@@@@@@@@@@@@@@@@@@@@@@@@@@@@@@@@@@@@@@@@@@@@@@@@@@@@@@@@@@@@@@@@@@@@@@@@@@@@@@@@@@@@@@@@@@@@@@@@@@@@@@@@@@@@@@@@@@@@@@@@@@@@@@@@@@@@@@@@@@@@@@@@@@@@@@@@@@@@@@@@@@@@@@@@@@@@@@",
"@@@@@@@@@@@@@@@@@@@@@@@@@@@@@@@@@@@@@@@@@@@@@@@@@@@@@@@@@@@@@@@@@@@@@@@@@@@@@@@@@@@@@@@@@@@@@@@@@@@@@@@@@@@@@@@@@@@@@@@@@@@@@@@@@@@@@@@@@@@@@@@@@@@@@@@@@@@@@@@@@@@@@@@@@@@@@@@@@@@@@@@@@@@@@@@@@@@@@@@@@@@@@@@@@@@@@@@@@@@@@@@@@@@@@@@@@@@@@@@@@@@@@@@@@@@@@@@@@@@@@@@@@@@@@@@@@@@@@@@@@@@@@@@@@@@@@@@@@@@@@@@@@@@@@@@@@@@@@@@@",
"@@@@@@@@@@@@@@@@@@@@@@@@@@@@@@@@@@@@@@@@@@@@@@@@@@@@@@@@@@@@@@@@@@@@@@@@@@@@@@@@@@@@@@@@@@@@@@@@@@@@@@@@@@@@@@@@@@@@@@@@@@@@@@@@@@@@@@@@@@@@@@@@@@@@@@@@@@@@@@@@@@@@@@@@@@@@@@@@@@@@@@@@@@@@@@@@@@@@@@@@@@@@@@@@@@@@@@@@@@@@@@@@@@@@@@@@@@@@@@@@@@@@@@@@@@@@@@@@@@@@@@@@@@@@@@@@@@@@@@@@@@@@@@@@@@@@@@@@@@@@@@@@@@@@@@@@@@@@@@@@",
"@@@@@@@@@@@@@@@@@@@@@@@@@@@@@@@@@@@@@@@@@@@@@@@@@@@@@@@@@@@@@@@@@@@@@@@@@@@@@@@@@@@@@@@@@@@@@@@@@@@@@@@@@@@@@@@@@@@@@@@@@@@@@@@@@@@@@@@@@@@@@@@@@@@@@@@@@@@@@@@@@@@@@@@@@@@@@@@@@@@@@@@@@@@@@@@@@@@@@@@@@@@@@@@@@@@@@@@@@@@@@@@@@@@@@@@@@@@@@@@@@@@@@@@@@@@@@@@@@@@@@@@@@@@@@@@@@@@@@@@@@@@@@@@@@@@@@@@@@@@@@@@@@@@@@@@@@@@@@@@@",
"                          424234667NBCZASDUYUDSAZCBN7656BCB3                             O     O                                                            v                                                                                                +                                          O                       ",
"                         %424234667NBCZASDUYUDSAZCBN7656BCB3%                                                                       O                        :                                                                                                                                                              :O  ",
"                         <424234667NBCZASDUYUDSAZCBN7656BCB3<     :                                                                                                                                               :                                                                UA      UU                                   ",
"                         1424234667NBCZASDUYUDSAZCBN7656BCB31                                                                                                                                                                                                                     UADU    UAAA                                  ",
"     E                   2424234667NBCZASDUYUDSAZCBN7656BCB32                                      O                    O                                                                   O                                                                       v            UADU7   UAAD7           :                      ",
"                         3424234667NBCZASDUYUDSAZCBN7656BCB33                                                                                                                                                                                                                   UADU7   UAAD7  :                                ",
"       O    :            4424234667NBCZASDUYUDSAZCBN7656BCB33              E                                                                                                                           O                                                                       UADU7   UAAD7:                                   ",
"          O              4424234667NBCZASDUYUDSAZCBN7656BCB33                E                                                                    O                                                        O                         E            +                           UADU7   UAAD7                                     ",
"                 :       3424234667NBCCASDUYUDSAZCBN7656BCB33  v     :                                                                      O                                   E O                                                 v                          <NNNNNNNNNNNNNNNNU7   UAAD7                                   :  ",
"                         3424234667NBCZASDUYUDSAZCBN7656BCB33                                                O                v     :                                                                                       +                              <NNNN5555555555555655NNNNUAAD7    :                    :             ",
"                         3424234667NBCZASDUYUDSAZCBN7656BCB33          O                           O           O                                                                                                                          :     O        <NN555555555555555555555555NND7                                        ",
"                         3254234667NBCZASDUYUDSAZCBN7656BCB33                                                                                                               O                                                                           <N55555533333333333333335555557<                                        ",
"                         3254234667NBCZASDUYUDSAZCBN7656BCB63                           :                                                      :                                O                                                                      <N5553333                3333555N<                      EO              O",
"        O                3254234667NBCZASDUYUDSAZCBN7657BCB63                                                                                                                            :                                                             N5533   266666666666666662   3355N                                       ",
"                         3254234667NBCZASDUYUDSAZCBN7656BCB73       O                                                                               :                                                                                                  553  266666CZASDUYUDSACC66662  355                                       ",
"                         3254234667NBCZASDUYUDSAZCBN76567BCB3                                                                        O                                         :                          :                                     O      53 664667NBCZASDUYUDSAZCBN75666 35                                   O   ",
"               O        O3264234667NBCZASDUYUDSACCBN76566BCB3         :                       :             :                               O                    O                                                                                     3 5423467NBCZASDUYUDSAZCBN756BC6 3                                       ",
"                     E   3254234667NBCZASDUYUDSAZCBN76566BCB3                                                            O                          :         O       :             O                                                          O        45423467NBCZASDUYUDSAZCBN756BCB3                                        ",
"                        %3254234667NBCZASDUYUDSAZCBN76566BCB3%                                            O                        O                         O             :                                                                           %45423467NBCZASDUYUDSAZCBN756BCB3%                                       ",
"                        <3254234667NBCZASDUYUDSAZCBN76566BCB3<                                     :                                                      :                                       +                                            +       <45423467NBCZASDUYUDSAZCBN756BCB3<   E                                   ",
"        :          :    13254234667NBCZASDUYUDSAZCBN76566BCB31                                                                                              :               v   O                            :                                     O   145423467NBCZASDUYUDSAZCBN756BCB31                  O     :              ",
"                        23254234667NBCZASDUYUDSAZCBN76566BCB32              O                                                                                                                        O                                                 245423467NBCZASDUYUDSACCBN756BCB32            O       :       Ov         ",
"              v         33254234667NBCCASDUYUDSAZCBN76566BCB33                                   :            O            E           O O                         :     O                                               O                             345423467NBCZASDUYUDSAZCBN756BCB33                                       ",
"         :              43254234667NBCZASDUYUDSAZCBN76566BCB33       :        O                                                                                                                      :                                                 445423467NBCZASDUYUDSAZCBN756BCB33                                       ",
"                        43254234667NBCZASDUYUDSAZCBN76566BCB33                                                O                 :      :       O                  O                                                                                  v 445423467NBCZASDUYUDSAZCBN756BCB33                                       ",
"            O           33254234667NBCZASDUYUDAAZCBN76566BCB33                                                                                                                                                                                         345423467NBCZASDUYUDSAZCBN756BCB33                                       ",
"                        33254234667NBCZASDUYUDSAZCBN76566BCB33                                                            O     O                         O                                                   O          :                             345423467NBCZASDUYUDSAZCBN756BCB73                                       ",
"                        33254234667NBCZASDUYUDSAZCBN76566BCB33                                                                                                                       :     +               6CYY1                                       345423467NBCZASDUYUDSAZCBN7567BCB3                                       ",
"                        33254234667NBCZASDUYUDSAZCBN76566BCB33                                          OO                                                    :           +                              6AYY%%Y1         CYY1              O          345423467NBCZASDUYUDSAZCBN7566BCB3        O                              ",
"                        33254234667NBCZASDUYUDSAZCBN76566BCB33                 :                  :                                                        O                  +                        6AYAAY  %Y   :   AYY%%Y1                        345423467NBCZASDUYUDSAZCBN7566BCB3                                       ",
"      :                 33254234667NBCCASDUYUDSAZCBN76566BCB33                          O                               O                                                                            6AYAAYSYZ %Y     AYAAY  %Y    O                   345423467NBCZASDUYUDSAZCBN7566BCB3                                       ",
"                        33254234667NBCZASDUYUDSAZCBN76566BCB33             v                                                           O   O                             :                         6AYAAYYYSCYYYC   AYAAYSYZ %Y      O                 345423467NBCZASDUYUDSAZCBN7566BCB3               : O                     ",
"     O                  32453234667NBCZASDUYUDSAZCBN76656BCB33                                                        :                                                              +           6AYAAYYYS77A773  AYAAYYYSCYYYC                        345423467NBCZASDUYUDSAZCBN7656BCB3                                       ",
"                        32542345667NBCZASDUYUDSAZCBN76656BCB33                                                          O                                                   Ks                 6AYAAYYYS77A773  AYAAYYYS77A773                         344234567NBCZASDUYUDSAZCBN7656BCB3                                       ",
"                        32542346667NBCZASDUYUDSAZCBN76656BCB63                                                                                                             ssss              6AYAAYYYS77A773  AYAAYYYS77A773                           454234667NBCZASDUYUDSAZCBN7656BCB3                                       ",
"                       %32542346667NBCZASDUYUDSAZCBN76656BCB73%                                                                                        :           <NUUUUUUUUUUUUUUUN<     6AYAAYYYS77A773  AYAAYYYS77A7c3                            %454234667NBCZASDUYUDSAZCBN7656BCB3%     :                       :        ",
"       :               <32542346667NBCZASDUYUDSAZCBN766567BCB3<             :                                                             O                   <NUUUUUSSSSASSSSSSSSSSUUUUCNAYAAYYYS77A773 :AYAAYYYS77A773X                             <454234667NBCZASDUYUDSAZCBN7656BCB3<           :                          ",
"           :           132542346667NBCZASDUYUDSAZCBN766566BCB31                                                                                           <NUUUUSSSSSAAAAAAAAAAAAAAASSCCAYAAYYYS77A773  AYAAYYYA77A773  EO                            1454234667NBCZASDUYUDSAZCBN7656BCB31                                      ",
"                       332542346667NBCZASDUYUDSAZCBN766566BCB32                                                                         O              <NUUYSSSSAAAAACCCCCCCCCCCCCCCCCAYAAYYYS77A773  AYAAYYTA7NA773**                                2454234667NBCZAADUYUDSAZCBN7656BCB32                                     v",
"                       332542346667NBCZ63<%#%1<37CBN766566BCB33                                         b   :  O                   O                 <NUUSSAAAAACCCCCCCCCCCCCCCCCCCCAYAAYYYS77A773<*AYAAYYYA77A773888***               O              3454234667NBCZASDUYUDSAZCBN7656BCB33                                      ",
"                       332542346667NB31@$411$@3%$13N766566BCB33                                        vnv             :         :                 <NUUSSAAACCCCCCCCCCCCCCCCCCCCCCAYAAYYYS77A77SSSAYAAYYYS77A7739999888***                           :4454234667NBCZASDUYUDSAZCBN7656BCB33                           O          ",
"                       3325423466675<%#6@7%B< 7<##<1666566BCB33                                       bnEnb                                       NUUSSACCCCCCCCCCCCCCCCCCCCCCCCC%AAYYYA77A77CCCAYAAYYYS77A77300q00qqq988**                         : 4454234667NBCZASDUYUDSAZCBN7656BCB33                                      ",
"                       332542346662$$1#YN     o<R5o#%46566BCB33                                        vnv                                      <NUSSACCCCCCCCCCCCCCCCCCCCCCCCCCC%SYYS77A77CCCC%AAYYYS77A77390*00q0qqqqq99*:                          3454234667NBCZASDUYUDSAZCBN7656BCB33               E                      ",
"                      %33254234662<1$B5o#<4565$.5B<<1%5566BCB33                      :                  b                                      3UUSCCCCCCCCCCCCCNNNNNNNNNNNNNNNNN%NCCCA77CCCCCC%SYYS77A7c3qqqqqqqqqq0qqq98*.                          3454234667NBCZASDUYUDAACCBN7656BCB33                  O                   ",
"         :            <3325423465<X4Z@#3D!~~~~QS$ 5Z@#%566BCB33      :       UU      AU                                                       3USCCCCCCNNNNNNNNN777777777N77777NBC%NC77%NNNNNNN%NCCCA77CU3qpqyeeeye00eyqq98*                          3454234667NBCZ63<%#%1137CBN7656BCB33       O                              ",
"                      1332542346%% X$ A~QRRTTTR~~No%  1%66BCB33             AAAU    UDAU                                                     3SCCCNNNNN777777N77777777777N77777NBC4%%%%7N7777777%7C77%NCCS3qqeyeyeeyeyeeqq98O                         3454234667NB41@$411$@3<$14N7656BCB33                                      ",
"                      23325423421    T~TTQ~~RR~Q~~D   o<56BCB33             7DAAU   7UDAU                                                   3C7NNN7N776777777N77777777777N77777NBCB44447N77777774%%%%77Na7C3qtyyyyryyyyyeqq8*                         34542346675<$#6@7%B< 7<##<16656BCB33                                      ",
"                      333254234%$   A~TT~DB6YYB7CBU5   <%6BCB33              7DAAU   7UDAU        :                    O                    C567777N776777777N77777777777N77777NBCB64446N77777777444477N765C0yyyppyyyyyyeqq8**              :         3454234663$$1#YN     o%R5X#%456BCB33                                      ",
"                      333254232<.  1~TT~U  $~N 52  T%  @<6BCB33               7DAAU   7UDAU                                        O        5567777N776777777N77777777777N77777NBCBN4444N77777777644467N7655ypppppppyyyyeqq98** #    O                345423461<1$B5X#<4565$.5V<<1%36BCB73                                      ",
"   v                  33325423%$   S~T~U  1~~4%~5  RC   %2BCB33                7DAAU   7UDAU                                                5567777N776777777555555555555555555555554444555777777744447N7655pddddddpppppyeq908*u###      v            34542344<X5A@#3D!~~~~QS$ 5A@#%67BCB3                                      ",
"                      33325423<#  XQR~U  2~QRD!~# .QT   %<BCB33                 7DAAU   7UNNNNNNNNNNNNN<                                    5567777N555555555                   *8900tyyysy655555544447N7655dffffffdddppyyq000#uiZZ#                  3454234%% .$ A~QRRTRTR~~No%  1<6BCB3                         :         :  ",
"                      33325423#N  7Q~U  2~~RY~~% .T~T2 #7%BCB33                  7DAAUNNNN5555555555555NNNN<                                55675555       17AAAAAAAAAAAAAAAAAAAAAAAA6666AA71ddfdfddf456c655fffffffffdyysyq000uuuiZZ#:                345423<1    T~TTQ~~RR~Q~~D   o<4BCB3                                      ",
"            :         33325323#CB6A!D  3~!RWWQ< oY~WUC6VN$BCB33     :             7DNN555555555555555555555NN<                              5555   17AAAAAAAACCCCCCCCCCCZAZCCCASDYDSA44447CAAAAAAAA66fyy5555fHHffffffdfdyyqq#iuuuiiCCZ               %345423%$   S~TT~DB6YYB7CBU5   <<BCB3%                                     ",
"                      33245233#NDCB~#  $$@@@AA  N~CSTNSA5$BCB33                   <75555553333333333333555555N<                             5  17AAAABNBCCCCCZCCCCCCCCCCZAZCCZASDYDSA74444CCCCCCCCC446672sf5HHJJhhhHffdfpeqqZuuuuiZZCZ#          O   <345421<.  1~TT~U  #~N 42  T%  @%BCB3<      :                              ",
"                      33245233@7ZCBQ@       VA  CA AR7ZZ4%BCB33                  <N5553333             3333555N<                :            3AAZCCZCBNBCCCCCZCCCCCCCCCCZAZCCZASDYDSAZ4444CCCCCCCCC74447AG3fHGhhhhJJffdfpyeqZZuuuuZZZZ#              134542%$   A~T~U  1~~4%~5  RC   %4CB31                                     ",
"                      33245233#N52BUANNNC4  CDoo6@XRU61B31BCB33                  N5533   266666666666662   3355N                           2BCBCZZCZCBNBCCCCCZCCCCCCCCCCZAZCCZASDYDSAZ44447CCCCCCCCC4444CBCB2hhJJPhJhhhfffdqeAuuuuiZCCZ     :        234542%$  XQR~U  2~QRD!~$ .QT   %2CB32             :                       ",
"                      33245233<2BCBV~~~~~S  5~RRUYRWBCVB$4BCB33                  553  266666CZASDDSAZC66662  355                          6NBCBCZZCZCBNBCCCCCZCCCCCCCCCCZAZCCZASDYDSAC74444CCCCCCCCC4444CBCBN7hJhJhhhhhffddpZZZuuuiZZZ##  O  :       334542#N. 7Q~U. 2~!RT~~% .Y~R2 #7<CB33                             O       ",
"          :        v  332452333@CZ66YQTT~C  6~WWRR~S56AN@6BCB33                  53 664667NBCZASDDSAZCBN75666 35                 O       36NBCBCZZCZCBNBCCCCCCCCCCCCCCCCZAZC#ZA#DYDSAZC4444CCCCCCCCC74447BCBN63JhgJJJfffdppyZZZiuuZZZCCZ             434542@CB5A!D  3~!RWWW< oY~RYZ6VN<CB33                        :            ",
"                      332452334$671B7QQTRYDSYRRTT!Y7N1C126BCB33%     E           3 5423467NBCZASDDSAZCBN756BC6 3              v          36NBCBCZZCZCBNBCCCCBNNNNNNNNNNNN#iZ#N##NNNNNNNNNNNBCCCCCCCCC4444BCBN63hHHHHHfffdpqy#Ziuuu#ZZZC#   O         434542#NDCB~#  $$@#@AA  B~VSTNSA5%CB33                                     ",
"                      3324523345@VAAN7R!TRQ!WTTR!T7BAA7o66BCB33<          :       45423467NBCCASDDSAZCBN756BCB3       O       O          36NBCBCZZBNNNNNNNNN62%%%%%%%%%%#ZZZZZZ#%%%%%%%%%%26NNNNNNNNNB744BCBN63hhHfffffdppre#0#uuu#iZZC              334542@7ZCN!@       VA  CA AW7ZC41CB33       >                             ",
"                      332452334611ZZ%3BDQQQWWQQRA626AV$366BCB331                 %45423467NBCZASDDSAZCBN756BCB3%                         36NBNNNNN62%%%%%%%%%%$$$$$$$$$$#ZZZZZi$$$$$$$$$$$%%%%%%%%%%26NNNNNBN63hhHHfffdppyreeq#8*u##Z                334542#761BUANBBC4  CDoo6@XRU61B32CB33      :j:                            ",
"                     %33245233466#573425CDUUUDSV74<271<566BCB632                 <45423467NBCZASDDSAZCBN756BCB3<                         36N61%%%%%%$$$46BZSDDDDDDDDDD#ZZZZZZuuDDDDDDDDDDDDDSZB64$$$%%%%%%16N63hhHffffdpqyeqq98*                     334542%2BCBV~~~~~A  5~RRUYRWBCVV$7CB33     >jkj>                           ",
"                     <332452334666#3A321%227N4<4$1N51%6566BCB733                 145423467NBCZASDDSAZCBN756BCB31                         31 46BZDDDDDDDDDSZASAZZZZZZZ#ZZZZZZuuuURWQ!QRRUDHHZZZZSDDDggDDSZB64L13hhHHdffpyyqeq098*#                  : 3345423@CC66UQTT~C  6~WQWR~S56AN@BCB33      :j:                            ",
"                     13324523346667%157213326A16<6N<1666566BCB33                 245423467NBCZASDDSAZCBN756BCB32                          167NBNZAZBN7NBCZCASAZZZZZZZ##ZZZZZuuuURWQ!QWRUDSHZZZZiuuuuiL333BL761JhhhhdHfpytqqq998##u#                  3345423#671V7WQTRYDSYRTRTQT7B1C12BCB33       >    O                        ",
"                     23324523346667N4%36CNC56ANV71$57666566BCB33                 345423467NBCZASDDSAZCBN756BCB33                         1633B ZA3BN7NBCZZZASAZZZZZZZZZ##ZZuuuuDURRQ!QRRUDH33ZZ3333uuiJJ33L376JhhhhhHfpyttqq08Ziiu##                 33454234@VSAB7R!TRQ!WTRR!Y6BAA7o6BCB33                                     ",
"v                    33324523346667NBC4$%245532$$6BN7666566BCB33                 445423467NBCZASDDSAZCBN756BCB33                        163333BZ383N7NBCZZASAZZZZZZZZZZZA#AZiZSDURWQ!QWpUDSHH33hhhJ333JLLZCJ3L61hhhhHfdyttq00#ZZuu# #                33454234<1CZ%3BDWQQWWQQRS636ZB#46BCB33                                     ",
" :                   33324523346667NBCZ6667NN7667CBN7666566BCB33                 445423467NBCZASDDSAZCBN756BCB33           E           1333888338883  CZZZASAZZZZZZZZZZZZASAZZSDURWQ!QppUDdHd3hhhJJJJ3LLL33LLNJ61hhhHHdpttq99#Ziuuui##               334542346#573425CDUYDDSB7412N1<56BCB33                 :         v         ",
"                     33324523346667NBCCA667NN766ZCBN7666566BCB33                 345423467NBCZASDDSAZCBN756BCB33                      16333888838888N  ZZASAZZZZZZZZZZZZZAAAZASDUTWQ!QWpUD33dHhhhJJJJLLLPLLLLJN761hhHHfptq098##iuuuiZ#               3454234566#3A321%227N4<4$<N41%656BCB33           O                         ",
"                     33324523346667NBCZA667NN767ZCBN7666566BCB33                 345423467NBCZASDDSAZCBN756BCB73                     1333388888888833CZZZASAZZZZZZZZZZZCDS##ZZASDURWQ!QpdU3fHHhhhJJJJJLPPPLPLCLN761hHHdytq09*##uuuiiZZ#              34542346667%157113327Z16<6N<16656BCB33                                     ",
"               :     33324523346667NBCZAA67NN76AZCBN7666566BCB33             :   345423467NBCZASDDSAZCBN7567BCB3                    133883888888888883Z ZASAZZZZZZZZZZ#UD###ZZASDURRQ!QWdU3fHHghJJJJJJLPPPLP33LBNJh1Hfdytqq9**iuuuiZZZ#             %34542346667N4%36CNC56ABBN1%576656BCB73%               :    O               ",
"                     33324523346667NBCZAS67NN77AZCBN7666566BCB33                 345423467NBCZASDDSAZCBN7566BCB3               O   13388888888888888888ZASAZZZZZZZZZZZZRU#SAZZASDURWQQQWR3fHdHghJJJJJLPPPPPPP3L3JJh61Hdpteq98*  uuuZ#Z#             <34542346667NBC5$%245531$$6BN766567BCB3<                                    ",
"      O              33324523346667NBCZASD7NN7SAZCBN7666566BCB33             :   345423467NBCZASDDSAZCBN7566BCB3                  13388888888888888883ZZASAZZZZZZZZZZZZZ#ASAZZASDURRQ!QWRydfddghhJJLLPPPPPLLLPLLCBNh61dpteq98*   uiZZ             : 134542346667NBCZ6667NN7667CBN766566BCB31 O                           O      ",
"                     33325233456667NBCZASD7NN7SAZCBN7666566BCB33                 345423467NBCZASDDSAZCBN7566BCB3                 1638888888888888N38833ZASAZZZZZZZZZZZZZZASAZZZASDURWQ!yyspddA3hhhJLPPPPPPPPPPPP33BN761teeq98*     Z##              234542346667NBCZA667NN766ZCBN766566BCB32                                    ",
"                     33245233466667NBCZASDUNNDSAZCBN7666566BCB33                 345423467NBCZASDDSAZCBN7566BCB3               O167338888888888883888883SAZZZZZZZZZZZZZZZZASAZZASDURWQqtWpUDSAZhZ3JJLPPLPPLPPLPPJh3BN761eeq98*                      334542346667NBCZA667NN767ZCBN766566BCB33                                    ",
"           :         3324523346666NNBCZASDUYUDSAZCBN7666566BCB33                 345423467NBCZASDDSAZCBN7656BCB3               26 N333888ZA388883B38888AAAZZZZZZZZZZZZZZZZASAZZASDU*WQqQWTpDSAHZZ33JJJLJPLLLLLPLLJhCBH761eq98*                      434542346667NBCZAA67NN76AZCBN766566BCB33                                    ",
"                     33245233466667NBCCASDUYUDSAZCBN7666566BCB33                 344234567NBCZASDDSAZCBN7656BCB3          O   16  B388888AZB38883BC388ASAZZZZZZZZZZZZZZZZZASAZZZASDURWQ!QWRUDSAZhhhJJJJLLgLLhLhJJ3ZHffd761q08*         E       O    434542346667NBCZAS67NN77AZCBN766566BCB33                                    ",
"                     33245233466667NBCZASDUYUDSAZCBN7666566BCB33                 454234667NBCZASDDSACCBN7656BCB3             167NB88888Z88BB3888BCZZ8ZASAZZZZZZZZZZZZZZZZZASAZZZASDURRQ!QWTUD33ZZ3hhhhhhhLhJJJJhhZCZZdtN76198*                      334542346667NBCZASD7NN7SAZCBN766566BCB33                                    ",
"       E             33245233466667NBCZASDUYUDSAZCBN7666566BCB33                %454234667NBCZASDDSACCBB7656BCB3%           167NBBB38B8ZAZB BN88BCZZZ ASAACZZZZZZZZZZZZZZZASAZZZASDURRQ!QW3333ffZ3hhhhhhhhhJJJh3ZZZCZZCBN7618*               :      334542346667NBCZASD7NN7SAZCBN766566BCB33                   O    :           ",
"           :        %33245233466667NBCZASDUYUDSAZCBN7666566BCB33                <454234667NBCZASDDSAZCBN7656BCB3<          167NBBB888BZAZBB N7N8CZZZZA AZCZZZZZZZZZZZZZZZZASAZZZASDURWQ!QWRypdff33fhhhhhhhhhhhhh3ZZHftpCBN761                       334542346667NBCCASDUNNDSAZCBN766566BCB33                         O          ",
"                    <33245233466667NBCZASDU444SAZCBN7666566BCB33  v   :         1454234667NBCZASDDSAZCBN7656BCB31         167NBBB BN8ZAZBBBBN7N8CZZZZASAZZZZZZZZZZZZZZZZZZAAAZZZZASDURRQ!Q3yUDdff3Hddddddhhhhhghf33f3ZZtCBN761      O               334542346667NBCAASDUYUDS444BN766566BCB33         :                          ",
"           O        133245233466667NBCZASD4&&&4AZCBN7666566BCB33                2454234667NBCCASDDSAZCBN7656BCB32        167NBBBBBNBBZAZBBBN7NBC ZZZZASAZZZZZZZZZZZZCZZZZZASAZZZZASDURWQ!QeTUDS3ddpddpppppddGhggFaaa3CZZZC#Ziuuuu                   334542346667NBCCASDUYUD4www4N766566BCB33                                    ",
"                    233245233466667NBCZASD4&&&4AZCBN7666566BCB33                3454234667NBCZASDDSAZCBN7656BCB33       167NBBBBBNBBZAZBBBBN7NBC ZZZASAZZZZZZZZZZZZZZZZZZZZASAZZZASDURWQ8QWRUD33pppppyyyypddFFFFFaaap33ZZ#ZZZiuuuu                  334542346667NBCZASDUYUD4www4N766566BCB33                                    ",
"                    333245233466667NBCZASD44444AZCBN7666566BCB33         :      4454234667NBCZASDDSAZCBN7656BCB33      167NBBBBBBNBZAZBBBBN7NBC ZZZZASAZZZZZZZZZZZZZZZZZZZZASAZZZASDURWQQQWRUD3tpttpppppppppppppppptttqC#ZZZZiuuuui                 334542346667NBCZASDUYUD44444N766566BCB33                                    ",
"                    333245233466667NBCZASD4&&&4AZCBN7666566BCB33         O      4454234667NBCZASDDSAZCBN7656BCB33     167NBBBBBBNBBZAZBBBBN7NB ZCAZASAZZZZZZZZZZZZZZZZZZZZZASAZZZZASDURRQ!QWqqtttttttttttttttttttttqqZZ8C#ZZZZiuuuuiZ               334542346667NBCZASDUYUD4www4N766566BCB33                                    ",
"                    333245233466667NBCZASD4&&&4AZCBN7666566BCB33                3454234667NBCZASDDSAZCBN7656BCB33    167NBBBBBBNBBZAZBBBBN7NBCZZZCZASAZZZZZZZZZZZZZZZZZZZZZASAZZZZASDURWQ!QRRUDqAqqZZqqqqqZqZiuuquiZq8ZZZC#ZZZZiuuu#i               334542346667NBCZASDUYUD4www4N766666BCB33                                    ",
"                    333245233466667~~~~~~~~~~~~~~~~~~~~~~~~~~~~~~~~~~~~~~~~~~~~~~~~~~~~~~~~~~~~~~~~~~~~~~~~~~~~~~~~~~~~~~~~~~~~~~~~~~~~~~~~~~~~~~~~~~~~~~~~~~~~~~~~~~~~~~~~~~~~~~~~~~~~~~~~~~~~~~~~~~~~~~~~~~~~~~~~~~~~~~~~##Z#iuuu##~~~~~~~~~~~~~~~~~~~~~~~~~~~~~~~~~~~~~~~~~~~~~~~~~~~CB33                                    ",
"                    333245233466667~~~~~~~~~~~~~~~~~~~~~~~~~~~~~~~~~~~~~~~~~~~~~~~~~~~~~~~~~~~~~~~~~~~~~~~~~~~~~~~~~~~~~~~~~~~~~~~~~~~~~~~~~~~~~~~~~~~~~~~~~~~~~~~~~~~~~~~~~~~~~~~~~~~~~~~~~~~~~~~~~~~~~~~~~~~~~~~~~~~~~~~~~~########~~~~~~~~~~~~~~~~~~~~~~~~~~~~~~~~~~~~~~~~~~~~~~~~~~~CB33%                                   ",
"                    333245233466667QYYYYYYYYYYYYYYYYYYYYYYYYYYYYYYYYYYYYYYYYYYYYYYYYYYYYYYYYYYYYYYYYYYYYYYYYYYYYYYYYYYYYYYYYYYYYYYYYYYYYYYYYYYYYYYYYYYYYYYYYYYYYYYYYYYYYYYYYYYYYYYYYYYYYYYYYYYYYYYYYYYYYYYYYYYYYYYYYYYYYYYYYYYYYYYYYYYYYYYYYYYYYYYYYYYYYYYYYYYYYYYYYYYYYYYYYYYYYYYYYYYYQCB33<                                   ",
"                    333245233466667QYYYYYYYYYYYYYYYYYYYYYYYYYYYYYYYYYYYYYYYYYYYYYYYYYYYYYYYYYYYYYYYYYYYYYYYYYYYYYYYYYYYYYYYYYYYYYYYYYYYYYYYYYYYYYYYYYYYYYYYYYYYYYYYYYYYYYYYYYYYYYYYYYYYYYYYYYYYYYYYYYYYYYYYYYYYYYYYYYYYYYYYYYYYYYYYYYYYYYYYYYYYYYYYYYYYYYYYYYYYYYYYYYYYYYYYYYYYYYYYYYYYQCB331      O                            ",
"                    333245233466667BBBBBBBBBBBBBBBBBBBBBBBBBBBBBBBBBBBBBBBBBBBBBBBBBBBBBBBBBBBBBBBBBBBBBBBBBBBBBBBBBBBBBBBBBBBBBBBBBBBBBBBBBBBBBBBBBBBBBBBBBBBBBBBBBBBBBBBBBBBBBBBBBBBBBBBBBBBBBBBBBBBBBBBBBBBBBBBBBBBBBBBBBBBBBBBBBBBBBBBBBBBBBBBBBBBBBBBBBBBBBBBBBBBBBBBBBBBBBBBBBBBBBCB332                                   ",
"                    333245233466667NBCUA33333333333ZSZ33333333333ZSZ33333333333ZSZ33333333333ZSZ33333333333ZSZ33333333333ZSZ33333333333ZSZ33333333333ZSZ33333333333ZSZ33333333333ZSZ33333333333ZSZ33333333333ZSZ33333333333ZSZ33333333333ZSZ33333333333ZSZ33333333333ZSZ33333333333AU66BCB333      v                            ",
"                    333245233466667NBCQU3<<<<<<<<<3ZUZ3<<<<<<<<<3ZUZ3<<<<<<<<<3ZUZ3<<<<<<<<<3ZUC3<<<<<<<<<3ZUZ3<<<<<<<<<3ZUZ3<<<<<<<<<3ZUZ3<<<<<<<<<3ZUZ3<<<<<<<<<3ZUZ3<<<<<<<<<3ZUZ3<<<<<<<<<3ZUZ3<<<<<<<<<3ZUZ3<<<<<<<<<3ZUZ3<<<<<<<<<3ZUZ3<<<<<<<<<3ZUZ3<<<<<<<<<3ZUZ3<<<<<<<<<3UQ66BCB733          :                        ",
"                    333245233466667NBCQU33333333333ZUZ33333333333ZUC33333333333ZUZ33333333333ZUZ33333333333ZUZ33333333333ZUZ33333333333ZUC33333333333ZUZ33333333333ZUZ33333333333ZUZ33333333333ZUZ33333333333ZUZ33333333333ZUZ33333333333ZUZ33333333333ZUZ33333333333ZUZ33333333333UQ667BCB33                           E       ",
"             v      333245233466667NBCQU~~~~~~~~~~~UU~~~~~~~~~~~~UU~~~~~~~~~~~~UU~~~~~~~~~~~~UU~~~~~~~~~~~~UU~~~~~~~~~~~~UU~~~~~~~~~~~~UU~~~~~~~~~~~~UU~~~~~~~~~~~~UU~~~~~~~~~~~~UU~~~~~~~~~~~~UU~~~~~~~~~~~~UU~~~~~~~~~~~~UU~~~~~~~~~~~~UU~~~~~~~~~~~~UU~~~~~~~~~~~~UU~~~~~~~~~~~~UQ666BCB33                              :    ",
"                    332345233466667NBCQUUUUUUUUUUUUUUUUUUUUUUUUUUUUUUUUUUUUUUUUUUUUUUUUUUUUUUUUUUUUUUUUUUUUUUUUUUUUUUUUUUUUUUUUUUUUUUUUUUUUUUUUUUUUUUUUUUUUUUUUUUUUUUUUUUUUUUUUUUUUUUUUUUUUUUUUUUUUUUUUUUUUUUUUUUUUUUUUUUUUUUUUUUUUUUUUUUUUUUUUUUUUUUUUUUUUUUUUUUUUUUUUUUUUUUUUUUUUUQ666BCB33                                   ",
"                   %332345233466667NBCQUUUUUUUUUUUUUUUUUUUUUUUUUUUUUUUUUUUUUUUUUUUUUUUUUUUUUUUUUUUUUUUUUUUUUUUUUUUUUUUUUUUUUUUUUUUUUUUUUUUUUUUUUUUUUUUUUUUUUUUUUUUUUUUUUUUUUUUUUUUUUUUUUUUUUUUUUUUUUUUUUUUUUUUUUUUUUUUUUUUUUUUUUUUUUUUUUUUUUUUUUUUUUUUUUUUUUUUUUUUUUUUUUUUUUUUUUUUUUQ666BCB33                                   ",
"                   <332345233466667NBCQUUUUUUUUUUUUUUUUUUUUUUUUUUUUUUUUUUUUUUUUUUUUUUUUUUUUUUUUUUUUUUUUUUUUUUUUUUUUUUUUUUUUUUUUUUUUUUUUUUUUUUUUUUUUUUUUUUUUUUUUUUUUUUUUUUUUUUUUUUUUUUUUUUUUUUUUUUUUUUUUUUUUUUUUUUUUUUUUUUUUUUUUUUUUUUUUUUUUUUUUUUUUUUUUUUUUUUUUUUUUUUUUUUUUUUUUUUUUUQ666BCB33  O                                ",
"                   1332345233466667NBCQUUUUUUUUUUUUUUUUUUUUUUUUUUUUUUUUUUUUUUUUUUUUUUUUUUUUUUUUUUUUUUUUUUUUUUUUUUUUUUUUUUUUUUUUUUUUUUUUUUUUUUUUUUUUUUUUUUUUUUUUUUUUUUUUUUUUUUUUUUUUUUUUUUUUUUUUUUUUUUUUUUUUUUUUUUUUUUUDUUUUUUUUUUUUUUUUUUUUUUUUUUUUUUUUUUUDUUUUUUUUUUUUUUUUUUUUUUUUUQ666BCB33                                   ",
"%%%%%%%%%%%%%%%%%%%2332452334666667NBCQQQQQQQQQQQQQQQQQQQQQQQQQQQQQQQQQQQQQQQQQQQQQQQQQQ~~~~~~~~~~~~~~~~~~~~~~~~~~~~~~~~USQQQQQQQQQQQQQQQQQQQQQQQQQQQQQQQQQQQQQQQQQQQQQQQQQQQQQQQQQQQQQQQQQQQQQQQAU~~~~~~~~~~~~~~~~~~~~~~~~~~~~~~~~QQQQQQQQQQQQQQQQQQQQQQQQQQQQQQQQQQQQQQQQQQQQQQQQQQ666BCB33%%%%%%%%%%%%%%%%%%%%%%%%%%%%%%%%%%%",
"%%%%%%%%%%%%%%%%%%%3332452334666667NBQWWWWWWWWWWWWWWWWWWWWWWWWWWWWWWWWWWWWWWWWWWWWWWWWWW~~~~~~~~~~~~~~~~~~~~~~~~~~~~~~~~AAWWWWWWWWWWWWWWWWWWWWWWWWWWWWWWWWWWWWWWWWWWWWWWWWWWWWWWRWWWWWWWWWWWWWWWWSA~~~~~~~~~~~~~~~~~~~~~~~~~~~~~~~~WWWWWWWWWWWWWWWWWWWWWWWWWWWWWWWWWWWWWWWWWWWWWRWWWWQ66BCB33%%%%%%%%%%%%%%%%%%%%%%%%%%%%%%%%%%%",
"%%%%%%%%%%%%%%%%%%%3332452334666667NQWWWWWWWWWWWWWWWWWWWWWWWWWWWWWWWWWWWWWWWWWWWWWWWWWW~~~~~~~~~~~~~~~~~~~~~~~~~~~~~~~~~ZSWWWWWWWWWWWWWWWWWWWWWWWWWWWWWWWWWWWWWWWWWWWWWWWWWWWWWWWWWWWWWWWWWWWWWWWSZ~~~~~~~~~~~~~~~~~~~~~~~~~~~~~~~~~WWWWWWWWWWWWWWWWWWWWWWWWWWWWWWWWWWWWWWWWWWWWWWWWWWQ6BCB33%%%%%<%%%%%%%%%%%%%%%%%%%%%%<%%%%%%",
"%%%%%%%<%%%%%%%<%%%3332452334666667QWWWWWWWWWWWWWWWWWWWWWWWWWWWWWWWWWWWWWWWWWWWWWWWWWWW~~~~~~~~~~~~~~~~~~~~~~~~~~~~~~~~~ZSWWWWWWWWWWWWWWWWWWWWWWWWWWWWWWWWWWWWWWWWWWWWWWWWWWWWWWWWWWWWWWWWWWWWWWWSZ~~~~~~~~~~~~~~~~~~~~~~~~~~~~~~~~~WWRWWWWWWWWWWWWWWWWWWWWWWWWWWWWWWWWWWWWWWWWWWWWWWWWQBCB33%%%<%%%%%%%%<%%%%%%%%%<%%<%%%%<%%<%",
"%%%%<<%%<<<%%%%%<%%333245233466666QRWWWWWWWWWWWWWRWWWWWWWWWWWWWWWWWWWWWWWWWWWWWWWWWWWW~~~~~~~~~~~~~~~~~~~~~~~~~~~~~~~~~YZSWWWWWWWWWWWWWWWWWWWWWWWWWWWWWWWWWWWWWWWWWWWWWWWWWWWWWWWWWWWWWWWWWWWWWWWSZY~~~~~~~~~~~~~~~~~~~~~~~~~~~~~~~~~WWWWWWWWWWWWWWWWWWWWWWWWWWWWWWWWWWWWWWWWWWWWWWWWWWWQCB33%%<%<<<<%%<%%%%<%%%%<<<<%%%<%%%%<<%",
"<%%%%<%<%<<<<<%<%<%33324523346666QWWWWWWWWWWWWWWWWWWWWWWWWWWWWWWWWWWWWWWWWWWWWWWWWWWWW~~~~~~~~~~~~~~~~~~~~~~~~~~~~~~~~~AZSWWWWWWWWWWWWWWWWWWWWWWWWWWWWWWWWWWWWWWWWWWWWWWWWRWWWWWWWWWWWWWWWWWWWWWWSZA~~~~~~~~~~~~~~~~~~~~~~~~~~~~~~~~~WWWWWWWWWWWWWWWWWWWWWWWWWWWWWWWWWWWWWWWWWWWWWWWWWWWWQB33%%<<<<<<<%<%%<<%<%<%<<<<%<<<<%%<<<<",
"<1%<<<<<1<<<<<1<<<13332452334666QWWWWWWWWWWWWWWWWWWWWWWWWWWWWWWWWWWWWWWWWWWWWWWWWWWWW~~~~~~~~~~~~~~~~~~~~~~~~~~~~~~~~~~AZSWWWWWWWWWWWWWWWWWWWWWWWWWWWWWWWWWWWWWWWWWWWWWWWWWWWWWWWWWWWWWWWWWWWWWWWSZA~~~~~~~~~~~~~~~~~~~~~~~~~~~~~~~~~~WWWWWWWWWWWWWWWWWWWWWWWWWWWWWWWWWWWWWWWWWWWWWWWWWWWWQ331<<<<<<<<1<1<<111%<<<12<1<%%<1<11<<",
"<<<<<111<1<<<<1<<<1333245233466QWWWWWWWWWWWWWWWWWWWWWWWWWWWWWWWWWWWWWWWWWWWWWWWWWWWWW~~~~~~~~~~~~~~~~~~~~~~~~~~~~~~~~~~ZSWWWWWWWWWWWWWWWWWWWWWWWWWWWWWWWWWWWWWWWWWWWWWWWWWWWWWWWWWWWWWWWWWWWWWWWWWSZ~~~~~~~~~~~~~~~~~~~~~~~~~~~~~~~~~~WWWWWWWWWWWWWWWWWWWWWWWWWWWWRWWWWWWWWWWWWWWWWWWWWWWWWQ3<<1<<1<1<<<1<<<1<<<1<1<1<11<<<<1<<1",
"<11<<111111<111111<33324523346QWWWWWWWWWWWWWWWWWWWWWWWWWWWWWWWWWWWWWWWWWWWWWWWWWWWWW~~~~~~~~~~~~~~~~~~~~~~~~~~~~~~~~~~YZSWWWWWWWWWWWWWWWWWWWWWWWWWWRWWWWWWWWWWWWWWWWWWWWWWWWWWWWWWWWWWWWWWWWWWWWWWSZY~~~~~~~~~~~~~~~~~~~~~~~~~~~~~~~~~~WWWWWWWWWWWWWWWWWWWWWWWWWWWWWWWWWWWWWWWWWWWWWWWWWWWWWQ111<<<1<<<1<1<<<11<111<111<<<1111<<",
"1<<2<111<11111111213332452334QWWWWWWWWWWWWWWWWWWWWWWWWWWWWWWWWWWWWWWWWWWWWWWWWWWWWWW~~~~~~~~~~~~~~~~~~~~~~~~~~~~~~~~~~AZSWWWWWWWWWWWWWWWWWWWWWWWWWWWWWWWWWWWWWWWWWWWWWWWWWWWWWWWWWWWWWWWWWWWWWWWWWSZA~~~~~~~~~~~~~~~~~~~~~~~~~~~~~~~~~~WWWWWWWWWWWWWWWWWWWWWWWWWWWWWWWWWWWWWWWWWWWWWWWWWWWWWWQ<111111<11211111<11111<121<1211221",
"1112122111211211111333245233QWWWWWWWWWWWWWWWWWWWWWWWWWWWWWWWWWWWWWWWWWWWWWWWWWWWWWW~~~~~~~~~~~~~~~~~~~~~~~~~~~~~~~~~~~AZSWWWWWWWWWWWWWWWWWWWWWWWWWWWWWWWWWWWWWWWWWWWWWWWWWWWWWWWWWWWWWWWWWWWWWWWWWSZA~~~~~~~~~~~~~~~~~~~~~~~~~~~~~~~~~~~WWWWWWWWWWWWWWWWWWWWWWWWWWWWWWWWWWWWWWWWWWWWWWWWWWWWWWQ211111122111112111221221221111221",
"111121221212112121133324523QWWWWWWWWWWWWWWWWWWWWWWWWWWWWWWWWWWWWWWWWWWWWWWWWWWWWWWW~~~~~~~~~~~~~~~~~~~~~~~~~~~~~~~~~~~ZZSWWWWWWWWWWWWWWWWWWWWWWWWWWWWWWWWWWWWWWWWWWWWWWWWWWWWWWWWWWWWWWWWWWWWWWWWWSZA~~~~~~~~~~~~~~~~~~~~~~~~~~~~~~~~~~~WWWWWWWWWWWWWWWWWWWWWWWWWWWWWWWWWWWWWWWWWWWWWWWWWWWWWWWQ22222211212211112122121122221121",
"11222213132222112233332452QWWWWWWWWWWWWWWWWWWWWWWWWWWWWWWWWWWWWWWWWWWWWWWWWWWWWWWW~~~~~~~~~~~~~~~~~~~~~~~~~~~~~~~~~~~YAZSWWWWWWWWWWWWWWWWWWWWWWWWWWWWWWWWWWWWWWWWWWWWWWWWWWWWWWWWWWWWWWWWWWWWWWWWWSZAY~~~~~~~~~~~~~~~~~~~~~~~~~~~~~~~~~~~WWWWWWWWWWWWWWWWWWWWWWWWWWWWWWWWWWWWWWWWWWWWWWWWWWWWWWWQ2223222322222222212221122211222",
"2232232221232323312333245QWWWWWWWWWWWWWWWWWWRWWWWWWWWWWWWWWWWWRWWWWWWWWWWWWRWWWWRW~~~~~~~~~~~~~~~~~~~~~~~~~~~~~~~~~~~AAZSWWWWWWWWWRWWWWWWWWWWWWWWWWWWWWWWWWWWWWWRWWWWWWWWWWWWWWWWWWWWWWWWWWWWWWWWWSZAA~~~~~~~~~~~~~~~~~~~~~~~~~~~~~~~~~~~WWWWWWWWWWWWWWWWWWWWRWWRWWWWWWWWWWWWWWWWWWWWWWWWWWWQRWWWQ333122122323222313233123223222",
"323223233233232222333324QQQQQQQQQQQQQQQQQQQQQQQQQQQQQQQQQQQQQQQQQQQQQQQQQQQQQQQQQ~~~~~~~~~~~~~~~~~~~~~~~~~~~~~~~~~~~~AAZSQQQQQQQQQQQQQQQQQQQQQQQQQQQQQQQQQQQQQQQQQQQQQQQQQQQQQQQQQQQQQQQQQQQQQQQQQSZAA~~~~~~~~~~~~~~~~~~~~~~~~~~~~~~~~~~~~QQQQQQQQQQQQQQQQQQQQQQQQQQQQQQQQQQQQQQQQQQQQQQQQQQQQQQQQQ33233323323232322222332232223",
"333332322323323322333324QUUUUUUUUUUUUUUUUUUUUUUUUUUUUUUUUUUUUUUUUUUUUUUUUUUUUUUUU~~~~~~~~~~~~~~~~~~~~~~~~~~~~~~~~~~~~AAAZSUUUUUUUUUUUUUUUUUUUUUUUW,,,,,,,,,,,,,,,,,,,,,,,WUUUUUUUUUUUUUUUUUUUUUUUSZAAA~~~~~~~~~~~~~~~~~~~~~~~~~~~~~~~~~~~~UUUUUUUUUUUUUUUUUUUUUUUUUUUUUUUUUUUUUUUUUUUUUUUUUUUUUUUUQ43233233333233433323332233224",
"342323433233423333333324QUUUUUUUUUUUUUUUUUUUUUUUUUUUUUUUUUUUUUUUUUUUUUUUUUUUUUUU~~~~~~~~~~~~~~~~~~~~~~~~~~~~~~~~~~~~YAAAZSUUUUUUUUUUUUUUUUUUUA73UW,,,,,,,,,,,,,,,,,,,,,,,WUA73UUUUUUUUUUUUUUUUUUUSCAAAY~~~~~~~~~~~~~~~~~~~~~~~~~~~~~~~~~~~~UUUUUUUUUUUUUUUUUUUUUUUUUUUUUUUUUUUUUUUUUUUUUUUUUUUUUUUQ43323333333334324443433333443",
"344343344433343444433234QUUUUUUUUUUUUUUUUUUUUUUUUUUUUUUUUUUUUUUUUUUUUUUUUUUUUUUU~~~~~~~~~~~~~~~~~~~~~~~~~~~~~~~~~~~~AAAAZAUUUUUUUUUUUUUUUUUUUA73UW,,lllllllllllllllllll,,WUA73UUUUUUUUUUUUUUUUUUUSZAAAA~~~~~~~~~~~~~~~~~~~~~~~~~~~~~~~~~~~~UUUUUUUUUUUUUUUUUUUUUUUUUUUUUUUUUUUUUUUUUUUUUUUUUUUUUUUQ44443334443434344434443443443",
"443344444434344444333234QUUUUUUUUUUUUUUUUUUUUUUUUUUUUUUUUUUUUUUUUUUUUUUUUUUUUUU~~~~~~~~~~~~~~~~~~~~~~~~~~~~~~~~~~~~~AAAAZSUUUUUUUUUUUUUUUUUUUA73UW,,lxxxxxxxzlzxxxxxxxl,,WUA73UUUUUUUUUUUUUUUUUUUSZAAAA~~~~~~~~~~~~~~~~~~~~~~~~~~~~~~~~~~~~~UUUUUUUUUUUUUUUUUUUUUUUUUUUUUUUUUUUUUUUUUUUUUUUUUUUUUUQ44443444443443344444434444344",
"434555454454445444333234QUUUUUUUUUUUUUUUUUUUUUUUUUUUUUUUUUUUUUUUUUUUUUUUUUUUUUU~~~~~~~~~~~~~~~~~~~~~~~~~~~~~~~~~~~~~AAAAZSUUUUUUUUUUUUUUUUUUU~~~UW,,lxxIIIIxzlzxIIIIxxl,,WU~~~UUUUUUUUUUUUUUUUUUUSZAAAA~~~~~~~~~~~~~~~~~~~~~~~~~~~~~~~~~~~~~UUUUUUUUUUUUUUUUUUUUUUUUUUUUUUUUUUUUUUUUUUUUUUUUUUUUUUQ44334344443444444544445434454",
"454444444555554445333234QUUUUUUUUUUUUUUUUUUUUUUUUUUUUUUUUUUUUUUUUUUUUUUUUUUUUU~~~~~~~~~~~~~~~~~~~~~~~~~~~~~~~~~~~~~YAAAAZSUUUUUUUUUUUUUUUUUU!!Q!!W,,lxxMMMMxzlzxMMMMxxl,,W!!!!QUUUUUUUUUUUUUUUUUUSZAAAAY~~~~~~~~~~~~~~~~~~~~~~~~~~~~~~~~~~~~~UUUUUUUUUUUUUUUUUUUUUUUUUUUUUUUUUUUUUUUUUUUUUUUUUUUUUQ44455554445444444545454454444",
"445555455555444455333234QUUUUUUUUUUUUUUUUUUUUUUUUUUUUUUUUUUUUUUUUUUUUUUUUUUUUU~~~~~~~~~~~~~~~~~~~~~~~~~~~~~~~~~~~~~AAAAAZSUUUUUUUUUUUUUUUUU!QQ!QQW,,lxxmmmmxzlzxmmmmxxl,,WQQ!QQ!UUUUUUUUUUUUUUUUUSZAAAAA~~~~~~~~~~~~~~~~~~~~~~~~~~~~~~~~~~~~~UUUUUUUUUUUUUUUUUUUUUUUUUUUUUUUUUUUUUUUUUUUUUUUUUUUUUQ54555445555555545544545455454",
"654556555555565555333234u;;;;;;;;;;;;;;;;;;;;;;;;;;;;;;;;;;;;;;;;;;;;;;;;;;;;~~~~~~~~~~~~~~~~~~~~~~~~~~~~~~~~~~~~~~AAAA-=-;;;;;;;;;;;;;;;;uuuuuuuRllzxxccccxzlzxccccxxzllWuuuuuuu;;;;;;;;;;;;;;;;-=AAAAA~~~~~~~~~~~~~~~~~~~~~~~~~~~~~~~~~~~~~~;;;;;;;;;;;;;;;;;;;;;;;;;;;;;;;;;;;;;;;;;;;;;;;;;;;;i56555565555455565565455656545",
"555666555565555566333234u;;;;;;;;;;;;;;;;;;;;;;;;;;;;;;;;;;;;;;;;;;;;;;;;;;;;~~~~~~~~~~~~~~~~~~~~~~~~~~~~~~~~~~~~~~AA---=-;;;;;;;;;;;;;;;uuuuuuuuWzzxxxxxxxxzlzxxxxxxxxzzWuuuuuuuu;;;;;;;;;;;;;;;-=---AA~~~~~~~~~~~~~~~~~~~~~~~~~~~~~~~~~~~~~~;;;;;;;;;;;;;;;;;;;;;;;;;;;;;;;;;;;;;;;;;;;;;;;;;;;;i56665555556655556655555665556",
"565565556565565566333234u;;;;;;;;;;;;;;;;;;;;;;;;;;;;;;;;;;;;;;;;;;;;;;;;;;;uuuuuuuuuuuuuuuuuuuuuuu;uuuuuuuuuuuuuui-----=-;;;;;;;;;;;;;;uuuuuuuuuWxxxxxxxxxxzlzxxxxxxxxxxWuuuuuuuuu;;;;;;;;;;;;;;-=-----iuuuuuuuuuuuuuuuuuuuuuuuuuuuuuuuuuuuuui;;;;;;;;;;;;;;;;;;;;;;;;;;;;;;;;;;;;;;;;;;;;;;;;;;;i55555655556556665666665566655",
"566555566565566656333234QUUUUUUUUUUUUUUUUUUUUUUUUUUUUUUUUUUUUUUUUUUUUUUUUUUUuuuuuuuuuuuuuuuuuuuuuuuuuuuuuuuuuuuuui-----AZSUUUUUUUUUUUUUUUUUUUUUUUWxxxxxxxxxxzlzxxxxxxxxxxWUUUUUUUUUUUUUUUUUUUUUUUSZ------iuuuuuuuuuuuuuuuuuuuuuuuuuuuuuuuuuuuuiUUUUUUUUUUUUUUUUUUUUUUUUUUUUUUUUUUUUUUUUUUUUUUUUUUUQ66566656566556655666666566666",
"666666666666656666333234QUUUUUUUUUUUUUUUUUUUUUUUUUUUUUUUUUUUUUUUUUUUUUUUUUUuuuuuuuuuuuuuuuuuuuuuuuuuuuuuuuuuuuuuui--AAAAZSUUUUUUUUUUUUUUUUUUUUUUUWxxxxxxxxxxzlzxxxxxxxxxxWUUUUUUUUUUUUUUUUUUUUUUUAZAAAA--iuuuuuuuuuuuuuuuuuuuuuuuuuuuuuuuuuuuuuiUUUUUUUUUUUUUUUUUUUUUUUUUUUUUUUUUUUUUUUUUUUUUUUUUUQ66666666666665666666666666666",
"666666666666666666333234QUUUUUUUUUUUUUUUUUUUUUUUUUUUUUUUUUUUUUUUUUUUUUUUUUU~~~~~~~~~~~~~~~~~~~~~~~~~~~~~~~~~~~~~~~AAAAAAZSUUUUUUUUUUUUUUUUUUUUUUUWxxxxxxxxxxzlzxxxxxxxxxxWUUUUUUUUUUUUUUUUUUUUUUUSZAAAAAA~~~~~~~~~~~~~~~~~~~~~~~~~~~~~~~~~~~~~~~UUUUUUUUUUUUUUUUUUUUUUUUUUUUUUUUUUUUUUUUUUUUUUUUUUQ66666666666666666666666666666",
"@@@@@@@@@@@@@@@@@@@@@@@@@@@@@@@@@@@@@@@@@@@@@@@@@@@@@@@@@@@@@@@@@@@@@@@@@@@@@@@@@@@@@@@@@@@@@@@@@@@@@@@@@@@@@@@@@@@@@@@@@@@@@@@@@@@@@@@@@@@@@@@@@@@@@@@@@@@@@@@@@@@@@@@@@@@@@@@@@@@@@@@@@@@@@@@@@@@@@@@@@@@@@@@@@@@@@@@@@@@@@@@@@@@@@@@@@@@@@@@@@@@@@@@@@@@@@@@@@@@@@@@@@@@@@@@@@@@@@@@@@@@@@@@@@@@@@@@@@@@@@@@@@@@@@@@@@@@@@@@@",
"@@@@@@@@@@@@@@@@@@@@@@@@@@@@@@@@@@@@@@@@@@@@@@@@@@@@@@@@@@@@@@@@@@@@@@@@@@@@@@@@@@@@@@@@@@@@@@@@@@@@@@@@@@@@@@@@@@@@@@@@@@@@@@@@@@@@@@@@@@@@@@@@@@@@@@@@@@@@@@@@@@@@@@@@@@@@@@@@@@@@@@@@@@@@@@@@@@@@@@@@@@@@@@@@@@@@@@@@@@@@@@@@@@@@@@@@@@@@@@@@@@@@@@@@@@@@@@@@@@@@@@@@@@@@@@@@@@@@@@@@@@@@@@@@@@@@@@@@@@@@@@@@@@@@@@@@@@@@@@@@",
"@@@@@@@@@@@@@@@@@@@@@@@@@@@@@@@@@@@@@@@@@@@@@@@@@@@@@@@@@@@@@@@@@@@@@@@@@@@@@@@@@@@@@@@@@@@@@@@@@@@@@@@@@@@@@@@@@@@@@@@@@@@@@@@@@@@@@@@@@@@@@@@@@@@@@@@@@@@@@@@@@@@@@@@@@@@@@@@@@@@@@@@@@@@@@@@@@@@@@@@@@@@@@@@@@@@@@@@@@@@@@@@@@@@@@@@@@@@@@@@@@@@@@@@@@@@@@@@@@@@@@@@@@@@@@@@@@@@@@@@@@@@@@@@@@@@@@@@@@@@@@@@@@@@@@@@@@@@@@@@@",
"@@@@@@@@@@@@@@@@@@@@@@@@@@@@@@@@@@@@@@@@@@@@@@@@@@@@@@@@@@@@@@@@@@@@@@@@@@@@@@@@@@@@@@@@@@@@@@@@@@@@@@@@@@@@@@@@@@@@@@@@@@@@@@@@@@@@@@@@@@@@@@@@@@@@@@@@@@@@@@@@@@@@@@@@@@@@@@@@@@@@@@@@@@@@@@@@@@@@@@@@@@@@@@@@@@@@@@@@@@@@@@@@@@@@@@@@@@@@@@@@@@@@@@@@@@@@@@@@@@@@@@@@@@@@@@@@@@@@@@@@@@@@@@@@@@@@@@@@@@@@@@@@@@@@@@@@@@@@@@@@",
"@@@@@@@@@@@@@@@@@@@@@@@@@@@@@@@@@@@@@@@@@@@@@@@@@@@@@@@@@@@@@@@@@@@@@@@@@@@@@@@@@@@@@@@@@@@@@@@@@@@@@@@@@@@@@@@@@@@@@@@@@@@@@@@@@@@@@@@@@@@@@@@@@@@@@@@@@@@@@@@@@@@@@@@@@@@@@@@@@@@@@@@@@@@@@@@@@@@@@@@@@@@@@@@@@@@@@@@@@@@@@@@@@@@@@@@@@@@@@@@@@@@@@@@@@@@@@@@@@@@@@@@@@@@@@@@@@@@@@@@@@@@@@@@@@@@@@@@@@@@@@@@@@@@@@@@@@@@@@@@@",
"@@@@@@@@@@@@@@@@@@@@@@@@@@@@@@@@@@@@@@@@@@@@@@@@@@@@@@@@@@@@@@@@@@@@@@@@@@@@@@@@@@@@@@@@@@@@@@@@@@@@@@@@@@@@@@@@@@@@@@@@@@@@@@@@@@@@@@@@@@@@@@@@@@@@@@@@@@@@@@@@@@@@@@@@@@@@@@@@@@@@@@@@@@@@@@@@@@@@@@@@@@@@@@@@@@@@@@@@@@@@@@@@@@@@@@@@@@@@@@@@@@@@@@@@@@@@@@@@@@@@@@@@@@@@@@@@@@@@@@@@@@@@@@@@@@@@@@@@@@@@@@@@@@@@@@@@@@@@@@@@",
"@@@@@@@@@@@@@@@@@@@@@@@@@@@@@@@@@@@@@@@@@@@@@@@@@@@@@@@@@@@@@@@@@@@@@@@@@@@@@@@@@@@@@@@@@@@@@@@@@@@@@@@@@@@@@@@@@@@@@@@@@@@@@@@@@@@@@@@@@@@@@@@@@@@@@@@@@@@@@@@@@@@@@@@@@@@@@@@@@@@@@@@@@@@@@@@@@@@@@@@@@@@@@@@@@@@@@@@@@@@@@@@@@@@@@@@@@@@@@@@@@@@@@@@@@@@@@@@@@@@@@@@@@@@@@@@@@@@@@@@@@@@@@@@@@@@@@@@@@@@@@@@@@@@@@@@@@@@@@@@@",
"@@@@@@@@@@@@@@@@@@@@@@@@@@@@@@@@@@@@@@@@@@@@@@@@@@@@@@@@@@@@@@@@@@@@@@@@@@@@@@@@@@@@@@@@@@@@@@@@@@@@@@@@@@@@@@@@@@@@@@@@@@@@@@@@@@@@@@@@@@@@@@@@@@@@@@@@@@@@@@@@@@@@@@@@@@@@@@@@@@@@@@@@@@@@@@@@@@@@@@@@@@@@@@@@@@@@@@@@@@@@@@@@@@@@@@@@@@@@@@@@@@@@@@@@@@@@@@@@@@@@@@@@@@@@@@@@@@@@@@@@@@@@@@@@@@@@@@@@@@@@@@@@@@@@@@@@@@@@@@@@",
"@@@@@@@@@@@@@@@@@@@@@@@@@@@@@@@@@@@@@@@@@@@@@@@@@@@@@@@@@@@@@@@@@@@@@@@@@@@@@@@@@@@@@@@@@@@@@@@@@@@@@@@@@@@@@@@@@@@@@@@@@@@@@@@@@@@@@@@@@@@@@@@@@@@@@@@@@@@@@@@@@@@@@@@@@@@@@@@@@@@@@@@@@@@@@@@@@@@@@@@@@@@@@@@@@@@@@@@@@@@@@@@@@@@@@@@@@@@@@@@@@@@@@@@@@@@@@@@@@@@@@@@@@@@@@@@@@@@@@@@@@@@@@@@@@@@@@@@@@@@@@@@@@@@@@@@@@@@@@@@@",
"@@@@@@@@@@@@@@@@@@@@@@@@@@@@@@@@@@@@@@@@@@@@@@@@@@@@@@@@@@@@@@@@@@@@@@@@@@@@@@@@@@@@@@@@@@@@@@@@@@@@@@@@@@@@@@@@@@@@@@@@@@@@@@@@@@@@@@@@@@@@@@@@@@@@@@@@@@@@@@@@@@@@@@@@@@@@@@@@@@@@@@@@@@@@@@@@@@@@@@@@@@@@@@@@@@@@@@@@@@@@@@@@@@@@@@@@@@@@@@@@@@@@@@@@@@@@@@@@@@@@@@@@@@@@@@@@@@@@@@@@@@@@@@@@@@@@@@@@@@@@@@@@@@@@@@@@@@@@@@@@",
"@@@@@@@@@@@@@@@@@@@@@@@@@@@@@@@@@@@@@@@@@@@@@@@@@@@@@@@@@@@@@@@@@@@@@@@@@@@@@@@@@@@@@@@@@@@@@@@@@@@@@@@@@@@@@@@@@@@@@@@@@@@@@@@@@@@@@@@@@@@@@@@@@@@@@@@@@@@@@@@@@@@@@@@@@@@@@@@@@@@@@@@@@@@@@@@@@@@@@@@@@@@@@@@@@@@@@@@@@@@@@@@@@@@@@@@@@@@@@@@@@@@@@@@@@@@@@@@@@@@@@@@@@@@@@@@@@@@@@@@@@@@@@@@@@@@@@@@@@@@@@@@@@@@@@@@@@@@@@@@@",
"@@@@@@@@@@@@@@@@@@@@@@@@@@@@@@@@@@@@@@@@@@@@@@@@@@@@@@@@@@@@@@@@@@@@@@@@@@@@@@@@@@@@@@@@@@@@@@@@@@@@@@@@@@@@@@@@@@@@@@@@@@@@@@@@@@@@@@@@@@@@@@@@@@@@@@@@@@@@@@@@@@@@@@@@@@@@@@@@@@@@@@@@@@@@@@@@@@@@@@@@@@@@@@@@@@@@@@@@@@@@@@@@@@@@@@@@@@@@@@@@@@@@@@@@@@@@@@@@@@@@@@@@@@@@@@@@@@@@@@@@@@@@@@@@@@@@@@@@@@@@@@@@@@@@@@@@@@@@@@@@",
"@@@@@@@@@@@@@@@@@@@@@@@@@@@@@@@@@@@@@@@@@@@@@@@@@@@@@@@@@@@@@@@@@@@@@@@@@@@@@@@@@@@@@@@@@@@@@@@@@@@@@@@@@@@@@@@@@@@@@@@@@@@@@@@@@@@@@@@@@@@@@@@@@@@@@@@@@@@@@@@@@@@@@@@@@@@@@@@@@@@@@@@@@@@@@@@@@@@@@@@@@@@@@@@@@@@@@@@@@@@@@@@@@@@@@@@@@@@@@@@@@@@@@@@@@@@@@@@@@@@@@@@@@@@@@@@@@@@@@@@@@@@@@@@@@@@@@@@@@@@@@@@@@@@@@@@@@@@@@@@@",
"@@@@@@@@@@@@@@@@@@@@@@@@@@@@@@@@@@@@@@@@@@@@@@@@@@@@@@@@@@@@@@@@@@@@@@@@@@@@@@@@@@@@@@@@@@@@@@@@@@@@@@@@@@@@@@@@@@@@@@@@@@@@@@@@@@@@@@@@@@@@@@@@@@@@@@@@@@@@@@@@@@@@@@@@@@@@@@@@@@@@@@@@@@@@@@@@@@@@@@@@@@@@@@@@@@@@@@@@@@@@@@@@@@@@@@@@@@@@@@@@@@@@@@@@@@@@@@@@@@@@@@@@@@@@@@@@@@@@@@@@@@@@@@@@@@@@@@@@@@@@@@@@@@@@@@@@@@@@@@@@",
"@@@@@@@@@@@@@@@@@@@@@@@@@@@@@@@@@@@@@@@@@@@@@@@@@@@@@@@@@@@@@@@@@@@@@@@@@@@@@@@@@@@@@@@@@@@@@@@@@@@@@@@@@@@@@@@@@@@@@@@@@@@@@@@@@@@@@@@@@@@@@@@@@@@@@@@@@@@@@@@@@@@@@@@@@@@@@@@@@@@@@@@@@@@@@@@@@@@@@@@@@@@@@@@@@@@@@@@@@@@@@@@@@@@@@@@@@@@@@@@@@@@@@@@@@@@@@@@@@@@@@@@@@@@@@@@@@@@@@@@@@@@@@@@@@@@@@@@@@@@@@@@@@@@@@@@@@@@@@@@@",
"@@@@@@@@@@@@@@@@@@@@@@@@@@@@@@@@@@@@@@@@@@@@@@@@@@@@@@@@@@@@@@@@@@@@@@@@@@@@@@@@@@@@@@@@@@@@@@@@@@@@@@@@@@@@@@@@@@@@@@@@@@@@@@@@@@@@@@@@@@@@@@@@@@@@@@@@@@@@@@@@@@@@@@@@@@@@@@@@@@@@@@@@@@@@@@@@@@@@@@@@@@@@@@@@@@@@@@@@@@@@@@@@@@@@@@@@@@@@@@@@@@@@@@@@@@@@@@@@@@@@@@@@@@@@@@@@@@@@@@@@@@@@@@@@@@@@@@@@@@@@@@@@@@@@@@@@@@@@@@@@",
"@@@@@@@@@@@@@@@@@@@@@@@@@@@@@@@@@@@@@@@@@@@@@@@@@@@@@@@@@@@@@@@@@@@@@@@@@@@@@@@@@@@@@@@@@@@@@@@@@@@@@@@@@@@@@@@@@@@@@@@@@@@@@@@@@@@@@@@@@@@@@@@@@@@@@@@@@@@@@@@@@@@@@@@@@@@@@@@@@@@@@@@@@@@@@@@@@@@@@@@@@@@@@@@@@@@@@@@@@@@@@@@@@@@@@@@@@@@@@@@@@@@@@@@@@@@@@@@@@@@@@@@@@@@@@@@@@@@@@@@@@@@@@@@@@@@@@@@@@@@@@@@@@@@@@@@@@@@@@@@@",
"@@@@@@@@@@@@@@@@@@@@@@@@@@@@@@@@@@@@@@@@@@@@@@@@@@@@@@@@@@@@@@@@@@@@@@@@@@@@@@@@@@@@@@@@@@@@@@@@@@@@@@@@@@@@@@@@@@@@@@@@@@@@@@@@@@@@@@@@@@@@@@@@@@@@@@@@@@@@@@@@@@@@@@@@@@@@@@@@@@@@@@@@@@@@@@@@@@@@@@@@@@@@@@@@@@@@@@@@@@@@@@@@@@@@@@@@@@@@@@@@@@@@@@@@@@@@@@@@@@@@@@@@@@@@@@@@@@@@@@@@@@@@@@@@@@@@@@@@@@@@@@@@@@@@@@@@@@@@@@@@",
"@@@@@@@@@@@@@@@@@@@@@@@@@@@@@@@@@@@@@@@@@@@@@@@@@@@@@@@@@@@@@@@@@@@@@@@@@@@@@@@@@@@@@@@@@@@@@@@@@@@@@@@@@@@@@@@@@@@@@@@@@@@@@@@@@@@@@@@@@@@@@@@@@@@@@@@@@@@@@@@@@@@@@@@@@@@@@@@@@@@@@@@@@@@@@@@@@@@@@@@@@@@@@@@@@@@@@@@@@@@@@@@@@@@@@@@@@@@@@@@@@@@@@@@@@@@@@@@@@@@@@@@@@@@@@@@@@@@@@@@@@@@@@@@@@@@@@@@@@@@@@@@@@@@@@@@@@@@@@@@@",
"@@@@@@@@@@@@@@@@@@@@@@@@@@@@@@@@@@@@@@@@@@@@@@@@@@@@@@@@@@@@@@@@@@@@@@@@@@@@@@@@@@@@@@@@@@@@@@@@@@@@@@@@@@@@@@@@@@@@@@@@@@@@@@@@@@@@@@@@@@@@@@@@@@@@@@@@@@@@@@@@@@@@@@@@@@@@@@@@@@@@@@@@@@@@@@@@@@@@@@@@@@@@@@@@@@@@@@@@@@@@@@@@@@@@@@@@@@@@@@@@@@@@@@@@@@@@@@@@@@@@@@@@@@@@@@@@@@@@@@@@@@@@@@@@@@@@@@@@@@@@@@@@@@@@@@@@@@@@@@@@",
"@@@@@@@@@@@@@@@@@@@@@@@@@@@@@@@@@@@@@@@@@@@@@@@@@@@@@@@@@@@@@@@@@@@@@@@@@@@@@@@@@@@@@@@@@@@@@@@@@@@@@@@@@@@@@@@@@@@@@@@@@@@@@@@@@@@@@@@@@@@@@@@@@@@@@@@@@@@@@@@@@@@@@@@@@@@@@@@@@@@@@@@@@@@@@@@@@@@@@@@@@@@@@@@@@@@@@@@@@@@@@@@@@@@@@@@@@@@@@@@@@@@@@@@@@@@@@@@@@@@@@@@@@@@@@@@@@@@@@@@@@@@@@@@@@@@@@@@@@@@@@@@@@@@@@@@@@@@@@@@@",
"@@@@@@@@@@@@@@@@@@@@@@@@@@@@@@@@@@@@@@@@@@@@@@@@@@@@@@@@@@@@@@@@@@@@@@@@@@@@@@@@@@@@@@@@@@@@@@@@@@@@@@@@@@@@@@@@@@@@@@@@@@@@@@@@@@@@@@@@@@@@@@@@@@@@@@@@@@@@@@@@@@@@@@@@@@@@@@@@@@@@@@@@@@@@@@@@@@@@@@@@@@@@@@@@@@@@@@@@@@@@@@@@@@@@@@@@@@@@@@@@@@@@@@@@@@@@@@@@@@@@@@@@@@@@@@@@@@@@@@@@@@@@@@@@@@@@@@@@@@@@@@@@@@@@@@@@@@@@@@@@",
"@@@@@@@@@@@@@@@@@@@@@@@@@@@@@@@@@@@@@@@@@@@@@@@@@@@@@@@@@@@@@@@@@@@@@@@@@@@@@@@@@@@@@@@@@@@@@@@@@@@@@@@@@@@@@@@@@@@@@@@@@@@@@@@@@@@@@@@@@@@@@@@@@@@@@@@@@@@@@@@@@@@@@@@@@@@@@@@@@@@@@@@@@@@@@@@@@@@@@@@@@@@@@@@@@@@@@@@@@@@@@@@@@@@@@@@@@@@@@@@@@@@@@@@@@@@@@@@@@@@@@@@@@@@@@@@@@@@@@@@@@@@@@@@@@@@@@@@@@@@@@@@@@@@@@@@@@@@@@@@@",
"@@@@@@@@@@@@@@@@@@@@@@@@@@@@@@@@@@@@@@@@@@@@@@@@@@@@@@@@@@@@@@@@@@@@@@@@@@@@@@@@@@@@@@@@@@@@@@@@@@@@@@@@@@@@@@@@@@@@@@@@@@@@@@@@@@@@@@@@@@@@@@@@@@@@@@@@@@@@@@@@@@@@@@@@@@@@@@@@@@@@@@@@@@@@@@@@@@@@@@@@@@@@@@@@@@@@@@@@@@@@@@@@@@@@@@@@@@@@@@@@@@@@@@@@@@@@@@@@@@@@@@@@@@@@@@@@@@@@@@@@@@@@@@@@@@@@@@@@@@@@@@@@@@@@@@@@@@@@@@@@",
"@@@@@@@@@@@@@@@@@@@@@@@@@@@@@@@@@@@@@@@@@@@@@@@@@@@@@@@@@@@@@@@@@@@@@@@@@@@@@@@@@@@@@@@@@@@@@@@@@@@@@@@@@@@@@@@@@@@@@@@@@@@@@@@@@@@@@@@@@@@@@@@@@@@@@@@@@@@@@@@@@@@@@@@@@@@@@@@@@@@@@@@@@@@@@@@@@@@@@@@@@@@@@@@@@@@@@@@@@@@@@@@@@@@@@@@@@@@@@@@@@@@@@@@@@@@@@@@@@@@@@@@@@@@@@@@@@@@@@@@@@@@@@@@@@@@@@@@@@@@@@@@@@@@@@@@@@@@@@@@@",
"@@@@@@@@@@@@@@@@@@@@@@@@@@@@@@@@@@@@@@@@@@@@@@@@@@@@@@@@@@@@@@@@@@@@@@@@@@@@@@@@@@@@@@@@@@@@@@@@@@@@@@@@@@@@@@@@@@@@@@@@@@@@@@@@@@@@@@@@@@@@@@@@@@@@@@@@@@@@@@@@@@@@@@@@@@@@@@@@@@@@@@@@@@@@@@@@@@@@@@@@@@@@@@@@@@@@@@@@@@@@@@@@@@@@@@@@@@@@@@@@@@@@@@@@@@@@@@@@@@@@@@@@@@@@@@@@@@@@@@@@@@@@@@@@@@@@@@@@@@@@@@@@@@@@@@@@@@@@@@@@",
"@@@@@@@@@@@@@@@@@@@@@@@@@@@@@@@@@@@@@@@@@@@@@@@@@@@@@@@@@@@@@@@@@@@@@@@@@@@@@@@@@@@@@@@@@@@@@@@@@@@@@@@@@@@@@@@@@@@@@@@@@@@@@@@@@@@@@@@@@@@@@@@@@@@@@@@@@@@@@@@@@@@@@@@@@@@@@@@@@@@@@@@@@@@@@@@@@@@@@@@@@@@@@@@@@@@@@@@@@@@@@@@@@@@@@@@@@@@@@@@@@@@@@@@@@@@@@@@@@@@@@@@@@@@@@@@@@@@@@@@@@@@@@@@@@@@@@@@@@@@@@@@@@@@@@@@@@@@@@@@@",
"@@@@@@@@@@@@@@@@@@@@@@@@@@@@@@@@@@@@@@@@@@@@@@@@@@@@@@@@@@@@@@@@@@@@@@@@@@@@@@@@@@@@@@@@@@@@@@@@@@@@@@@@@@@@@@@@@@@@@@@@@@@@@@@@@@@@@@@@@@@@@@@@@@@@@@@@@@@@@@@@@@@@@@@@@@@@@@@@@@@@@@@@@@@@@@@@@@@@@@@@@@@@@@@@@@@@@@@@@@@@@@@@@@@@@@@@@@@@@@@@@@@@@@@@@@@@@@@@@@@@@@@@@@@@@@@@@@@@@@@@@@@@@@@@@@@@@@@@@@@@@@@@@@@@@@@@@@@@@@@@",
"@@@@@@@@@@@@@@@@@@@@@@@@@@@@@@@@@@@@@@@@@@@@@@@@@@@@@@@@@@@@@@@@@@@@@@@@@@@@@@@@@@@@@@@@@@@@@@@@@@@@@@@@@@@@@@@@@@@@@@@@@@@@@@@@@@@@@@@@@@@@@@@@@@@@@@@@@@@@@@@@@@@@@@@@@@@@@@@@@@@@@@@@@@@@@@@@@@@@@@@@@@@@@@@@@@@@@@@@@@@@@@@@@@@@@@@@@@@@@@@@@@@@@@@@@@@@@@@@@@@@@@@@@@@@@@@@@@@@@@@@@@@@@@@@@@@@@@@@@@@@@@@@@@@@@@@@@@@@@@@@",
"@@@@@@@@@@@@@@@@@@@@@@@@@@@@@@@@@@@@@@@@@@@@@@@@@@@@@@@@@@@@@@@@@@@@@@@@@@@@@@@@@@@@@@@@@@@@@@@@@@@@@@@@@@@@@@@@@@@@@@@@@@@@@@@@@@@@@@@@@@@@@@@@@@@@@@@@@@@@@@@@@@@@@@@@@@@@@@@@@@@@@@@@@@@@@@@@@@@@@@@@@@@@@@@@@@@@@@@@@@@@@@@@@@@@@@@@@@@@@@@@@@@@@@@@@@@@@@@@@@@@@@@@@@@@@@@@@@@@@@@@@@@@@@@@@@@@@@@@@@@@@@@@@@@@@@@@@@@@@@@@",
"@@@@@@@@@@@@@@@@@@@@@@@@@@@@@@@@@@@@@@@@@@@@@@@@@@@@@@@@@@@@@@@@@@@@@@@@@@@@@@@@@@@@@@@@@@@@@@@@@@@@@@@@@@@@@@@@@@@@@@@@@@@@@@@@@@@@@@@@@@@@@@@@@@@@@@@@@@@@@@@@@@@@@@@@@@@@@@@@@@@@@@@@@@@@@@@@@@@@@@@@@@@@@@@@@@@@@@@@@@@@@@@@@@@@@@@@@@@@@@@@@@@@@@@@@@@@@@@@@@@@@@@@@@@@@@@@@@@@@@@@@@@@@@@@@@@@@@@@@@@@@@@@@@@@@@@@@@@@@@@@",
"@@@@@@@@@@@@@@@@@@@@@@@@@@@@@@@@@@@@@@@@@@@@@@@@@@@@@@@@@@@@@@@@@@@@@@@@@@@@@@@@@@@@@@@@@@@@@@@@@@@@@@@@@@@@@@@@@@@@@@@@@@@@@@@@@@@@@@@@@@@@@@@@@@@@@@@@@@@@@@@@@@@@@@@@@@@@@@@@@@@@@@@@@@@@@@@@@@@@@@@@@@@@@@@@@@@@@@@@@@@@@@@@@@@@@@@@@@@@@@@@@@@@@@@@@@@@@@@@@@@@@@@@@@@@@@@@@@@@@@@@@@@@@@@@@@@@@@@@@@@@@@@@@@@@@@@@@@@@@@@@",
"@@@@@@@@@@@@@@@@@@@@@@@@@@@@@@@@@@@@@@@@@@@@@@@@@@@@@@@@@@@@@@@@@@@@@@@@@@@@@@@@@@@@@@@@@@@@@@@@@@@@@@@@@@@@@@@@@@@@@@@@@@@@@@@@@@@@@@@@@@@@@@@@@@@@@@@@@@@@@@@@@@@@@@@@@@@@@@@@@@@@@@@@@@@@@@@@@@@@@@@@@@@@@@@@@@@@@@@@@@@@@@@@@@@@@@@@@@@@@@@@@@@@@@@@@@@@@@@@@@@@@@@@@@@@@@@@@@@@@@@@@@@@@@@@@@@@@@@@@@@@@@@@@@@@@@@@@@@@@@@@",
"@@@@@@@@@@@@@@@@@@@@@@@@@@@@@@@@@@@@@@@@@@@@@@@@@@@@@@@@@@@@@@@@@@@@@@@@@@@@@@@@@@@@@@@@@@@@@@@@@@@@@@@@@@@@@@@@@@@@@@@@@@@@@@@@@@@@@@@@@@@@@@@@@@@@@@@@@@@@@@@@@@@@@@@@@@@@@@@@@@@@@@@@@@@@@@@@@@@@@@@@@@@@@@@@@@@@@@@@@@@@@@@@@@@@@@@@@@@@@@@@@@@@@@@@@@@@@@@@@@@@@@@@@@@@@@@@@@@@@@@@@@@@@@@@@@@@@@@@@@@@@@@@@@@@@@@@@@@@@@@@",
"@@@@@@@@@@@@@@@@@@@@@@@@@@@@@@@@@@@@@@@@@@@@@@@@@@@@@@@@@@@@@@@@@@@@@@@@@@@@@@@@@@@@@@@@@@@@@@@@@@@@@@@@@@@@@@@@@@@@@@@@@@@@@@@@@@@@@@@@@@@@@@@@@@@@@@@@@@@@@@@@@@@@@@@@@@@@@@@@@@@@@@@@@@@@@@@@@@@@@@@@@@@@@@@@@@@@@@@@@@@@@@@@@@@@@@@@@@@@@@@@@@@@@@@@@@@@@@@@@@@@@@@@@@@@@@@@@@@@@@@@@@@@@@@@@@@@@@@@@@@@@@@@@@@@@@@@@@@@@@@@",
"@@@@@@@@@@@@@@@@@@@@@@@@@@@@@@@@@@@@@@@@@@@@@@@@@@@@@@@@@@@@@@@@@@@@@@@@@@@@@@@@@@@@@@@@@@@@@@@@@@@@@@@@@@@@@@@@@@@@@@@@@@@@@@@@@@@@@@@@@@@@@@@@@@@@@@@@@@@@@@@@@@@@@@@@@@@@@@@@@@@@@@@@@@@@@@@@@@@@@@@@@@@@@@@@@@@@@@@@@@@@@@@@@@@@@@@@@@@@@@@@@@@@@@@@@@@@@@@@@@@@@@@@@@@@@@@@@@@@@@@@@@@@@@@@@@@@@@@@@@@@@@@@@@@@@@@@@@@@@@@@",
"@@@@@@@@@@@@@@@@@@@@@@@@@@@@@@@@@@@@@@@@@@@@@@@@@@@@@@@@@@@@@@@@@@@@@@@@@@@@@@@@@@@@@@@@@@@@@@@@@@@@@@@@@@@@@@@@@@@@@@@@@@@@@@@@@@@@@@@@@@@@@@@@@@@@@@@@@@@@@@@@@@@@@@@@@@@@@@@@@@@@@@@@@@@@@@@@@@@@@@@@@@@@@@@@@@@@@@@@@@@@@@@@@@@@@@@@@@@@@@@@@@@@@@@@@@@@@@@@@@@@@@@@@@@@@@@@@@@@@@@@@@@@@@@@@@@@@@@@@@@@@@@@@@@@@@@@@@@@@@@@"
};
