/* XPM */
static char *end_floor3_062[] = {
/* columns rows colors chars-per-pixel */
"320 200 68 1 ",
"  c #000000",
". c #0B0B0B",
"X c gray8",
"o c #1C1C1C",
"O c #00002C",
"+ c #00003C",
"@ c gray14",
"# c #2C2C2C",
"$ c #343434",
"% c #3C3C3C",
"& c #600000",
"* c #502400",
"= c #743804",
"- c #004400",
"; c #005C00",
": c #007400",
"> c #000050",
", c #000064",
"< c #244870",
"1 c #444444",
"2 c #4C4C4C",
"3 c #545454",
"4 c #5C5C5C",
"5 c #646464",
"6 c #6C6C6C",
"7 c #747474",
"8 c #7C7C7C",
"9 c #F80000",
"0 c #884404",
"q c #984C08",
"w c #AC580C",
"e c #C47024",
"r c #008C00",
"t c #00A400",
"y c #CC8038",
"u c #D09050",
"i c #D89C64",
"p c #DCAC7C",
"a c #040488",
"s c #0C0CAC",
"d c #2C5480",
"f c #346090",
"g c #3C6CA0",
"h c #4C78A8",
"j c #1010C0",
"k c #4040D0",
"l c #7878E0",
"z c #5884B0",
"x c #6C90BC",
"c c #848484",
"v c #8C8C8C",
"b c #939393",
"n c #989898",
"m c #A0A0A0",
"M c #A8A8A8",
"N c #B0B0B0",
"B c #BCBCBC",
"V c #ECD0B4",
"C c #80A0C4",
"Z c #C4C4C4",
"A c #CCCCCC",
"S c #D4D4D4",
"D c #DADADA",
"F c #D8D8F4",
"G c #E0E0E0",
"H c #E8E8E8",
"J c #F1F1F1",
"K c #FCFCFC",
/* pixels */
"@@@@@@@@@@@@@@@@@@@@@@@@@@@@@@@@@@@@@@@@@@@@@@@@@@@@@@@@@@@@@@@@@@@@@@@@@@@@@@@@@@@@@@@@@@@@@@@@@@@@@@@@@@@@@@@@@@@@@@@@@@@@@@@@@@@@@@@@@@@@@@@@@@@@@@@@@@@@@@@@@@@@@@@@@@@@@@@@@@@@@@@@@@@@@@@@@@@@@@@@@@@@@@@@@@@@@@@@@@@@@@@@@@@@@@@@@@@@@@@@@@@@@@@@@@@@@@@@@@@@@@@@@@@@@@@@@@@@@@@@@@@@@@@@@@@@@@@@@@@@@@@@@@@@@@@@@@@@@@@@",
"@@@@@@@@@@@@@@@@@@@@@@@@@@@@@@@@@@@@@@@@@@@@@@@@@@@@@@@@@@@@@@@@@@@@@@@@@@@@@@@@@@@@@@@@@@@@@@@@@@@@@@@@@@@@@@@@@@@@@@@@@@@@@@@@@@@@@@@@@@@@@@@@@@@@@@@@@@@@@@@@@@@@@@@@@@@@@@@@@@@@@@@@@@@@@@@@@@@@@@@@@@@@@@@@@@@@@@@@@@@@@@@@@@@@@@@@@@@@@@@@@@@@@@@@@@@@@@@@@@@@@@@@@@@@@@@@@@@@@@@@@@@@@@@@@@@@@@@@@@@@@@@@@@@@@@@@@@@@@@@@",
"@@@@@@@@@@@@@@@@@@@@@@@@@@@@@@@@@@@@@@@@@@@@@@@@@@@@@@@@@@@@@@@@@@@@@@@@@@@@@@@@@@@@@@@@@@@@@@@@@@@@@@@@@@@@@@@@@@@@@@@@@@@@@@@@@@@@@@@@@@@@@@@@@@@@@@@@@@@@@@@@@@@@@@@@@@@@@@@@@@@@@@@@@@@@@@@@@@@@@@@@@@@@@@@@@@@@@@@@@@@@@@@@@@@@@@@@@@@@@@@@@@@@@@@@@@@@@@@@@@@@@@@@@@@@@@@@@@@@@@@@@@@@@@@@@@@@@@@@@@@@@@@@@@@@@@@@@@@@@@@@",
"@@@@@@@@@@@@@@@@@@@@@@@@@@@@@@@@@@@@@@@@@@@@@@@@@@@@@@@@@@@@@@@@@@@@@@@@@@@@@@@@@@@@@@@@@@@@@@@@@@@@@@@@@@@@@@@@@@@@@@@@@@@@@@@@@@@@@@@@@@@@@@@@@@@@@@@@@@@@@@@@@@@@@@@@@@@@@@@@@@@@@@@@@@@@@@@@@@@@@@@@@@@@@@@@@@@@@@@@@@@@@@@@@@@@@@@@@@@@@@@@@@@@@@@@@@@@@@@@@@@@@@@@@@@@@@@@@@@@@@@@@@@@@@@@@@@@@@@@@@@@@@@@@@@@@@@@@@@@@@@@",
"@@@@@@@@@@@@@@@@@@@@@@@@@@@@@@@@@@@@@@@@@@@@@@@@@@@@@@@@@@@@@@@@@@@@@@@@@@@@@@@@@@@@@@@@@@@@@@@@@@@@@@@@@@@@@@@@@@@@@@@@@@@@@@@@@@@@@@@@@@@@@@@@@@@@@@@@@@@@@@@@@@@@@@@@@@@@@@@@@@@@@@@@@@@@@@@@@@@@@@@@@@@@@@@@@@@@@@@@@@@@@@@@@@@@@@@@@@@@@@@@@@@@@@@@@@@@@@@@@@@@@@@@@@@@@@@@@@@@@@@@@@@@@@@@@@@@@@@@@@@@@@@@@@@@@@@@@@@@@@@@",
"@@@@@@@@@@@@@@@@@@@@@@@@@@@@@@@@@@@@@@@@@@@@@@@@@@@@@@@@@@@@@@@@@@@@@@@@@@@@@@@@@@@@@@@@@@@@@@@@@@@@@@@@@@@@@@@@@@@@@@@@@@@@@@@@@@@@@@@@@@@@@@@@@@@@@@@@@@@@@@@@@@@@@@@@@@@@@@@@@@@@@@@@@@@@@@@@@@@@@@@@@@@@@@@@@@@@@@@@@@@@@@@@@@@@@@@@@@@@@@@@@@@@@@@@@@@@@@@@@@@@@@@@@@@@@@@@@@@@@@@@@@@@@@@@@@@@@@@@@@@@@@@@@@@@@@@@@@@@@@@@",
"@@@@@@@@@@@@@@@@@@@@@@@@@@@@@@@@@@@@@@@@@@@@@@@@@@@@@@@@@@@@@@@@@@@@@@@@@@@@@@@@@@@@@@@@@@@@@@@@@@@@@@@@@@@@@@@@@@@@@@@@@@@@@@@@@@@@@@@@@@@@@@@@@@@@@@@@@@@@@@@@@@@@@@@@@@@@@@@@@@@@@@@@@@@@@@@@@@@@@@@@@@@@@@@@@@@@@@@@@@@@@@@@@@@@@@@@@@@@@@@@@@@@@@@@@@@@@@@@@@@@@@@@@@@@@@@@@@@@@@@@@@@@@@@@@@@@@@@@@@@@@@@@@@@@@@@@@@@@@@@@",
"@@@@@@@@@@@@@@@@@@@@@@@@@@@@@@@@@@@@@@@@@@@@@@@@@@@@@@@@@@@@@@@@@@@@@@@@@@@@@@@@@@@@@@@@@@@@@@@@@@@@@@@@@@@@@@@@@@@@@@@@@@@@@@@@@@@@@@@@@@@@@@@@@@@@@@@@@@@@@@@@@@@@@@@@@@@@@@@@@@@@@@@@@@@@@@@@@@@@@@@@@@@@@@@@@@@@@@@@@@@@@@@@@@@@@@@@@@@@@@@@@@@@@@@@@@@@@@@@@@@@@@@@@@@@@@@@@@@@@@@@@@@@@@@@@@@@@@@@@@@@@@@@@@@@@@@@@@@@@@@@",
"@@@@@@@@@@@@@@@@@@@@@@@@@@@@@@@@@@@@@@@@@@@@@@@@@@@@@@@@@@@@@@@@@@@@@@@@@@@@@@@@@@@@@@@@@@@@@@@@@@@@@@@@@@@@@@@@@@@@@@@@@@@@@@@@@@@@@@@@@@@@@@@@@@@@@@@@@@@@@@@@@@@@@@@@@@@@@@@@@@@@@@@@@@@@@@@@@@@@@@@@@@@@@@@@@@@@@@@@@@@@@@@@@@@@@@@@@@@@@@@@@@@@@@@@@@@@@@@@@@@@@@@@@@@@@@@@@@@@@@@@@@@@@@@@@@@@@@@@@@@@@@@@@@@@@@@@@@@@@@@@",
"@@@@@@@@@@@@@@@@@@@@@@@@@@@@@@@@@@@@@@@@@@@@@@@@@@@@@@@@@@@@@@@@@@@@@@@@@@@@@@@@@@@@@@@@@@@@@@@@@@@@@@@@@@@@@@@@@@@@@@@@@@@@@@@@@@@@@@@@@@@@@@@@@@@@@@@@@@@@@@@@@@@@@@@@@@@@@@@@@@@@@@@@@@@@@@@@@@@@@@@@@@@@@@@@@@@@@@@@@@@@@@@@@@@@@@@@@@@@@@@@@@@@@@@@@@@@@@@@@@@@@@@@@@@@@@@@@@@@@@@@@@@@@@@@@@@@@@@@@@@@@@@@@@@@@@@@@@@@@@@@",
"@@@@@@@@@@@@@@@@@@@@@@@@@@@@@@@@@@@@@@@@@@@@@@@@@@@@@@@@@@@@@@@@@@@@@@@@@@@@@@@@@@@@@@@@@@@@@@@@@@@@@@@@@@@@@@@@@@@@@@@@@@@@@@@@@@@@@@@@@@@@@@@@@@@@@@@@@@@@@@@@@@@@@@@@@@@@@@@@@@@@@@@@@@@@@@@@@@@@@@@@@@@@@@@@@@@@@@@@@@@@@@@@@@@@@@@@@@@@@@@@@@@@@@@@@@@@@@@@@@@@@@@@@@@@@@@@@@@@@@@@@@@@@@@@@@@@@@@@@@@@@@@@@@@@@@@@@@@@@@@@",
"@@@@@@@@@@@@@@@@@@@@@@@@@@@@@@@@@@@@@@@@@@@@@@@@@@@@@@@@@@@@@@@@@@@@@@@@@@@@@@@@@@@@@@@@@@@@@@@@@@@@@@@@@@@@@@@@@@@@@@@@@@@@@@@@@@@@@@@@@@@@@@@@@@@@@@@@@@@@@@@@@@@@@@@@@@@@@@@@@@@@@@@@@@@@@@@@@@@@@@@@@@@@@@@@@@@@@@@@@@@@@@@@@@@@@@@@@@@@@@@@@@@@@@@@@@@@@@@@@@@@@@@@@@@@@@@@@@@@@@@@@@@@@@@@@@@@@@@@@@@@@@@@@@@@@@@@@@@@@@@@",
"@@@@@@@@@@@@@@@@@@@@@@@@@@@@@@@@@@@@@@@@@@@@@@@@@@@@@@@@@@@@@@@@@@@@@@@@@@@@@@@@@@@@@@@@@@@@@@@@@@@@@@@@@@@@@@@@@@@@@@@@@@@@@@@@@@@@@@@@@@@@@@@@@@@@@@@@@@@@@@@@@@@@@@@@@@@@@@@@@@@@@@@@@@@@@@@@@@@@@@@@@@@@@@@@@@@@@@@@@@@@@@@@@@@@@@@@@@@@@@@@@@@@@@@@@@@@@@@@@@@@@@@@@@@@@@@@@@@@@@@@@@@@@@@@@@@@@@@@@@@@@@@@@@@@@@@@@@@@@@@@",
"@@@@@@@@@@@@@@@@@@@@@@@@@@@@@@@@@@@@@@@@@@@@@@@@@@@@@@@@@@@@@@@@@@@@@@@@@@@@@@@@@@@@@@@@@@@@@@@@@@@@@@@@@@@@@@@@@@@@@@@@@@@@@@@@@@@@@@@@@@@@@@@@@@@@@@@@@@@@@@@@@@@@@@@@@@@@@@@@@@@@@@@@@@@@@@@@@@@@@@@@@@@@@@@@@@@@@@@@@@@@@@@@@@@@@@@@@@@@@@@@@@@@@@@@@@@@@@@@@@@@@@@@@@@@@@@@@@@@@@@@@@@@@@@@@@@@@@@@@@@@@@@@@@@@@@@@@@@@@@@@",
"@@@@@@@@@@@@@@@@@@@@@@@@@@@@@@@@@@@@@@@@@@@@@@@@@@@@@@@@@@@@@@@@@@@@@@@@@@@@@@@@@@@@@@@@@@@@@@@@@@@@@@@@@@@@@@@@@@@@@@@@@@@@@@@@@@@@@@@@@@@@@@@@@@@@@@@@@@@@@@@@@@@@@@@@@@@@@@@@@@@@@@@@@@@@@@@@@@@@@@@@@@@@@@@@@@@@@@@@@@@@@@@@@@@@@@@@@@@@@@@@@@@@@@@@@@@@@@@@@@@@@@@@@@@@@@@@@@@@@@@@@@@@@@@@@@@@@@@@@@@@@@@@@@@@@@@@@@@@@@@@",
"@@@@@@@@@@@@@@@@@@@@@@@@@@@@@@@@@@@@@@@@@@@@@@@@@@@@@@@@@@@@@@@@@@@@@@@@@@@@@@@@@@@@@@@@@@@@@@@@@@@@@@@@@@@@@@@@@@@@@@@@@@@@@@@@@@@@@@@@@@@@@@@@@@@@@@@@@@@@@@@@@@@@@@@@@@@@@@@@@@@@@@@@@@@@@@@@@@@@@@@@@@@@@@@@@@@@@@@@@@@@@@@@@@@@@@@@@@@@@@@@@@@@@@@@@@@@@@@@@@@@@@@@@@@@@@@@@@@@@@@@@@@@@@@@@@@@@@@@@@@@@@@@@@@@@@@@@@@@@@@@",
"@@@@@@@@@@@@@@@@@@@@@@@@@@@@@@@@@@@@@@@@@@@@@@@@@@@@@@@@@@@@@@@@@@@@@@@@@@@@@@@@@@@@@@@@@@@@@@@@@@@@@@@@@@@@@@@@@@@@@@@@@@@@@@@@@@@@@@@@@@@@@@@@@@@@@@@@@@@@@@@@@@@@@@@@@@@@@@@@@@@@@@@@@@@@@@@@@@@@@@@@@@@@@@@@@@@@@@@@@@@@@@@@@@@@@@@@@@@@@@@@@@@@@@@@@@@@@@@@@@@@@@@@@@@@@@@@@@@@@@@@@@@@@@@@@@@@@@@@@@@@@@@@@@@@@@@@@@@@@@@@",
"@@@@@@@@@@@@@@@@@@@@@@@@@@@@@@@@@@@@@@@@@@@@@@@@@@@@@@@@@@@@@@@@@@@@@@@@@@@@@@@@@@@@@@@@@@@@@@@@@@@@@@@@@@@@@@@@@@@@@@@@@@@@@@@@@@@@@@@@@@@@@@@@@@@@@@@@@@@@@@@@@@@@@@@@@@@@@@@@@@@@@@@@@@@@@@@@@@@@@@@@@@@@@@@@@@@@@@@@@@@@@@@@@@@@@@@@@@@@@@@@@@@@@@@@@@@@@@@@@@@@@@@@@@@@@@@@@@@@@@@@@@@@@@@@@@@@@@@@@@@@@@@@@@@@@@@@@@@@@@@@",
"@@@@@@@@@@@@@@@@@@@@@@@@@@@@@@@@@@@@@@@@@@@@@@@@@@@@@@@@@@@@@@@@@@@@@@@@@@@@@@@@@@@@@@@@@@@@@@@@@@@@@@@@@@@@@@@@@@@@@@@@@@@@@@@@@@@@@@@@@@@@@@@@@@@@@@@@@@@@@@@@@@@@@@@@@@@@@@@@@@@@@@@@@@@@@@@@@@@@@@@@@@@@@@@@@@@@@@@@@@@@@@@@@@@@@@@@@@@@@@@@@@@@@@@@@@@@@@@@@@@@@@@@@@@@@@@@@@@@@@@@@@@@@@@@@@@@@@@@@@@@@@@@@@@@@@@@@@@@@@@@",
"@@@@@@@@@@@@@@@@@@@@@@@@@@@@@@@@@@@@@@@@@@@@@@@@@@@@@@@@@@@@@@@@@@@@@@@@@@@@@@@@@@@@@@@@@@@@@@@@@@@@@@@@@@@@@@@@@@@@@@@@@@@@@@@@@@@@@@@@@@@@@@@@@@@@@@@@@@@@@@@@@@@@@@@@@@@@@@@@@@@@@@@@@@@@@@@@@@@@@@@@@@@@@@@@@@@@@@@@@@@@@@@@@@@@@@@@@@@@@@@@@@@@@@@@@@@@@@@@@@@@@@@@@@@@@@@@@@@@@@@@@@@@@@@@@@@@@@@@@@@@@@@@@@@@@@@@@@@@@@@@",
"@@@@@@@@@@@@@@@@@@@@@@@@@@@@@@@@@@@@@@@@@@@@@@@@@@@@@@@@@@@@@@@@@@@@@@@@@@@@@@@@@@@@@@@@@@@@@@@@@@@@@@@@@@@@@@@@@@@@@@@@@@@@@@@@@@@@@@@@@@@@@@@@@@@@@@@@@@@@@@@@@@@@@@@@@@@@@@@@@@@@@@@@@@@@@@@@@@@@@@@@@@@@@@@@@@@@@@@@@@@@@@@@@@@@@@@@@@@@@@@@@@@@@@@@@@@@@@@@@@@@@@@@@@@@@@@@@@@@@@@@@@@@@@@@@@@@@@@@@@@@@@@@@@@@@@@@@@@@@@@@",
"@@@@@@@@@@@@@@@@@@@@@@@@@@@@@@@@@@@@@@@@@@@@@@@@@@@@@@@@@@@@@@@@@@@@@@@@@@@@@@@@@@@@@@@@@@@@@@@@@@@@@@@@@@@@@@@@@@@@@@@@@@@@@@@@@@@@@@@@@@@@@@@@@@@@@@@@@@@@@@@@@@@@@@@@@@@@@@@@@@@@@@@@@@@@@@@@@@@@@@@@@@@@@@@@@@@@@@@@@@@@@@@@@@@@@@@@@@@@@@@@@@@@@@@@@@@@@@@@@@@@@@@@@@@@@@@@@@@@@@@@@@@@@@@@@@@@@@@@@@@@@@@@@@@@@@@@@@@@@@@@",
"@@@@@@@@@@@@@@@@@@@@@@@@@@@@@@@@@@@@@@@@@@@@@@@@@@@@@@@@@@@@@@@@@@@@@@@@@@@@@@@@@@@@@@@@@@@@@@@@@@@@@@@@@@@@@@@@@@@@@@@@@@@@@@@@@@@@@@@@@@@@@@@@@@@@@@@@@@@@@@@@@@@@@@@@@@@@@@@@@@@@@@@@@@@@@@@@@@@@@@@@@@@@@@@@@@@@@@@@@@@@@@@@@@@@@@@@@@@@@@@@@@@@@@@@@@@@@@@@@@@@@@@@@@@@@@@@@@@@@@@@@@@@@@@@@@@@@@@@@@@@@@@@@@@@@@@@@@@@@@@@",
"@@@@@@@@@@@@@@@@@@@@@@@@@@@@@@@@@@@@@@@@@@@@@@@@@@@@@@@@@@@@@@@@@@@@@@@@@@@@@@@@@@@@@@@@@@@@@@@@@@@@@@@@@@@@@@@@@@@@@@@@@@@@@@@@@@@@@@@@@@@@@@@@@@@@@@@@@@@@@@@@@@@@@@@@@@@@@@@@@@@@@@@@@@@@@@@@@@@@@@@@@@@@@@@@@@@@@@@@@@@@@@@@@@@@@@@@@@@@@@@@@@@@@@@@@@@@@@@@@@@@@@@@@@@@@@@@@@@@@@@@@@@@@@@@@@@@@@@@@@@@@@@@@@@@@@@@@@@@@@@@",
"@@@@@@@@@@@@@@@@@@@@@@@@@@@@@@@@@@@@@@@@@@@@@@@@@@@@@@@@@@@@@@@@@@@@@@@@@@@@@@@@@@@@@@@@@@@@@@@@@@@@@@@@@@@@@@@@@@@@@@@@@@@@@@@@@@@@@@@@@@@@@@@@@@@@@@@@@@@@@@@@@@@@@@@@@@@@@@@@@@@@@@@@@@@@@@@@@@@@@@@@@@@@@@@@@@@@@@@@@@@@@@@@@@@@@@@@@@@@@@@@@@@@@@@@@@@@@@@@@@@@@@@@@@@@@@@@@@@@@@@@@@@@@@@@@@@@@@@@@@@@@@@@@@@@@@@@@@@@@@@@",
"@@@@@@@@@@@@@@@@@@@@@@@@@@@@@@@@@@@@@@@@@@@@@@@@@@@@@@@@@@@@@@@@@@@@@@@@@@@@@@@@@@@@@@@@@@@@@@@@@@@@@@@@@@@@@@@@@@@@@@@@@@@@@@@@@@@@@@@@@@@@@@@@@@@@@@@@@@@@@@@@@@@@@@@@@@@@@@@@@@@@@@@@@@@@@@@@@@@@@@@@@@@@@@@@@@@@@@@@@@@@@@@@@@@@@@@@@@@@@@@@@@@@@@@@@@@@@@@@@@@@@@@@@@@@@@@@@@@@@@@@@@@@@@@@@@@@@@@@@@@@@@@@@@@@@@@@@@@@@@@@",
"@@@@@@@@@@@@@@@@@@@@@@@@@@@@@@@@@@@@@@@@@@@@@@@@@@@@@@@@@@@@@@@@@@@@@@@@@@@@@@@@@@@@@@@@@@@@@@@@@@@@@@@@@@@@@@@@@@@@@@@@@@@@@@@@@@@@@@@@@@@@@@@@@@@@@@@@@@@@@@@@@@@@@@@@@@@@@@@@@@@@@@@@@@@@@@@@@@@@@@@@@@@@@@@@@@@@@@@@@@@@@@@@@@@@@@@@@@@@@@@@@@@@@@@@@@@@@@@@@@@@@@@@@@@@@@@@@@@@@@@@@@@@@@@@@@@@@@@@@@@@@@@@@@@@@@@@@@@@@@@@",
"@@@@@@@@@@@@@@@@@@@@@@@@@@@@@@@@@@@@@@@@@@@@@@@@@@@@@@@@@@@@@@@@@@@@@@@@@@@@@@@@@@@@@@@@@@@@@@@@@@@@@@@@@@@@@@@@@@@@@@@@@@@@@@@@@@@@@@@@@@@@@@@@@@@@@@@@@@@@@@@@@@@@@@@@@@@@@@@@@@@@@@@@@@@@@@@@@@@@@@@@@@@@@@@@@@@@@@@@@@@@@@@@@@@@@@@@@@@@@@@@@@@@@@@@@@@@@@@@@@@@@@@@@@@@@@@@@@@@@@@@@@@@@@@@@@@@@@@@@@@@@@@@@@@@@@@@@@@@@@@@",
"@@@@@@@@@@@@@@@@@@@@@@@@@@@@@@@@@@@@@@@@@@@@@@@@@@@@@@@@@@@@@@@@@@@@@@@@@@@@@@@@@@@@@@@@@@@@@@@@@@@@@@@@@@@@@@@@@@@@@@@@@@@@@@@@@@@@@@@@@@@@@@@@@@@@@@@@@@@@@@@@@@@@@@@@@@@@@@@@@@@@@@@@@@@@@@@@@@@@@@@@@@@@@@@@@@@@@@@@@@@@@@@@@@@@@@@@@@@@@@@@@@@@@@@@@@@@@@@@@@@@@@@@@@@@@@@@@@@@@@@@@@@@@@@@@@@@@@@@@@@@@@@@@@@@@@@@@@@@@@@@",
"@@@@@@@@@@@@@@@@@@@@@@@@@@@@@@@@@@@@@@@@@@@@@@@@@@@@@@@@@@@@@@@@@@@@@@@@@@@@@@@@@@@@@@@@@@@@@@@@@@@@@@@@@@@@@@@@@@@@@@@@@@@@@@@@@@@@@@@@@@@@@@@@@@@@@@@@@@@@@@@@@@@@@@@@@@@@@@@@@@@@@@@@@@@@@@@@@@@@@@@@@@@@@@@@@@@@@@@@@@@@@@@@@@@@@@@@@@@@@@@@@@@@@@@@@@@@@@@@@@@@@@@@@@@@@@@@@@@@@@@@@@@@@@@@@@@@@@@@@@@@@@@@@@@@@@@@@@@@@@@@",
"@@@@@@@@@@@@@@@@@@@@@@@@@@@@@@@@@@@@@@@@@@@@@@@@@@@@@@@@@@@@@@@@@@@@@@@@@@@@@@@@@@@@@@@@@@@@@@@@@@@@@@@@@@@@@@@@@@@@@@@@@@@@@@@@@@@@@@@@@@@@@@@@@@@@@@@@@@@@@@@@@@@@@@@@@@@@@@@@@@@@@@@@@@@@@@@@@@@@@@@@@@@@@@@@@@@@@@@@@@@@@@@@@@@@@@@@@@@@@@@@@@@@@@@@@@@@@@@@@@@@@@@@@@@@@@@@@@@@@@@@@@@@@@@@@@@@@@@@@@@@@@@@@@@@@@@@@@@@@@@@",
"@@@@@@@@@@@@@@@@@@@@@@@@@@@@@@@@@@@@@@@@@@@@@@@@@@@@@@@@@@@@@@@@@@@@@@@@@@@@@@@@@@@@@@@@@@@@@@@@@@@@@@@@@@@@@@@@@@@@@@@@@@@@@@@@@@@@@@@@@@@@@@@@@@@@@@@@@@@@@@@@@@@@@@@@@@@@@@@@@@@@@@@@@@@@@@@@@@@@@@@@@@@@@@@@@@@@@@@@@@@@@@@@@@@@@@@@@@@@@@@@@@@@@@@@@@@@@@@@@@@@@@@@@@@@@@@@@@@@@@@@@@@@@@@@@@@@@@@@@@@@@@@@@@@@@@@@@@@@@@@@",
"@@@@@@@@@@@@@@@@@@@@@@@@@@@@@@@@@@@@@@@@@@@@@@@@@@@@@@@@@@@@@@@@@@@@@@@@@@@@@@@@@@@@@@@@@@@@@@@@@@@@@@@@@@@@@@@@@@@@@@@@@@@@@@@@@@@@@@@@@@@@@@@@@@@@@@@@@@@@@@@@@@@@@@@@@@@@@@@@@@@@@@@@@@@@@@@@@@@@@@@@@@@@@@@@@@@@@@@@@@@@@@@@@@@@@@@@@@@@@@@@@@@@@@@@@@@@@@@@@@@@@@@@@@@@@@@@@@@@@@@@@@@@@@@@@@@@@@@@@@@@@@@@@@@@@@@@@@@@@@@@",
"@@@@@@@@@@@@@@@@@@@@@@@@@@@@@@@@@@@@@@@@@@@@@@@@@@@@@@@@@@@@@@@@@@@@@@@@@@@@@@@@@@@@@@@@@@@@@@@@@@@@@@@@@@@@@@@@@@@@@@@@@@@@@@@@@@@@@@@@@@@@@@@@@@@@@@@@@@@@@@@@@@@@@@@@@@@@@@@@@@@@@@@@@@@@@@@@@@@@@@@@@@@@@@@@@@@@@@@@@@@@@@@@@@@@@@@@@@@@@@@@@@@@@@@@@@@@@@@@@@@@@@@@@@@@@@@@@@@@@@@@@@@@@@@@@@@@@@@@@@@@@@@@@@@@@@@@@@@@@@@@",
"@@@@@@@@@@@@@@@@@@@@@@@@@@@@@@@@@@@@@@@@@@@@@@@@@@@@@@@@@@@@@@@@@@@@@@@@@@@@@@@@@@@@@@@@@@@@@@@@@@@@@@@@@@@@@@@@@@@@@@@@@@@@@@@@@@@@@@@@@@@@@@@@@@@@@@@@@@@@@@@@@@@@@@@@@@@@@@@@@@@@@@@@@@@@@@@@@@@@@@@@@@@@@@@@@@@@@@@@@@@@@@@@@@@@@@@@@@@@@@@@@@@@@@@@@@@@@@@@@@@@@@@@@@@@@@@@@@@@@@@@@@@@@@@@@@@@@@@@@@@@@@@@@@@@@@@@@@@@@@@@",
"@@@@@@@@@@@@@@@@@@@@@@@@@@@@@@@@@@@@@@@@@@@@@@@@@@@@@@@@@@@@@@@@@@@@@@@@@@@@@@@@@@@@@@@@@@@@@@@@@@@@@@@@@@@@@@@@@@@@@@@@@@@@@@@@@@@@@@@@@@@@@@@@@@@@@@@@@@@@@@@@@@@@@@@@@@@@@@@@@@@@@@@@@@@@@@@@@@@@@@@@@@@@@@@@@@@@@@@@@@@@@@@@@@@@@@@@@@@@@@@@@@@@@@@@@@@@@@@@@@@@@@@@@@@@@@@@@@@@@@@@@@@@@@@@@@@@@@@@@@@@@@@@@@@@@@@@@@@@@@@@",
"@@@@@@@@@@@@@@@@@@@@@@@@@@@@@@@@@@@@@@@@@@@@@@@@@@@@@@@@@@@@@@@@@@@@@@@@@@@@@@@@@@@@@@@@@@@@@@@@@@@@@@@@@@@@@@@@@@@@@@@@@@@@@@@@@@@@@@@@@@@@@@@@@@@@@@@@@@@@@@@@@@@@@@@@@@@@@@@@@@@@@@@@@@@@@@@@@@@@@@@@@@@@@@@@@@@@@@@@@@@@@@@@@@@@@@@@@@@@@@@@@@@@@@@@@@@@@@@@@@@@@@@@@@@@@@@@@@@@@@@@@@@@@@@@@@@@@@@@@@@@@@@@@@@@@@@@@@@@@@@@",
"                          535345778cvnmMNBZAZBNMmnvc8767vnv4                             O     O                                                            j                                                                                                +                                          O                       ",
"                         %535345778cvnmMNBZAZBNMmnvc8767vnv4%                                                                       O                        >                                                                                                                                                              >O  ",
"                         1535345778cvnmMNBZAZBNMmnvc8767vnv41     >                                                                                                                                               >                                                                ZM      ZZ                                   ",
"                         2535345778cvnmMNBZAZBNMmnvc8767vnv42                                                                                                                                                                                                                     ZMBZ    ZMMM                                  ",
"     F                   3535345778cvnmMNBZAZBNMmnvc8767vnv43                                      O                    O                                                                   O                                                                       j            ZMBZ8   ZMMB8           >                      ",
"                         4535345778cvnmMNBZAZBNMmnvc8767vnv44                                                                                                                                                                                                                   ZMBZ8   ZMMB8  >                                ",
"       O    >            5535345778cvnmMNBZAZBNMmnvc8767vnv44              F                                                                                                                           O                                                                       ZMBZ8   ZMMB8>                                   ",
"          O              5535345778cvnmMNBZAZBNMmnvc8767vnv44                F                                                                    O                                                        O                         F            +                           ZMBZ8   ZMMB8                                     ",
"                 >       4535345778cvnnMNBZAZBNMmnvc8767vnv44  j     >                                                                      O                                   F O                                                 j                          1ccccccccccccccccZ8   ZMMB8                                   >  ",
"                         4535345778cvnmMNBZAZBNMmnvc8767vnv44                                                O                j     >                                                                                       +                              1cccc6666666666666666ccccZMMB8    >                    >             ",
"                         4535345778cvnmMNBZAZBNMnnvc8767vnv44          O                           O           O                                                                                                                          >     O        1cc666666666666666666666666ccB8                                        ",
"                         4365345778cvnmMNBZAZBNMMnvc8767vnv44                                                                                                               O                                                                           1c666666444444444444444466666681                                        ",
"                         4365345778cvnmMNBZAZBNMnnvc8767vnv74                           >                                                      >                                O                                                                      1c6664444                4444666c1                      FO              O",
"        O                4365345778cvnmMNBZAZBNMmnvc8767vnv74                                                                                                                            >                                                             c6644   377777777777777773   4466c                                       ",
"                         4365345778cvnmMNBZAZBMMmnvc8767vnv84       O                                                                               >                                                                                                  664  377777nmMNBZAZBNMmn77773  466                                       ",
"                         4365345778cvnmMNBZAZBNMmnvc87678vnv4                                                                        O                                         >                          >                                     O      64 775778cvnmMNBZAZBNMmnvc86777 46                                   O   ",
"               O        O4365345778cvnmMNBZAZBNMmnvc87677vnv4         >                       >             >                               O                    O                                                                                     4 6534578cvnmMNBZAZBNMmnvc867vn7 4                                       ",
"                     F   4365345778cvnmMNBZAZBNMmnvc87677vnv4                                                            O                          >         O       >             O                                                          O        56534578cvnmMNBZAZBNMmnvc867vnv4                                        ",
"                        %4365345778cvnmMNBZAZBNMmnvc87677vnv4%                                            O                        O                         O             >                                                                           %56534578cvnmMNBZAZBNMnnvc867vnv4%                                       ",
"                        14365345778cvnmMNBZAZBNMmnvc87677vnv41                                     >                                                      >                                       +                                            +       156534578cvnmMNBZAZBNMnnvc867vnv41   F                                   ",
"        >          >    24365345778cvnmMNBZAZBNMmnvc87677vnv42                                                                                              >               j   O                            >                                     O   256534578cvnmMNBZAZBNMmnvc867vnv42                  O     >              ",
"                        34365345778cvnmMNBZAZBNMmnvc87677vnv43              O                                                                                                                        O                                                 356534578cvnmMNBZAZBNMmnvc867vnv43            O       >       Oj         ",
"              j         44365345778cvnmMNBZAZBNMmnvc87677vnv44                                   >            O            F           O O                         >     O                                               O                             456534578cvnmMNBZAZBNMmnvc867vnv44                                       ",
"         >              54365345778cvnmMNBZAZBNMmnvc87677vnv44       >        O                                                                                                                      >                                                 556534578cvnmMNBZAZBNMmnvc867vnv44                                       ",
"                        54365345778cvnmMNBZAZBNMmnvc87677vnv44                                                O                 >      >       O                  O                                                                                  j 556534578cvnmMNBZAZBNMmnvc867vnv44                                       ",
"            O           44365345778cvnmMNBZAZBNMmnvc87677vnv44                                                                                                                                                                                         456534578cvnmMNBZAZBNMmnvc867vnv44                                       ",
"                        44365345778cvnmMNBZAZBNMmnvc87677vnv44                                                            O     O                         O                                                   O          >                             456534578cvnmMNBZAZBNMmnvc867vnv84                                       ",
"                        44365345778cvnmMNBZAZBNMmnvc87677vnv44                                                                                                                       >     +                                                           456534578cvnmMNBZAZBNMmnvc8678vnv4                                       ",
"                        44365345778cvnmMNBZAZBNMmnvc87677vnv44                                          OO                                                    >           +                                                                 O          456534578cvnnMNBZAZBNMmnvc8677vnv4        O                              ",
"                        44365345778cvnmMNBZAZBNMmnvc87677vnv44                 >                  >                                                        O                  +                                     >                                  456534578cvnmMNBZAZBNMmnvc8677vnv4                                       ",
"      >                 44365345778cvnmMNBZAZBNMmnvc87677vnv44                          O                               O                                                                                                          O                   456534578cvnmMNBZAZBNMmnvc8677vnv4                                       ",
"                        44365345778cvnnMNBZAZBNMmnvc87677vnv44             j                                                           O   O                             >                                                           O                 456534578cvnmMNBZAZBNMmnvc8677vnv4               > O                     ",
"     O                  43564345778cvnmMNBZAZBNMmnvc87767vnv44                                                        >                                                              +                                                                 456534578cvnmMNBZAZBNMmnvc8767vnv4                                       ",
"                        43653456778cvnMMNBZAZBNMmnvc87767vnv44                                                          O                                                                                                                              455345678cvnmMNBZAZBNMmnvc8767vnv4                                       ",
"                        43653457778cvnnMNBZAZBNMmnvc87767vnv74                                                                                                                                          >                                              565345778cvnmMNBZAZBNMmnvc8767vnv4                                       ",
"                       %43653457778cvnmMNBZAZBNMmnvc87767vnv84%                                                                                        >                      +                                                                       %565345778cvnmMNBZAZBNMmnvc8767vnv4%     >                       >        ",
"       >               143653457778cvnmMNBZAZBNMmnvc877678vnv41             >                                                             O                                                              >              O                             1565345778cvnmMNBZAZBNMnnvc8767vnv41           >                          ",
"           >           243653457778cvnmMNBZAZBNMmnvc877677vnv42                                                                                                                                                         FO                            2565345778cvnmMNBZAZBNMmnvc8767vnv42                                      ",
"                       443653457778cvnmMNBZAZBNMmnvc877677vnv43                                                                         O                                                                                                             3565345778cvnmMNBZAZBNMmnvc8767vnv43                                     j",
"                       443653457778cvnm741%#%2148nvc877677vnv44                                         k   >  O                   O                     +                                                                             O              4565345778cvnmMNBZAZBNMmnvc8767vnv44                                      ",
"                       443653457778cv42@$522$@31$25c877677vnv44                                        jlj             >         >                                                                                    O                              >5565345778cvnmMNBZAZBNMmnvc8767vnv44                           O          ",
"                       44365345777861%#7@8%v1 82#@22777677vnv44                                       klFlk                                                     >                           j     +                                                 > 5565345778cvnmMNBZAZBNMmnvc8767vnv44                                      ",
"                       443653457773$$2#Ac     o%D6X#%57677vnv44                                        jlj                                                    >                                                            >                          4565345778cvnmMNBZAZBNMmnvc8767vnv44               F                      ",
"                      %4436534577312$v7o#%5765$X6v112%6677vnv44                      >                  k                                                                                                                                             4565345778cvnmMNBZAZBNMmnvc8767vnv44                  O                   ",
"         >            144365345752X5M@@4BJKKKKHN$ 6m@#%677vnv44      >       ZZ      MZ                                                                   +                                                                                           4565345778cvnn751%#$2248nvc8767vnv44       O                              ",
"                      2443653457$% .$ MKHSDDDDDKKco%  2%77vnv44             MMMZ    ZBMZ                                                                                                                                    O                         4565345778cv42@$522$@3%$24c8767vnv44                                      ",
"                      34436534532.   SKSSHKKDDKHKKB   o157vnv44             8BMMZ   8ZBMZ                                                                                     >   +                     +                                             456534577861%#7@8%v1 82$@227767vnv44                                      ",
"                      444365345%$   MKSSKBv7AAv8nvZ6   117vnv44              8BMMZ   8ZBMZ        >                    O                                                                                                     >              >         4565345773$$2$Ac.    X1D6X@%567vnv44                                      ",
"                      4443653421.  2KDAKB. #Kc 53  S$  @%7vnv44               8BMMZ   8ZBMZ                                        O           +                                                                                     O                45653457312$v6X#%5675$.6v122%47vnv84                                      ",
"   j                  444365341$   NKSKZ  2KK5%K6  Dn   %3vnv44                8BMMZ   8ZBMZ                                                                F                                   +                 >                      j            456534551X6m@@4BHKKKKHN$ 6M@#%78vnv4                                      ",
"                      44436534%#  XHDKZ  3KHDBKK# .HD   %2vnv44                 8BMMZ   8Zccccccccccccc1                                                                                         +                                                    4565345%% .$.MKHDDDDDDKKco%  217vnv4                         >         >  ",
"                      44436534$c. 8HKZ. 3KKDAKK% .SKD3 @8%vnv44                  8BMMZcccc6666666666666cccc1                                               28MMMMMMMMMMMMMMMMMMMMMMMM7777MM82                     O               O  >                45653412.   DKDAHKKDDKHKKB   o15vnv4                                      ",
"            >         44436434@nv7MHB. 4KJDGGH1 oAKGZn7bc$vnv44     >             8Bcc666666666666666666666cc1                                     28MMMMMMMMmnnnnnnnnnnmMmnnmMNBABNMnnnnnnMMMMMMMM77              O                                 %456534%$   NKSAKBv7AAv8nvZ6   11vnv4%                                     ",
"                      44356344@vBnvK@  $$@@@MM  cKnNDcNM6%vnv44                   186666664444444444444666666c1                                28MMMMvcvnnnnnmnnnnnnnnnnmMnnnmMNBABNMnnnnnnnnnnnnnnnn7782              O                         O   14565321.  2KSDKB. #Kc 53  S%  @%cnv41      >                              ",
"                      44356344@cmnvHo       bM  nM MD8mm5%vnv44                  1c6664444             4444666c1                >            4MMmmnmnvcvnnnnnmnnnnnnnnnnmMmnnmMNBABNMmnnnnnnnnnnnnnnnnnnMM4                                          245653%$   MKSKZ. 2KK5%K6  Dn   %6nv42                                     ",
"                      44356344#863cZMcccn5  nBoo7@XDB72v32vnv44                  c6644   377777777777773   4466c                           3vnvnmmnmnvcvnnnnnmnnnnnnnnnnmMmnnmMNBABNMmnnnnnnnnnnnnnnnnnnnvnv3                               >        345653%#  XHDKB. 2KHDBJK$ .HD   %3nv43             >                       ",
"                      4435634413vnbbKKKKKN  6KDDZADGvnbb$6vnv44                  664  377778nmMNBBNMmn77773  466                          7cvnvnmmnmnvcvnnnnnmnnnnbnnnnnmMmnnmMNBABNMnnnnnnnnnnnnnnnnnnnnvnvc7              O             O  >       445653#c. 8HKZ. 3KJDSKK% .AKD3 @c1nv44                             O       ",
"          >        j  443563445@nm77AHSSKn  7KGDDGKN67Mc@7vnv44                  64 775778cvnnMNBBNMmnvc86777 46                 O       47cvnvnmmnmnvcvnnnnnnnnnnnnnnnnmMmnnmMNBABNMmnnnnnnnnnnnnnnnnnnnvnvc74                    O  O              545653@nv6MJB. 4KKDGGG1 oAKDZm7bc1nv44                        >            ",
"                      443563445$782v8HHSDABNADDDDHA8c2b237vnv44%     F           4 6534578cvnmMNBBNMmnvc867vn7 4              j          47cvnvnmmnnnvcvnnnnvccccccccccccccccccccccccccccccvnnnnnnnnnnnnnvnvc74                            O         545654@cBnvK@  $$@@@MM  vKbMDcNM6%nv44                                     ",
"                      4435634456@bNMv8DHDDHJGDSDJA8bMM8o77vnv441          >       56534578cvnmMNBBNMmnvc867vnv4       O       O          47cvnvnmmvccccccccc73%%%%%%%%%%%%%%%%%%%%%%%%%%%%37cccccccccvnnnvnvc74                                      445653@cmncJ@       bm  nM MG8nm51nv44       ,                             ",
"                      443563445712nm%4vBHHHGGHHDN746Mb#477vnv442                 %56534578cvnmMNBBNMmnvc867vnv4%                         47cvccccc73%%%%%%%%%%$$$$$$$$$$$$$$$$$$$$$$$$$$$$%%%%%%%%%%37cccccvc74  O                                   445653@872vZMcvvn5  nBo@7@XDZ72v44nv44      >a>                            ",
"                     %44356344577#684536nBZZZBNv8523821677vnv743                 156534578cvnmMNBBNMmnvc867vnv41                         47c72%%%%%%$$$57vmNBBBBBBBBBBBBBBBBBBBBBBBBBBBBBBBBNmv75$$$%%%%%%27c74          O     O                     445653%3vnvvKKKKKM  7KDDZADDvnbb$8nv44     ,asa,                           ",
"                     1443563445777@5M432%338c515$1c52%7677vnv844                 256534578cvnmMNBBNMmnvc867vnv42                         42 57vmBBBBBBBBBNmMNMmmmmmmmmmmMNMmMNBZDDHJHGDZB  mmmmNBBB  BBNmv75 24    j                               > 4456534@nn77ZHDDKn  7KGGGDKN68M8@vnv44      >a>                            ",
"                     24435634457778%26c224437M2717c12777677vnv44                 356534578cvnmMMBBNMmnvc867vnv43                          278cvcmMmvc8cvnmmMNMmmmmmmmmmmMNMmMNBZDGHJHGDZBN mmmmtrrrrt 444v 872                    O                  4456534#782b8GHSDABNADDSSHS8c2n23vnv44       ,    O                        ",
"                     34435634457778c5%47ncn67Mcbc2$68777677vnv44                 456534578cvnmMNBBNMmnvc867vnv44                         2744v mM4vc8cvnmmmMNMMnmmmmmmmmMNMmmMNBZDGHJHDDZB 44mm4444rrt  44 487                                       44565345@bNMv8DHDDHHGSDDHA8bMM8@7vnv44                                     ",
"j                    44435634457778cvn6$%356643$$7vc8777677vnv44                 556534578cvnmMNBBNMmnvc867vnv44                        274444vm4 4c8cvnmmMNMmnmmmmmmmmmMNMmmMNBZDGHJHG ZBN##44####444   mn 4 72                                     4456534512nm%4vZDJHHGHJDN737mv$47vnv44                                     ",
" >                   44435634457778cvnn7778cc8778nvc8777677vnv44                 556534578cvnmMNBBNMmnvc867vnv44           F           2444   44   4  nmmmMNMmmmmmmmmmmmmMNMmMNBZDDHJH  ZB###4####%##4   44  c 72                                    445653457#684536nNZZZBMb852382167vnv44                 >         j         ",
"                     44435634457778cvnmM778cc877mnvc8777677vnv44                 456534578cvnmMNBBMMmnvc867vnv44                      27444    4    c  mmMNMmmmmmmmmmmnmmMNMmMNBZDDHJHG ZB44#######%          c872          O                        4565345677#4M522%438c515$2c62%767vnv44           O                         ",
"                     44435634457778cvnmM778cc878mnvc8777677vnv44                 456534578cvnmMNBBNMmnvc867vnv84                     24444         44nmmmMNMmmmmmmmmmmMnmMNMmmMNBZDDHHH  Z4########%         n c872                                  45653457778%268324437m2717c117767vnv44                                     ",
"               >     44435634457778cvnnMM78cc87Mmnvc8777677vnv44             >   456534578cvnmMNBBNMmnvc8678vnv4                    244  4           4m mMNMmmmmmmmmmmmmmMNMmmMNBZDGHJHG Z4#########%%      44 vc  2   F                            %45653457778c4147ncn67Mvv82$687767vnv84%               >    O               ",
"                     44435634457778cvnmMN78cc88Mmnvc8777677vnv44                 456534578cvnmMNBBNMmnvc8677vnv4               O   244                 mMNMmmmmmmmmmmmmmmMNMmmMNBZDGHJHGD4############$      4 4   72                 O             145653457778cvn6$%256643$$7vc877678vnv41                                    ",
"      O              44435634457778cvnmMNB8cc8NMmnvc8777677vnv44             >   456534578cvnmMNBBMMmnvc8677vnv4                  244      7nAA2     4mmMNMmmmmmmmmmmmmmnMMMmmMNBZDDHJHGD##############         nvc 72                            > 245653457778cvnm7778cc8778nvc877677vnv42 O                           O      ",
"                     44436344567778cvnmMNB8cc8NMmnvc8777677vnv44                 456534578cvnmMNZBNMmnvc8677vnv4                 274     7MAA%%A2c4  44mMNMmmmnmmmmmmmmmMMNMmmmMNBZDDHJ######M4######$          44vc872   >                         345653457778cvnnM778cc877mnvc877677vnv43                                    ",
"                     44356344577778cvnmMNBZccBNMmnvc8777677vnv44                 456534578cvnmMNBBNMmnvc8677vnv4               O27844  7MAMMA  %A4     4NMmmmmMnmmmmmmmmmmMNMmmMNBZDGH##G@ZBNMm#m4###%            4vc872                            445653457778cvnmM778cc878mnvc877677vnv44                                    ",
"           >         44356344577778cvnmMNBZAZBNMmnvc8777677vnv44                 456534578cvnmMNBBNMmnvc8767vnv4               27 c447MAMMANAm %Av4    MNMmmmmmmmmmmmmmmmmMNMmmMNBZ GH#HGD BNM mm44##$             nv 872                           545653457778cvnmMN78cc87Mmnvc877677vnv44                                    ",
"                     44356344577778cvnnMNBZAZBNMmnvc8777677vnv44                 455345678cvnmMNBBNMmnvc8767vnv4          O   27  v7MAMMAAANnAAAnvn4  MNMmmmmmmmmmmmnMmmmmMNMmmmMNBZDGHHHGDZBNMm####%%           4m    872             F       O    545653457778cvnmMN78cc88Mmnvc877677vnv44                                    ",
"                     4435634457777ccvnmMNBZAZBNMmnvc8777677vnv44                 565345778cvnmMNBBNMmnvc8767vnv4             278c7MAMMAAAN88M88 vnmm mMNMmmmmmmmmmmmmnmmmmMNMmmmMMBZDGHJHDDZB44mm4#%$            mnmm  c872                         445653457778cvnmMNB8cc8NMmnvc877677vnv44                                    ",
"       F             44356344577778cvnmMNBZAZBNMnnvc8777677vnv44                %565345778cvnmMNBBNMmnvc8767Vuv4%           2787MAMMAAAN88M88c  vnmmm MNMmmmmmmmmmmmmmmmmmMNMmmmMNBZDGHJHG4444##m4#$           4mmmnmmnvc872                 >      445653457778cvnmMNB8cc8NMmnvc877677vnv44                   O    >           ",
"           >        %44356344577778cvnmMNBZAZBNMMnvc8777677vnv44                1565345778cvnmMNBBNMmnvc876uuuu41          277MAMMAAAM88M88 c8c nmmmmM MmmmmmmmmmmmmmmmmmmMNMnmmMNBZDGHJHGD#####44###     %#    4mm    nvc872                       445653457778cvnmMNBZccBNMmnvc877677vnv44                         O          ",
"                    144356344577778cvnmMNBZ555NMmnvc8777677vnv44  j   >         2565345778cvnmMNBBN1cZZZZZZZZZZZZZZZc1    27MAMMAAAN88M88vvvc8c nmmnMMNMmmmmmMnmmmmmmmmmmmMNMmmmmMNBZDDHJH4#ZB###4#%     #%#     44 4mm nvc872      O               445653457778cvnmMNBZAZBN555vc877677vnv44         >                          ",
"           O        244356344577778cvnmMNB5&&&5Mmnvc8777677vnv44                3565345778cvnm1cZZZZZNNNNNNNNNNNNNNMZZZZncMAMMAAAN88M88mvvvc8cvn mmmnMNMmmmmmnmmmmmmmmmmmmMNMmmmmMNBZDGHJH DZBN4##%#     %#         4nmmmnvc872                     445653457778cvnmMNBZAZB59995c877677vnv44                                    ",
"                    344356344577778cvnmMNB5&&&5Mmnvc8777677vnv44                45653457781cZZZZNNNNNMMMMMMMMMMMMMMMNNnnMAMMAAAN88M8mMmvvvvc8cvn mmmMNMmmmmmmmmmmmmmmmmmmmmMNMmmmMNBZDDH HDDZB44##%#     %#          44mmmnvc872                    445653457778cvnmMNBZAZB59995c877677vnv44                                    ",
"                    444356344577778cvnmMNB55555Mnnvc8777677vnv44         >      55653451cZZZNNNMMMMMMnnnnnnnnnnnnnnnnnMAMMAAAN88M8vmMmvvvvc8cvn mmmmMNMmmmmmmmmmmmmmmmmmmmmMNMmmmMNBZDGHJHGDZB4##$#     %%##           nmmmnvc872                   445653457778cvnmMNBZAZB55555c877677vnv44                                    ",
"                    444356344577778cvnmMNB5&&&5Mmnvc8777677vnv44         O      556531cZZNNNMMMMnnnnnnnnnnnnnnnnnnnnMAMMAAAN88M8cvvmMmvvvvc8cv mmmmMNMmmmmmmmmmmmmmmmmmmmmmMMMmmmmMNBZDGHHHG#######    %#####        mm nmmmnvc872                  445653457778cvnMMMBZAZB59995c877677vnv44                                    ",
"                    444356344577778cvnmMNB5&&&5Mmnvc8777677vnv44                4561cZZNNMMMnnnnnnnnnnnnnnnnnnnnnnMAMMAAAN88M8vcvvmMmvvvvc8cvnmmmmmMNMmmmmmmmmmmmmmmmmmmmmmMNMmmmmMNBZDGHJHGDZB#M# mm ####m mtrr rtm  mmmnmmmnvc872                 445653457778cvnnMNBZAZB59995c877777vnv44                                    ",
"                    444356344577778KKKKKKKKKKKKKKKKKKKKKKKKKKKKKKKKKKKKKKKKKKKKKKKKKKKKKKKKKKKKKKKKKKKKKKKKKKKKKKKKKKKKKKKKKKKKKKKKKKKKKKKKKKKKKKKKKKKKKKKKKKKKKKKKKKKKKKKKKKKKKKKKKKKKKKKKKKKKKKKKKKKKKKKKKKKKKKKKKKKKKKKKKKKKKKKKKKKKKKKKKKKKKKKKKKKKKKKKKKKKKKKKKKKKKu=================w4                                    ",
"                    444356344577778KKKKKKKKKKKKKKKKKKKKKKKKKKKKKKKKKKKKKKKKKKKKKKKKKKKKKKKKKKKKKKKKKKKKKKKKKKKKKKKKKKKKKKKKKKKKKKKKKKKKKKKKKKKKKKKKKKKKKKKKKKKKKKKKKKKKKKKKKKKKKKKKKKKKKKKKKKKKKKKKKKKKKKKKKKKKKKKKKKKKKKKKKKKKKKKKKKKKKKKKKKKKKKKKKKKKKKKKKKKKKKKKKKKKew66431%$$$$$$$$$$$=eu                                   ",
"                    444356344577778HAAAAAAAAAAAAAAAAAAAAAAAAAAAAAAAAAAAAAAAAAAAAAAAAAAAAAAAAAAAAAAAAAAAAAAAAAAAAAAAAAAAAAAAAAAAAAAAAAAAAAAAAAAAAAAAAAAAAAAAAAAAAAAAAAAAAAAAAAAAAAAAAAAAAAAAAAAAAAAAAAAAAAAAAAAAAAAAAAAAAAAAAAAAAAAAAAAAAAAAAAAAAAAAAAAAAAAAAAAAAAAAAAAuw65432%$$$$$$$$$$$$$we                                   ",
"                    444356344577778HAAAAAAAAAAAAAAAAAAAAAAAAAAAAAAAAAAAAAAAAAAAAAAAAAAAAAAAAAAAAAAAAAAAAAAAAAAAAAAAAAAAAAAAAAAAAAAAAAAAAAAAAAAAAAAAAAAAAAAAAAAAAAAAAAAAAAAAAAAAAAAAAAAAAAAAAAAAAAAAAAAAAAAAAAAAAAAAAAAAAAAAAAAAAAAAAAAAAAAAAAAAAAAAAAAAAAAAwwwwwwwwwwue35431%$$$$$$$$$$$$$$=wuwwwwwwwwww0                       ",
"                    444356344577778vvvvvvvvvvvvvvvvvvvvvvvvvvvvvvvvvvvvvvvvvvvvvvvvvvvvvvvvvvvvvvvvvvvvvvvvvvvvvvvvvvvvvvvvvvvvvvvvvvvvvvvvvvvvvvvvvvvvvvvvvvvvvvvvvvvvvvvvvvvvvvvvvvvvvvvvvvvvvvvvvvvvvvvvvvvvvvvvvvvvvvvvvvvvvvvvvvvvvvvvvvvvvvvvvvvvvvvvvv0000000uw332%$$$$$$$$$$$$$$$$$$$we0000000                          ",
"                    444356344577778cvnZM44444444444mNm44444444444mNm44444444444mNm44444444444mNm44444444444nNm44444444444mNm44444444444mNm44444444444mNm44444444444mNm44444444444mNm44444444444mNm44444444444mNm44444444444mNm44444444444mNm44444444444mNm444440000ue1$1%$$$$$$$$$$$$$$$$$$$$=wu00000                           ",
"                    444356344577778cvnHZ41111111114mZm41111111114mZm41111111114mZm41111111114mZm41111111114mZm41111111114mZm41111111114mZm41111111114mZm41111111114mZm41111111114nZm41111111114mZm41111111114mZm41111111114mZm41111111114mZm41111111114mZm4111110wwew$1$$$$$$$$$$$$$$$$$$$$$$%=eu00    >                        ",
"                    444356344577778cvnHZ44444444444mZm44444444444mZm44444444444mZm44444444444mZm44444444444mZm44444444444mZn44444444444mZm44444444444mZm44444444444mZm44444444444mZm44444444444mZm44444444444mZm44444444444mZm44444444444mZm44444444444mZm4444444ue1$$$$$$$$$$$$$$$$$$$$$$$$$$$=wu                      F       ",
"             j      444356344577778cvnHZKKKKKKKKKKKZZKKKKKKKKKKKKZZKKKKKKKKKKKKZZKKKKKKKKKKKKZZKKKKKKKKKKKKZZKKKKKKKKKKKKZZKKKKKKKKKKKKZZKKKKKKKKKKKKZZKKKKKKKKKKKKZZKKKKKKKKKKKKZZKKKKKKKKKKKKZZKKKKKKKKKKKKZZKKKKKKKKKKKKZZKKKKKKKKKKKKZZKKKKKKKKKKKKZZKKKKKKKwwwwwwwwwwwwwwwwwwwwwwwwwwwwwwwwwww                        >    ",
"                    443456344577778cvnHZZZZZZZZZZZZZZZZZZZZZZZZZZZZZZZZZZZZZZZZZZZZZZZZZZZZZZZZZZZZZZZZZZZZZZZZZZZZZZZZZZZZZZZZZZZZZZZZZZZZZZZZZZZZZZZZZZZZZZZZZZZZZZZZZZZZZZZZZZZZZZZZZZZZZZZZZZZZZZZZZZZZZZZZZZZZZZZZZZZZZZZZZZZZZZZZZZZZZZZZZZZZZZZZZZZZZZZZepppppppppppppppppppppppppppppppppppee                           ",
"                   %443456344577778cvnHZZZZZZZZZZZZZZZZZZZZZZZZZZZZZZZZZZZZZZZZZZZZZZZZZZZZZZZZZZZZZZZZZZZZZZZZZZZZZZZZZZZZZZZZZZZZZZZZZZZZZZZZZZZZZZZZZZZZZZZZZZZZZZZZZZZZZZZZZZZZZZZZZZZZZZZZZZZZZZZZZZZZZZZZZZZZZZZZZZZZZZZZZZZZZZZZZZZZZZZZZZZZZZZZZZZZZZeeiiiiiiiiiiiiiiiiiiiiiiiiiiiiiiiiiiiiiwe                          ",
"                   1443456344577778cvnHZZZZZZZZZZZZZZZZZZZZZZZZZZZZZZZZZZZZZZZZZZZZZZZZZZZZZZZZZZZZZZZZZZZZZZZZZZZZZZZZZZZZZZZZZZZZZZZZZZZZZZZZZZZZZZZZZZZZZZZZZZZZZZZZZZZZZZZZZZZZZZZZZZZZZZZZZZZZZZZZZZZZZZZZZZZZZZZZZZZZZZZZZZZZZZZZZZZZZZZZZZZZZZZZZZZZwewwuuuuuuuuuuuuuuuuuuuuuuuuuuuuuuuuuuuuuywe                         ",
"                   2443456344577778cvnHZZZZZZZZZZZZZZZZZZZZZZZZZZZZZZZZZZZZZZZZZZZZZZZZZZZZZZZZZZZZZZZZZZZZZZZZZZZZZZZZZZZZZZZZZZZZZZZZZZZZZZZZZZZZZZZZZZZZZZZZZZZZZZZZZZZZZZZZZZZZZZZZZZZZZZZZZZZZZZZZZZZZZZZZZZZZZZZZZZZZZZZZZZZZZZZZZZZZZZZZZZZZZZZZZZee0@uuuuuuuuuuuuuuuuuuuuuuuuuuuuuuuuuuuuuuuuuw0we                      ",
"%%%%%%%%%%%%%%%%%%%3443563445777778cvnHHHHHHHHHHHHHHHHHHHHHHHHGHHHHHHHHHHGHHHHHHHHHHHGHHKKKKKKKKKKKKKKKKKKKKKKKKKKKKKKKKZNHHHHHHHHHHHHHHHHHHHHHHHHHHHHHHHHHHHHHHHHHHHHHHHHHHHHHHHHHHHHHHHHHHHHHHHNZKKKKKKKKKKKKKKKKKKKKKKKKKKKKKKKKHHHHHHHHHHHHHHHHHHHHHew0owyy@@@@@yyyyyyyyyyyyyyyyyyyyyyyyyyy@@@@yyyyoowe%%%%%%%%%%%%%%%%%%%%%",
"%%%%%%%%%%%%%%%%%%%4443563445777778cvHGGGDGGGGGGGGGGGGGGGGGGGGGGGGGGGGGGGGGGGGGGGGGGGGGGKKKKKKKKKKKKKKKKKKKKKKKKKKKKKKKKMNGGGGGGGGGGGGGGGGGGGGGGGGGGGGGGDGGGGGGGGGGGGGGGGGGGGGGGGGGGGGGGGGGGGDGGGNMKKKKKKKKKKKKKKKKKKKKKKKKKKKKKKKKGGGGGGGGGGGGGGGGGGGwewoowyyyyyyyyyyyyyyyyyyyyyyyyyyyyyyyyyyyyyyyyyyywoo0ee%%%%%%%%%%%%%%%%%%%",
"%%%%%%%%%%%%%%%%%%%4443563445777778cHGGGGGGGGGGGGGGGGGGGGGGGGGGGGGGGGGGGGGGGGGGGGGGGGGGKKKKKKKKKKKKKKKKKKKKKKKKKKKKKKKKKmNGGGGGGGGGGGGGGGGGGGDGGGGGGGGGGGGGGGGGGGGGGGGGGGGGGGGGGGGGGGGGGGGGGGGGGGNmKKKKKKKKKKKKKKKKKKKKKKKKKKKKKKKKKGGGGGGGGGGGGGGGGGw0oooowqqqqqqqqqqqqqqqqqqqqqqqqqqqqqqqqqqqqqqqqqqqwooooowe%%%%%%%%%%1%%%%%%",
"%%%%%%%1%%%%%%%1%%%4443563445777778HGGDGGGGGGGGGGGGGGGGGGGGGGGGGGGGGGGGGGGGGGGGGGGGGGGGKKKKKKKKKKKKKKKKKKKKKKKKKKKKKKKKKmNGGGGGGGGGGGGGGGGGGGGGGGGGGGGGGGGGGGGGGGGGGGGGGGGGGGGGGGGGGGGGGGGGGGGGGGNmKKKKKKKKKKKKKKKKKKKKKKKKKKKKKKKKKGGGGGGGGGGGGGGGGew0=====w000000000000000000000000000000000000000000======we%%%%1%%1%%%%1%%1%",
"%%%%11%%111%%%%%1%%444356344577777HGGGGGGGGGGGGGGGGGGGGGGGGGGGGGGGGGGGGGGGGGGGGGGGGGGGKKKKKKKKKKKKKKKKKKKKKKKKKKKKKKKKKAmNGGGGGGGGGGGGGGGGGGGGGGGGGGGGGGGGGGGGGGGGGGGGGGGGGGGGGGGGGGGGGGGGGGGGGGGNmAKKKKKKKKKKKKKKKKKKKKKKKKKKKKKKKKKGGGDGGGGGGGGGGGe0ooooooo=========================================woooooo0w%%1111%%%1%%%%11%",
"1%%%%1%1%11111%1%1%44435634457777HGGGGGGGGGGGGGGGGGGGGGGGGGGGGGGGGGGGGGGGGGGGGGGGGGGGGKKKKKKKKKKKKKKKKKKKKKKKKKKKKKKKKKMmNGGGGGGGGGGGGGGGGGGGGGGGGGGGGGGGGGGGGGGGGGGGGGGGGGGGGGGGGGGGGGGGGGGGGGGGNmMKKKKKKKKmnmmmmmnmnmnmmmmnmKKKKKKKGGGGGGGGGGGGGGGe0oooooooow**************************************oooooooo0w1%1111%1111%%1111",
"12%11111211111211124443563445777HGGGGGGGGGGGGGGGGGGGGGGGGGGGGGGGGGGGGGGGGGGGGGGGGGGGGKKKKKKKKKKKKKKKKKKKKKKKKKKKKKKKKKKMmNGGGGGGGGGGGGGGGGGGGGGGGGGGGGGGGGGGGGGGGGGGGGGGGGGGGGGGGGGGGGGGGGGGGGGGGNmMKKKKKKKK . . . .. ...  11vKKKKKKKKGGGGGGGGGGGGGGe0=========wwwwwwwwwwwwwwwwwwwwwwwwwwwwwwwwwwwwww========0w11122121%%1212211",
"1111122212111121112444356344577HGGGGGGGGGGGGGGGGGGGGGGGGGGGGGGGGGGGGGGGGGGGGGGGGGGGGGKKKKKKKKKKKKKKKKKKKKKKKKKKKKKKKKKKmNGGGGGGGGGGGGGGGGGGGGGGGGGGGGGGGGGGGGGGGGGGGGGGGGGGGGGDGGGGGGGGGGGGGGGGGGGNmKKKKKKKKK  .  .  ..  ..11vvKKKKKKKGGGGGGGGGGGGGGe00oooooooooooooooooooooooooooooooooooooooooooooooooooooo0w12121212211112112",
"122112222221222222144435634457HGGGGGGGGGGGGGGGGGGGGGGGGGGGGGGGGGGGGGGGGGGGGGGGGGGGGGKKKKKKKKKKKKKKKKKKKKKKKKKKKKKKKKKKAmNGGGGGGGGGGGGGGGGGGGGGGGGGGGGGGGGGGGGGGGGGGGGGGGGGGGGGGGGGGGGGGGGGGGGGGGGGNmAKKKKKKKK999. 999  999 111vKKKKKKKKGGGGGGGGGGGGGwwwwwwwwwwwwwwwwwwwwwwwwwwwwwwwwwwwwwwwwwwwwwwwwwwwwwwwwwwe12221222111222211",
"21131222122222222324443563445HGGGGGGGGGGGGGGGGGGGGGGGGGGGGGGGGGGGGGGGGGGGGGGGGGGGGGGKKKKKKKKKKKKKKKKKKKKKKKKKKKKKKKKKKMmNGGGGGGGGGGGGGGGGGGGGGGGGGGGGGGGGGGGGGGGGGGGGGGGGGGGGGGGGGGGGGGGGGGGGGGGGGNmMKKKKKKKK.  . .  .  .  111vvKKKKKKKGGGGGGGGGGGGGGeeeeeeeeeeeeeeeeeeeeeeeeeeeeeeeeeeeeeeeeeeeeeeeeeeeeeeeee122222122212322332",
"2223233222322422222444356344HGGGGGGGGGGGGGGGGGGGGGGGGGGGGGGGGGGGGGGGGGDGGGGGGGGGGGGKKKKKKKKKKKKKKKKKKKKKKKKKKKKKKKKKKKMmMGGGGGGGGGGGGGGGGGGGGGGGGGGGGGGGGGGGGGGGGGGGGGGGGGGGGGGGGGGGGGGGGGGGGGGGGGNmMKKKKKKKKK. .   .  . ..1111vKKKKKKKKGGGGGGGGGGGGGGGGGGGGGGGGGqeoooooooooooooooooooooooooooooe2222233222223222332332332222332",
"222232332323223232244435634HGGGGGGGGGGGGGGGGGGGGGDGGGGGGGGGGGGGGGGGGGGGGGGGGGGGGGGGKKKKKKKKKKKKKKKKKKKKKKKKKKKKKKKKKKKMmNGGGGGGGGGGGGGGGGGGGGGGGGGGGGGGGGGGGGGGGGGGGGGGGGGGGGGGGGGGGGGGGGGGGGGGGGGNmMKKKKKKKKK    ..   .  .1111vKKKKKKKKGGGGGGGGGGGGGGGGGGGGGGGGGGqeeeeeeeeeeeeeeeeeeeeeeeeeeeeeq3333322323322223233232233332232",
"22333323243333223344443563HGGGGGGGGGGGGGGGGGGGGGGGGGGGGGGGGGGGGGGGGGGGGGGGGGGGGGGGKKKKKKKKKKKKKKKKKKKKKKKKKKKKKKKKKKKAMmNGGGGGGGGGGGGGGGGGGGGGGGGGGGGGGGGGGGGGGGGGGGGGGGGGGGGGGGGGGGGGGGGGGGGGGGGGNnMAKKKKKKKK ..   ..  .  1111vvKKKKKKKKGGGGGGGGGGGGGGGGGGGGGGGGGGGGGGGGGGGGGGGGGGGGGGGGGGGGGGGH3334333433333333323332233322333",
"3343343332343434423444356HGGGGGGGGGGGGGGGGGGGGGGGGGGGGGGGGGGGGGGGGGGGGGGGGGGGGGGGGKKKKKKKKKKKKKKKKKKKKKKKKKKKKKKKKKKKMMmNGGGGGGGGGGGGGGGGDGGGGGGGGGGGGDGGGGGGGGGGGGGGDGGGGGGGGGGGGGGGGGGGDGGGGGGGGNmMMKKKKKKKK     .  .  . 11111vKKKKKKKKGGGDGGGGGDGGGGGGGGGGGGGDGGGGGGGGGGGGGGGGGGGGGGGGGGGGGGGGH444233233434333424344234334333",
"434334344344343333444435HHHHHHHHHHHHHHHHHHHHHGHHHHHHHHHHHHHHHHHHHHHHHHHHHHHHHHHHGKKKKKKKKKKKKKKKKKKKKKKKKKKKKKKKKKKKKMMnNHHHHHHHHHHHHHHHHHHHHHHHHHHHHHHHHHHHHHHHHHHHHHHHHHHHHHHHHHHHHHHHHHHHHHHHHHNmMMKKKKKKKKK...  . . .  11111vvKKKKKKKKHHHHHHHHHHHHHHHHHHHHHHHHHHHHHHHHHHHHHHHHHHHHHHHHHHHHHHHHH44344434434343433333443343334",
"444443433434434433444435HZZZZZZZZZZZZZZZZZZZZZZZZZZZZZZZZZZZZZZZZZZZZZZZZZZZZZZZZKKKKKKKKKKKKKKKKKKKKKKKKKKKKKKKKKKKKMMMmNZZZZZZZZZZZZZZZZZZZZZZZG<<<<<<<<<<<<<<<<<<<<<<<GZZZZZZZZZZZZZZZZZZZZZZZNmMMMKKKKKKKKK  ..  .  .  111111vKKKKKKKKZZZZZZZZZZZZZZZZZZZZZZZZZZZZZZZZZZZZZZZZZZZZZZZZZZZZZZZZH54344344444344544434443344335",
"453434544344534444444435HZZZZZZZZZZZZZZZZZZZZZZZZZZZZZZZZZZZZZZZZZZZZZZZZZZZZZZZKKKKKKKKKKKKKKKKKKKKKKKKKKKKKKKKKKKKAMMMmNZZZZZZZZZZZZZZZZZZZM84ZG<<<<<<<<<<<<<<<<<<<<<<<GZM84ZZZZZZZZZZZZZZZZZZZNmMMMAKKKKKKKK     .  .  .111111vvKKKKKKKKZZZZZZZZZZZZZZZZZZZZZZZZZZZZZZZZZZZZZZZZZZZZZZZZZZZZZZZH54434444444445435554544444554",
"455454455544454555544345HZZZZZZZZZZZZZZZZZZZZZZZZZZZZZZZZZZZZZZZZZZZZZZZZZZZZZZZKKKKKKKKKKKKKKKKKKKKKKKKKKKKKKKKKKKKMMMMmNZZZZZZZZZZZZZZZZZZZM84ZG<<ddddddddddddddddddd<<GZM84ZZZZZZZZZZZZZZZZZZZNmMMMMKKKKKKKKK..    ..  .1111111vKKKKKKKKZZZZZZZZZZZZZZZZZZZZZZZZZZZZZZZZZZZZZZZZZZZZZZZZZZZZZZZH55554445554545455545554554554",
"554455555545455555444345HZZZZZZZZZZZZZZZZZZZZZZZZZZZZZZZZZZZZZZZZZZZZZZZZZZZZZZKKKKKKKKKKKKKKKKKKKKKKKKKKKKKKKKKKKKKMMMMmNZZZZZZZZZZZZZZZZZZZM84ZG<<dgggggggfdfgggggggd<<GZM84ZZZZZZZZZZZZZZZZZZZNmMMMMKKKKKKKKK   ..   .  1111111vKKKKKKKKKZZZZZZZZZZZZZZZZZZZZZZZZZZZZZZZZZZZZZZZZZZZZZZZZZZZZZZH55554555554554455555545555455",
"545666565565556555444345HZZZZZZZZZZZZZZZZZZZZZZZZZZZZZZZZZZZZZZZZZZZZZZZZZZZZZZKKKKKKKKKKKKKKKKKKKKKKKKKKKKKKKKKKKKKMMMMmNZZZZZZZZZZZZZZZZZZZKKKZG<<dggCCCCgfdfgCCCCggd<<GZKKKZZZZZZZZZZZZZZZZZZZNmMMMMKKKKKKKKKKKKKKKKKKKKKKKKKKKKKKKKKKKKKZZZZZZZZZZZZZZZZZZZZZZZZZZZZZZZZZZZZZZZZZZZZZZZZZZZZZZH55445455554555555655556545565",
"565555555666665556444345HZZZZZZZZZZZZZZZZZZZZZZZZZZZZZZZZZZZZZZZZZZZZZZZZZZZZZKKKKKKKKKKKKKKKKKKKKKKKKKKKKKKKKKKKKKAMMMMmNZZZZZZZZZZZZZZZZZZHJJJJG<<dggxxxxgfdfgxxxxggd<<GJJJJHZZZZZZZZZZZZZZZZZZNmMMMMAKKKKKKKKKKKKKKKKKKKKKKKKKKKKKKKKKKKKKZZZZZZZZZZZZZZZZZZZZZZZZZZZZZZZZZZZZZZZZZZZZZZZZZZZZZH55566665556555555656565565555",
"556666566666555566444345HZZZZZZZZZZZZZZZZZZZZZZZZZZZZZZZZZZZZZZZZZZZZZZZZZZZZZKKKKKKKKKKKKKKKKKKKKKKKKKKKKKKKKKKKKKMMMMMmNZZZZZZZZZZZZZZZZZJHHJHHG<<dggzzzzgfdfgzzzzggd<<GHHJHHJZZZZZZZZZZZZZZZZZNmMMMMMKKKKKKKKKKKKKKKKKKKKKKKKKKKKKKKKKKKKKZZZZZZZZZZZZZZZZZZZZZZZZZZZZZZZZZZZZZZZZZZZZZZZZZZZZZH65666556666666656655656566565",
"765667666666676666444345r::::::::::::::::::::::::::::::::::::::::::::::::::::KKKKKKKKKKKKKKKKKKKKKKKKKKKKKKKKKKKKKKMMMM;-;::::::::::::::::rrrrrrrGddfgghhhhgfdfghhhhggfddGrrrrrrr::::::::::::::::;-MMMMMKKKKKKKKKKKKKKKKKKKKKKKKKKKKKKKKKKKKKK::::::::::::::::::::::::::::::::::::::::::::::::::::t67666676666566676676566767656",
"666777666676666677444345r::::::::::::::::::::::::::::::::::::::::::::::::::::KKKKKKKKKKKKKKKKKKKKKKKKKKKKKKKKKKKKKKMM;;;-;:::::::::::::::rrrrrrrrGffggggggggfdfggggggggffGrrrrrrrr:::::::::::::::;-;;;MMKKKKKKKKKKKKKKKKKKKKKKKKKKKKKKKKKKKKKK::::::::::::::::::::::::::::::::::::::::::::::::::::t67776666667766668766666776667",
"676676667676676677444345r:::::::::::::::::::::::::::::::::::::::::::::::::::rrrrrrrrrrrrrrrrrrrrrrrrrrrrrrrrrrrrrrt;;;;;-;::::::::::::::rrrrrrrrrGggggggggggfdfggggggggggGrrrrrrrrr::::::::::::::;-;;;;;trrrrrrrrrrrrrrrrrrrrrrrrrrrrrrrrrrrrrt:::::::::::::::::::::::::::::::::::::::::::::::::::t66666766667667776777776677766",
"677666677676677767444345HZZZZZZZZZZZZZZZZZZZZZZZZZZZZZZZZZZZZZZZZZZZZZZZZZZZrrrrrrrrrrrrrrrrrrrrrrrrrrrrrrrrrrrrrt;;;;;MmNZZZZZZZZZZZZZZZZZZZZZZZGggggggggggfdfggggggggggGZZZZZZZZZZZZZZZZZZZZZZZNm;;;;;;trrrrrrrrrrrrrrrrrrrrrrrrrrrrrrrrrrrrtZZZZZZZZZZZZZZZZZZZZZZZZZZZZZZZZZZZZZZZZZZZZZZZZZZZH77677767677667766777777677777",
"777777777777767777444345HZZZZZZZZZZZZZZZZZZZZZZZZZZZZZZZZZZZZZZZZZZZZZZZZZZrrrrrrrrrrrrrrrrrrrrrrrrrrrrrrrrrrrrrrt;;MMMMmNZZZZZZZZZZZZZZZZZZZZZZZGggggggggggfdfggggggggggGZZZZZZZZZZZZZZZZZZZZZZZNmMMMM;;trrrrrrrrrrrrrrrrrrrrrrrrrrrrrrrrrrrrrtZZZZZZZZZZZZZZZZZZZZZZZZZZZZZZZZZZZZZZZZZZZZZZZZZZH77777777777776777777777777777",
"777777777777777777444345HZZZZZZZZZZZZZZZZZZZZZZZZZZZZZZZZZZZZZZZZZZZZZZZZZZKKKKKKKKKKKKKKKKKKKKKKKKKKKKKKKKKKKKKKKMMMMMMmNZZZZZZZZZZZZZZZZZZZZZZZGggggggggggfdfggggggggggGZZZZZZZZZZZZZZZZZZZZZZZMmMMMMMMKKKKKKKKKKKKKKKKKKKKKKKKKKKKKKKKKKKKKKKZZZZZZZZZZZZZZZZZZZZZZZZZZZZZZZZZZZZZZZZZZZZZZZZZZH77777777777777777777777777777",
"@@@@@@@@@@@@@@@@@@@@@@@@@@@@@@@@@@@@@@@@@@@@@@@@@@@@@@@@@@@@@@@@@@@@@@@@@@@@@@@@@@@@@@@@@@@@@@@@@@@@@@@@@@@@@@@@@@@@@@@@@@@@@@@@@@@@@@@@@@@@@@@@@@@@@@@@@@@@@@@@@@@@@@@@@@@@@@@@@@@@@@@@@@@@@@@@@@@@@@@@@@@@@@@@@@@@@@@@@@@@@@@@@@@@@@@@@@@@@@@@@@@@@@@@@@@@@@@@@@@@@@@@@@@@@@@@@@@@@@@@@@@@@@@@@@@@@@@@@@@@@@@@@@@@@@@@@@@@@@@@",
"@@@@@@@@@@@@@@@@@@@@@@@@@@@@@@@@@@@@@@@@@@@@@@@@@@@@@@@@@@@@@@@@@@@@@@@@@@@@@@@@@@@@@@@@@@@@@@@@@@@@@@@@@@@@@@@@@@@@@@@@@@@@@@@@@@@@@@@@@@@@@@@@@@@@@@@@@@@@@@@@@@@@@@@@@@@@@@@@@@@@@@@@@@@@@@@@@@@@@@@@@@@@@@@@@@@@@@@@@@@@@@@@@@@@@@@@@@@@@@@@@@@@@@@@@@@@@@@@@@@@@@@@@@@@@@@@@@@@@@@@@@@@@@@@@@@@@@@@@@@@@@@@@@@@@@@@@@@@@@@@",
"@@@@@@@@@@@@@@@@@@@@@@@@@@@@@@@@@@@@@@@@@@@@@@@@@@@@@@@@@@@@@@@@@@@@@@@@@@@@@@@@@@@@@@@@@@@@@@@@@@@@@@@@@@@@@@@@@@@@@@@@@@@@@@@@@@@@@@@@@@@@@@@@@@@@@@@@@@@@@@@@@@@@@@@@@@@@@@@@@@@@@@@@@@@@@@@@@@@@@@@@@@@@@@@@@@@@@@@@@@@@@@@@@@@@@@@@@@@@@@@@@@@@@@@@@@@@@@@@@@@@@@@@@@@@@@@@@@@@@@@@@@@@@@@@@@@@@@@@@@@@@@@@@@@@@@@@@@@@@@@@",
"@@@@@@@@@@@@@@@@@@@@@@@@@@@@@@@@@@@@@@@@@@@@@@@@@@@@@@@@@@@@@@@@@@@@@@@@@@@@@@@@@@@@@@@@@@@@@@@@@@@@@@@@@@@@@@@@@@@@@@@@@@@@@@@@@@@@@@@@@@@@@@@@@@@@@@@@@@@@@@@@@@@@@@@@@@@@@@@@@@@@@@@@@@@@@@@@@@@@@@@@@@@@@@@@@@@@@@@@@@@@@@@@@@@@@@@@@@@@@@@@@@@@@@@@@@@@@@@@@@@@@@@@@@@@@@@@@@@@@@@@@@@@@@@@@@@@@@@@@@@@@@@@@@@@@@@@@@@@@@@@",
"@@@@@@@@@@@@@@@@@@@@@@@@@@@@@@@@@@@@@@@@@@@@@@@@@@@@@@@@@@@@@@@@@@@@@@@@@@@@@@@@@@@@@@@@@@@@@@@@@@@@@@@@@@@@@@@@@@@@@@@@@@@@@@@@@@@@@@@@@@@@@@@@@@@@@@@@@@@@@@@@@@@@@@@@@@@@@@@@@@@@@@@@@@@@@@@@@@@@@@@@@@@@@@@@@@@@@@@@@@@@@@@@@@@@@@@@@@@@@@@@@@@@@@@@@@@@@@@@@@@@@@@@@@@@@@@@@@@@@@@@@@@@@@@@@@@@@@@@@@@@@@@@@@@@@@@@@@@@@@@@",
"@@@@@@@@@@@@@@@@@@@@@@@@@@@@@@@@@@@@@@@@@@@@@@@@@@@@@@@@@@@@@@@@@@@@@@@@@@@@@@@@@@@@@@@@@@@@@@@@@@@@@@@@@@@@@@@@@@@@@@@@@@@@@@@@@@@@@@@@@@@@@@@@@@@@@@@@@@@@@@@@@@@@@@@@@@@@@@@@@@@@@@@@@@@@@@@@@@@@@@@@@@@@@@@@@@@@@@@@@@@@@@@@@@@@@@@@@@@@@@@@@@@@@@@@@@@@@@@@@@@@@@@@@@@@@@@@@@@@@@@@@@@@@@@@@@@@@@@@@@@@@@@@@@@@@@@@@@@@@@@@",
"@@@@@@@@@@@@@@@@@@@@@@@@@@@@@@@@@@@@@@@@@@@@@@@@@@@@@@@@@@@@@@@@@@@@@@@@@@@@@@@@@@@@@@@@@@@@@@@@@@@@@@@@@@@@@@@@@@@@@@@@@@@@@@@@@@@@@@@@@@@@@@@@@@@@@@@@@@@@@@@@@@@@@@@@@@@@@@@@@@@@@@@@@@@@@@@@@@@@@@@@@@@@@@@@@@@@@@@@@@@@@@@@@@@@@@@@@@@@@@@@@@@@@@@@@@@@@@@@@@@@@@@@@@@@@@@@@@@@@@@@@@@@@@@@@@@@@@@@@@@@@@@@@@@@@@@@@@@@@@@@",
"@@@@@@@@@@@@@@@@@@@@@@@@@@@@@@@@@@@@@@@@@@@@@@@@@@@@@@@@@@@@@@@@@@@@@@@@@@@@@@@@@@@@@@@@@@@@@@@@@@@@@@@@@@@@@@@@@@@@@@@@@@@@@@@@@@@@@@@@@@@@@@@@@@@@@@@@@@@@@@@@@@@@@@@@@@@@@@@@@@@@@@@@@@@@@@@@@@@@@@@@@@@@@@@@@@@@@@@@@@@@@@@@@@@@@@@@@@@@@@@@@@@@@@@@@@@@@@@@@@@@@@@@@@@@@@@@@@@@@@@@@@@@@@@@@@@@@@@@@@@@@@@@@@@@@@@@@@@@@@@@",
"@@@@@@@@@@@@@@@@@@@@@@@@@@@@@@@@@@@@@@@@@@@@@@@@@@@@@@@@@@@@@@@@@@@@@@@@@@@@@@@@@@@@@@@@@@@@@@@@@@@@@@@@@@@@@@@@@@@@@@@@@@@@@@@@@@@@@@@@@@@@@@@@@@@@@@@@@@@@@@@@@@@@@@@@@@@@@@@@@@@@@@@@@@@@@@@@@@@@@@@@@@@@@@@@@@@@@@@@@@@@@@@@@@@@@@@@@@@@@@@@@@@@@@@@@@@@@@@@@@@@@@@@@@@@@@@@@@@@@@@@@@@@@@@@@@@@@@@@@@@@@@@@@@@@@@@@@@@@@@@@",
"@@@@@@@@@@@@@@@@@@@@@@@@@@@@@@@@@@@@@@@@@@@@@@@@@@@@@@@@@@@@@@@@@@@@@@@@@@@@@@@@@@@@@@@@@@@@@@@@@@@@@@@@@@@@@@@@@@@@@@@@@@@@@@@@@@@@@@@@@@@@@@@@@@@@@@@@@@@@@@@@@@@@@@@@@@@@@@@@@@@@@@@@@@@@@@@@@@@@@@@@@@@@@@@@@@@@@@@@@@@@@@@@@@@@@@@@@@@@@@@@@@@@@@@@@@@@@@@@@@@@@@@@@@@@@@@@@@@@@@@@@@@@@@@@@@@@@@@@@@@@@@@@@@@@@@@@@@@@@@@@",
"@@@@@@@@@@@@@@@@@@@@@@@@@@@@@@@@@@@@@@@@@@@@@@@@@@@@@@@@@@@@@@@@@@@@@@@@@@@@@@@@@@@@@@@@@@@@@@@@@@@@@@@@@@@@@@@@@@@@@@@@@@@@@@@@@@@@@@@@@@@@@@@@@@@@@@@@@@@@@@@@@@@@@@@@@@@@@@@@@@@@@@@@@@@@@@@@@@@@@@@@@@@@@@@@@@@@@@@@@@@@@@@@@@@@@@@@@@@@@@@@@@@@@@@@@@@@@@@@@@@@@@@@@@@@@@@@@@@@@@@@@@@@@@@@@@@@@@@@@@@@@@@@@@@@@@@@@@@@@@@@",
"@@@@@@@@@@@@@@@@@@@@@@@@@@@@@@@@@@@@@@@@@@@@@@@@@@@@@@@@@@@@@@@@@@@@@@@@@@@@@@@@@@@@@@@@@@@@@@@@@@@@@@@@@@@@@@@@@@@@@@@@@@@@@@@@@@@@@@@@@@@@@@@@@@@@@@@@@@@@@@@@@@@@@@@@@@@@@@@@@@@@@@@@@@@@@@@@@@@@@@@@@@@@@@@@@@@@@@@@@@@@@@@@@@@@@@@@@@@@@@@@@@@@@@@@@@@@@@@@@@@@@@@@@@@@@@@@@@@@@@@@@@@@@@@@@@@@@@@@@@@@@@@@@@@@@@@@@@@@@@@@",
"@@@@@@@@@@@@@@@@@@@@@@@@@@@@@@@@@@@@@@@@@@@@@@@@@@@@@@@@@@@@@@@@@@@@@@@@@@@@@@@@@@@@@@@@@@@@@@@@@@@@@@@@@@@@@@@@@@@@@@@@@@@@@@@@@@@@@@@@@@@@@@@@@@@@@@@@@@@@@@@@@@@@@@@@@@@@@@@@@@@@@@@@@@@@@@@@@@@@@@@@@@@@@@@@@@@@@@@@@@@@@@@@@@@@@@@@@@@@@@@@@@@@@@@@@@@@@@@@@@@@@@@@@@@@@@@@@@@@@@@@@@@@@@@@@@@@@@@@@@@@@@@@@@@@@@@@@@@@@@@@",
"@@@@@@@@@@@@@@@@@@@@@@@@@@@@@@@@@@@@@@@@@@@@@@@@@@@@@@@@@@@@@@@@@@@@@@@@@@@@@@@@@@@@@@@@@@@@@@@@@@@@@@@@@@@@@@@@@@@@@@@@@@@@@@@@@@@@@@@@@@@@@@@@@@@@@@@@@@@@@@@@@@@@@@@@@@@@@@@@@@@@@@@@@@@@@@@@@@@@@@@@@@@@@@@@@@@@@@@@@@@@@@@@@@@@@@@@@@@@@@@@@@@@@@@@@@@@@@@@@@@@@@@@@@@@@@@@@@@@@@@@@@@@@@@@@@@@@@@@@@@@@@@@@@@@@@@@@@@@@@@@",
"@@@@@@@@@@@@@@@@@@@@@@@@@@@@@@@@@@@@@@@@@@@@@@@@@@@@@@@@@@@@@@@@@@@@@@@@@@@@@@@@@@@@@@@@@@@@@@@@@@@@@@@@@@@@@@@@@@@@@@@@@@@@@@@@@@@@@@@@@@@@@@@@@@@@@@@@@@@@@@@@@@@@@@@@@@@@@@@@@@@@@@@@@@@@@@@@@@@@@@@@@@@@@@@@@@@@@@@@@@@@@@@@@@@@@@@@@@@@@@@@@@@@@@@@@@@@@@@@@@@@@@@@@@@@@@@@@@@@@@@@@@@@@@@@@@@@@@@@@@@@@@@@@@@@@@@@@@@@@@@@",
"@@@@@@@@@@@@@@@@@@@@@@@@@@@@@@@@@@@@@@@@@@@@@@@@@@@@@@@@@@@@@@@@@@@@@@@@@@@@@@@@@@@@@@@@@@@@@@@@@@@@@@@@@@@@@@@@@@@@@@@@@@@@@@@@@@@@@@@@@@@@@@@@@@@@@@@@@@@@@@@@@@@@@@@@@@@@@@@@@@@@@@@@@@@@@@@@@@@@@@@@@@@@@@@@@@@@@@@@@@@@@@@@@@@@@@@@@@@@@@@@@@@@@@@@@@@@@@@@@@@@@@@@@@@@@@@@@@@@@@@@@@@@@@@@@@@@@@@@@@@@@@@@@@@@@@@@@@@@@@@@",
"@@@@@@@@@@@@@@@@@@@@@@@@@@@@@@@@@@@@@@@@@@@@@@@@@@@@@@@@@@@@@@@@@@@@@@@@@@@@@@@@@@@@@@@@@@@@@@@@@@@@@@@@@@@@@@@@@@@@@@@@@@@@@@@@@@@@@@@@@@@@@@@@@@@@@@@@@@@@@@@@@@@@@@@@@@@@@@@@@@@@@@@@@@@@@@@@@@@@@@@@@@@@@@@@@@@@@@@@@@@@@@@@@@@@@@@@@@@@@@@@@@@@@@@@@@@@@@@@@@@@@@@@@@@@@@@@@@@@@@@@@@@@@@@@@@@@@@@@@@@@@@@@@@@@@@@@@@@@@@@@",
"@@@@@@@@@@@@@@@@@@@@@@@@@@@@@@@@@@@@@@@@@@@@@@@@@@@@@@@@@@@@@@@@@@@@@@@@@@@@@@@@@@@@@@@@@@@@@@@@@@@@@@@@@@@@@@@@@@@@@@@@@@@@@@@@@@@@@@@@@@@@@@@@@@@@@@@@@@@@@@@@@@@@@@@@@@@@@@@@@@@@@@@@@@@@@@@@@@@@@@@@@@@@@@@@@@@@@@@@@@@@@@@@@@@@@@@@@@@@@@@@@@@@@@@@@@@@@@@@@@@@@@@@@@@@@@@@@@@@@@@@@@@@@@@@@@@@@@@@@@@@@@@@@@@@@@@@@@@@@@@@",
"@@@@@@@@@@@@@@@@@@@@@@@@@@@@@@@@@@@@@@@@@@@@@@@@@@@@@@@@@@@@@@@@@@@@@@@@@@@@@@@@@@@@@@@@@@@@@@@@@@@@@@@@@@@@@@@@@@@@@@@@@@@@@@@@@@@@@@@@@@@@@@@@@@@@@@@@@@@@@@@@@@@@@@@@@@@@@@@@@@@@@@@@@@@@@@@@@@@@@@@@@@@@@@@@@@@@@@@@@@@@@@@@@@@@@@@@@@@@@@@@@@@@@@@@@@@@@@@@@@@@@@@@@@@@@@@@@@@@@@@@@@@@@@@@@@@@@@@@@@@@@@@@@@@@@@@@@@@@@@@@",
"@@@@@@@@@@@@@@@@@@@@@@@@@@@@@@@@@@@@@@@@@@@@@@@@@@@@@@@@@@@@@@@@@@@@@@@@@@@@@@@@@@@@@@@@@@@@@@@@@@@@@@@@@@@@@@@@@@@@@@@@@@@@@@@@@@@@@@@@@@@@@@@@@@@@@@@@@@@@@@@@@@@@@@@@@@@@@@@@@@@@@@@@@@@@@@@@@@@@@@@@@@@@@@@@@@@@@@@@@@@@@@@@@@@@@@@@@@@@@@@@@@@@@@@@@@@@@@@@@@@@@@@@@@@@@@@@@@@@@@@@@@@@@@@@@@@@@@@@@@@@@@@@@@@@@@@@@@@@@@@@",
"@@@@@@@@@@@@@@@@@@@@@@@@@@@@@@@@@@@@@@@@@@@@@@@@@@@@@@@@@@@@@@@@@@@@@@@@@@@@@@@@@@@@@@@@@@@@@@@@@@@@@@@@@@@@@@@@@@@@@@@@@@@@@@@@@@@@@@@@@@@@@@@@@@@@@@@@@@@@@@@@@@@@@@@@@@@@@@@@@@@@@@@@@@@@@@@@@@@@@@@@@@@@@@@@@@@@@@@@@@@@@@@@@@@@@@@@@@@@@@@@@@@@@@@@@@@@@@@@@@@@@@@@@@@@@@@@@@@@@@@@@@@@@@@@@@@@@@@@@@@@@@@@@@@@@@@@@@@@@@@@",
"@@@@@@@@@@@@@@@@@@@@@@@@@@@@@@@@@@@@@@@@@@@@@@@@@@@@@@@@@@@@@@@@@@@@@@@@@@@@@@@@@@@@@@@@@@@@@@@@@@@@@@@@@@@@@@@@@@@@@@@@@@@@@@@@@@@@@@@@@@@@@@@@@@@@@@@@@@@@@@@@@@@@@@@@@@@@@@@@@@@@@@@@@@@@@@@@@@@@@@@@@@@@@@@@@@@@@@@@@@@@@@@@@@@@@@@@@@@@@@@@@@@@@@@@@@@@@@@@@@@@@@@@@@@@@@@@@@@@@@@@@@@@@@@@@@@@@@@@@@@@@@@@@@@@@@@@@@@@@@@@",
"@@@@@@@@@@@@@@@@@@@@@@@@@@@@@@@@@@@@@@@@@@@@@@@@@@@@@@@@@@@@@@@@@@@@@@@@@@@@@@@@@@@@@@@@@@@@@@@@@@@@@@@@@@@@@@@@@@@@@@@@@@@@@@@@@@@@@@@@@@@@@@@@@@@@@@@@@@@@@@@@@@@@@@@@@@@@@@@@@@@@@@@@@@@@@@@@@@@@@@@@@@@@@@@@@@@@@@@@@@@@@@@@@@@@@@@@@@@@@@@@@@@@@@@@@@@@@@@@@@@@@@@@@@@@@@@@@@@@@@@@@@@@@@@@@@@@@@@@@@@@@@@@@@@@@@@@@@@@@@@@",
"@@@@@@@@@@@@@@@@@@@@@@@@@@@@@@@@@@@@@@@@@@@@@@@@@@@@@@@@@@@@@@@@@@@@@@@@@@@@@@@@@@@@@@@@@@@@@@@@@@@@@@@@@@@@@@@@@@@@@@@@@@@@@@@@@@@@@@@@@@@@@@@@@@@@@@@@@@@@@@@@@@@@@@@@@@@@@@@@@@@@@@@@@@@@@@@@@@@@@@@@@@@@@@@@@@@@@@@@@@@@@@@@@@@@@@@@@@@@@@@@@@@@@@@@@@@@@@@@@@@@@@@@@@@@@@@@@@@@@@@@@@@@@@@@@@@@@@@@@@@@@@@@@@@@@@@@@@@@@@@@",
"@@@@@@@@@@@@@@@@@@@@@@@@@@@@@@@@@@@@@@@@@@@@@@@@@@@@@@@@@@@@@@@@@@@@@@@@@@@@@@@@@@@@@@@@@@@@@@@@@@@@@@@@@@@@@@@@@@@@@@@@@@@@@@@@@@@@@@@@@@@@@@@@@@@@@@@@@@@@@@@@@@@@@@@@@@@@@@@@@@@@@@@@@@@@@@@@@@@@@@@@@@@@@@@@@@@@@@@@@@@@@@@@@@@@@@@@@@@@@@@@@@@@@@@@@@@@@@@@@@@@@@@@@@@@@@@@@@@@@@@@@@@@@@@@@@@@@@@@@@@@@@@@@@@@@@@@@@@@@@@@",
"@@@@@@@@@@@@@@@@@@@@@@@@@@@@@@@@@@@@@@@@@@@@@@@@@@@@@@@@@@@@@@@@@@@@@@@@@@@@@@@@@@@@@@@@@@@@@@@@@@@@@@@@@@@@@@@@@@@@@@@@@@@@@@@@@@@@@@@@@@@@@@@@@@@@@@@@@@@@@@@@@@@@@@@@@@@@@@@@@@@@@@@@@@@@@@@@@@@@@@@@@@@@@@@@@@@@@@@@@@@@@@@@@@@@@@@@@@@@@@@@@@@@@@@@@@@@@@@@@@@@@@@@@@@@@@@@@@@@@@@@@@@@@@@@@@@@@@@@@@@@@@@@@@@@@@@@@@@@@@@@",
"@@@@@@@@@@@@@@@@@@@@@@@@@@@@@@@@@@@@@@@@@@@@@@@@@@@@@@@@@@@@@@@@@@@@@@@@@@@@@@@@@@@@@@@@@@@@@@@@@@@@@@@@@@@@@@@@@@@@@@@@@@@@@@@@@@@@@@@@@@@@@@@@@@@@@@@@@@@@@@@@@@@@@@@@@@@@@@@@@@@@@@@@@@@@@@@@@@@@@@@@@@@@@@@@@@@@@@@@@@@@@@@@@@@@@@@@@@@@@@@@@@@@@@@@@@@@@@@@@@@@@@@@@@@@@@@@@@@@@@@@@@@@@@@@@@@@@@@@@@@@@@@@@@@@@@@@@@@@@@@@",
"@@@@@@@@@@@@@@@@@@@@@@@@@@@@@@@@@@@@@@@@@@@@@@@@@@@@@@@@@@@@@@@@@@@@@@@@@@@@@@@@@@@@@@@@@@@@@@@@@@@@@@@@@@@@@@@@@@@@@@@@@@@@@@@@@@@@@@@@@@@@@@@@@@@@@@@@@@@@@@@@@@@@@@@@@@@@@@@@@@@@@@@@@@@@@@@@@@@@@@@@@@@@@@@@@@@@@@@@@@@@@@@@@@@@@@@@@@@@@@@@@@@@@@@@@@@@@@@@@@@@@@@@@@@@@@@@@@@@@@@@@@@@@@@@@@@@@@@@@@@@@@@@@@@@@@@@@@@@@@@@",
"@@@@@@@@@@@@@@@@@@@@@@@@@@@@@@@@@@@@@@@@@@@@@@@@@@@@@@@@@@@@@@@@@@@@@@@@@@@@@@@@@@@@@@@@@@@@@@@@@@@@@@@@@@@@@@@@@@@@@@@@@@@@@@@@@@@@@@@@@@@@@@@@@@@@@@@@@@@@@@@@@@@@@@@@@@@@@@@@@@@@@@@@@@@@@@@@@@@@@@@@@@@@@@@@@@@@@@@@@@@@@@@@@@@@@@@@@@@@@@@@@@@@@@@@@@@@@@@@@@@@@@@@@@@@@@@@@@@@@@@@@@@@@@@@@@@@@@@@@@@@@@@@@@@@@@@@@@@@@@@@",
"@@@@@@@@@@@@@@@@@@@@@@@@@@@@@@@@@@@@@@@@@@@@@@@@@@@@@@@@@@@@@@@@@@@@@@@@@@@@@@@@@@@@@@@@@@@@@@@@@@@@@@@@@@@@@@@@@@@@@@@@@@@@@@@@@@@@@@@@@@@@@@@@@@@@@@@@@@@@@@@@@@@@@@@@@@@@@@@@@@@@@@@@@@@@@@@@@@@@@@@@@@@@@@@@@@@@@@@@@@@@@@@@@@@@@@@@@@@@@@@@@@@@@@@@@@@@@@@@@@@@@@@@@@@@@@@@@@@@@@@@@@@@@@@@@@@@@@@@@@@@@@@@@@@@@@@@@@@@@@@@",
"@@@@@@@@@@@@@@@@@@@@@@@@@@@@@@@@@@@@@@@@@@@@@@@@@@@@@@@@@@@@@@@@@@@@@@@@@@@@@@@@@@@@@@@@@@@@@@@@@@@@@@@@@@@@@@@@@@@@@@@@@@@@@@@@@@@@@@@@@@@@@@@@@@@@@@@@@@@@@@@@@@@@@@@@@@@@@@@@@@@@@@@@@@@@@@@@@@@@@@@@@@@@@@@@@@@@@@@@@@@@@@@@@@@@@@@@@@@@@@@@@@@@@@@@@@@@@@@@@@@@@@@@@@@@@@@@@@@@@@@@@@@@@@@@@@@@@@@@@@@@@@@@@@@@@@@@@@@@@@@@",
"@@@@@@@@@@@@@@@@@@@@@@@@@@@@@@@@@@@@@@@@@@@@@@@@@@@@@@@@@@@@@@@@@@@@@@@@@@@@@@@@@@@@@@@@@@@@@@@@@@@@@@@@@@@@@@@@@@@@@@@@@@@@@@@@@@@@@@@@@@@@@@@@@@@@@@@@@@@@@@@@@@@@@@@@@@@@@@@@@@@@@@@@@@@@@@@@@@@@@@@@@@@@@@@@@@@@@@@@@@@@@@@@@@@@@@@@@@@@@@@@@@@@@@@@@@@@@@@@@@@@@@@@@@@@@@@@@@@@@@@@@@@@@@@@@@@@@@@@@@@@@@@@@@@@@@@@@@@@@@@@",
"@@@@@@@@@@@@@@@@@@@@@@@@@@@@@@@@@@@@@@@@@@@@@@@@@@@@@@@@@@@@@@@@@@@@@@@@@@@@@@@@@@@@@@@@@@@@@@@@@@@@@@@@@@@@@@@@@@@@@@@@@@@@@@@@@@@@@@@@@@@@@@@@@@@@@@@@@@@@@@@@@@@@@@@@@@@@@@@@@@@@@@@@@@@@@@@@@@@@@@@@@@@@@@@@@@@@@@@@@@@@@@@@@@@@@@@@@@@@@@@@@@@@@@@@@@@@@@@@@@@@@@@@@@@@@@@@@@@@@@@@@@@@@@@@@@@@@@@@@@@@@@@@@@@@@@@@@@@@@@@@",
"@@@@@@@@@@@@@@@@@@@@@@@@@@@@@@@@@@@@@@@@@@@@@@@@@@@@@@@@@@@@@@@@@@@@@@@@@@@@@@@@@@@@@@@@@@@@@@@@@@@@@@@@@@@@@@@@@@@@@@@@@@@@@@@@@@@@@@@@@@@@@@@@@@@@@@@@@@@@@@@@@@@@@@@@@@@@@@@@@@@@@@@@@@@@@@@@@@@@@@@@@@@@@@@@@@@@@@@@@@@@@@@@@@@@@@@@@@@@@@@@@@@@@@@@@@@@@@@@@@@@@@@@@@@@@@@@@@@@@@@@@@@@@@@@@@@@@@@@@@@@@@@@@@@@@@@@@@@@@@@@",
"@@@@@@@@@@@@@@@@@@@@@@@@@@@@@@@@@@@@@@@@@@@@@@@@@@@@@@@@@@@@@@@@@@@@@@@@@@@@@@@@@@@@@@@@@@@@@@@@@@@@@@@@@@@@@@@@@@@@@@@@@@@@@@@@@@@@@@@@@@@@@@@@@@@@@@@@@@@@@@@@@@@@@@@@@@@@@@@@@@@@@@@@@@@@@@@@@@@@@@@@@@@@@@@@@@@@@@@@@@@@@@@@@@@@@@@@@@@@@@@@@@@@@@@@@@@@@@@@@@@@@@@@@@@@@@@@@@@@@@@@@@@@@@@@@@@@@@@@@@@@@@@@@@@@@@@@@@@@@@@@",
"@@@@@@@@@@@@@@@@@@@@@@@@@@@@@@@@@@@@@@@@@@@@@@@@@@@@@@@@@@@@@@@@@@@@@@@@@@@@@@@@@@@@@@@@@@@@@@@@@@@@@@@@@@@@@@@@@@@@@@@@@@@@@@@@@@@@@@@@@@@@@@@@@@@@@@@@@@@@@@@@@@@@@@@@@@@@@@@@@@@@@@@@@@@@@@@@@@@@@@@@@@@@@@@@@@@@@@@@@@@@@@@@@@@@@@@@@@@@@@@@@@@@@@@@@@@@@@@@@@@@@@@@@@@@@@@@@@@@@@@@@@@@@@@@@@@@@@@@@@@@@@@@@@@@@@@@@@@@@@@@",
"@@@@@@@@@@@@@@@@@@@@@@@@@@@@@@@@@@@@@@@@@@@@@@@@@@@@@@@@@@@@@@@@@@@@@@@@@@@@@@@@@@@@@@@@@@@@@@@@@@@@@@@@@@@@@@@@@@@@@@@@@@@@@@@@@@@@@@@@@@@@@@@@@@@@@@@@@@@@@@@@@@@@@@@@@@@@@@@@@@@@@@@@@@@@@@@@@@@@@@@@@@@@@@@@@@@@@@@@@@@@@@@@@@@@@@@@@@@@@@@@@@@@@@@@@@@@@@@@@@@@@@@@@@@@@@@@@@@@@@@@@@@@@@@@@@@@@@@@@@@@@@@@@@@@@@@@@@@@@@@@"
};
