/* XPM */
static char *end_floor3_076[] = {
/* columns rows colors chars-per-pixel */
"320 200 66 1 ",
"  c #000000",
". c #0B0B0B",
"X c gray8",
"o c #1C1C1C",
"O c #00002C",
"+ c #00003C",
"@ c gray14",
"# c #2C2C2C",
"$ c #343434",
"% c #3C3C3C",
"& c #600000",
"* c #743804",
"= c #004400",
"- c #005C00",
"; c #007400",
": c #000050",
"> c #000064",
", c #244870",
"< c #444444",
"1 c #4C4C4C",
"2 c #545454",
"3 c #5C5C5C",
"4 c #646464",
"5 c #6C6C6C",
"6 c #747474",
"7 c #7C7C7C",
"8 c #F80000",
"9 c #884404",
"0 c #984C08",
"q c #AC580C",
"w c #C06410",
"e c #C47024",
"r c #008C00",
"t c #00A400",
"y c #CC8038",
"u c #D09050",
"i c #040488",
"p c #0C0CAC",
"a c #2C5480",
"s c #346090",
"d c #3C6CA0",
"f c #4C78A8",
"g c #1010C0",
"h c #4040D0",
"j c #7878E0",
"k c #5884B0",
"l c #6C90BC",
"z c #848484",
"x c #8C8C8C",
"c c #939393",
"v c #989898",
"b c #A0A0A0",
"n c #A8A8A8",
"m c #B0B0B0",
"M c #BCBCBC",
"N c #ECD0B4",
"B c #80A0C4",
"V c #C4C4C4",
"C c #CCCCCC",
"Z c #D4D4D4",
"A c #DADADA",
"S c #D8D8F4",
"D c #E0E0E0",
"F c #E8E8E8",
"G c #F1F1F1",
"H c #FCFCFC",
/* pixels */
"@@@@@@@@@@@@@@@@@@@@@@@@@@@@@@@@@@@@@@@@@@@@@@@@@@@@@@@@@@@@@@@@@@@@@@@@@@@@@@@@@@@@@@@@@@@@@@@@@@@@@@@@@@@@@@@@@@@@@@@@@@@@@@@@@@@@@@@@@@@@@@@@@@@@@@@@@@@@@@@@@@@@@@@@@@@@@@@@@@@@@@@@@@@@@@@@@@@@@@@@@@@@@@@@@@@@@@@@@@@@@@@@@@@@@@@@@@@@@@@@@@@@@@@@@@@@@@@@@@@@@@@@@@@@@@@@@@@@@@@@@@@@@@@@@@@@@@@@@@@@@@@@@@@@@@@@@@@@@@@@",
"@@@@@@@@@@@@@@@@@@@@@@@@@@@@@@@@@@@@@@@@@@@@@@@@@@@@@@@@@@@@@@@@@@@@@@@@@@@@@@@@@@@@@@@@@@@@@@@@@@@@@@@@@@@@@@@@@@@@@@@@@@@@@@@@@@@@@@@@@@@@@@@@@@@@@@@@@@@@@@@@@@@@@@@@@@@@@@@@@@@@@@@@@@@@@@@@@@@@@@@@@@@@@@@@@@@@@@@@@@@@@@@@@@@@@@@@@@@@@@@@@@@@@@@@@@@@@@@@@@@@@@@@@@@@@@@@@@@@@@@@@@@@@@@@@@@@@@@@@@@@@@@@@@@@@@@@@@@@@@@@",
"@@@@@@@@@@@@@@@@@@@@@@@@@@@@@@@@@@@@@@@@@@@@@@@@@@@@@@@@@@@@@@@@@@@@@@@@@@@@@@@@@@@@@@@@@@@@@@@@@@@@@@@@@@@@@@@@@@@@@@@@@@@@@@@@@@@@@@@@@@@@@@@@@@@@@@@@@@@@@@@@@@@@@@@@@@@@@@@@@@@@@@@@@@@@@@@@@@@@@@@@@@@@@@@@@@@@@@@@@@@@@@@@@@@@@@@@@@@@@@@@@@@@@@@@@@@@@@@@@@@@@@@@@@@@@@@@@@@@@@@@@@@@@@@@@@@@@@@@@@@@@@@@@@@@@@@@@@@@@@@@",
"@@@@@@@@@@@@@@@@@@@@@@@@@@@@@@@@@@@@@@@@@@@@@@@@@@@@@@@@@@@@@@@@@@@@@@@@@@@@@@@@@@@@@@@@@@@@@@@@@@@@@@@@@@@@@@@@@@@@@@@@@@@@@@@@@@@@@@@@@@@@@@@@@@@@@@@@@@@@@@@@@@@@@@@@@@@@@@@@@@@@@@@@@@@@@@@@@@@@@@@@@@@@@@@@@@@@@@@@@@@@@@@@@@@@@@@@@@@@@@@@@@@@@@@@@@@@@@@@@@@@@@@@@@@@@@@@@@@@@@@@@@@@@@@@@@@@@@@@@@@@@@@@@@@@@@@@@@@@@@@@",
"@@@@@@@@@@@@@@@@@@@@@@@@@@@@@@@@@@@@@@@@@@@@@@@@@@@@@@@@@@@@@@@@@@@@@@@@@@@@@@@@@@@@@@@@@@@@@@@@@@@@@@@@@@@@@@@@@@@@@@@@@@@@@@@@@@@@@@@@@@@@@@@@@@@@@@@@@@@@@@@@@@@@@@@@@@@@@@@@@@@@@@@@@@@@@@@@@@@@@@@@@@@@@@@@@@@@@@@@@@@@@@@@@@@@@@@@@@@@@@@@@@@@@@@@@@@@@@@@@@@@@@@@@@@@@@@@@@@@@@@@@@@@@@@@@@@@@@@@@@@@@@@@@@@@@@@@@@@@@@@@",
"@@@@@@@@@@@@@@@@@@@@@@@@@@@@@@@@@@@@@@@@@@@@@@@@@@@@@@@@@@@@@@@@@@@@@@@@@@@@@@@@@@@@@@@@@@@@@@@@@@@@@@@@@@@@@@@@@@@@@@@@@@@@@@@@@@@@@@@@@@@@@@@@@@@@@@@@@@@@@@@@@@@@@@@@@@@@@@@@@@@@@@@@@@@@@@@@@@@@@@@@@@@@@@@@@@@@@@@@@@@@@@@@@@@@@@@@@@@@@@@@@@@@@@@@@@@@@@@@@@@@@@@@@@@@@@@@@@@@@@@@@@@@@@@@@@@@@@@@@@@@@@@@@@@@@@@@@@@@@@@@",
"@@@@@@@@@@@@@@@@@@@@@@@@@@@@@@@@@@@@@@@@@@@@@@@@@@@@@@@@@@@@@@@@@@@@@@@@@@@@@@@@@@@@@@@@@@@@@@@@@@@@@@@@@@@@@@@@@@@@@@@@@@@@@@@@@@@@@@@@@@@@@@@@@@@@@@@@@@@@@@@@@@@@@@@@@@@@@@@@@@@@@@@@@@@@@@@@@@@@@@@@@@@@@@@@@@@@@@@@@@@@@@@@@@@@@@@@@@@@@@@@@@@@@@@@@@@@@@@@@@@@@@@@@@@@@@@@@@@@@@@@@@@@@@@@@@@@@@@@@@@@@@@@@@@@@@@@@@@@@@@@",
"@@@@@@@@@@@@@@@@@@@@@@@@@@@@@@@@@@@@@@@@@@@@@@@@@@@@@@@@@@@@@@@@@@@@@@@@@@@@@@@@@@@@@@@@@@@@@@@@@@@@@@@@@@@@@@@@@@@@@@@@@@@@@@@@@@@@@@@@@@@@@@@@@@@@@@@@@@@@@@@@@@@@@@@@@@@@@@@@@@@@@@@@@@@@@@@@@@@@@@@@@@@@@@@@@@@@@@@@@@@@@@@@@@@@@@@@@@@@@@@@@@@@@@@@@@@@@@@@@@@@@@@@@@@@@@@@@@@@@@@@@@@@@@@@@@@@@@@@@@@@@@@@@@@@@@@@@@@@@@@@",
"@@@@@@@@@@@@@@@@@@@@@@@@@@@@@@@@@@@@@@@@@@@@@@@@@@@@@@@@@@@@@@@@@@@@@@@@@@@@@@@@@@@@@@@@@@@@@@@@@@@@@@@@@@@@@@@@@@@@@@@@@@@@@@@@@@@@@@@@@@@@@@@@@@@@@@@@@@@@@@@@@@@@@@@@@@@@@@@@@@@@@@@@@@@@@@@@@@@@@@@@@@@@@@@@@@@@@@@@@@@@@@@@@@@@@@@@@@@@@@@@@@@@@@@@@@@@@@@@@@@@@@@@@@@@@@@@@@@@@@@@@@@@@@@@@@@@@@@@@@@@@@@@@@@@@@@@@@@@@@@@",
"@@@@@@@@@@@@@@@@@@@@@@@@@@@@@@@@@@@@@@@@@@@@@@@@@@@@@@@@@@@@@@@@@@@@@@@@@@@@@@@@@@@@@@@@@@@@@@@@@@@@@@@@@@@@@@@@@@@@@@@@@@@@@@@@@@@@@@@@@@@@@@@@@@@@@@@@@@@@@@@@@@@@@@@@@@@@@@@@@@@@@@@@@@@@@@@@@@@@@@@@@@@@@@@@@@@@@@@@@@@@@@@@@@@@@@@@@@@@@@@@@@@@@@@@@@@@@@@@@@@@@@@@@@@@@@@@@@@@@@@@@@@@@@@@@@@@@@@@@@@@@@@@@@@@@@@@@@@@@@@@",
"@@@@@@@@@@@@@@@@@@@@@@@@@@@@@@@@@@@@@@@@@@@@@@@@@@@@@@@@@@@@@@@@@@@@@@@@@@@@@@@@@@@@@@@@@@@@@@@@@@@@@@@@@@@@@@@@@@@@@@@@@@@@@@@@@@@@@@@@@@@@@@@@@@@@@@@@@@@@@@@@@@@@@@@@@@@@@@@@@@@@@@@@@@@@@@@@@@@@@@@@@@@@@@@@@@@@@@@@@@@@@@@@@@@@@@@@@@@@@@@@@@@@@@@@@@@@@@@@@@@@@@@@@@@@@@@@@@@@@@@@@@@@@@@@@@@@@@@@@@@@@@@@@@@@@@@@@@@@@@@@",
"@@@@@@@@@@@@@@@@@@@@@@@@@@@@@@@@@@@@@@@@@@@@@@@@@@@@@@@@@@@@@@@@@@@@@@@@@@@@@@@@@@@@@@@@@@@@@@@@@@@@@@@@@@@@@@@@@@@@@@@@@@@@@@@@@@@@@@@@@@@@@@@@@@@@@@@@@@@@@@@@@@@@@@@@@@@@@@@@@@@@@@@@@@@@@@@@@@@@@@@@@@@@@@@@@@@@@@@@@@@@@@@@@@@@@@@@@@@@@@@@@@@@@@@@@@@@@@@@@@@@@@@@@@@@@@@@@@@@@@@@@@@@@@@@@@@@@@@@@@@@@@@@@@@@@@@@@@@@@@@@",
"@@@@@@@@@@@@@@@@@@@@@@@@@@@@@@@@@@@@@@@@@@@@@@@@@@@@@@@@@@@@@@@@@@@@@@@@@@@@@@@@@@@@@@@@@@@@@@@@@@@@@@@@@@@@@@@@@@@@@@@@@@@@@@@@@@@@@@@@@@@@@@@@@@@@@@@@@@@@@@@@@@@@@@@@@@@@@@@@@@@@@@@@@@@@@@@@@@@@@@@@@@@@@@@@@@@@@@@@@@@@@@@@@@@@@@@@@@@@@@@@@@@@@@@@@@@@@@@@@@@@@@@@@@@@@@@@@@@@@@@@@@@@@@@@@@@@@@@@@@@@@@@@@@@@@@@@@@@@@@@@",
"@@@@@@@@@@@@@@@@@@@@@@@@@@@@@@@@@@@@@@@@@@@@@@@@@@@@@@@@@@@@@@@@@@@@@@@@@@@@@@@@@@@@@@@@@@@@@@@@@@@@@@@@@@@@@@@@@@@@@@@@@@@@@@@@@@@@@@@@@@@@@@@@@@@@@@@@@@@@@@@@@@@@@@@@@@@@@@@@@@@@@@@@@@@@@@@@@@@@@@@@@@@@@@@@@@@@@@@@@@@@@@@@@@@@@@@@@@@@@@@@@@@@@@@@@@@@@@@@@@@@@@@@@@@@@@@@@@@@@@@@@@@@@@@@@@@@@@@@@@@@@@@@@@@@@@@@@@@@@@@@",
"@@@@@@@@@@@@@@@@@@@@@@@@@@@@@@@@@@@@@@@@@@@@@@@@@@@@@@@@@@@@@@@@@@@@@@@@@@@@@@@@@@@@@@@@@@@@@@@@@@@@@@@@@@@@@@@@@@@@@@@@@@@@@@@@@@@@@@@@@@@@@@@@@@@@@@@@@@@@@@@@@@@@@@@@@@@@@@@@@@@@@@@@@@@@@@@@@@@@@@@@@@@@@@@@@@@@@@@@@@@@@@@@@@@@@@@@@@@@@@@@@@@@@@@@@@@@@@@@@@@@@@@@@@@@@@@@@@@@@@@@@@@@@@@@@@@@@@@@@@@@@@@@@@@@@@@@@@@@@@@@",
"@@@@@@@@@@@@@@@@@@@@@@@@@@@@@@@@@@@@@@@@@@@@@@@@@@@@@@@@@@@@@@@@@@@@@@@@@@@@@@@@@@@@@@@@@@@@@@@@@@@@@@@@@@@@@@@@@@@@@@@@@@@@@@@@@@@@@@@@@@@@@@@@@@@@@@@@@@@@@@@@@@@@@@@@@@@@@@@@@@@@@@@@@@@@@@@@@@@@@@@@@@@@@@@@@@@@@@@@@@@@@@@@@@@@@@@@@@@@@@@@@@@@@@@@@@@@@@@@@@@@@@@@@@@@@@@@@@@@@@@@@@@@@@@@@@@@@@@@@@@@@@@@@@@@@@@@@@@@@@@@",
"@@@@@@@@@@@@@@@@@@@@@@@@@@@@@@@@@@@@@@@@@@@@@@@@@@@@@@@@@@@@@@@@@@@@@@@@@@@@@@@@@@@@@@@@@@@@@@@@@@@@@@@@@@@@@@@@@@@@@@@@@@@@@@@@@@@@@@@@@@@@@@@@@@@@@@@@@@@@@@@@@@@@@@@@@@@@@@@@@@@@@@@@@@@@@@@@@@@@@@@@@@@@@@@@@@@@@@@@@@@@@@@@@@@@@@@@@@@@@@@@@@@@@@@@@@@@@@@@@@@@@@@@@@@@@@@@@@@@@@@@@@@@@@@@@@@@@@@@@@@@@@@@@@@@@@@@@@@@@@@@",
"@@@@@@@@@@@@@@@@@@@@@@@@@@@@@@@@@@@@@@@@@@@@@@@@@@@@@@@@@@@@@@@@@@@@@@@@@@@@@@@@@@@@@@@@@@@@@@@@@@@@@@@@@@@@@@@@@@@@@@@@@@@@@@@@@@@@@@@@@@@@@@@@@@@@@@@@@@@@@@@@@@@@@@@@@@@@@@@@@@@@@@@@@@@@@@@@@@@@@@@@@@@@@@@@@@@@@@@@@@@@@@@@@@@@@@@@@@@@@@@@@@@@@@@@@@@@@@@@@@@@@@@@@@@@@@@@@@@@@@@@@@@@@@@@@@@@@@@@@@@@@@@@@@@@@@@@@@@@@@@@",
"@@@@@@@@@@@@@@@@@@@@@@@@@@@@@@@@@@@@@@@@@@@@@@@@@@@@@@@@@@@@@@@@@@@@@@@@@@@@@@@@@@@@@@@@@@@@@@@@@@@@@@@@@@@@@@@@@@@@@@@@@@@@@@@@@@@@@@@@@@@@@@@@@@@@@@@@@@@@@@@@@@@@@@@@@@@@@@@@@@@@@@@@@@@@@@@@@@@@@@@@@@@@@@@@@@@@@@@@@@@@@@@@@@@@@@@@@@@@@@@@@@@@@@@@@@@@@@@@@@@@@@@@@@@@@@@@@@@@@@@@@@@@@@@@@@@@@@@@@@@@@@@@@@@@@@@@@@@@@@@@",
"@@@@@@@@@@@@@@@@@@@@@@@@@@@@@@@@@@@@@@@@@@@@@@@@@@@@@@@@@@@@@@@@@@@@@@@@@@@@@@@@@@@@@@@@@@@@@@@@@@@@@@@@@@@@@@@@@@@@@@@@@@@@@@@@@@@@@@@@@@@@@@@@@@@@@@@@@@@@@@@@@@@@@@@@@@@@@@@@@@@@@@@@@@@@@@@@@@@@@@@@@@@@@@@@@@@@@@@@@@@@@@@@@@@@@@@@@@@@@@@@@@@@@@@@@@@@@@@@@@@@@@@@@@@@@@@@@@@@@@@@@@@@@@@@@@@@@@@@@@@@@@@@@@@@@@@@@@@@@@@@",
"@@@@@@@@@@@@@@@@@@@@@@@@@@@@@@@@@@@@@@@@@@@@@@@@@@@@@@@@@@@@@@@@@@@@@@@@@@@@@@@@@@@@@@@@@@@@@@@@@@@@@@@@@@@@@@@@@@@@@@@@@@@@@@@@@@@@@@@@@@@@@@@@@@@@@@@@@@@@@@@@@@@@@@@@@@@@@@@@@@@@@@@@@@@@@@@@@@@@@@@@@@@@@@@@@@@@@@@@@@@@@@@@@@@@@@@@@@@@@@@@@@@@@@@@@@@@@@@@@@@@@@@@@@@@@@@@@@@@@@@@@@@@@@@@@@@@@@@@@@@@@@@@@@@@@@@@@@@@@@@@",
"@@@@@@@@@@@@@@@@@@@@@@@@@@@@@@@@@@@@@@@@@@@@@@@@@@@@@@@@@@@@@@@@@@@@@@@@@@@@@@@@@@@@@@@@@@@@@@@@@@@@@@@@@@@@@@@@@@@@@@@@@@@@@@@@@@@@@@@@@@@@@@@@@@@@@@@@@@@@@@@@@@@@@@@@@@@@@@@@@@@@@@@@@@@@@@@@@@@@@@@@@@@@@@@@@@@@@@@@@@@@@@@@@@@@@@@@@@@@@@@@@@@@@@@@@@@@@@@@@@@@@@@@@@@@@@@@@@@@@@@@@@@@@@@@@@@@@@@@@@@@@@@@@@@@@@@@@@@@@@@@",
"@@@@@@@@@@@@@@@@@@@@@@@@@@@@@@@@@@@@@@@@@@@@@@@@@@@@@@@@@@@@@@@@@@@@@@@@@@@@@@@@@@@@@@@@@@@@@@@@@@@@@@@@@@@@@@@@@@@@@@@@@@@@@@@@@@@@@@@@@@@@@@@@@@@@@@@@@@@@@@@@@@@@@@@@@@@@@@@@@@@@@@@@@@@@@@@@@@@@@@@@@@@@@@@@@@@@@@@@@@@@@@@@@@@@@@@@@@@@@@@@@@@@@@@@@@@@@@@@@@@@@@@@@@@@@@@@@@@@@@@@@@@@@@@@@@@@@@@@@@@@@@@@@@@@@@@@@@@@@@@@",
"@@@@@@@@@@@@@@@@@@@@@@@@@@@@@@@@@@@@@@@@@@@@@@@@@@@@@@@@@@@@@@@@@@@@@@@@@@@@@@@@@@@@@@@@@@@@@@@@@@@@@@@@@@@@@@@@@@@@@@@@@@@@@@@@@@@@@@@@@@@@@@@@@@@@@@@@@@@@@@@@@@@@@@@@@@@@@@@@@@@@@@@@@@@@@@@@@@@@@@@@@@@@@@@@@@@@@@@@@@@@@@@@@@@@@@@@@@@@@@@@@@@@@@@@@@@@@@@@@@@@@@@@@@@@@@@@@@@@@@@@@@@@@@@@@@@@@@@@@@@@@@@@@@@@@@@@@@@@@@@@",
"@@@@@@@@@@@@@@@@@@@@@@@@@@@@@@@@@@@@@@@@@@@@@@@@@@@@@@@@@@@@@@@@@@@@@@@@@@@@@@@@@@@@@@@@@@@@@@@@@@@@@@@@@@@@@@@@@@@@@@@@@@@@@@@@@@@@@@@@@@@@@@@@@@@@@@@@@@@@@@@@@@@@@@@@@@@@@@@@@@@@@@@@@@@@@@@@@@@@@@@@@@@@@@@@@@@@@@@@@@@@@@@@@@@@@@@@@@@@@@@@@@@@@@@@@@@@@@@@@@@@@@@@@@@@@@@@@@@@@@@@@@@@@@@@@@@@@@@@@@@@@@@@@@@@@@@@@@@@@@@@",
"@@@@@@@@@@@@@@@@@@@@@@@@@@@@@@@@@@@@@@@@@@@@@@@@@@@@@@@@@@@@@@@@@@@@@@@@@@@@@@@@@@@@@@@@@@@@@@@@@@@@@@@@@@@@@@@@@@@@@@@@@@@@@@@@@@@@@@@@@@@@@@@@@@@@@@@@@@@@@@@@@@@@@@@@@@@@@@@@@@@@@@@@@@@@@@@@@@@@@@@@@@@@@@@@@@@@@@@@@@@@@@@@@@@@@@@@@@@@@@@@@@@@@@@@@@@@@@@@@@@@@@@@@@@@@@@@@@@@@@@@@@@@@@@@@@@@@@@@@@@@@@@@@@@@@@@@@@@@@@@@",
"@@@@@@@@@@@@@@@@@@@@@@@@@@@@@@@@@@@@@@@@@@@@@@@@@@@@@@@@@@@@@@@@@@@@@@@@@@@@@@@@@@@@@@@@@@@@@@@@@@@@@@@@@@@@@@@@@@@@@@@@@@@@@@@@@@@@@@@@@@@@@@@@@@@@@@@@@@@@@@@@@@@@@@@@@@@@@@@@@@@@@@@@@@@@@@@@@@@@@@@@@@@@@@@@@@@@@@@@@@@@@@@@@@@@@@@@@@@@@@@@@@@@@@@@@@@@@@@@@@@@@@@@@@@@@@@@@@@@@@@@@@@@@@@@@@@@@@@@@@@@@@@@@@@@@@@@@@@@@@@@",
"@@@@@@@@@@@@@@@@@@@@@@@@@@@@@@@@@@@@@@@@@@@@@@@@@@@@@@@@@@@@@@@@@@@@@@@@@@@@@@@@@@@@@@@@@@@@@@@@@@@@@@@@@@@@@@@@@@@@@@@@@@@@@@@@@@@@@@@@@@@@@@@@@@@@@@@@@@@@@@@@@@@@@@@@@@@@@@@@@@@@@@@@@@@@@@@@@@@@@@@@@@@@@@@@@@@@@@@@@@@@@@@@@@@@@@@@@@@@@@@@@@@@@@@@@@@@@@@@@@@@@@@@@@@@@@@@@@@@@@@@@@@@@@@@@@@@@@@@@@@@@@@@@@@@@@@@@@@@@@@@",
"@@@@@@@@@@@@@@@@@@@@@@@@@@@@@@@@@@@@@@@@@@@@@@@@@@@@@@@@@@@@@@@@@@@@@@@@@@@@@@@@@@@@@@@@@@@@@@@@@@@@@@@@@@@@@@@@@@@@@@@@@@@@@@@@@@@@@@@@@@@@@@@@@@@@@@@@@@@@@@@@@@@@@@@@@@@@@@@@@@@@@@@@@@@@@@@@@@@@@@@@@@@@@@@@@@@@@@@@@@@@@@@@@@@@@@@@@@@@@@@@@@@@@@@@@@@@@@@@@@@@@@@@@@@@@@@@@@@@@@@@@@@@@@@@@@@@@@@@@@@@@@@@@@@@@@@@@@@@@@@@",
"@@@@@@@@@@@@@@@@@@@@@@@@@@@@@@@@@@@@@@@@@@@@@@@@@@@@@@@@@@@@@@@@@@@@@@@@@@@@@@@@@@@@@@@@@@@@@@@@@@@@@@@@@@@@@@@@@@@@@@@@@@@@@@@@@@@@@@@@@@@@@@@@@@@@@@@@@@@@@@@@@@@@@@@@@@@@@@@@@@@@@@@@@@@@@@@@@@@@@@@@@@@@@@@@@@@@@@@@@@@@@@@@@@@@@@@@@@@@@@@@@@@@@@@@@@@@@@@@@@@@@@@@@@@@@@@@@@@@@@@@@@@@@@@@@@@@@@@@@@@@@@@@@@@@@@@@@@@@@@@@",
"@@@@@@@@@@@@@@@@@@@@@@@@@@@@@@@@@@@@@@@@@@@@@@@@@@@@@@@@@@@@@@@@@@@@@@@@@@@@@@@@@@@@@@@@@@@@@@@@@@@@@@@@@@@@@@@@@@@@@@@@@@@@@@@@@@@@@@@@@@@@@@@@@@@@@@@@@@@@@@@@@@@@@@@@@@@@@@@@@@@@@@@@@@@@@@@@@@@@@@@@@@@@@@@@@@@@@@@@@@@@@@@@@@@@@@@@@@@@@@@@@@@@@@@@@@@@@@@@@@@@@@@@@@@@@@@@@@@@@@@@@@@@@@@@@@@@@@@@@@@@@@@@@@@@@@@@@@@@@@@@",
"@@@@@@@@@@@@@@@@@@@@@@@@@@@@@@@@@@@@@@@@@@@@@@@@@@@@@@@@@@@@@@@@@@@@@@@@@@@@@@@@@@@@@@@@@@@@@@@@@@@@@@@@@@@@@@@@@@@@@@@@@@@@@@@@@@@@@@@@@@@@@@@@@@@@@@@@@@@@@@@@@@@@@@@@@@@@@@@@@@@@@@@@@@@@@@@@@@@@@@@@@@@@@@@@@@@@@@@@@@@@@@@@@@@@@@@@@@@@@@@@@@@@@@@@@@@@@@@@@@@@@@@@@@@@@@@@@@@@@@@@@@@@@@@@@@@@@@@@@@@@@@@@@@@@@@@@@@@@@@@@",
"@@@@@@@@@@@@@@@@@@@@@@@@@@@@@@@@@@@@@@@@@@@@@@@@@@@@@@@@@@@@@@@@@@@@@@@@@@@@@@@@@@@@@@@@@@@@@@@@@@@@@@@@@@@@@@@@@@@@@@@@@@@@@@@@@@@@@@@@@@@@@@@@@@@@@@@@@@@@@@@@@@@@@@@@@@@@@@@@@@@@@@@@@@@@@@@@@@@@@@@@@@@@@@@@@@@@@@@@@@@@@@@@@@@@@@@@@@@@@@@@@@@@@@@@@@@@@@@@@@@@@@@@@@@@@@@@@@@@@@@@@@@@@@@@@@@@@@@@@@@@@@@@@@@@@@@@@@@@@@@@",
"@@@@@@@@@@@@@@@@@@@@@@@@@@@@@@@@@@@@@@@@@@@@@@@@@@@@@@@@@@@@@@@@@@@@@@@@@@@@@@@@@@@@@@@@@@@@@@@@@@@@@@@@@@@@@@@@@@@@@@@@@@@@@@@@@@@@@@@@@@@@@@@@@@@@@@@@@@@@@@@@@@@@@@@@@@@@@@@@@@@@@@@@@@@@@@@@@@@@@@@@@@@@@@@@@@@@@@@@@@@@@@@@@@@@@@@@@@@@@@@@@@@@@@@@@@@@@@@@@@@@@@@@@@@@@@@@@@@@@@@@@@@@@@@@@@@@@@@@@@@@@@@@@@@@@@@@@@@@@@@@",
"@@@@@@@@@@@@@@@@@@@@@@@@@@@@@@@@@@@@@@@@@@@@@@@@@@@@@@@@@@@@@@@@@@@@@@@@@@@@@@@@@@@@@@@@@@@@@@@@@@@@@@@@@@@@@@@@@@@@@@@@@@@@@@@@@@@@@@@@@@@@@@@@@@@@@@@@@@@@@@@@@@@@@@@@@@@@@@@@@@@@@@@@@@@@@@@@@@@@@@@@@@@@@@@@@@@@@@@@@@@@@@@@@@@@@@@@@@@@@@@@@@@@@@@@@@@@@@@@@@@@@@@@@@@@@@@@@@@@@@@@@@@@@@@@@@@@@@@@@@@@@@@@@@@@@@@@@@@@@@@@",
"@@@@@@@@@@@@@@@@@@@@@@@@@@@@@@@@@@@@@@@@@@@@@@@@@@@@@@@@@@@@@@@@@@@@@@@@@@@@@@@@@@@@@@@@@@@@@@@@@@@@@@@@@@@@@@@@@@@@@@@@@@@@@@@@@@@@@@@@@@@@@@@@@@@@@@@@@@@@@@@@@@@@@@@@@@@@@@@@@@@@@@@@@@@@@@@@@@@@@@@@@@@@@@@@@@@@@@@@@@@@@@@@@@@@@@@@@@@@@@@@@@@@@@@@@@@@@@@@@@@@@@@@@@@@@@@@@@@@@@@@@@@@@@@@@@@@@@@@@@@@@@@@@@@@@@@@@@@@@@@@",
"@@@@@@@@@@@@@@@@@@@@@@@@@@@@@@@@@@@@@@@@@@@@@@@@@@@@@@@@@@@@@@@@@@@@@@@@@@@@@@@@@@@@@@@@@@@@@@@@@@@@@@@@@@@@@@@@@@@@@@@@@@@@@@@@@@@@@@@@@@@@@@@@@@@@@@@@@@@@@@@@@@@@@@@@@@@@@@@@@@@@@@@@@@@@@@@@@@@@@@@@@@@@@@@@@@@@@@@@@@@@@@@@@@@@@@@@@@@@@@@@@@@@@@@@@@@@@@@@@@@@@@@@@@@@@@@@@@@@@@@@@@@@@@@@@@@@@@@@@@@@@@@@@@@@@@@@@@@@@@@@",
"                          424234667zxvbnmMVCVMmnbvxz7656xvx3                             O     O                                                            g                                                                                                +                                          O        eeyyeeeewqqqqq0",
"                         %424234667zxvbnmMVCVMmnbvxz7656xvx3%                                                                       O                        :                                                                                                                                                  eeyyeeeewqqqqq09",
"                         <424234667zxvbnmMVCVMmnbvxz7656xvx3<     :                                                                                                                                               :                                                                Vn      VV                   eyyeeeewqqqqq099",
"                         1424234667zxvbnmMVCVMmnbvxz7656xvx31                                                                                                                                                                                                                     VnMV    Vnnn                  eyyeeewqqqqq0999",
"     S                   2424234667zxvbnmMVCVMmnbvxz7656xvx32                                      O                    O                                                                   O                                                                       g            VnMV7   VnnM7           :      eyeeeewqqqqq099o",
"                         3424234667zxvbnmMVCVMmnbvxz7656xvx33                                                                                                                                                                                                                   VnMV7   VnnM7  :                eyeeeewqqqq0999o",
"       O    :            4424234667zxvbnmMVCVMmnbvxz7656xvx33              S                                                                                                                           O                                                                       VnMV7   VnnM7:                   eyeeeewqqqq0999o",
"          O              4424234667zxvbnmMVCVMmnbvxz7656xvx33                S                                                                    O                                                        O                         S            +                           VnMV7   VnnM7                     eyeeeewqqq09999o",
"                 :       3424234667zxvvnmMVCVMmnbvxz7656xvx33  g     :                                                                      O                                   S O                                                 g                          <zzzzzzzzzzzzzzzzV7   VnnM7                      eyeeewqqqq09999*",
"                         3424234667zxvbnmMVCVMmnbvxz7656xvx33                                                O                g     :                                                                                       +                              <zzzz5555555555555555zzzzVnnM7    :                  eyeeewqqqq09999*",
"                         3424234667zxvbnmMVCVMmnbvxz7656xvx33          O                           O           O                                                                                                                          :     O        <zz555555555555555555555555zzM7                        eyeeewqqqq09999*",
"                         3254234667zxvbnmMVCVMmnvvxz7656xvx33                                                                                                               O                                                                           <z55555533333333333333335555557<                        eyeeewqqqq09999*",
"                         3254234667zxvbnmMVCVMmnnvxz7656xvx63                           :                                                      :                                O                                                                      <z5553333                3333555z<                      Seyeeewqqqq09999o",
"        O                3254234667zxvbnmMVCVMnnvvxz7656xvx63                                                                                                                            :                                                             z5533   266666666666666662   3355z                       eyeeewqqqq09999o",
"                         3254234667zxvbnmMVCVMmnbvxz7656xvx73       O                                                                               :                                                                                                  553  266666vbnmMVCVMmnbv66662  355                       eyeeewqqqq09999o",
"                         3254234667zxvbnmMVCVMmnbvxz76567xvx3                                                                        O                                         :                          :                                     O      53 664667zxvbnmMVCVMmnbvxz75666 35                       eyeeewqqqq09999*",
"               O        O3254234667zxvbnmMVCVMmnbvxz76566xvx3         :                       :             :                               O                    O                                                                                     3 5423467zxvbnmMVCVMmnbvxz756xv6 3                       eyeeewqqqq09999*",
"                     S   3254234667zxvbnmMVCVMmnbvxz76566xvx3                                                            O                          :         O       :             O                                                          O        45423467zxvbnmMVCVMmnbvxz756xvx3                        eyeeewqqqq09999*",
"                        %3254234667zxvbnmMVCVMmnbvxz76566xvx3%                                            O                        O                         O             :                                                                           %45423467zxvbnmMVCVMmnvvxz756xvx3%                       eyeeewqqqq09999*",
"                        <3254234667zxvbnmMVCVMmnbvxz76566xvx3<                                     :                                                      :                                       +                                            +       <45423467zxvbnmMVCVMmnvvxz756xvx3<   S                   eyeeewqqqqq09999",
"        :          :    13254234667zxvbnmMVCVMmnbvxz76566xvx31                                                                                              :               g   O                            :                                     O   145423467zxvbnmMVCVMmnbvxz756xvx31                  O    wyeeeewqqqq09999",
"                        23254234667zxvbnmMVCVMmnbvxz76566xvx32              O                                                                                                                        O                                                 245423467zxvbnmMVCVMmnbvxz756xvx32            O       :  qyyeeewqqqqq0999",
"              g         33254234667zxvbnmMVCVMmnbvxz76566xvx33                                   :            O            S           O O                         :     O                                               O                             345423467zxvbnmMVCVMmnbvxz756xvx33                       *qyeeeewqqqqq099",
"         :              43254234667zxvbnmMVCVMmnbvxz76566xvx33       :        O                                                                                                                      :                                                 445423467zxvbnmMVCVMmnbvxz756xvx33                        qwyeeewqqqqqq09",
"                        43254234667zxvbnmMVCVMmnbvxz76566xvx33                                                O                 :      :       O                  O                                                                                  g 445423467zxvbnmMVCVMmnbvxz756xvx33                        qweeeeewqqqqqq0",
"            O           33254234667zxvbnmMVCVMmnbvxz76566xvx33                                                                                                                                                                                         345423467zxvbnmMVCVMmnbvxz756xvx33                        *qweeeewqqqqqqq",
"                        33254234667zxvbnmMVCVMmnbvxz76566xvx33                                                            O     O                         O                                                   O          :                             345423467zxvbnmMVCVMmnbvxz756xvx73                         *qweeeewqqqqqq",
"                        33254234667zxvbnmMVCVMmnbvxz76566xvx33                                                                                                                       :     +                                                           345423467zxvbnmMVCVMmnbvxz7567xvx3                          qweeeeewqqqqq",
"                        33254234667zxvbnmMVCVMmnbvxz76566xvx33                                          OO                                                    :           +                                                                 O          345423467zcvbnmMVCVMmnbvxz7566xvx3        O                 *qweeeeewwqqq",
"                        33254234667zxvbnmMVCVMmnbvxz76566xvx33                 :                  :                                                        O                  +                                     :                                  345423467zxvvnmMVCVMmnbvxz7566xvx3                           *qwweeeeewwq",
"      :                 33254234667zxvbnmMVCVMmnbvxz76566xvx33                          O                               O                                                                                                          O                   345423467zxvbnnMVCVMmnbvxz7566xvx3                            *qqweeeeeew",
"                        33254234667zxvvnmMVCVMmnbvxz76566xvx33             g                                                           O   O                             :                                                           O                 345423467zxvbnmMVCVMmnbvxz7566xvx3               : O            *qwweeeee",
"     O                  32453234667zxvbnmMVCVMmnbvxz76656xvx33                                                        :                                                              +                                                                 345423467zxvbnmMVCVMmnbvxz7656xvx3                               *qqwweee",
"                        32542345667zxvbnmMVCVMmnbvxz76656xvx33                                                          O                                                                                                                              344234567zxvbnmMVCVMmnbvxz7656xvx3                                 *qqwww",
"                        32542346667zxvbnmMVCVMmnbvxz76656xvx63                                                                                                                                          :                                              454234667zxvbnmMVCVMmnbvxz7656xvx3                                   *qqq",
"                       %32542346667zxvbnmMVCVMmnbvxz76656xvx73%                                                                                        :                      +                                                                       %454234667zxvbnmMVCVMmnbvxz7656xvx3%     :                       :        ",
"       :               <32542346667zxvbnmMVCVMmnbvxz766567xvx3<             :                                                             O                                                              :              O                             <454234667zxvbnmMVCVMmnbvxz7656xvx3<           :                          ",
"           :           132542346667zxvbnmMVCVMmnbvxz766566xvx31                                                                                                                                                         SO                            1454234667zxvbnmMVCVMmnbvxz7656xvx31                                      ",
"                       332542346667zxvbnmMVCVMmnbvxz766566xvx32                                                                         O                                                                                                             2454234667zxvbnmMVCVMmnbvxz7656xvx32                                     g",
"                       332542346667zxvb63<%#%<<37vxz766566xvx33                                         h   :  O                   O                     +                                                                             O              3454234667zxvbnmMVCVMmnvvxz7656xvx33                                      ",
"                       332542346667zx31@$42<$@3<$14z766566xvx33                                        gjg             :         :                                                                                    O                              :4454234667zxvbnmMVCVMmnbvxz7656xvx33                           O          ",
"                       3325423466675<%#6@7%x< z<#@<<666566xvx33                                       hjSjh                                                     :                           g     +                                                 : 4454234667zxvbnmMVCVMmnbvxz7656xvx33                                      ",
"                       332542346662$$1#Cz     o%A5o$%46566xvx33                                        gjg                                                    :                                                            :                          3454234667zxvbnmMVCVMmnbvxz7656xvx33               S                      ",
"                      %33254234662<<$x6o@%4654$X5x<<<%5566xvx33                      :                  h                                                                                                                                             3454234667zxvbnmMVCVMmnbvxz7656xvx33                  O                   ",
"         :            <3325423464<X5n@@3MHHHHHFm$ 5n@#%566xvx33      :       VV      nV                                                                   +                                                                                           3454234667zxvb63<%$$<<37vxz7656xvx33       O                              ",
"                      1332542346%< .$ bHFAAAAAAHHzo%  1%66xvx33             nnnV    VMnV                                                                                                                                    O                         3454234667zx4<@$41<$#3<$14z7656xvx33                                      ",
"                      23325423421    AHAZFGHAAHFHHM   o<56xvx33             7MnnV   7VMnV                                                                                     :   +                     +                                             34542346675<$$6@7%x< 7<$@<<6656xvx33                                      ",
"                      333254234%$   nHCAHMx6CCx7vxV5   <%6xvx33              7MnnV   7VMnV        :                    O                                                                                                     :              :         3454234662$$1#Cz     o%A5X#<456xvx33                                      ",
"                      333254231<.  1HAZHV  $Hz 42  Z$  @<6xvx33               7MnnV   7VMnV                                        O           +                                                                                     O                345423462<<$c5X#<4664#.5c<<1%36xvx73                                      ",
"   g                  33325423<$   mHZHV  <HH4%H5  Av   %2xvx33                7MnnV   7VMnV                                                                S                                   +                 :                      g            34542344<X5n@@3MGHHHHFm% 4n@#%67xvx3                                      ",
"                      33325423%#  XFAHV  2HFAMHH# .FA   %<xvx33                 7MnnV   7Vzzzzzzzzzzzzz<                                                                                         +                                                    3454234%% .% nHFAAAAAAHHzo%  1<6xvx3                         :         :  ",
"                      33325423$z. 7FHV  2HHACHH% .ZHA2 @7%xvx33                  7MnnVzzzz5555555555555zzzz<                                               17nnnnnnnnnnnnnnnnnnnnnnnn6666nn71                     O               O  :                345423<<.   AHZZFHHAAHFHHM   o<4xvx3                                      ",
"            :         33325323@vx6nFV  3HGADDF< oCHDVv6cz$xvx33     :             7Mzz555555555555555555555zz<                                     17nnnnnnnnbvvvvvvvvvvbnbvvbnmMCMmnvvvvvvnnnnnnnn66              O                                 %345424%$   mHZCHMx6CCx7vxV5   <<xvx3%                                     ",
"                      33245233@xMvxH@  $$@@@nn  zHvmAzmn5$xvx33                   <75555553333333333333555555z<                                17nnnnxzxvvvvvbvvvvvvvvvvbnvvvbnmMCMmnvvvvvvvvvvvvvvvv6671              O                         O   <34542<<.  1HZZHV. #Hz 42  Z%  @%zvx3<      :                              ",
"                      33245233@zbvxF@       cn  vn nA7bb5%xvx33                  <z5553333             3333555z<                :            3nnbbvbvxzxvvvvvbvvvvvvvvvvbnbvvbnmMCMmnbvvvvvvvvvvvvvvvvvvnn3                                          134542%$   nHZHV  <HH4%H5  Av   %5vx31                                     ",
"                      33245233#752zVnzzzv4  vMoo5@XAM61x3<xvx33                  z5533   266666666666662   3355z                           2xvxvbbvbvxzxvvvvvbvvvvvvvvvvbnbvvbnmMCMmnbvvvvvvvvvvvvvvvvvvvxvx2                               :        234542%#  XFAHV  1HFAMGH$ .FA   %2vx32             :                       ",
"                      33245233<2xvccHHHHHm  5HAAVCAFxvcc$4xvx33                  553  266667vbnmMMmnbv66662  355                          6zxvxvbbvbvxzxvvvvvbvvvvvvvvvvbnbvvbnmMCMmnvvvvvvvvvvvvvvvvvvvvxvxz6              O             O  :       334542#z. 7FHV. 2HGAZHH% .CHA2 @z<vx33                             O       ",
"          :        g  332452334@vb66CFZZHv  6HDADAHm57nz@6xvx33                  53 664667zxvvnmMMmnbvxz75666 35                 O       36zxvxvbbvbvxzxvvvvvvvvvvcvvvvvbnbvvbnmMCMmnbvvvvvvvvvvvvvvvvvvvxvxz63                    O  O              434542@vx5nGM. 3HHADDD< oCHAVb6cz<vx33                        :            ",
"                      332452334$671x7FFZACMmCAAAZGC6z1v<26xvx33%     S           3 5423467zxvbnmMMmnbvxz756xv6 3              g          36zxvxvbbvvvxzxvvvvxzzzzzzzzzzzzzzzzzzzzzzzzzzzzzzxvvvvvvvvvvvvvxvxz63                            O         434543@zMvxH@  $$@@@nn  xHcnAzmn5%vx33                                     ",
"                      3324523345@cmnx7AFAAFGDAZAGZ7cnm7o66xvx33<          :       45423467zxvbnmMMmnbvxz756xvx3       O       O          36zxvxvbbxzzzzzzzzz62%%%%%%%%%%%%%%%%%%%%%%%%%%%%26zzzzzzzzzxvvvxvxz63                                      334542@zbvzG@       cb  vn nD7vb4<vx33       >                             ",
"                      3324523346<1bb%3xMFFFDDFFAm625bc$366xvx331                 %45423467zxvbnmMMmnbvxz756xvx3%                         36zxzzzzz62%%%%%%%%%%$$$$$$$$$$$$$$$$$$%$$$$$$$$$%%%%%%%%%%26zzzzzxz63  O                                   334542@761xVnzxxv4  vMo@6@XAV61x33vx33      :i:                            ",
"                     %33245233466#473425vMVVVMmx74<2z1<566xvx632                 <45423467zxvbnmMMmnbvxz756xvx3<                         36z61%%%%%%$$$46xbmMMMMMMMMMMMMMMMMMMMMMMMMMMMMMMMMmbx64$$$%%%%%%16z63          O     O                     334542%2xvxcHHHHHn  6HAAVCAAxvcc$7vx33     >ipi>                           ",
"                     <332452334666@4n321%227z4<4$<z5<%6566xvx733                 145423467zxvbnmMMmnbvxz756xvx31                         31 46xbMMMMMMMMMmbnmnbbbbbbbbbbnmnbnmMVAAFGFDAVM  bbbbmMMM  MMmbx64 13    g                               : 3345423@vv66VFZAHv  6HDDDAHm57n7@xvx33      :i:                            ",
"                     13324523346667%157113326n16<6z<<666566xvx33                 245423467zxvbnnMMmnbvxz756xvx32                          167zxzbnbxz7zxvbbnmnbbbbbbbbbbnmnbnmMVADFGFAAVMm bbbbtrrrrt 333x 761                    O                  3345423#671x7FFZACMmCAAZZFZ7z1v12xvx33       >    O                        ",
"                     23324523346667z3<46vzv56nzc72$57666566xvx33                 345423467zxvbnmMMmnbvxz756xvx33                         1633x bn3xz7zxvbbbnmnbbbbbbbbbbnmnbvnmMVADFGFDAVM 33bb3333rrt  33 376                                       33454234@cmnx7AFAAGFDZAAFC7cnn7@6xvx33                                     ",
"g                    33324523346667zxv5$%245532$$6xz7666566xvx33                 445423467zxvbnmMMmnbvxz756xvx33                        163333xb3 3z7zxvbbnmnvbbbbbbbbbbnmnbbnmMVADFGFD VMm##33####333   bv 3 61                                     33454234<<bb%3xMDFFFDFGAm636bc$36xvx33                                     ",
" :                   33324523346667zxvv6667zz7667vxz7666566xvx33                 445423467zxvbnmMMmnbvxz756xvx33           S           1333   33   3  vbbbnmnbbbbbbbbbbbbnmnbnmMVAAFGF  VM###3####%##3   33  z 61                                    334542346#573425vmCVVMnc74<27<<56xvx33                 :         g         ",
"                     33324523346667zxvbn667zz766nvxz7666566xvx33                 345423467zxvbnmMMnnbvxz756xvx33                      16333    3    z  bbnmnbbbbbbbbbbbbbnmnbnmMVAAFGFD VM33#######%          z761          O                        3454234566#4n32<<227z5<4$<z51%656xvx33           O                         ",
"                     33324523346667zxvvn667zz767vvxz7666566xvx33                 345423467zxvbnmMMmnbvxz756xvx73                     13333         33vbbbnmnbbbbbbbbbbbbbnmnbvnmMVADFFF  V3########%         v z761                                  34542346667%<57113326b16<6z<<6656xvx33                                     ",
"               :     33324523346667zxvbnn67zz76nbvxz7666566xvx33             :   345423467zxvbnmMMmnbvxz7567xvx3                    133  3           3b bnmnbbbbbbbbbbbbbnmnbbnmMVAAFGFD V3#########%%      33 xz  1   S                            %34542346667z4%36vzv56nxcz1$576656xvx73%               :    O               ",
"                     33324523346667zxvbnm67zz77nbvxz7666566xvx33                 345423467zxvbnmMVmnbvxz7566xvx3               O   133                 bnmnbbbbbbbbbbbbbbnmnbbnmMVADFGFDA3############$      3 3   61                 O             <34542346667zxv5$%245531$$6xz766567xvx3<                                    ",
"      O              33324523346667zxvbnmM7zz7mnbvxz7666566xvx33             :   345423467zxvbnmMMnnbvxz7566xvx3                  133      6vCC1     3bbnmnbbbbbvnvbbbbbbnmnbbnmMVAAFGFDA##############         vxz 61                            : 134542346667zxvb6667zz7667vxz766566xvx31 O                           O      ",
"                     33325233456677zxvbnmM7zz7mnbvxz7666566xvx33                 345423467zxvbnmMMmnbvxz7566xvx3                 163     6nCC%%C1z3  33bnmnbbbbbbbbbbbbbbnmnbbbnmMVAAFG######n3######$          33xz761   :                         234542346667zxvbn667zz766bvxz766566xvx32                                    ",
"                     33245233466667zxvbnmMVzzMmnbvxz7666566xvx33                 345423467zxvbnmMMmnbvxz7566xvx3               O16733  6nCnnC  %C3     3mnvbbbbbbbbbbbbbbbnmnbbnmMVADF##D@VMmnb#b3###%            3xz761                            334542346667zxvbn667zz767bvxz766566xvx33                                    ",
"           :         33245233466667zxvbnmMVCVMmnbvxz7666566xvx33                 345423467zxvbnmMMmnbvxz7656xvx3               16 z336nCnnCmCb %Cx3    nmnnvbbbbbbbbbbbbbbnmnbbnmMV DF#FDA Mmn bb33##$             vx 761                           434542346667zxvbnn67zz76nbvxz766566xvx33                                    ",
"                     33245233466667zxvbnmMVCVMmnbvxz7666566xvx33                 344234567zxvbnmMMmnbvxz7656xvx3          O   16  x6nCnnCCCmvCCCvxv3  nmnbbbbbbbbbbbbbbbbbnmnbbbnmMVADFGFDAVMmnb####%%           3b    761             S       O    434542346667zxvbnm67zz77nbvxz766566xvx33                                    ",
"                     33245233466667zxvvnmMVCVMmnbvxz7666566xvx33                 454234667zxvbnmMMmnbvxz7656xvx3             167z6nCnnCCCm77n77 xvbb bnmnbbbbbbbbbbbbbbbbbnmnbbbnmMVAAFGFAAVM33bb3#%$            bvbb  z761                         334542346667zxvbnmM7zz7mnbvxz766566xvx33                                    ",
"       S             33245233466667zxvbnmMVCVMmnbvxz7666566xvx33                %454234667zxvbnmMMmnbvxz7656Nux3%           1676nCnnCCCm77n77z  xvbbb nmnbbbbbbbbbbbbbbbbbnmnbbbnmMVAAFGFD3333##b3#$           3bbbvbbvxz761                 :      334542346667zxvbnmM7zz7mnbvxz766566xvx33                   O    :           ",
"           :        %33245233466667zxvbnmMVCVMmnbvxz7666566xvx33                <454234667zxvbnmMMmnbvxz765uuuu3<          166nCnnCCCm77n77 z7z vbbbbn nbbbbbbbbbbbbbbbbbbnmnbbbnmMVADFGFDA#####33###     %#    3bb    vxz761                       334542346667zxvbnmMVzzMmnbvxz766566xvx33                         O          ",
"                    <33245233466667zxvbnmMV444mnbvxz7666566xvx33  g   :         1454234667zxvbnmMMm<zVVVVVVVVVVVVVVVz<    16nCnnCCCm77n77xxxz7z vbbbbnmnbbbbbbbbbbbbbbbbbbnmnbbbbnmMVAAFGF3#VM###3#%     #%#     33 3bb vxz761      O               334542346667zxvbnmMVCVMm444xz766566xvx33         :                          ",
"           O        133245233466667zxvbnmM4&&&4nbvxz7666566xvx33                2454234667zxvb<zVVVVVmmmmmmmmmmmmmmnVVVVvznCnnCCCm77n77bxxxz7zxv bbbbnmnbbbbbbbbbbbbbbbbbbnnnbbbbnmMVAAFGF AVMm3##%#     %#         3vbbbvxz761                     334542346667zxvvnmMVCVM48884z766566xvx33                                    ",
"                    233245233466667zxvbnmM4&&&4nbvxz7666566xvx33                3454234667<zVVVVmmmmmnnnnnnnnnnnnnnnmmvvnCnnCCCm77n7bnbxxxxz7zxv bbbnmnbbbbbbvbbbbbbbvbbbbbnmnbbbnmMVADF FAAVM33##%#     %#          33bbbvxz761                    334542346667zxvbnmMVCVM48884z766566xvx33                                    ",
"                    333245233466667zxvbnmM44444nbvxz7666566xvx33         :      4454234<zVVVmmmnnnnnnvvvvvvvvvvvvvvvvvnCnnCCCm77n7cvnbxxxxz7zxv bbbbnnnbbbbbbnvbbbbbvnbbbbbnmnbbbnmMVADFGFDAVM3##$#     %%##           vbbbvxz761                   334542346667zxvbnmMVCVM44444z766566xvx33                                    ",
"                    333245233466667zxvbnmM4&&&4nbvxz7666566xvx33         O      44542<zVVmmmnnnnvvvvvvvvvvvvvvvvvvvvnCnnCCCm77n7zxxbnbxxxxz7zx bbbbnmnbbbbbbbbbbbbbbbbbbbbbnmnbbbbnnMVADFFFD#######    %#####        bb vbbbvxz761                  334542346667zxvbnmMVCVM48884z766566xvx33                                    ",
"                    333245233466667zxvbnmM4&&&4nbvxz7666566xvx33                345<zVVmmnnnvvvvvvvvvvvvvvvvvvvvvvnCnnCCCm77n7xzxxbnbxxxxz7zxvbbbbbnmnbbbbbbbbbbbbbbbbbbbbbnmnbbbbnmMVADFGFDAVM#n# bb ####b btrr rtb  bbbvbbbvxz761                 334542346667zxvbnmMVCVM48884z766666xvx33                                    ",
"                    333245233466667HHHHHHHHHHHHHHHHHHHHHHHHHHHHHHHHHHHHHHHHHHHHHHHHHHHHHHHHHHHHHHHHHHHHHHHHHHHHHHHHHHHHHHHHHHHHHHHHHHHHHHHHHHHHHHHHHHHHHHHHHHHHHHHHHHHHHHHHHHHHHHHHHHHHHHHHHHHHHHHHHHHHHHHHHHHHHHHHHHHHHHHHHHHHHHHHHHHHHHHHHHHHHHHHHHHHHHHHHHHHHHHHHHHHHHHHHHHHHHHHHHHHHvx33                                    ",
"                    333245233466667HHHHHHHHHHHHHHHHHHHHHHHHHHHHHHHHHHHHHHHHHHHHHHHHHHHHHHHHHHHHHHHHHHHHHHHHHHHHHHHHHHHHHHHHHHHHHHHHHHHHHHHHHHHHHHHHHHHHHHHHHHHHHHHHHHHHHHHHHHHHHHHHHHHHHHHHHHHHHHHHHHHHHHHHHHHHHHHHHHHHHHHHHHHHHHHHHHHHHHHHHHHHHHHHHHHHHHHHHHHHHHHHHHHHHHHHHHHHHHHHHHHHHvx33%                                   ",
"                    333245233466667FCCCCCCCCCCCCCCCCCCCCCCCCCCCCCCCCCCCCCCCCCCCCCCCCCCCCCCCCCCCCCCCCCCCCCCCCCCCCCCCCCCCCCCCCCCCCCCCCCCCCCCCCCCCCCCCCCCCCCCCCCCCCCCCCCCCCCCCCCCCCCCCCCCCCCCCCCCCCCCCCCCCCCCCCCCCCCCCCCCCCCCCCCCCCCCCCCCCCCCCCCCCCCCCCCCCCCCCCCCCCCCCCCCCCCCCCCCCCCCCCCCCFvx33<                                   ",
"                    333245233466667FCCCCCCCCCCCCCCCCCCCCCCCCCCCCCCCCCCCCCCCCCCCCCCCCCCCCCCCCCCCCCCCCCCCCCCCCCCCCCCCCCCCCCCCCCCCCCCCCCCCCCCCCCCCCCCCCCCCCCCCCCCCCCCCCCCCCCCCCCCCCCCCCCCCCCCCCCCCCCCCCCCCCCCCCCCCCCCCCCCCCCCCCCCCCCCCCCCCCCCCCCCCCCCCCCCCCCCCCCCCCCCCCCCCCCCCCCCCCCCCCCCCFvx331      O                            ",
"                    333245233466667xxxxxxxxxxxxxxxxxxxxxxxxxxxxxxxxxxxxxxxxxxxxxxxxxxxxxxxxxxxxxxxxxxxxxxxxxxxxxxxxxxxxxxxxxxxxxxxxxxxxxxxxxxxxxxxxxxxxxxxxxxxxxxxxxxxxxxxxxxxxxxxxxxxxxxxxxxxxxxxxxxxxxxxxxxxxxxxxxxxxxxxxxxxxxxxxxxxxxxxxxxxxxxxxxxxxxxxxxxxxxxxxxxxxxxxxxxxxxxxxxxxxxvx332                                   ",
"                    333245233466667zxvVn33333333333bmb33333333333bmb33333333333bmb33333333333bmb33333333333vmb33333333333bmb33333333333bmb33333333333bmb33333333333bmb33333333333bmb33333333333bmb33333333333bmb33333333333bmb33333333333bmb33333333333bmb33333333333bmb33333333333nV66xvx333      g                            ",
"                    333245233466667zxvFV3<<<<<<<<<3bVb3<<<<<<<<<3bVb3<<<<<<<<<3bVb3<<<<<<<<<3bVb3<<<<<<<<<3bVb3<<<<<<<<<3bVb3<<<<<<<<<3bVb3<<<<<<<<<3bVb3<<<<<<<<<3bVb3<<<<<<<<<3bVb3<<<<<<<<<3bVb3<<<<<<<<<3bVb3<<<<<<<<<3bVb3<<<<<<<<<3bVb3<<<<<<<<<3bVb3<<<<<<<<<3bVb3<<<<<<<<<3VF66xvx733          :                        ",
"                    333245233466667zxvFV33333333333bVb33333333333bVb33333333333bVb33333333333bVb33333333333bVb33333333333bVb33333333333bVb33333333333vVb33333333333bVb33333333333bVb33333333333bVb33333333333bVb33333333333bVb33333333333bVb33333333333vVb33333333333bVb33333333333VF667xvx33                           S       ",
"             g      333245233466667zxvFVHHHHHHHHHHHVVHHHHHHHHHHHHVVHHHHHHHHHHHHVVHHHHHHHHHHHHVVHHHHHHHHHHHHVVHHHHHHHHHHHHVVHHHHHHHHHHHHVVHHHHHHHHHHHHVVHHHHHHHHHHHHVVHHHHHHHHHHHHVVHHHHHHHHHHHHVVHHHHHHHHHHHHVVHHHHHHHHHHHHVVHHHHHHHHHHHHVVHHHHHHHHHHHHVVHHHHHHHHHHHHVVHHHHHHHHHHHHVF666xvx33                              :    ",
"                    332345233466667zxvFVVVVVVVVVVVVVVVVVVVVVVVVVVVVVVVVVVVVVVVVVVVVVVVVVVVVVVVVVVVVVVVVVVVVVVVVVVVVVVVVVVVVVVVVVVVVVVVVVVVVVVVVVVVVVVVVVVVVVVVVVVVVVVVVVVVVVVVVVVVVVVVVVVVVVVVVVVVVVVVVVVVVVVVVVVVVVVVVVVVVVVVVVVVVVVVVVVVVVVVVVVVVVVVVVVVVVVVVVVVVVVVVVVVVVVVVVVVVVF666xvx33                                   ",
"                   %332345233466667zxvFVVVVVVVVVVVVVVVVVVVVVVVVVVVVVVVVVVVVVVVVVVVVVVVVVVVVVVVVVVVVVVVVVVVVVVVVVVVVVVVVVVVVVVVVVVVVVVVVVVVVVVVVVVVVVVVVVVVVVVVVVVVVVVVVVVVVVVVVVVVVVVVVVVVVVVVVVVVVVVVVVVVVVVVVVVVVVVVVVVVVVVVVVVVVVVVVVVVVVVVVVVVVVVVVVVVVVVVVVVVVVVVVVVVVVVVVVVVVVF666xvx33                                   ",
"                   <332345233466667zxvFVVVVVVVVVVVVVVVVVVVVVVVVVVVVVVVVVVVVVVVVVVVVVVVVVVVVVVVVVVVVVVVVVVVVVVVVVVVVVVVVVVVVVVVVVVVVVVVVVVVVVVVVVVVVVVVVVVVVVVVVVVVVVVVVVVVVVVVVVVVVVVVVVVVVVVVVVVVVVVVVVVVVVVVVVVVVVVVVVVVVVVVVVVVVVVVVVVVVVVVVVVVVVVVVVVVVVVVVVVVVVVVVVVVVVVVVVVVVVF666xvx33  O                                ",
"                   1332345233466667zxvFVVVVVVVVVVVVVVVVVVVVVVVVVVVVVVVVVVVVVVVVVVVVVVVVVVVVVVVVVVVVVVVVVVVVVVVVVVVVVVVVVVVVVVVVVVVVVVVVVVVVVVVVVVVVVVVVVVVVVVVVVVVVVVVVVVVVVVVVVVVVVVVVVVVVVVVVVVVVVVVVVVVVVVVVVVVVVVVVVVVVVVVVVVVVVVVVVVVVVVVVVVVVVVVVVVVVVVVVVVVVVVVVVVVVVVVVVVVVVF666xvc33                                   ",
"%%%%%%%%%%%%%%%%%%%2332452334666667zxvFFFFFFFFFFFFFFFFFFFFFFFFFFFFFFDFFFFFFFFFFFFFFFFDFFHHHHHHHHHHHHHHHHHHHHHHHHHHHHHHHHVnFFFFFFFFFFFFFFFFFFFFFFFFFFFFFFFFFFFFFFFFFFFFFFFFFFFFFFFFFFFFFFFFFFFFFFFnVHHHHHHHHHHHHHHHHHHHHHHHHHHHHHHHHFFFFFFFFFFFFFFFFFFFFFFFFFFFFFFFFFFFFFFFFFFFFFFFFFF666xvx33%%%%%%%%%%%%%%%%%%%%%%%%%%%%%%%%%%%",
"%%%%%%%%%%%%%%%%%%%3332452334666667zxFADDDDDDDDDDDDDDDDDDDDDDDDDDDDDDDDDDDDDDDDDDDDDDDDDHHHHHHHHHHHHHHHHHHHHHHHHHHHHHHHHnmDDDDDDADDDDDDDDDDDDDDDDDDDDDDDDDDDDDDDDDDDDDDDDDDDDDDDADDDDDDDDDDDDDDDDmnHHHHHHHHHHHHHHHHHHHHHHHHHHHHHHHHDDDDDDDDDDDDDDDDDDDDDDDDDDDDDDDDDDDDDDDDDDDDDADDDDF66xvx33%%%%%%%%%%%%%%%%%%%%%%%%%%%%%%%%%%%",
"%%%%%%%%%%%%%%%%%%%3332452334666667zFDDDDDDDDDDDDDDDDDDDDDDDDDDDDDDDDDDDDDDDDDDDDDDDDDDHHHHHHHHHHHHHHHHHHHHHHHHHHHHHHHHHbmDDDDDDDDDDDDDDDDDDDDDDDDDDDDDDDDDDDDDDDDDDDDDDDDDDDDDDDDDDDDDDDDDDDDDDDmbHHHHHHHHHHHHHHHHHHHHHHHHHHHHHHHHHDDDDDDDDDDDDDDDDDDDDDDDDDDDDDDDDDDDDDDDDDDDDDDDDDDF6xvx33%%%%%<%%%%%%%%%%%%%%%%%%%%%%<%%%%%%",
"%%%%%%%<%%%%%%%<%%%3332452334666667FDDDDDDDDDDDDDDDDDDDDDDDDDDDDDDDDDDDDDDDDDDDDDDDDDDDHHHHHHHHHHHHHHHHHHHHHHHHHHHHHHHHHbmDDDDDDDDDDDDDDDDDDDDDDDDDDDDDDDDDDDDDDDDDDDDDDDDDDDDDDDDDDDDDDDDDDDDDDDmbHHHHHHHHHHHHHHHHHHHHHHHHHHHHHHHHHDDDDDDDDDDDDDDDDDDDDDDDDDDDDDDDDDDDDDDDDDDDDDDDDDDDFxvx33%%%<%%%%%%%%<%%%%%%%%%<%%<%%%%<%%<%",
"%%%%<<%%<<<%%%%%<%%333245233466666FDDDDDDDDDDDDDDDDDDDDDDDDDDDDDDDDDDDDDDDDDDDDDDDDDDDHHHHHHHHHHHHHHHHHHHHHHHHHHHHHHHHHCbmDDDDDDDDDDDDDDDDDDDDDDDDDDDDDDDDDDDDDDDDDDDDDDDDDDDDDDDDDDDDDDDDDDDDDDDmbCHHHHHHHHHHHHHHHHHHHHHHHHHHHHHHHHHDDDDDDDDDDDDDDDDDDDDDDDDDDDDDDDDDDDDDDDDDDDDDDDDDDDFvx33%%<%<<<<%%<%%%%<%%%%<<<<%%%<%%%%<<%",
"<%%%%<%<%<<<<<%<%<%33324523346666FDDDDDDDDDDDDDDDDDDDDDDDDDDDDDDDDDDDDDDDDDDDDDDDDDDDDHHHHHHHHHHHHHHHHHHHHHHHHHHHHHHHHHnbmDDDDDDDDDDDDDDDDDDDDDDDDDDDDDDDDDDDDDDDDDDDDDDDDDDDDDDDDDDDDDDDDDDDDDDDmbnHHHHHHHHbbbbbbbnbbbbbnbbbbHHHHHHHADDDDDDDDDDDDDDDDDDDDDDDDDDDDDDDDDDDDDDDDDDDDDDDDDDDFx33%%<<<<<<<%<%%<<%<%<<<<<<%<<<<%%<<<<",
"<1%<<<<<1<<<<<1<<<13332452334666FDDDDDDDDDDDDDDDDDDDDDDDDDDDDDDDDDDDDDDDDDDDDDDDDDDDDHHHHHHHHHHHHHHHHHHHHHHHHHHHHHHHHHHnbmDDDDDDDDDDDDDDDDDDDDDDDDDDDDDDDDDDDDDDDDDDDDDDDDDDDDDDDDDDDDDDDDDDDDDDDmbnHHHHHHHH .  .    . .   <<xHHHHHHHHDDDDDDDDDDDDDDDDDDDDDDDDDDDDDDDDDDDDDDADDDDDDDDDDDDDF33<<<<<<<<<1<1<<111%<<<<2<1<%%<1<11<<",
"<<<<<111<1<<<<1<<<1333245233466FDDDDDDDDDDDDDDDDDDDDDDDDDDDDDDDDDDDDDDDDDDDDDDDDDDDDDHHHHHHHHHHHHHHHHHHHHHHHHHHHHHHHHHHbmDDDDDDDDDDDDDDDDDDDDDDDDDDDDDDDDDDDDDDDDDDADDDDDDDDDDDDDDDDDDDDDDDDDDDDDDmbHHHHHHHHH . . .  .     <<xxHHHHHHHDDDDDDDDDDDDDDDDDDDDDDDDDDDDDDDDDDDDDDDDDDDDDDDDDDDDDF3<<1<<1<1<<<1<<<1<<<1<1<1<11<<<<1<<1",
"<11<<111111<111111<33324523346FDDDDDDDDDDDDDDDADDDDDDDDDDDDDDDDDDDDDDDDDDDDDDDDDDDDDHHHHHHHHHHHHHHHHHHHHHHHHHHHHHHHHHHCbmDDDDDDDDDDDDDDDDDDDDDDDDDDDDDDDDDDDDDDDDDDDDDDDDDDDDDDDDDDDDDDDDDDDDDDDDDmbCHHHHHHHH888  888 .888.<<<xHHHHHHHHDDDDDDDDDDDDDDDDDDDDDDDDDDDDDDDDDDDDDDDDDDDDDDDDDDDDDF111<<<1<<<1<1<<<11<111<111<<<1111<<",
"1<<2<111<11111111213332452334FDDDDDDDDDDDDDDDDDDDDDDDDDDDDDDDDDDDDDDDDDDDDDDDDDDDDDDHHHHHHHHHHHHHHHHHHHHHHHHHHHHHHHHHHnbmDDDDDDDDDDDDDDDDDDDDDDDDDDDDDDDDDDDDDDDDDDDDDDDDDDDDDDDDDDDDDDDDDDDDDDDDDmbnHHHHHHHH .  . .   ..  <<<xxHHHHHHHDDDDDDDDDDDDDDDDDDDDDDDDDDDDDDDDDDDDDDDDDDDDDDDDDDDDDDF<111111<11211111<11111<<2<<1211221",
"1112122111211211111333245233FDDDDDDDDDDDDDDDDDDDDDDDDDDDDDDDDDDDDDDDDDDDDDDDDDDDDDDHHHHHHHHHHHHHHHHHHHHHHHHHHHHHHHHHHHnbnDDDDDDDDDDDDDDDDDDDDDDDDDDDDDDDDDDDDDDDDDDDDDDDDDDDDDDDDDDDDDDDDDDDDDDDDDmbnHHHHHHHHH .   . .    .<<<<xHHHHHHHHDDADDDDDDDDDDDDDDDDDDDDDDDDDDDDDDDDDDDDDDDDDDDDDDDDDDDF21111112211111211122123<321111221",
"111121221212112121133324523FDDDDDDDDDDDDDDDDDDDDDDDDDDDDDDDDDDDDDDDDDDDDDDDDDDDDDDDHHHHHHHHHHHHHHHHHHHHHHHHHHHHHHHHHHHnbmDDDDDDDDDDDDDDDDDDDDDDDDDDDDDDDDDDDDDDDDDDDDDDDDDDDDDDDDDDDDDDDDDDDDDDDDDmbnHHHHHHHHH  ..   ..  ..<<<<xHHHHHHHHDDDDDDDDDDDDDDDDDDDDDDDDDDDDDDDDDDDDDDDDDDDDDDDDDDDDDDDF22222211212211112122122<22221121",
"11222212132222112233332452FDDDDDDDDDDDDDDDDDDDDDDDDDDDDDDDDDDDDDDDDDDDDDDDDDDDDDDDHHHHHHHHHHHHHHHHHHHHHHHHHHHHHHHHHHHCnbmDDDDDDDDDDDDDDDDDDDDDDDDDDDDDDDDDDDDDDDDDDDDDDDDDDDDDDDDDDDDDDDDDDDDDDDDDmbnCHHHHHHHH.    .   ..  <<<<xxHHHHHHHHDDDDDDDDDDDDDDDDDDDDDDDDDDDDDDDDDDDDDDDDDDDDDDDDDDDDDDDF2223222322222222212221222211222",
"2232232221232323312333245FDDDDDDDDDDDDDDDDDADDDDDDDDDDDDDDDDDDDDDDDDDDDDDDDDDADDDDHHHHHHHHHHHHHHHHHHHHHHHHHHHHHHHHHHHnnbmDDDDDDDDDDDDDDDDDADDDDDDDADDDDDDDDDDDDDADDDDDDDDDDDDDDDDDDDDDDADDDDDDDDDDmbnnHHHHHHHH   .. ..   . <<<<<xHHHHHHHHDDDDDDDDDDDDDADDDDDDDDDDDDDDDDDDDDDDDDDDADDDDDDDDDDDDDDDF333122122323222313233123223222",
"323223233233232222333324FFFFFFFFFFFFFFFFFFFFFFFFFFFFFFFFFFFFFDFFFFFFFFFFFFFFFFFFDHHHHHHHHHHHHHHHHHHHHHHHHHHHHHHHHHHHHnnvmFFFFFFFFFFFFFFFFFFFFFFFFFFFFFFFFFFFFFFFFFFFFFFFFFFFFFFFFFFFFFFFFFFFFFFFFFmbnnHHHHHHHHH.   .   . . <<<<<xxHHHHHHHHFFFFFFFFFFFFFFFFFFFFFFFFFFFFFFFFFFFFFFFFFFFFFFFFFFFFFFFFF33233323323232322222332232223",
"333332322323323322333324FVVVVVVVVVVVVVVVVVVVVVVVVVVVVVVVVVVVVVVVVVVVVVVVVVVVVVVVVHHHHHHHHHHHHHHHHHHHHHHHHHHHHHHHHHHHHnnnbmVVVVVVVVVVVVVVVVVVVVVVVD,,,,,,,,,,,,,,,,,,,,,,,DVVVVVVVVVVVVVVVVVVVVVVVmbnnnHHHHHHHHH .   . . .  <<<<<<xHHHHHHHHVVVVVVVVVVVVVVVVVVVVVVVVVVVVVVVVVVVVVVVVVVVVVVVVVVVVVVVVF43233233333233433323332233224",
"342323433233423333333324FVVVVVVVVVVVVVVVVVVVVVVVVVVVVVVVVVVVVVVVVVVVVVVVVVVVVVVVHHHHHHHHHHHHHHHHHHHHHHHHHHHHHHHHHHHHCnnnbmVVVVVVVVVVVVVVVVVVVn73VD,,,,,,,,,,,,,,,,,,,,,,,DVn73VVVVVVVVVVVVVVVVVVVmvnnnCHHHHHHHH . .   .   .<<<<<<xxHHHHHHHHVVVVVVVVVVVVVVVVVVVVVVVVVVVVVVVVVVVVVVVVVVVVVVVVVVVVVVVF43323333333334324443433333443",
"344343344433343444433234FVVVVVVVVVVVVVVVVVVVVVVVVVVVVVVVVVVVVVVVVVVVVVVVVVVVVVVVHHHHHHHHHHHHHHHHHHHHHHHHHHHHHHHHHHHHnnnnbmVVVVVVVVVVVVVVVVVVVn73VD,,aaaaaaaaaaaaaaaaaaa,,DVn73VVVVVVVVVVVVVVVVVVVmbnnnnHHHHHHHHH  . .   .. <<<<<<<xHHHHHHHHVVVVVVVVVVVVVVVVVVVVVVVVVVVVVVVVVVVVVVVVVVVVVVVVVVVVVVVF44443334443434344434443443443",
"443344444434344444333234FVVVVVVVVVVVVVVVVVVVVVVVVVVVVVVVVVVVVVVVVVVVVVVVVVVVVVVHHHHHHHHHHHHHHHHHHHHHHHHHHHHHHHHHHHHHnnnnbmVVVVVVVVVVVVVVVVVVVn73VD,,adddddddsasddddddda,,DVn73VVVVVVVVVVVVVVVVVVVmbnnnnHHHHHHHHH ..   .    <<<<<<<xHHHHHHHHHVVVVVVVVVVVVVVVVVVVVVVVVVVVVVVVVVVVVVVVVVVVVVVVVVVVVVVF44443444443443344444434444344",
"434555454454445444333234FVVVVVVVVVVVVVVVVVVVVVVVVVVVVVVVVVVVVVVVVVVVVVVVVVVVVVVHHHHHHHHHHHHHHHHHHHHHHHHHHHHHHHHHHHHHnnnnbmVVVVVVVVVVVVVVVVVVVHHHVD,,addBBBBdsasdBBBBdda,,DVHHHVVVVVVVVVVVVVVVVVVVmbnnnnHHHHHHHHHHHHHHHHHHHHHHHHHHHHHHHHHHHHHVVVVVVVVVVVVVVVVVVVVVVVVVVVVVVVVVVVVVVVVVVVVVVVVVVVVVVF44334344443444444544445434454",
"454444444555554445333234FVVVVVVVVVVVVVVVVVVVVVVVVVVVVVVVVVVVVVVVVVVVVVVVVVVVVVHHHHHHHHHHHHHHHHHHHHHHHHHHHHHHHHHHHHHCnnnnbmVVVVVVVVVVVVVVVVVVFGGGGD,,addlllldsasdlllldda,,DGGGFGVVVVVVVVVVVVVVVVVVmbnnnnCHHHHHHHHHHHHHHHHHHHHHHHHHHHHHHHHHHHHHVVVVVVVVVVVVVVVVVVVVVVVVVVVVVVVVVVVVVVVVVVVVVVVVVVVVVF44455554445444444545454454444",
"445555455555444455333234FVVVVVVVVVVVVVVVVVVVVVVVVVVVVVVVVVVVVVVVVVVVVVVVVVVVVVHHHHHHHHHHHHHHHHHHHHHHHHHHHHHHHHHHHHHnnnnnbmVVVVVVVVVVVVVVVVVGFFGFFD,,addkkkkdsasdkkkkdda,,DFFGFFGVVVVVVVVVVVVVVVVVmbnnnnnHHHHHHHHHHHHHHHHHHHHHHHHHHHHHHHHHHHHHVVVVVVVVVVVVVVVVVVVVVVVVVVVVVVVVVVVVVVVVVVVVVVVVVVVVVF54555445555555545544545455454",
"654556555555575555333234r;;;;;;;;;;;;;;;;;;;;;;;;;;;;;;;;;;;;;;;;;;;;;;;;;;;;HHHHHHHHHHHHHHHHHHHHHHHHHHHHHHHHHHHHHHnnnn-=-;;;;;;;;;;;;;;;;rrrrrrrDaasddffffdsasdffffddsaaDrrrrrrr;;;;;;;;;;;;;;;;-=nnnnnHHHHHHHHHHHHHHHHHHHHHHHHHHHHHHHHHHHHHH;;;;;;;;;;;;;;;;;;;;;;;;;;;;;;;;;;;;;;;;;;;;;;;;;;;;t56555565555455565565455656545",
"555666555565555566333234r;;;;;;;;;;;;;;;;;;;;;;;;;;;;;;;;;;;;;;;;;;;;;;;;;;;;HHHHHHHHHHHHHHHHHHHHHHHHHHHHHHHHHHHHHHnn---=-;;;;;;;;;;;;;;;rrrrrrrrDssddddddddsasddddddddssDrrrrrrrr;;;;;;;;;;;;;;;-=---nnHHHHHHHHHHHHHHHHHHHHHHHHHHHHHHHHHHHHHH;;;;;;;;;;;;;;;;;;;;;;;;;;;;;;;;;;;;;;;;;;;;;;;;;;;;t56665555556655556655555665556",
"565565556565565566333234r;;;;;;;;;;;;;;;;;;;;;;;;;;;;;;;;;;;;;;;;;;;;;;;;;;;rrrrrrrrrrrrrrrrrrrrrrrrrrrrrrrrrrrrrrt-----=-;;;;;;;;;;;;;;rrrrrrrrrDddddddddddsasddddddddddDrrrrrrrrr;;;;;;;;;;;;;;-=-----trrrrrrrrrrrrrrrrrrrrrrrrrrrrrrrrrrrrrt;;;;;;;;;;;;;;;;;;;;;;;;;;;;;;;;;;;;;;;;;;;;;;;;;;;t55555655556556665666665566655",
"566555566565566656333234FVVVVVVVVVVVVVVVVVVVVVVVVVVVVVVVVVVVVVVVVVVVVVVVVVVVrrrrrrrrrrrrrrrrrrrrrrrrrrrrrrrrrrrrrt-----nbmVVVVVVVVVVVVVVVVVVVVVVVDddddddddddsasddddddddddDVVVVVVVVVVVVVVVVVVVVVVVmb------trrrrrrrrrrrrrrrrrrrrrrrrrrrrrrrrrrrrtVVVVVVVVVVVVVVVVVVVVVVVVVVVVVVVVVVVVVVVVVVVVVVVVVVVF66566656566556655666666566666",
"666666666666656666333234FVVVVVVVVVVVVVVVVVVVVVVVVVVVVVVVVVVVVVVVVVVVVVVVVVVrrrrrrrrrrrrrrrrrrrrrrrrrrrrrrrrrrrrrrt--nnnnbmVVVVVVVVVVVVVVVVVVVVVVVDddddddddddsasddddddddddDVVVVVVVVVVVVVVVVVVVVVVVmbnnnn--trrrrrrrrrrrrrrrrrrrrrrrrrrrrrrrrrrrrrtVVVVVVVVVVVVVVVVVVVVVVVVVVVVVVVVVVVVVVVVVVVVVVVVVVF66666666666665666666666666666",
"666666666666666666333234FVVVVVVVVVVVVVVVVVVVVVVVVVVVVVVVVVVVVVVVVVVVVVVVVVVHHHHHHHHHHHHHHHHHHHHHHHHHHHHHHHHHHHHHHHnnnnnnbmVVVVVVVVVVVVVVVVVVVVVVVDddddddddddsasddddddddddDVVVVVVVVVVVVVVVVVVVVVVVnbnnnnnnHHHHHHHHHHHHHHHHHHHHHHHHHHHHHHHHHHHHHHHVVVVVVVVVVVVVVVVVVVVVVVVVVVVVVVVVVVVVVVVVVVVVVVVVVF66666666666666666666666666666",
"@@@@@@@@@@@@@@@@@@@@@@@@@@@@@@@@@@@@@@@@@@@@@@@@@@@@@@@@@@@@@@@@@@@@@@@@@@@@@@@@@@@@@@@@@@@@@@@@@@@@@@@@@@@@@@@@@@@@@@@@@@@@@@@@@@@@@@@@@@@@@@@@@@@@@@@@@@@@@@@@@@@@@@@@@@@@@@@@@@@@@@@@@@@@@@@@@@@@@@@@@@@@@@@@@@@@@@@@@@@@@@@@@@@@@@@@@@@@@@@@@@@@@@@@@@@@@@@@@@@@@@@@@@@@@@@@@@@@@@@@@@@@@@@@@@@@@@@@@@@@@@@@@@@@@@@@@@@@@@@@",
"@@@@@@@@@@@@@@@@@@@@@@@@@@@@@@@@@@@@@@@@@@@@@@@@@@@@@@@@@@@@@@@@@@@@@@@@@@@@@@@@@@@@@@@@@@@@@@@@@@@@@@@@@@@@@@@@@@@@@@@@@@@@@@@@@@@@@@@@@@@@@@@@@@@@@@@@@@@@@@@@@@@@@@@@@@@@@@@@@@@@@@@@@@@@@@@@@@@@@@@@@@@@@@@@@@@@@@@@@@@@@@@@@@@@@@@@@@@@@@@@@@@@@@@@@@@@@@@@@@@@@@@@@@@@@@@@@@@@@@@@@@@@@@@@@@@@@@@@@@@@@@@@@@@@@@@@@@@@@@@@",
"@@@@@@@@@@@@@@@@@@@@@@@@@@@@@@@@@@@@@@@@@@@@@@@@@@@@@@@@@@@@@@@@@@@@@@@@@@@@@@@@@@@@@@@@@@@@@@@@@@@@@@@@@@@@@@@@@@@@@@@@@@@@@@@@@@@@@@@@@@@@@@@@@@@@@@@@@@@@@@@@@@@@@@@@@@@@@@@@@@@@@@@@@@@@@@@@@@@@@@@@@@@@@@@@@@@@@@@@@@@@@@@@@@@@@@@@@@@@@@@@@@@@@@@@@@@@@@@@@@@@@@@@@@@@@@@@@@@@@@@@@@@@@@@@@@@@@@@@@@@@@@@@@@@@@@@@@@@@@@@@",
"@@@@@@@@@@@@@@@@@@@@@@@@@@@@@@@@@@@@@@@@@@@@@@@@@@@@@@@@@@@@@@@@@@@@@@@@@@@@@@@@@@@@@@@@@@@@@@@@@@@@@@@@@@@@@@@@@@@@@@@@@@@@@@@@@@@@@@@@@@@@@@@@@@@@@@@@@@@@@@@@@@@@@@@@@@@@@@@@@@@@@@@@@@@@@@@@@@@@@@@@@@@@@@@@@@@@@@@@@@@@@@@@@@@@@@@@@@@@@@@@@@@@@@@@@@@@@@@@@@@@@@@@@@@@@@@@@@@@@@@@@@@@@@@@@@@@@@@@@@@@@@@@@@@@@@@@@@@@@@@@",
"@@@@@@@@@@@@@@@@@@@@@@@@@@@@@@@@@@@@@@@@@@@@@@@@@@@@@@@@@@@@@@@@@@@@@@@@@@@@@@@@@@@@@@@@@@@@@@@@@@@@@@@@@@@@@@@@@@@@@@@@@@@@@@@@@@@@@@@@@@@@@@@@@@@@@@@@@@@@@@@@@@@@@@@@@@@@@@@@@@@@@@@@@@@@@@@@@@@@@@@@@@@@@@@@@@@@@@@@@@@@@@@@@@@@@@@@@@@@@@@@@@@@@@@@@@@@@@@@@@@@@@@@@@@@@@@@@@@@@@@@@@@@@@@@@@@@@@@@@@@@@@@@@@@@@@@@@@@@@@@@",
"@@@@@@@@@@@@@@@@@@@@@@@@@@@@@@@@@@@@@@@@@@@@@@@@@@@@@@@@@@@@@@@@@@@@@@@@@@@@@@@@@@@@@@@@@@@@@@@@@@@@@@@@@@@@@@@@@@@@@@@@@@@@@@@@@@@@@@@@@@@@@@@@@@@@@@@@@@@@@@@@@@@@@@@@@@@@@@@@@@@@@@@@@@@@@@@@@@@@@@@@@@@@@@@@@@@@@@@@@@@@@@@@@@@@@@@@@@@@@@@@@@@@@@@@@@@@@@@@@@@@@@@@@@@@@@@@@@@@@@@@@@@@@@@@@@@@@@@@@@@@@@@@@@@@@@@@@@@@@@@@",
"@@@@@@@@@@@@@@@@@@@@@@@@@@@@@@@@@@@@@@@@@@@@@@@@@@@@@@@@@@@@@@@@@@@@@@@@@@@@@@@@@@@@@@@@@@@@@@@@@@@@@@@@@@@@@@@@@@@@@@@@@@@@@@@@@@@@@@@@@@@@@@@@@@@@@@@@@@@@@@@@@@@@@@@@@@@@@@@@@@@@@@@@@@@@@@@@@@@@@@@@@@@@@@@@@@@@@@@@@@@@@@@@@@@@@@@@@@@@@@@@@@@@@@@@@@@@@@@@@@@@@@@@@@@@@@@@@@@@@@@@@@@@@@@@@@@@@@@@@@@@@@@@@@@@@@@@@@@@@@@@",
"@@@@@@@@@@@@@@@@@@@@@@@@@@@@@@@@@@@@@@@@@@@@@@@@@@@@@@@@@@@@@@@@@@@@@@@@@@@@@@@@@@@@@@@@@@@@@@@@@@@@@@@@@@@@@@@@@@@@@@@@@@@@@@@@@@@@@@@@@@@@@@@@@@@@@@@@@@@@@@@@@@@@@@@@@@@@@@@@@@@@@@@@@@@@@@@@@@@@@@@@@@@@@@@@@@@@@@@@@@@@@@@@@@@@@@@@@@@@@@@@@@@@@@@@@@@@@@@@@@@@@@@@@@@@@@@@@@@@@@@@@@@@@@@@@@@@@@@@@@@@@@@@@@@@@@@@@@@@@@@@",
"@@@@@@@@@@@@@@@@@@@@@@@@@@@@@@@@@@@@@@@@@@@@@@@@@@@@@@@@@@@@@@@@@@@@@@@@@@@@@@@@@@@@@@@@@@@@@@@@@@@@@@@@@@@@@@@@@@@@@@@@@@@@@@@@@@@@@@@@@@@@@@@@@@@@@@@@@@@@@@@@@@@@@@@@@@@@@@@@@@@@@@@@@@@@@@@@@@@@@@@@@@@@@@@@@@@@@@@@@@@@@@@@@@@@@@@@@@@@@@@@@@@@@@@@@@@@@@@@@@@@@@@@@@@@@@@@@@@@@@@@@@@@@@@@@@@@@@@@@@@@@@@@@@@@@@@@@@@@@@@@",
"@@@@@@@@@@@@@@@@@@@@@@@@@@@@@@@@@@@@@@@@@@@@@@@@@@@@@@@@@@@@@@@@@@@@@@@@@@@@@@@@@@@@@@@@@@@@@@@@@@@@@@@@@@@@@@@@@@@@@@@@@@@@@@@@@@@@@@@@@@@@@@@@@@@@@@@@@@@@@@@@@@@@@@@@@@@@@@@@@@@@@@@@@@@@@@@@@@@@@@@@@@@@@@@@@@@@@@@@@@@@@@@@@@@@@@@@@@@@@@@@@@@@@@@@@@@@@@@@@@@@@@@@@@@@@@@@@@@@@@@@@@@@@@@@@@@@@@@@@@@@@@@@@@@@@@@@@@@@@@@@",
"@@@@@@@@@@@@@@@@@@@@@@@@@@@@@@@@@@@@@@@@@@@@@@@@@@@@@@@@@@@@@@@@@@@@@@@@@@@@@@@@@@@@@@@@@@@@@@@@@@@@@@@@@@@@@@@@@@@@@@@@@@@@@@@@@@@@@@@@@@@@@@@@@@@@@@@@@@@@@@@@@@@@@@@@@@@@@@@@@@@@@@@@@@@@@@@@@@@@@@@@@@@@@@@@@@@@@@@@@@@@@@@@@@@@@@@@@@@@@@@@@@@@@@@@@@@@@@@@@@@@@@@@@@@@@@@@@@@@@@@@@@@@@@@@@@@@@@@@@@@@@@@@@@@@@@@@@@@@@@@@",
"@@@@@@@@@@@@@@@@@@@@@@@@@@@@@@@@@@@@@@@@@@@@@@@@@@@@@@@@@@@@@@@@@@@@@@@@@@@@@@@@@@@@@@@@@@@@@@@@@@@@@@@@@@@@@@@@@@@@@@@@@@@@@@@@@@@@@@@@@@@@@@@@@@@@@@@@@@@@@@@@@@@@@@@@@@@@@@@@@@@@@@@@@@@@@@@@@@@@@@@@@@@@@@@@@@@@@@@@@@@@@@@@@@@@@@@@@@@@@@@@@@@@@@@@@@@@@@@@@@@@@@@@@@@@@@@@@@@@@@@@@@@@@@@@@@@@@@@@@@@@@@@@@@@@@@@@@@@@@@@@",
"@@@@@@@@@@@@@@@@@@@@@@@@@@@@@@@@@@@@@@@@@@@@@@@@@@@@@@@@@@@@@@@@@@@@@@@@@@@@@@@@@@@@@@@@@@@@@@@@@@@@@@@@@@@@@@@@@@@@@@@@@@@@@@@@@@@@@@@@@@@@@@@@@@@@@@@@@@@@@@@@@@@@@@@@@@@@@@@@@@@@@@@@@@@@@@@@@@@@@@@@@@@@@@@@@@@@@@@@@@@@@@@@@@@@@@@@@@@@@@@@@@@@@@@@@@@@@@@@@@@@@@@@@@@@@@@@@@@@@@@@@@@@@@@@@@@@@@@@@@@@@@@@@@@@@@@@@@@@@@@@",
"@@@@@@@@@@@@@@@@@@@@@@@@@@@@@@@@@@@@@@@@@@@@@@@@@@@@@@@@@@@@@@@@@@@@@@@@@@@@@@@@@@@@@@@@@@@@@@@@@@@@@@@@@@@@@@@@@@@@@@@@@@@@@@@@@@@@@@@@@@@@@@@@@@@@@@@@@@@@@@@@@@@@@@@@@@@@@@@@@@@@@@@@@@@@@@@@@@@@@@@@@@@@@@@@@@@@@@@@@@@@@@@@@@@@@@@@@@@@@@@@@@@@@@@@@@@@@@@@@@@@@@@@@@@@@@@@@@@@@@@@@@@@@@@@@@@@@@@@@@@@@@@@@@@@@@@@@@@@@@@@",
"@@@@@@@@@@@@@@@@@@@@@@@@@@@@@@@@@@@@@@@@@@@@@@@@@@@@@@@@@@@@@@@@@@@@@@@@@@@@@@@@@@@@@@@@@@@@@@@@@@@@@@@@@@@@@@@@@@@@@@@@@@@@@@@@@@@@@@@@@@@@@@@@@@@@@@@@@@@@@@@@@@@@@@@@@@@@@@@@@@@@@@@@@@@@@@@@@@@@@@@@@@@@@@@@@@@@@@@@@@@@@@@@@@@@@@@@@@@@@@@@@@@@@@@@@@@@@@@@@@@@@@@@@@@@@@@@@@@@@@@@@@@@@@@@@@@@@@@@@@@@@@@@@@@@@@@@@@@@@@@@",
"@@@@@@@@@@@@@@@@@@@@@@@@@@@@@@@@@@@@@@@@@@@@@@@@@@@@@@@@@@@@@@@@@@@@@@@@@@@@@@@@@@@@@@@@@@@@@@@@@@@@@@@@@@@@@@@@@@@@@@@@@@@@@@@@@@@@@@@@@@@@@@@@@@@@@@@@@@@@@@@@@@@@@@@@@@@@@@@@@@@@@@@@@@@@@@@@@@@@@@@@@@@@@@@@@@@@@@@@@@@@@@@@@@@@@@@@@@@@@@@@@@@@@@@@@@@@@@@@@@@@@@@@@@@@@@@@@@@@@@@@@@@@@@@@@@@@@@@@@@@@@@@@@@@@@@@@@@@@@@@@",
"@@@@@@@@@@@@@@@@@@@@@@@@@@@@@@@@@@@@@@@@@@@@@@@@@@@@@@@@@@@@@@@@@@@@@@@@@@@@@@@@@@@@@@@@@@@@@@@@@@@@@@@@@@@@@@@@@@@@@@@@@@@@@@@@@@@@@@@@@@@@@@@@@@@@@@@@@@@@@@@@@@@@@@@@@@@@@@@@@@@@@@@@@@@@@@@@@@@@@@@@@@@@@@@@@@@@@@@@@@@@@@@@@@@@@@@@@@@@@@@@@@@@@@@@@@@@@@@@@@@@@@@@@@@@@@@@@@@@@@@@@@@@@@@@@@@@@@@@@@@@@@@@@@@@@@@@@@@@@@@@",
"@@@@@@@@@@@@@@@@@@@@@@@@@@@@@@@@@@@@@@@@@@@@@@@@@@@@@@@@@@@@@@@@@@@@@@@@@@@@@@@@@@@@@@@@@@@@@@@@@@@@@@@@@@@@@@@@@@@@@@@@@@@@@@@@@@@@@@@@@@@@@@@@@@@@@@@@@@@@@@@@@@@@@@@@@@@@@@@@@@@@@@@@@@@@@@@@@@@@@@@@@@@@@@@@@@@@@@@@@@@@@@@@@@@@@@@@@@@@@@@@@@@@@@@@@@@@@@@@@@@@@@@@@@@@@@@@@@@@@@@@@@@@@@@@@@@@@@@@@@@@@@@@@@@@@@@@@@@@@@@@",
"@@@@@@@@@@@@@@@@@@@@@@@@@@@@@@@@@@@@@@@@@@@@@@@@@@@@@@@@@@@@@@@@@@@@@@@@@@@@@@@@@@@@@@@@@@@@@@@@@@@@@@@@@@@@@@@@@@@@@@@@@@@@@@@@@@@@@@@@@@@@@@@@@@@@@@@@@@@@@@@@@@@@@@@@@@@@@@@@@@@@@@@@@@@@@@@@@@@@@@@@@@@@@@@@@@@@@@@@@@@@@@@@@@@@@@@@@@@@@@@@@@@@@@@@@@@@@@@@@@@@@@@@@@@@@@@@@@@@@@@@@@@@@@@@@@@@@@@@@@@@@@@@@@@@@@@@@@@@@@@@",
"@@@@@@@@@@@@@@@@@@@@@@@@@@@@@@@@@@@@@@@@@@@@@@@@@@@@@@@@@@@@@@@@@@@@@@@@@@@@@@@@@@@@@@@@@@@@@@@@@@@@@@@@@@@@@@@@@@@@@@@@@@@@@@@@@@@@@@@@@@@@@@@@@@@@@@@@@@@@@@@@@@@@@@@@@@@@@@@@@@@@@@@@@@@@@@@@@@@@@@@@@@@@@@@@@@@@@@@@@@@@@@@@@@@@@@@@@@@@@@@@@@@@@@@@@@@@@@@@@@@@@@@@@@@@@@@@@@@@@@@@@@@@@@@@@@@@@@@@@@@@@@@@@@@@@@@@@@@@@@@@",
"@@@@@@@@@@@@@@@@@@@@@@@@@@@@@@@@@@@@@@@@@@@@@@@@@@@@@@@@@@@@@@@@@@@@@@@@@@@@@@@@@@@@@@@@@@@@@@@@@@@@@@@@@@@@@@@@@@@@@@@@@@@@@@@@@@@@@@@@@@@@@@@@@@@@@@@@@@@@@@@@@@@@@@@@@@@@@@@@@@@@@@@@@@@@@@@@@@@@@@@@@@@@@@@@@@@@@@@@@@@@@@@@@@@@@@@@@@@@@@@@@@@@@@@@@@@@@@@@@@@@@@@@@@@@@@@@@@@@@@@@@@@@@@@@@@@@@@@@@@@@@@@@@@@@@@@@@@@@@@@@",
"@@@@@@@@@@@@@@@@@@@@@@@@@@@@@@@@@@@@@@@@@@@@@@@@@@@@@@@@@@@@@@@@@@@@@@@@@@@@@@@@@@@@@@@@@@@@@@@@@@@@@@@@@@@@@@@@@@@@@@@@@@@@@@@@@@@@@@@@@@@@@@@@@@@@@@@@@@@@@@@@@@@@@@@@@@@@@@@@@@@@@@@@@@@@@@@@@@@@@@@@@@@@@@@@@@@@@@@@@@@@@@@@@@@@@@@@@@@@@@@@@@@@@@@@@@@@@@@@@@@@@@@@@@@@@@@@@@@@@@@@@@@@@@@@@@@@@@@@@@@@@@@@@@@@@@@@@@@@@@@@",
"@@@@@@@@@@@@@@@@@@@@@@@@@@@@@@@@@@@@@@@@@@@@@@@@@@@@@@@@@@@@@@@@@@@@@@@@@@@@@@@@@@@@@@@@@@@@@@@@@@@@@@@@@@@@@@@@@@@@@@@@@@@@@@@@@@@@@@@@@@@@@@@@@@@@@@@@@@@@@@@@@@@@@@@@@@@@@@@@@@@@@@@@@@@@@@@@@@@@@@@@@@@@@@@@@@@@@@@@@@@@@@@@@@@@@@@@@@@@@@@@@@@@@@@@@@@@@@@@@@@@@@@@@@@@@@@@@@@@@@@@@@@@@@@@@@@@@@@@@@@@@@@@@@@@@@@@@@@@@@@@",
"@@@@@@@@@@@@@@@@@@@@@@@@@@@@@@@@@@@@@@@@@@@@@@@@@@@@@@@@@@@@@@@@@@@@@@@@@@@@@@@@@@@@@@@@@@@@@@@@@@@@@@@@@@@@@@@@@@@@@@@@@@@@@@@@@@@@@@@@@@@@@@@@@@@@@@@@@@@@@@@@@@@@@@@@@@@@@@@@@@@@@@@@@@@@@@@@@@@@@@@@@@@@@@@@@@@@@@@@@@@@@@@@@@@@@@@@@@@@@@@@@@@@@@@@@@@@@@@@@@@@@@@@@@@@@@@@@@@@@@@@@@@@@@@@@@@@@@@@@@@@@@@@@@@@@@@@@@@@@@@@",
"@@@@@@@@@@@@@@@@@@@@@@@@@@@@@@@@@@@@@@@@@@@@@@@@@@@@@@@@@@@@@@@@@@@@@@@@@@@@@@@@@@@@@@@@@@@@@@@@@@@@@@@@@@@@@@@@@@@@@@@@@@@@@@@@@@@@@@@@@@@@@@@@@@@@@@@@@@@@@@@@@@@@@@@@@@@@@@@@@@@@@@@@@@@@@@@@@@@@@@@@@@@@@@@@@@@@@@@@@@@@@@@@@@@@@@@@@@@@@@@@@@@@@@@@@@@@@@@@@@@@@@@@@@@@@@@@@@@@@@@@@@@@@@@@@@@@@@@@@@@@@@@@@@@@@@@@@@@@@@@@",
"@@@@@@@@@@@@@@@@@@@@@@@@@@@@@@@@@@@@@@@@@@@@@@@@@@@@@@@@@@@@@@@@@@@@@@@@@@@@@@@@@@@@@@@@@@@@@@@@@@@@@@@@@@@@@@@@@@@@@@@@@@@@@@@@@@@@@@@@@@@@@@@@@@@@@@@@@@@@@@@@@@@@@@@@@@@@@@@@@@@@@@@@@@@@@@@@@@@@@@@@@@@@@@@@@@@@@@@@@@@@@@@@@@@@@@@@@@@@@@@@@@@@@@@@@@@@@@@@@@@@@@@@@@@@@@@@@@@@@@@@@@@@@@@@@@@@@@@@@@@@@@@@@@@@@@@@@@@@@@@@",
"@@@@@@@@@@@@@@@@@@@@@@@@@@@@@@@@@@@@@@@@@@@@@@@@@@@@@@@@@@@@@@@@@@@@@@@@@@@@@@@@@@@@@@@@@@@@@@@@@@@@@@@@@@@@@@@@@@@@@@@@@@@@@@@@@@@@@@@@@@@@@@@@@@@@@@@@@@@@@@@@@@@@@@@@@@@@@@@@@@@@@@@@@@@@@@@@@@@@@@@@@@@@@@@@@@@@@@@@@@@@@@@@@@@@@@@@@@@@@@@@@@@@@@@@@@@@@@@@@@@@@@@@@@@@@@@@@@@@@@@@@@@@@@@@@@@@@@@@@@@@@@@@@@@@@@@@@@@@@@@@",
"@@@@@@@@@@@@@@@@@@@@@@@@@@@@@@@@@@@@@@@@@@@@@@@@@@@@@@@@@@@@@@@@@@@@@@@@@@@@@@@@@@@@@@@@@@@@@@@@@@@@@@@@@@@@@@@@@@@@@@@@@@@@@@@@@@@@@@@@@@@@@@@@@@@@@@@@@@@@@@@@@@@@@@@@@@@@@@@@@@@@@@@@@@@@@@@@@@@@@@@@@@@@@@@@@@@@@@@@@@@@@@@@@@@@@@@@@@@@@@@@@@@@@@@@@@@@@@@@@@@@@@@@@@@@@@@@@@@@@@@@@@@@@@@@@@@@@@@@@@@@@@@@@@@@@@@@@@@@@@@@",
"@@@@@@@@@@@@@@@@@@@@@@@@@@@@@@@@@@@@@@@@@@@@@@@@@@@@@@@@@@@@@@@@@@@@@@@@@@@@@@@@@@@@@@@@@@@@@@@@@@@@@@@@@@@@@@@@@@@@@@@@@@@@@@@@@@@@@@@@@@@@@@@@@@@@@@@@@@@@@@@@@@@@@@@@@@@@@@@@@@@@@@@@@@@@@@@@@@@@@@@@@@@@@@@@@@@@@@@@@@@@@@@@@@@@@@@@@@@@@@@@@@@@@@@@@@@@@@@@@@@@@@@@@@@@@@@@@@@@@@@@@@@@@@@@@@@@@@@@@@@@@@@@@@@@@@@@@@@@@@@@",
"@@@@@@@@@@@@@@@@@@@@@@@@@@@@@@@@@@@@@@@@@@@@@@@@@@@@@@@@@@@@@@@@@@@@@@@@@@@@@@@@@@@@@@@@@@@@@@@@@@@@@@@@@@@@@@@@@@@@@@@@@@@@@@@@@@@@@@@@@@@@@@@@@@@@@@@@@@@@@@@@@@@@@@@@@@@@@@@@@@@@@@@@@@@@@@@@@@@@@@@@@@@@@@@@@@@@@@@@@@@@@@@@@@@@@@@@@@@@@@@@@@@@@@@@@@@@@@@@@@@@@@@@@@@@@@@@@@@@@@@@@@@@@@@@@@@@@@@@@@@@@@@@@@@@@@@@@@@@@@@@",
"@@@@@@@@@@@@@@@@@@@@@@@@@@@@@@@@@@@@@@@@@@@@@@@@@@@@@@@@@@@@@@@@@@@@@@@@@@@@@@@@@@@@@@@@@@@@@@@@@@@@@@@@@@@@@@@@@@@@@@@@@@@@@@@@@@@@@@@@@@@@@@@@@@@@@@@@@@@@@@@@@@@@@@@@@@@@@@@@@@@@@@@@@@@@@@@@@@@@@@@@@@@@@@@@@@@@@@@@@@@@@@@@@@@@@@@@@@@@@@@@@@@@@@@@@@@@@@@@@@@@@@@@@@@@@@@@@@@@@@@@@@@@@@@@@@@@@@@@@@@@@@@@@@@@@@@@@@@@@@@@",
"@@@@@@@@@@@@@@@@@@@@@@@@@@@@@@@@@@@@@@@@@@@@@@@@@@@@@@@@@@@@@@@@@@@@@@@@@@@@@@@@@@@@@@@@@@@@@@@@@@@@@@@@@@@@@@@@@@@@@@@@@@@@@@@@@@@@@@@@@@@@@@@@@@@@@@@@@@@@@@@@@@@@@@@@@@@@@@@@@@@@@@@@@@@@@@@@@@@@@@@@@@@@@@@@@@@@@@@@@@@@@@@@@@@@@@@@@@@@@@@@@@@@@@@@@@@@@@@@@@@@@@@@@@@@@@@@@@@@@@@@@@@@@@@@@@@@@@@@@@@@@@@@@@@@@@@@@@@@@@@@",
"@@@@@@@@@@@@@@@@@@@@@@@@@@@@@@@@@@@@@@@@@@@@@@@@@@@@@@@@@@@@@@@@@@@@@@@@@@@@@@@@@@@@@@@@@@@@@@@@@@@@@@@@@@@@@@@@@@@@@@@@@@@@@@@@@@@@@@@@@@@@@@@@@@@@@@@@@@@@@@@@@@@@@@@@@@@@@@@@@@@@@@@@@@@@@@@@@@@@@@@@@@@@@@@@@@@@@@@@@@@@@@@@@@@@@@@@@@@@@@@@@@@@@@@@@@@@@@@@@@@@@@@@@@@@@@@@@@@@@@@@@@@@@@@@@@@@@@@@@@@@@@@@@@@@@@@@@@@@@@@@",
"@@@@@@@@@@@@@@@@@@@@@@@@@@@@@@@@@@@@@@@@@@@@@@@@@@@@@@@@@@@@@@@@@@@@@@@@@@@@@@@@@@@@@@@@@@@@@@@@@@@@@@@@@@@@@@@@@@@@@@@@@@@@@@@@@@@@@@@@@@@@@@@@@@@@@@@@@@@@@@@@@@@@@@@@@@@@@@@@@@@@@@@@@@@@@@@@@@@@@@@@@@@@@@@@@@@@@@@@@@@@@@@@@@@@@@@@@@@@@@@@@@@@@@@@@@@@@@@@@@@@@@@@@@@@@@@@@@@@@@@@@@@@@@@@@@@@@@@@@@@@@@@@@@@@@@@@@@@@@@@@",
"@@@@@@@@@@@@@@@@@@@@@@@@@@@@@@@@@@@@@@@@@@@@@@@@@@@@@@@@@@@@@@@@@@@@@@@@@@@@@@@@@@@@@@@@@@@@@@@@@@@@@@@@@@@@@@@@@@@@@@@@@@@@@@@@@@@@@@@@@@@@@@@@@@@@@@@@@@@@@@@@@@@@@@@@@@@@@@@@@@@@@@@@@@@@@@@@@@@@@@@@@@@@@@@@@@@@@@@@@@@@@@@@@@@@@@@@@@@@@@@@@@@@@@@@@@@@@@@@@@@@@@@@@@@@@@@@@@@@@@@@@@@@@@@@@@@@@@@@@@@@@@@@@@@@@@@@@@@@@@@@",
"@@@@@@@@@@@@@@@@@@@@@@@@@@@@@@@@@@@@@@@@@@@@@@@@@@@@@@@@@@@@@@@@@@@@@@@@@@@@@@@@@@@@@@@@@@@@@@@@@@@@@@@@@@@@@@@@@@@@@@@@@@@@@@@@@@@@@@@@@@@@@@@@@@@@@@@@@@@@@@@@@@@@@@@@@@@@@@@@@@@@@@@@@@@@@@@@@@@@@@@@@@@@@@@@@@@@@@@@@@@@@@@@@@@@@@@@@@@@@@@@@@@@@@@@@@@@@@@@@@@@@@@@@@@@@@@@@@@@@@@@@@@@@@@@@@@@@@@@@@@@@@@@@@@@@@@@@@@@@@@@",
"@@@@@@@@@@@@@@@@@@@@@@@@@@@@@@@@@@@@@@@@@@@@@@@@@@@@@@@@@@@@@@@@@@@@@@@@@@@@@@@@@@@@@@@@@@@@@@@@@@@@@@@@@@@@@@@@@@@@@@@@@@@@@@@@@@@@@@@@@@@@@@@@@@@@@@@@@@@@@@@@@@@@@@@@@@@@@@@@@@@@@@@@@@@@@@@@@@@@@@@@@@@@@@@@@@@@@@@@@@@@@@@@@@@@@@@@@@@@@@@@@@@@@@@@@@@@@@@@@@@@@@@@@@@@@@@@@@@@@@@@@@@@@@@@@@@@@@@@@@@@@@@@@@@@@@@@@@@@@@@@"
};
