/* XPM */
static char *end_floor3_031[] = {
/* columns rows colors chars-per-pixel */
"320 200 251 2 ",
"   c black",
".  c #020202",
"X  c gray1",
"o  c #040404",
"O  c gray2",
"+  c gray3",
"@  c gray4",
"#  c #0B0B0B",
"$  c #0C0C0C",
"%  c gray5",
"&  c #0E0E0E",
"*  c gray7",
"=  c #131313",
"-  c gray8",
";  c gray9",
":  c #181818",
">  c #191919",
",  c #1B1B1B",
"<  c #1E1E1E",
"1  c #1F1F1F",
"2  c #00002C",
"3  c #00003C",
"4  c #202020",
"5  c gray13",
"6  c #232323",
"7  c gray14",
"8  c #252525",
"9  c gray15",
"0  c #272727",
"q  c #282828",
"w  c gray16",
"e  c #2A2A2A",
"r  c #2B2B2B",
"t  c #2C2C2C",
"y  c #2D2D2D",
"u  c #2E2E2E",
"i  c #2F2F2F",
"p  c #303030",
"a  c #313131",
"s  c #323232",
"d  c #333333",
"f  c #343434",
"g  c #353535",
"h  c #363636",
"j  c #373737",
"k  c #383838",
"l  c #393939",
"z  c #3A3A3A",
"x  c #3B3B3B",
"c  c #3C3C3C",
"v  c #3D3D3D",
"b  c #3E3E3E",
"n  c #3F3F3F",
"m  c #600000",
"M  c #004400",
"N  c #005C00",
"B  c #007400",
"V  c #000050",
"C  c #000064",
"Z  c #244870",
"A  c #404040",
"S  c #414141",
"D  c #424242",
"F  c #434343",
"G  c #444444",
"H  c #454545",
"J  c #464646",
"K  c #474747",
"L  c #484848",
"P  c #494949",
"I  c #4A4A4A",
"U  c #4B4B4B",
"Y  c #4C4C4C",
"T  c gray30",
"R  c #4E4E4E",
"E  c gray31",
"W  c #505050",
"Q  c #515151",
"!  c #525252",
"~  c #535353",
"^  c gray33",
"/  c #555555",
"(  c #565656",
")  c #575757",
"_  c #585858",
"`  c #595959",
"'  c #5B5B5B",
"]  c gray36",
"[  c #5D5D5D",
"{  c #5E5E5E",
"}  c #5F5F5F",
"|  c #606060",
" . c gray38",
".. c #626262",
"X. c #636363",
"o. c #646464",
"O. c #656565",
"+. c gray40",
"@. c #676767",
"#. c #686868",
"$. c #696969",
"%. c #6A6A6A",
"&. c #6B6B6B",
"*. c #6C6C6C",
"=. c #6D6D6D",
"-. c gray43",
";. c #6F6F6F",
":. c gray44",
">. c #717171",
",. c #727272",
"<. c #747474",
"1. c #757575",
"2. c #767676",
"3. c #777777",
"4. c #797979",
"5. c #7A7A7A",
"6. c #7B7B7B",
"7. c #7C7C7C",
"8. c #7D7D7D",
"9. c #7E7E7E",
"0. c gray50",
"q. c #F80000",
"w. c #008C00",
"e. c #00A400",
"r. c #D09050",
"t. c #040488",
"y. c #0C0CAC",
"u. c #2C5480",
"i. c #346090",
"p. c #3C6CA0",
"a. c #4C78A8",
"s. c #1010C0",
"d. c #4040D0",
"f. c #7878E0",
"g. c #5884B0",
"h. c #6C90BC",
"j. c #808080",
"k. c #818181",
"l. c gray51",
"z. c #838383",
"x. c #848484",
"c. c gray52",
"v. c #868686",
"b. c gray53",
"n. c #888888",
"m. c #898989",
"M. c gray54",
"N. c #8B8B8B",
"B. c gray55",
"V. c #8D8D8D",
"C. c #8E8E8E",
"Z. c gray56",
"A. c #909090",
"S. c gray57",
"D. c #939393",
"F. c gray58",
"G. c gray59",
"H. c #979797",
"J. c #989898",
"K. c gray60",
"L. c #9A9A9A",
"P. c #9B9B9B",
"I. c gray61",
"U. c #9D9D9D",
"Y. c gray62",
"T. c #9F9F9F",
"R. c #A0A0A0",
"E. c gray63",
"W. c #A2A2A2",
"Q. c gray64",
"!. c #A4A4A4",
"~. c #A5A5A5",
"^. c gray65",
"/. c #A7A7A7",
"(. c gray66",
"). c #AAAAAA",
"_. c gray67",
"`. c #ACACAC",
"'. c gray68",
"]. c #AEAEAE",
"[. c #AFAFAF",
"{. c gray69",
"}. c #B1B1B1",
"|. c #B2B2B2",
" X c gray70",
".X c #B6B6B6",
"XX c #B7B7B7",
"oX c gray72",
"OX c #B9B9B9",
"+X c #BBBBBB",
"@X c #BCBCBC",
"#X c gray74",
"$X c gray",
"%X c #ECD0B4",
"&X c #80A0C4",
"*X c #C0C0C0",
"=X c gray76",
"-X c #C3C3C3",
";X c gray77",
":X c #C6C6C6",
">X c gray78",
",X c #C8C8C8",
"<X c gray79",
"1X c #CACACA",
"2X c #CBCBCB",
"3X c gray80",
"4X c #CDCDCD",
"5X c #CECECE",
"6X c #D0D0D0",
"7X c gray82",
"8X c #D2D2D2",
"9X c LightGray",
"0X c gray83",
"qX c #D5D5D5",
"wX c gray84",
"eX c #D8D8D8",
"rX c gray85",
"tX c #DADADA",
"yX c gray86",
"uX c gainsboro",
"iX c #DDDDDD",
"pX c gray87",
"aX c #DFDFDF",
"sX c #D8D8F4",
"dX c gray88",
"fX c #E1E1E1",
"gX c #E2E2E2",
"hX c #E4E4E4",
"jX c #E6E6E6",
"kX c gray91",
"lX c #E9E9E9",
"zX c #EAEAEA",
"xX c gray92",
"cX c #ECECEC",
"vX c gray93",
"bX c #EEEEEE",
"nX c #EFEFEF",
"mX c gray94",
"MX c #F1F1F1",
"NX c gray95",
"BX c #F3F3F3",
"VX c #F4F4F4",
"CX c #F6F6F6",
"ZX c gray97",
"AX c #F8F8F8",
"SX c #F9F9F9",
"DX c gray98",
"FX c gray99",
"GX c #FDFDFD",
"HX c #FEFEFE",
"JX c white",
/* pixels */
"7 7 7 7 7 7 7 7 7 7 7 7 7 7 7 7 7 7 7 7 7 7 7 7 7 7 7 7 7 7 7 7 7 7 7 7 7 7 7 7 7 7 7 7 7 7 7 7 7 7 7 7 7 7 7 7 7 7 7 7 7 7 7 7 7 7 7 7 7 7 7 7 7 7 7 7 7 7 7 7 7 7 7 7 7 7 7 7 7 7 7 7 7 7 7 7 7 7 7 7 7 7 7 7 7 7 7 7 7 7 7 7 7 7 7 7 7 7 7 7 7 7 7 7 7 7 7 7 7 7 7 7 7 7 7 7 7 7 7 7 7 7 7 7 7 7 7 7 7 7 7 7 7 7 7 7 7 7 7 7 7 7 7 7 7 7 7 7 7 7 7 7 7 7 7 7 7 7 7 7 7 7 7 7 7 7 7 7 7 7 7 7 7 7 7 7 7 7 7 7 7 7 7 7 7 7 7 7 7 7 7 7 7 7 7 7 7 7 7 7 7 7 7 7 7 7 7 7 7 7 7 7 7 7 7 7 7 7 7 7 7 7 7 7 7 7 7 7 7 7 7 7 7 7 7 7 7 7 7 7 7 7 7 7 7 7 7 7 7 7 7 7 7 7 7 7 7 7 7 7 7 7 7 7 7 7 7 7 7 7 7 7 7 7 7 7 7 7 7 7 7 7 7 7 7 7 7 7 7 7 7 7 7 7 7 7 7 7 7 7 ",
"7 7 7 7 7 7 7 7 7 7 7 7 7 7 7 7 7 7 7 7 7 7 7 7 7 7 7 7 7 7 7 7 7 7 7 7 7 7 7 7 7 7 7 7 7 7 7 7 7 7 7 7 7 7 7 7 7 7 7 7 7 7 7 7 7 7 7 7 7 7 7 7 7 7 7 7 7 7 7 7 7 7 7 7 7 7 7 7 7 7 7 7 7 7 7 7 7 7 7 7 7 7 7 7 7 7 7 7 7 7 7 7 7 7 7 7 7 7 7 7 7 7 7 7 7 7 7 7 7 7 7 7 7 7 7 7 7 7 7 7 7 7 7 7 7 7 7 7 7 7 7 7 7 7 7 7 7 7 7 7 7 7 7 7 7 7 7 7 7 7 7 7 7 7 7 7 7 7 7 7 7 7 7 7 7 7 7 7 7 7 7 7 7 7 7 7 7 7 7 7 7 7 7 7 7 7 7 7 7 7 7 7 7 7 7 7 7 7 7 7 7 7 7 7 7 7 7 7 7 7 7 7 7 7 7 7 7 7 7 7 7 7 7 7 7 7 7 7 7 7 7 7 7 7 7 7 7 7 7 7 7 7 7 7 7 7 7 7 7 7 7 7 7 7 7 7 7 7 7 7 7 7 7 7 7 7 7 7 7 7 7 7 7 7 7 7 7 7 7 7 7 7 7 7 7 7 7 7 7 7 7 7 7 7 7 7 7 7 7 7 ",
"7 7 7 7 7 7 7 7 7 7 7 7 7 7 7 7 7 7 7 7 7 7 7 7 7 7 7 7 7 7 7 7 7 7 7 7 7 7 7 7 7 7 7 7 7 7 7 7 7 7 7 7 7 7 7 7 7 7 7 7 7 7 7 7 7 7 7 7 7 7 7 7 7 7 7 7 7 7 7 7 7 7 7 7 7 7 7 7 7 7 7 7 7 7 7 7 7 7 7 7 7 7 7 7 7 7 7 7 7 7 7 7 7 7 7 7 7 7 7 7 7 7 7 7 7 7 7 7 7 7 7 7 7 7 7 7 7 7 7 7 7 7 7 7 7 7 7 7 7 7 7 7 7 7 7 7 7 7 7 7 7 7 7 7 7 7 7 7 7 7 7 7 7 7 7 7 7 7 7 7 7 7 7 7 7 7 7 7 7 7 7 7 7 7 7 7 7 7 7 7 7 7 7 7 7 7 7 7 7 7 7 7 7 7 7 7 7 7 7 7 7 7 7 7 7 7 7 7 7 7 7 7 7 7 7 7 7 7 7 7 7 7 7 7 7 7 7 7 7 7 7 7 7 7 7 7 7 7 7 7 7 7 7 7 7 7 7 7 7 7 7 7 7 7 7 7 7 7 7 7 7 7 7 7 7 7 7 7 7 7 7 7 7 7 7 7 7 7 7 7 7 7 7 7 7 7 7 7 7 7 7 7 7 7 7 7 7 7 7 7 ",
"7 7 7 7 7 7 7 7 7 7 7 7 7 7 7 7 7 7 7 7 7 7 7 7 7 7 7 7 7 7 7 7 7 7 7 7 7 7 7 7 7 7 7 7 7 7 7 7 7 7 7 7 7 7 7 7 7 7 7 7 7 7 7 7 7 7 7 7 7 7 7 7 7 7 7 7 7 7 7 7 7 7 7 7 7 7 7 7 7 7 7 7 7 7 7 7 7 7 7 7 7 7 7 7 7 7 7 7 7 7 7 7 7 7 7 7 7 7 7 7 7 7 7 7 7 7 7 7 7 7 7 7 7 7 7 7 7 7 7 7 7 7 7 7 7 7 7 7 7 7 7 7 7 7 7 7 7 7 7 7 7 7 7 7 7 7 7 7 7 7 7 7 7 7 7 7 7 7 7 7 7 7 7 7 7 7 7 7 7 7 7 7 7 7 7 7 7 7 7 7 7 7 7 7 7 7 7 7 7 7 7 7 7 7 7 7 7 7 7 7 7 7 7 7 7 7 7 7 7 7 7 7 7 7 7 7 7 7 7 7 7 7 7 7 7 7 7 7 7 7 7 7 7 7 7 7 7 7 7 7 7 7 7 7 7 7 7 7 7 7 7 7 7 7 7 7 7 7 7 7 7 7 7 7 7 7 7 7 7 7 7 7 7 7 7 7 7 7 7 7 7 7 7 7 7 7 7 7 7 7 7 7 7 7 7 7 7 7 7 7 ",
"7 7 7 7 7 7 7 7 7 7 7 7 7 7 7 7 7 7 7 7 7 7 7 7 7 7 7 7 7 7 7 7 7 7 7 7 7 7 7 7 7 7 7 7 7 7 7 7 7 7 7 7 7 7 7 7 7 7 7 7 7 7 7 7 7 7 7 7 7 7 7 7 7 7 7 7 7 7 7 7 7 7 7 7 7 7 7 7 7 7 7 7 7 7 7 7 7 7 7 7 7 7 7 7 7 7 7 7 7 7 7 7 7 7 7 7 7 7 7 7 7 7 7 7 7 7 7 7 7 7 7 7 7 7 7 7 7 7 7 7 7 7 7 7 7 7 7 7 7 7 7 7 7 7 7 7 7 7 7 7 7 7 7 7 7 7 7 7 7 7 7 7 7 7 7 7 7 7 7 7 7 7 7 7 7 7 7 7 7 7 7 7 7 7 7 7 7 7 7 7 7 7 7 7 7 7 7 7 7 7 7 7 7 7 7 7 7 7 7 7 7 7 7 7 7 7 7 7 7 7 7 7 7 7 7 7 7 7 7 7 7 7 7 7 7 7 7 7 7 7 7 7 7 7 7 7 7 7 7 7 7 7 7 7 7 7 7 7 7 7 7 7 7 7 7 7 7 7 7 7 7 7 7 7 7 7 7 7 7 7 7 7 7 7 7 7 7 7 7 7 7 7 7 7 7 7 7 7 7 7 7 7 7 7 7 7 7 7 7 7 ",
"7 7 7 7 7 7 7 7 7 7 7 7 7 7 7 7 7 7 7 7 7 7 7 7 7 7 7 7 7 7 7 7 7 7 7 7 7 7 7 7 7 7 7 7 7 7 7 7 7 7 7 7 7 7 7 7 7 7 7 7 7 7 7 7 7 7 7 7 7 7 7 7 7 7 7 7 7 7 7 7 7 7 7 7 7 7 7 7 7 7 7 7 7 7 7 7 7 7 7 7 7 7 7 7 7 7 7 7 7 7 7 7 7 7 7 7 7 7 7 7 7 7 7 7 7 7 7 7 7 7 7 7 7 7 7 7 7 7 7 7 7 7 7 7 7 7 7 7 7 7 7 7 7 7 7 7 7 7 7 7 7 7 7 7 7 7 7 7 7 7 7 7 7 7 7 7 7 7 7 7 7 7 7 7 7 7 7 7 7 7 7 7 7 7 7 7 7 7 7 7 7 7 7 7 7 7 7 7 7 7 7 7 7 7 7 7 7 7 7 7 7 7 7 7 7 7 7 7 7 7 7 7 7 7 7 7 7 7 7 7 7 7 7 7 7 7 7 7 7 7 7 7 7 7 7 7 7 7 7 7 7 7 7 7 7 7 7 7 7 7 7 7 7 7 7 7 7 7 7 7 7 7 7 7 7 7 7 7 7 7 7 7 7 7 7 7 7 7 7 7 7 7 7 7 7 7 7 7 7 7 7 7 7 7 7 7 7 7 7 7 ",
"7 7 7 7 7 7 7 7 7 7 7 7 7 7 7 7 7 7 7 7 7 7 7 7 7 7 7 7 7 7 7 7 7 7 7 7 7 7 7 7 7 7 7 7 7 7 7 7 7 7 7 7 7 7 7 7 7 7 7 7 7 7 7 7 7 7 7 7 7 7 7 7 7 7 7 7 7 7 7 7 7 7 7 7 7 7 7 7 7 7 7 7 7 7 7 7 7 7 7 7 7 7 7 7 7 7 7 7 7 7 7 7 7 7 7 7 7 7 7 7 7 7 7 7 7 7 7 7 7 7 7 7 7 7 7 7 7 7 7 7 7 7 7 7 7 7 7 7 7 7 7 7 7 7 7 7 7 7 7 7 7 7 7 7 7 7 7 7 7 7 7 7 7 7 7 7 7 7 7 7 7 7 7 7 7 7 7 7 7 7 7 7 7 7 7 7 7 7 7 7 7 7 7 7 7 7 7 7 7 7 7 7 7 7 7 7 7 7 7 7 7 7 7 7 7 7 7 7 7 7 7 7 7 7 7 7 7 7 7 7 7 7 7 7 7 7 7 7 7 7 7 7 7 7 7 7 7 7 7 7 7 7 7 7 7 7 7 7 7 7 7 7 7 7 7 7 7 7 7 7 7 7 7 7 7 7 7 7 7 7 7 7 7 7 7 7 7 7 7 7 7 7 7 7 7 7 7 7 7 7 7 7 7 7 7 7 7 7 7 7 ",
"7 7 7 7 7 7 7 7 7 7 7 7 7 7 7 7 7 7 7 7 7 7 7 7 7 7 7 7 7 7 7 7 7 7 7 7 7 7 7 7 7 7 7 7 7 7 7 7 7 7 7 7 7 7 7 7 7 7 7 7 7 7 7 7 7 7 7 7 7 7 7 7 7 7 7 7 7 7 7 7 7 7 7 7 7 7 7 7 7 7 7 7 7 7 7 7 7 7 7 7 7 7 7 7 7 7 7 7 7 7 7 7 7 7 7 7 7 7 7 7 7 7 7 7 7 7 7 7 7 7 7 7 7 7 7 7 7 7 7 7 7 7 7 7 7 7 7 7 7 7 7 7 7 7 7 7 7 7 7 7 7 7 7 7 7 7 7 7 7 7 7 7 7 7 7 7 7 7 7 7 7 7 7 7 7 7 7 7 7 7 7 7 7 7 7 7 7 7 7 7 7 7 7 7 7 7 7 7 7 7 7 7 7 7 7 7 7 7 7 7 7 7 7 7 7 7 7 7 7 7 7 7 7 7 7 7 7 7 7 7 7 7 7 7 7 7 7 7 7 7 7 7 7 7 7 7 7 7 7 7 7 7 7 7 7 7 7 7 7 7 7 7 7 7 7 7 7 7 7 7 7 7 7 7 7 7 7 7 7 7 7 7 7 7 7 7 7 7 7 7 7 7 7 7 7 7 7 7 7 7 7 7 7 7 7 7 7 7 7 7 ",
"7 7 7 7 7 7 7 7 7 7 7 7 7 7 7 7 7 7 7 7 7 7 7 7 7 7 7 7 7 7 7 7 7 7 7 7 7 7 7 7 7 7 7 7 7 7 7 7 7 7 7 7 7 7 7 7 7 7 7 7 7 7 7 7 7 7 7 7 7 7 7 7 7 7 7 7 7 7 7 7 7 7 7 7 7 7 7 7 7 7 7 7 7 7 7 7 7 7 7 7 7 7 7 7 7 7 7 7 7 7 7 7 7 7 7 7 7 7 7 7 7 7 7 7 7 7 7 7 7 7 7 7 7 7 7 7 7 7 7 7 7 7 7 7 7 7 7 7 7 7 7 7 7 7 7 7 7 7 7 7 7 7 7 7 7 7 7 7 7 7 7 7 7 7 7 7 7 7 7 7 7 7 7 7 7 7 7 7 7 7 7 7 7 7 7 7 7 7 7 7 7 7 7 7 7 7 7 7 7 7 7 7 7 7 7 7 7 7 7 7 7 7 7 7 7 7 7 7 7 7 7 7 7 7 7 7 7 7 7 7 7 7 7 7 7 7 7 7 7 7 7 7 7 7 7 7 7 7 7 7 7 7 7 7 7 7 7 7 7 7 7 7 7 7 7 7 7 7 7 7 7 7 7 7 7 7 7 7 7 7 7 7 7 7 7 7 7 7 7 7 7 7 7 7 7 7 7 7 7 7 7 7 7 7 7 7 7 7 7 7 ",
"7 7 7 7 7 7 7 7 7 7 7 7 7 7 7 7 7 7 7 7 7 7 7 7 7 7 7 7 7 7 7 7 7 7 7 7 7 7 7 7 7 7 7 7 7 7 7 7 7 7 7 7 7 7 7 7 7 7 7 7 7 7 7 7 7 7 7 7 7 7 7 7 7 7 7 7 7 7 7 7 7 7 7 7 7 7 7 7 7 7 7 7 7 7 7 7 7 7 7 7 7 7 7 7 7 7 7 7 7 7 7 7 7 7 7 7 7 7 7 7 7 7 7 7 7 7 7 7 7 7 7 7 7 7 7 7 7 7 7 7 7 7 7 7 7 7 7 7 7 7 7 7 7 7 7 7 7 7 7 7 7 7 7 7 7 7 7 7 7 7 7 7 7 7 7 7 7 7 7 7 7 7 7 7 7 7 7 7 7 7 7 7 7 7 7 7 7 7 7 7 7 7 7 7 7 7 7 7 7 7 7 7 7 7 7 7 7 7 7 7 7 7 7 7 7 7 7 7 7 7 7 7 7 7 7 7 7 7 7 7 7 7 7 7 7 7 7 7 7 7 7 7 7 7 7 7 7 7 7 7 7 7 7 7 7 7 7 7 7 7 7 7 7 7 7 7 7 7 7 7 7 7 7 7 7 7 7 7 7 7 7 7 7 7 7 7 7 7 7 7 7 7 7 7 7 7 7 7 7 7 7 7 7 7 7 7 7 7 7 7 ",
"7 7 7 7 7 7 7 7 7 7 7 7 7 7 7 7 7 7 7 7 7 7 7 7 7 7 7 7 7 7 7 7 7 7 7 7 7 7 7 7 7 7 7 7 7 7 7 7 7 7 7 7 7 7 7 7 7 7 7 7 7 7 7 7 7 7 7 7 7 7 7 7 7 7 7 7 7 7 7 7 7 7 7 7 7 7 7 7 7 7 7 7 7 7 7 7 7 7 7 7 7 7 7 7 7 7 7 7 7 7 7 7 7 7 7 7 7 7 7 7 7 7 7 7 7 7 7 7 7 7 7 7 7 7 7 7 7 7 7 7 7 7 7 7 7 7 7 7 7 7 7 7 7 7 7 7 7 7 7 7 7 7 7 7 7 7 7 7 7 7 7 7 7 7 7 7 7 7 7 7 7 7 7 7 7 7 7 7 7 7 7 7 7 7 7 7 7 7 7 7 7 7 7 7 7 7 7 7 7 7 7 7 7 7 7 7 7 7 7 7 7 7 7 7 7 7 7 7 7 7 7 7 7 7 7 7 7 7 7 7 7 7 7 7 7 7 7 7 7 7 7 7 7 7 7 7 7 7 7 7 7 7 7 7 7 7 7 7 7 7 7 7 7 7 7 7 7 7 7 7 7 7 7 7 7 7 7 7 7 7 7 7 7 7 7 7 7 7 7 7 7 7 7 7 7 7 7 7 7 7 7 7 7 7 7 7 7 7 7 7 ",
"7 7 7 7 7 7 7 7 7 7 7 7 7 7 7 7 7 7 7 7 7 7 7 7 7 7 7 7 7 7 7 7 7 7 7 7 7 7 7 7 7 7 7 7 7 7 7 7 7 7 7 7 7 7 7 7 7 7 7 7 7 7 7 7 7 7 7 7 7 7 7 7 7 7 7 7 7 7 7 7 7 7 7 7 7 7 7 7 7 7 7 7 7 7 7 7 7 7 7 7 7 7 7 7 7 7 7 7 7 7 7 7 7 7 7 7 7 7 7 7 7 7 7 7 7 7 7 7 7 7 7 7 7 7 7 7 7 7 7 7 7 7 7 7 7 7 7 7 7 7 7 7 7 7 7 7 7 7 7 7 7 7 7 7 7 7 7 7 7 7 7 7 7 7 7 7 7 7 7 7 7 7 7 7 7 7 7 7 7 7 7 7 7 7 7 7 7 7 7 7 7 7 7 7 7 7 7 7 7 7 7 7 7 7 7 7 7 7 7 7 7 7 7 7 7 7 7 7 7 7 7 7 7 7 7 7 7 7 7 7 7 7 7 7 7 7 7 7 7 7 7 7 7 7 7 7 7 7 7 7 7 7 7 7 7 7 7 7 7 7 7 7 7 7 7 7 7 7 7 7 7 7 7 7 7 7 7 7 7 7 7 7 7 7 7 7 7 7 7 7 7 7 7 7 7 7 7 7 7 7 7 7 7 7 7 7 7 7 7 7 ",
"7 7 7 7 7 7 7 7 7 7 7 7 7 7 7 7 7 7 7 7 7 7 7 7 7 7 7 7 7 7 7 7 7 7 7 7 7 7 7 7 7 7 7 7 7 7 7 7 7 7 7 7 7 7 7 7 7 7 7 7 7 7 7 7 7 7 7 7 7 7 7 7 7 7 7 7 7 7 7 7 7 7 7 7 7 7 7 7 7 7 7 7 7 7 7 7 7 7 7 7 7 7 7 7 7 7 7 7 7 7 7 7 7 7 7 7 7 7 7 7 7 7 7 7 7 7 7 7 7 7 7 7 7 7 7 7 7 7 7 7 7 7 7 7 7 7 7 7 7 7 7 7 7 7 7 7 7 7 7 7 7 7 7 7 7 7 7 7 7 7 7 7 7 7 7 7 7 7 7 7 7 7 7 7 7 7 7 7 7 7 7 7 7 7 7 7 7 7 7 7 7 7 7 7 7 7 7 7 7 7 7 7 7 7 7 7 7 7 7 7 7 7 7 7 7 7 7 7 7 7 7 7 7 7 7 7 7 7 7 7 7 7 7 7 7 7 7 7 7 7 7 7 7 7 7 7 7 7 7 7 7 7 7 7 7 7 7 7 7 7 7 7 7 7 7 7 7 7 7 7 7 7 7 7 7 7 7 7 7 7 7 7 7 7 7 7 7 7 7 7 7 7 7 7 7 7 7 7 7 7 7 7 7 7 7 7 7 7 7 7 ",
"7 7 7 7 7 7 7 7 7 7 7 7 7 7 7 7 7 7 7 7 7 7 7 7 7 7 7 7 7 7 7 7 7 7 7 7 7 7 7 7 7 7 7 7 7 7 7 7 7 7 7 7 7 7 7 7 7 7 7 7 7 7 7 7 7 7 7 7 7 7 7 7 7 7 7 7 7 7 7 7 7 7 7 7 7 7 7 7 7 7 7 7 7 7 7 7 7 7 7 7 7 7 7 7 7 7 7 7 7 7 7 7 7 7 7 7 7 7 7 7 7 7 7 7 7 7 7 7 7 7 7 7 7 7 7 7 7 7 7 7 7 7 7 7 7 7 7 7 7 7 7 7 7 7 7 7 7 7 7 7 7 7 7 7 7 7 7 7 7 7 7 7 7 7 7 7 7 7 7 7 7 7 7 7 7 7 7 7 7 7 7 7 7 7 7 7 7 7 7 7 7 7 7 7 7 7 7 7 7 7 7 7 7 7 7 7 7 7 7 7 7 7 7 7 7 7 7 7 7 7 7 7 7 7 7 7 7 7 7 7 7 7 7 7 7 7 7 7 7 7 7 7 7 7 7 7 7 7 7 7 7 7 7 7 7 7 7 7 7 7 7 7 7 7 7 7 7 7 7 7 7 7 7 7 7 7 7 7 7 7 7 7 7 7 7 7 7 7 7 7 7 7 7 7 7 7 7 7 7 7 7 7 7 7 7 7 7 7 7 7 ",
"7 7 7 7 7 7 7 7 7 7 7 7 7 7 7 7 7 7 7 7 7 7 7 7 7 7 7 7 7 7 7 7 7 7 7 7 7 7 7 7 7 7 7 7 7 7 7 7 7 7 7 7 7 7 7 7 7 7 7 7 7 7 7 7 7 7 7 7 7 7 7 7 7 7 7 7 7 7 7 7 7 7 7 7 7 7 7 7 7 7 7 7 7 7 7 7 7 7 7 7 7 7 7 7 7 7 7 7 7 7 7 7 7 7 7 7 7 7 7 7 7 7 7 7 7 7 7 7 7 7 7 7 7 7 7 7 7 7 7 7 7 7 7 7 7 7 7 7 7 7 7 7 7 7 7 7 7 7 7 7 7 7 7 7 7 7 7 7 7 7 7 7 7 7 7 7 7 7 7 7 7 7 7 7 7 7 7 7 7 7 7 7 7 7 7 7 7 7 7 7 7 7 7 7 7 7 7 7 7 7 7 7 7 7 7 7 7 7 7 7 7 7 7 7 7 7 7 7 7 7 7 7 7 7 7 7 7 7 7 7 7 7 7 7 7 7 7 7 7 7 7 7 7 7 7 7 7 7 7 7 7 7 7 7 7 7 7 7 7 7 7 7 7 7 7 7 7 7 7 7 7 7 7 7 7 7 7 7 7 7 7 7 7 7 7 7 7 7 7 7 7 7 7 7 7 7 7 7 7 7 7 7 7 7 7 7 7 7 7 7 ",
"7 7 7 7 7 7 7 7 7 7 7 7 7 7 7 7 7 7 7 7 7 7 7 7 7 7 7 7 7 7 7 7 7 7 7 7 7 7 7 7 7 7 7 7 7 7 7 7 7 7 7 7 7 7 7 7 7 7 7 7 7 7 7 7 7 7 7 7 7 7 7 7 7 7 7 7 7 7 7 7 7 7 7 7 7 7 7 7 7 7 7 7 7 7 7 7 7 7 7 7 7 7 7 7 7 7 7 7 7 7 7 7 7 7 7 7 7 7 7 7 7 7 7 7 7 7 7 7 7 7 7 7 7 7 7 7 7 7 7 7 7 7 7 7 7 7 7 7 7 7 7 7 7 7 7 7 7 7 7 7 7 7 7 7 7 7 7 7 7 7 7 7 7 7 7 7 7 7 7 7 7 7 7 7 7 7 7 7 7 7 7 7 7 7 7 7 7 7 7 7 7 7 7 7 7 7 7 7 7 7 7 7 7 7 7 7 7 7 7 7 7 7 7 7 7 7 7 7 7 7 7 7 7 7 7 7 7 7 7 7 7 7 7 7 7 7 7 7 7 7 7 7 7 7 7 7 7 7 7 7 7 7 7 7 7 7 7 7 7 7 7 7 7 7 7 7 7 7 7 7 7 7 7 7 7 7 7 7 7 7 7 7 7 7 7 7 7 7 7 7 7 7 7 7 7 7 7 7 7 7 7 7 7 7 7 7 7 7 7 7 ",
"7 7 7 7 7 7 7 7 7 7 7 7 7 7 7 7 7 7 7 7 7 7 7 7 7 7 7 7 7 7 7 7 7 7 7 7 7 7 7 7 7 7 7 7 7 7 7 7 7 7 7 7 7 7 7 7 7 7 7 7 7 7 7 7 7 7 7 7 7 7 7 7 7 7 7 7 7 7 7 7 7 7 7 7 7 7 7 7 7 7 7 7 7 7 7 7 7 7 7 7 7 7 7 7 7 7 7 7 7 7 7 7 7 7 7 7 7 7 7 7 7 7 7 7 7 7 7 7 7 7 7 7 7 7 7 7 7 7 7 7 7 7 7 7 7 7 7 7 7 7 7 7 7 7 7 7 7 7 7 7 7 7 7 7 7 7 7 7 7 7 7 7 7 7 7 7 7 7 7 7 7 7 7 7 7 7 7 7 7 7 7 7 7 7 7 7 7 7 7 7 7 7 7 7 7 7 7 7 7 7 7 7 7 7 7 7 7 7 7 7 7 7 7 7 7 7 7 7 7 7 7 7 7 7 7 7 7 7 7 7 7 7 7 7 7 7 7 7 7 7 7 7 7 7 7 7 7 7 7 7 7 7 7 7 7 7 7 7 7 7 7 7 7 7 7 7 7 7 7 7 7 7 7 7 7 7 7 7 7 7 7 7 7 7 7 7 7 7 7 7 7 7 7 7 7 7 7 7 7 7 7 7 7 7 7 7 7 7 7 7 ",
"7 7 7 7 7 7 7 7 7 7 7 7 7 7 7 7 7 7 7 7 7 7 7 7 7 7 7 7 7 7 7 7 7 7 7 7 7 7 7 7 7 7 7 7 7 7 7 7 7 7 7 7 7 7 7 7 7 7 7 7 7 7 7 7 7 7 7 7 7 7 7 7 7 7 7 7 7 7 7 7 7 7 7 7 7 7 7 7 7 7 7 7 7 7 7 7 7 7 7 7 7 7 7 7 7 7 7 7 7 7 7 7 7 7 7 7 7 7 7 7 7 7 7 7 7 7 7 7 7 7 7 7 7 7 7 7 7 7 7 7 7 7 7 7 7 7 7 7 7 7 7 7 7 7 7 7 7 7 7 7 7 7 7 7 7 7 7 7 7 7 7 7 7 7 7 7 7 7 7 7 7 7 7 7 7 7 7 7 7 7 7 7 7 7 7 7 7 7 7 7 7 7 7 7 7 7 7 7 7 7 7 7 7 7 7 7 7 7 7 7 7 7 7 7 7 7 7 7 7 7 7 7 7 7 7 7 7 7 7 7 7 7 7 7 7 7 7 7 7 7 7 7 7 7 7 7 7 7 7 7 7 7 7 7 7 7 7 7 7 7 7 7 7 7 7 7 7 7 7 7 7 7 7 7 7 7 7 7 7 7 7 7 7 7 7 7 7 7 7 7 7 7 7 7 7 7 7 7 7 7 7 7 7 7 7 7 7 7 7 7 ",
"7 7 7 7 7 7 7 7 7 7 7 7 7 7 7 7 7 7 7 7 7 7 7 7 7 7 7 7 7 7 7 7 7 7 7 7 7 7 7 7 7 7 7 7 7 7 7 7 7 7 7 7 7 7 7 7 7 7 7 7 7 7 7 7 7 7 7 7 7 7 7 7 7 7 7 7 7 7 7 7 7 7 7 7 7 7 7 7 7 7 7 7 7 7 7 7 7 7 7 7 7 7 7 7 7 7 7 7 7 7 7 7 7 7 7 7 7 7 7 7 7 7 7 7 7 7 7 7 7 7 7 7 7 7 7 7 7 7 7 7 7 7 7 7 7 7 7 7 7 7 7 7 7 7 7 7 7 7 7 7 7 7 7 7 7 7 7 7 7 7 7 7 7 7 7 7 7 7 7 7 7 7 7 7 7 7 7 7 7 7 7 7 7 7 7 7 7 7 7 7 7 7 7 7 7 7 7 7 7 7 7 7 7 7 7 7 7 7 7 7 7 7 7 7 7 7 7 7 7 7 7 7 7 7 7 7 7 7 7 7 7 7 7 7 7 7 7 7 7 7 7 7 7 7 7 7 7 7 7 7 7 7 7 7 7 7 7 7 7 7 7 7 7 7 7 7 7 7 7 7 7 7 7 7 7 7 7 7 7 7 7 7 7 7 7 7 7 7 7 7 7 7 7 7 7 7 7 7 7 7 7 7 7 7 7 7 7 7 7 7 ",
"7 7 7 7 7 7 7 7 7 7 7 7 7 7 7 7 7 7 7 7 7 7 7 7 7 7 7 7 7 7 7 7 7 7 7 7 7 7 7 7 7 7 7 7 7 7 7 7 7 7 7 7 7 7 7 7 7 7 7 7 7 7 7 7 7 7 7 7 7 7 7 7 7 7 7 7 7 7 7 7 7 7 7 7 7 7 7 7 7 7 7 7 7 7 7 7 7 7 7 7 7 7 7 7 7 7 7 7 7 7 7 7 7 7 7 7 7 7 7 7 7 7 7 7 7 7 7 7 7 7 7 7 7 7 7 7 7 7 7 7 7 7 7 7 7 7 7 7 7 7 7 7 7 7 7 7 7 7 7 7 7 7 7 7 7 7 7 7 7 7 7 7 7 7 7 7 7 7 7 7 7 7 7 7 7 7 7 7 7 7 7 7 7 7 7 7 7 7 7 7 7 7 7 7 7 7 7 7 7 7 7 7 7 7 7 7 7 7 7 7 7 7 7 7 7 7 7 7 7 7 7 7 7 7 7 7 7 7 7 7 7 7 7 7 7 7 7 7 7 7 7 7 7 7 7 7 7 7 7 7 7 7 7 7 7 7 7 7 7 7 7 7 7 7 7 7 7 7 7 7 7 7 7 7 7 7 7 7 7 7 7 7 7 7 7 7 7 7 7 7 7 7 7 7 7 7 7 7 7 7 7 7 7 7 7 7 7 7 7 7 ",
"7 7 7 7 7 7 7 7 7 7 7 7 7 7 7 7 7 7 7 7 7 7 7 7 7 7 7 7 7 7 7 7 7 7 7 7 7 7 7 7 7 7 7 7 7 7 7 7 7 7 7 7 7 7 7 7 7 7 7 7 7 7 7 7 7 7 7 7 7 7 7 7 7 7 7 7 7 7 7 7 7 7 7 7 7 7 7 7 7 7 7 7 7 7 7 7 7 7 7 7 7 7 7 7 7 7 7 7 7 7 7 7 7 7 7 7 7 7 7 7 7 7 7 7 7 7 7 7 7 7 7 7 7 7 7 7 7 7 7 7 7 7 7 7 7 7 7 7 7 7 7 7 7 7 7 7 7 7 7 7 7 7 7 7 7 7 7 7 7 7 7 7 7 7 7 7 7 7 7 7 7 7 7 7 7 7 7 7 7 7 7 7 7 7 7 7 7 7 7 7 7 7 7 7 7 7 7 7 7 7 7 7 7 7 7 7 7 7 7 7 7 7 7 7 7 7 7 7 7 7 7 7 7 7 7 7 7 7 7 7 7 7 7 7 7 7 7 7 7 7 7 7 7 7 7 7 7 7 7 7 7 7 7 7 7 7 7 7 7 7 7 7 7 7 7 7 7 7 7 7 7 7 7 7 7 7 7 7 7 7 7 7 7 7 7 7 7 7 7 7 7 7 7 7 7 7 7 7 7 7 7 7 7 7 7 7 7 7 7 7 ",
"7 7 7 7 7 7 7 7 7 7 7 7 7 7 7 7 7 7 7 7 7 7 7 7 7 7 7 7 7 7 7 7 7 7 7 7 7 7 7 7 7 7 7 7 7 7 7 7 7 7 7 7 7 7 7 7 7 7 7 7 7 7 7 7 7 7 7 7 7 7 7 7 7 7 7 7 7 7 7 7 7 7 7 7 7 7 7 7 7 7 7 7 7 7 7 7 7 7 7 7 7 7 7 7 7 7 7 7 7 7 7 7 7 7 7 7 7 7 7 7 7 7 7 7 7 7 7 7 7 7 7 7 7 7 7 7 7 7 7 7 7 7 7 7 7 7 7 7 7 7 7 7 7 7 7 7 7 7 7 7 7 7 7 7 7 7 7 7 7 7 7 7 7 7 7 7 7 7 7 7 7 7 7 7 7 7 7 7 7 7 7 7 7 7 7 7 7 7 7 7 7 7 7 7 7 7 7 7 7 7 7 7 7 7 7 7 7 7 7 7 7 7 7 7 7 7 7 7 7 7 7 7 7 7 7 7 7 7 7 7 7 7 7 7 7 7 7 7 7 7 7 7 7 7 7 7 7 7 7 7 7 7 7 7 7 7 7 7 7 7 7 7 7 7 7 7 7 7 7 7 7 7 7 7 7 7 7 7 7 7 7 7 7 7 7 7 7 7 7 7 7 7 7 7 7 7 7 7 7 7 7 7 7 7 7 7 7 7 7 7 ",
"7 7 7 7 7 7 7 7 7 7 7 7 7 7 7 7 7 7 7 7 7 7 7 7 7 7 7 7 7 7 7 7 7 7 7 7 7 7 7 7 7 7 7 7 7 7 7 7 7 7 7 7 7 7 7 7 7 7 7 7 7 7 7 7 7 7 7 7 7 7 7 7 7 7 7 7 7 7 7 7 7 7 7 7 7 7 7 7 7 7 7 7 7 7 7 7 7 7 7 7 7 7 7 7 7 7 7 7 7 7 7 7 7 7 7 7 7 7 7 7 7 7 7 7 7 7 7 7 7 7 7 7 7 7 7 7 7 7 7 7 7 7 7 7 7 7 7 7 7 7 7 7 7 7 7 7 7 7 7 7 7 7 7 7 7 7 7 7 7 7 7 7 7 7 7 7 7 7 7 7 7 7 7 7 7 7 7 7 7 7 7 7 7 7 7 7 7 7 7 7 7 7 7 7 7 7 7 7 7 7 7 7 7 7 7 7 7 7 7 7 7 7 7 7 7 7 7 7 7 7 7 7 7 7 7 7 7 7 7 7 7 7 7 7 7 7 7 7 7 7 7 7 7 7 7 7 7 7 7 7 7 7 7 7 7 7 7 7 7 7 7 7 7 7 7 7 7 7 7 7 7 7 7 7 7 7 7 7 7 7 7 7 7 7 7 7 7 7 7 7 7 7 7 7 7 7 7 7 7 7 7 7 7 7 7 7 7 7 7 7 ",
"7 7 7 7 7 7 7 7 7 7 7 7 7 7 7 7 7 7 7 7 7 7 7 7 7 7 7 7 7 7 7 7 7 7 7 7 7 7 7 7 7 7 7 7 7 7 7 7 7 7 7 7 7 7 7 7 7 7 7 7 7 7 7 7 7 7 7 7 7 7 7 7 7 7 7 7 7 7 7 7 7 7 7 7 7 7 7 7 7 7 7 7 7 7 7 7 7 7 7 7 7 7 7 7 7 7 7 7 7 7 7 7 7 7 7 7 7 7 7 7 7 7 7 7 7 7 7 7 7 7 7 7 7 7 7 7 7 7 7 7 7 7 7 7 7 7 7 7 7 7 7 7 7 7 7 7 7 7 7 7 7 7 7 7 7 7 7 7 7 7 7 7 7 7 7 7 7 7 7 7 7 7 7 7 7 7 7 7 7 7 7 7 7 7 7 7 7 7 7 7 7 7 7 7 7 7 7 7 7 7 7 7 7 7 7 7 7 7 7 7 7 7 7 7 7 7 7 7 7 7 7 7 7 7 7 7 7 7 7 7 7 7 7 7 7 7 7 7 7 7 7 7 7 7 7 7 7 7 7 7 7 7 7 7 7 7 7 7 7 7 7 7 7 7 7 7 7 7 7 7 7 7 7 7 7 7 7 7 7 7 7 7 7 7 7 7 7 7 7 7 7 7 7 7 7 7 7 7 7 7 7 7 7 7 7 7 7 7 7 7 ",
"7 7 7 7 7 7 7 7 7 7 7 7 7 7 7 7 7 7 7 7 7 7 7 7 7 7 7 7 7 7 7 7 7 7 7 7 7 7 7 7 7 7 7 7 7 7 7 7 7 7 7 7 7 7 7 7 7 7 7 7 7 7 7 7 7 7 7 7 7 7 7 7 7 7 7 7 7 7 7 7 7 7 7 7 7 7 7 7 7 7 7 7 7 7 7 7 7 7 7 7 7 7 7 7 7 7 7 7 7 7 7 7 7 7 7 7 7 7 7 7 7 7 7 7 7 7 7 7 7 7 7 7 7 7 7 7 7 7 7 7 7 7 7 7 7 7 7 7 7 7 7 7 7 7 7 7 7 7 7 7 7 7 7 7 7 7 7 7 7 7 7 7 7 7 7 7 7 7 7 7 7 7 7 7 7 7 7 7 7 7 7 7 7 7 7 7 7 7 7 7 7 7 7 7 7 7 7 7 7 7 7 7 7 7 7 7 7 7 7 7 7 7 7 7 7 7 7 7 7 7 7 7 7 7 7 7 7 7 7 7 7 7 7 7 7 7 7 7 7 7 7 7 7 7 7 7 7 7 7 7 7 7 7 7 7 7 7 7 7 7 7 7 7 7 7 7 7 7 7 7 7 7 7 7 7 7 7 7 7 7 7 7 7 7 7 7 7 7 7 7 7 7 7 7 7 7 7 7 7 7 7 7 7 7 7 7 7 7 7 7 ",
"7 7 7 7 7 7 7 7 7 7 7 7 7 7 7 7 7 7 7 7 7 7 7 7 7 7 7 7 7 7 7 7 7 7 7 7 7 7 7 7 7 7 7 7 7 7 7 7 7 7 7 7 7 7 7 7 7 7 7 7 7 7 7 7 7 7 7 7 7 7 7 7 7 7 7 7 7 7 7 7 7 7 7 7 7 7 7 7 7 7 7 7 7 7 7 7 7 7 7 7 7 7 7 7 7 7 7 7 7 7 7 7 7 7 7 7 7 7 7 7 7 7 7 7 7 7 7 7 7 7 7 7 7 7 7 7 7 7 7 7 7 7 7 7 7 7 7 7 7 7 7 7 7 7 7 7 7 7 7 7 7 7 7 7 7 7 7 7 7 7 7 7 7 7 7 7 7 7 7 7 7 7 7 7 7 7 7 7 7 7 7 7 7 7 7 7 7 7 7 7 7 7 7 7 7 7 7 7 7 7 7 7 7 7 7 7 7 7 7 7 7 7 7 7 7 7 7 7 7 7 7 7 7 7 7 7 7 7 7 7 7 7 7 7 7 7 7 7 7 7 7 7 7 7 7 7 7 7 7 7 7 7 7 7 7 7 7 7 7 7 7 7 7 7 7 7 7 7 7 7 7 7 7 7 7 7 7 7 7 7 7 7 7 7 7 7 7 7 7 7 7 7 7 7 7 7 7 7 7 7 7 7 7 7 7 7 7 7 7 7 ",
"7 7 7 7 7 7 7 7 7 7 7 7 7 7 7 7 7 7 7 7 7 7 7 7 7 7 7 7 7 7 7 7 7 7 7 7 7 7 7 7 7 7 7 7 7 7 7 7 7 7 7 7 7 7 7 7 7 7 7 7 7 7 7 7 7 7 7 7 7 7 7 7 7 7 7 7 7 7 7 7 7 7 7 7 7 7 7 7 7 7 7 7 7 7 7 7 7 7 7 7 7 7 7 7 7 7 7 7 7 7 7 7 7 7 7 7 7 7 7 7 7 7 7 7 7 7 7 7 7 7 7 7 7 7 7 7 7 7 7 7 7 7 7 7 7 7 7 7 7 7 7 7 7 7 7 7 7 7 7 7 7 7 7 7 7 7 7 7 7 7 7 7 7 7 7 7 7 7 7 7 7 7 7 7 7 7 7 7 7 7 7 7 7 7 7 7 7 7 7 7 7 7 7 7 7 7 7 7 7 7 7 7 7 7 7 7 7 7 7 7 7 7 7 7 7 7 7 7 7 7 7 7 7 7 7 7 7 7 7 7 7 7 7 7 7 7 7 7 7 7 7 7 7 7 7 7 7 7 7 7 7 7 7 7 7 7 7 7 7 7 7 7 7 7 7 7 7 7 7 7 7 7 7 7 7 7 7 7 7 7 7 7 7 7 7 7 7 7 7 7 7 7 7 7 7 7 7 7 7 7 7 7 7 7 7 7 7 7 7 7 ",
"7 7 7 7 7 7 7 7 7 7 7 7 7 7 7 7 7 7 7 7 7 7 7 7 7 7 7 7 7 7 7 7 7 7 7 7 7 7 7 7 7 7 7 7 7 7 7 7 7 7 7 7 7 7 7 7 7 7 7 7 7 7 7 7 7 7 7 7 7 7 7 7 7 7 7 7 7 7 7 7 7 7 7 7 7 7 7 7 7 7 7 7 7 7 7 7 7 7 7 7 7 7 7 7 7 7 7 7 7 7 7 7 7 7 7 7 7 7 7 7 7 7 7 7 7 7 7 7 7 7 7 7 7 7 7 7 7 7 7 7 7 7 7 7 7 7 7 7 7 7 7 7 7 7 7 7 7 7 7 7 7 7 7 7 7 7 7 7 7 7 7 7 7 7 7 7 7 7 7 7 7 7 7 7 7 7 7 7 7 7 7 7 7 7 7 7 7 7 7 7 7 7 7 7 7 7 7 7 7 7 7 7 7 7 7 7 7 7 7 7 7 7 7 7 7 7 7 7 7 7 7 7 7 7 7 7 7 7 7 7 7 7 7 7 7 7 7 7 7 7 7 7 7 7 7 7 7 7 7 7 7 7 7 7 7 7 7 7 7 7 7 7 7 7 7 7 7 7 7 7 7 7 7 7 7 7 7 7 7 7 7 7 7 7 7 7 7 7 7 7 7 7 7 7 7 7 7 7 7 7 7 7 7 7 7 7 7 7 7 7 ",
"7 7 7 7 7 7 7 7 7 7 7 7 7 7 7 7 7 7 7 7 7 7 7 7 7 7 7 7 7 7 7 7 7 7 7 7 7 7 7 7 7 7 7 7 7 7 7 7 7 7 7 7 7 7 7 7 7 7 7 7 7 7 7 7 7 7 7 7 7 7 7 7 7 7 7 7 7 7 7 7 7 7 7 7 7 7 7 7 7 7 7 7 7 7 7 7 7 7 7 7 7 7 7 7 7 7 7 7 7 7 7 7 7 7 7 7 7 7 7 7 7 7 7 7 7 7 7 7 7 7 7 7 7 7 7 7 7 7 7 7 7 7 7 7 7 7 7 7 7 7 7 7 7 7 7 7 7 7 7 7 7 7 7 7 7 7 7 7 7 7 7 7 7 7 7 7 7 7 7 7 7 7 7 7 7 7 7 7 7 7 7 7 7 7 7 7 7 7 7 7 7 7 7 7 7 7 7 7 7 7 7 7 7 7 7 7 7 7 7 7 7 7 7 7 7 7 7 7 7 7 7 7 7 7 7 7 7 7 7 7 7 7 7 7 7 7 7 7 7 7 7 7 7 7 7 7 7 7 7 7 7 7 7 7 7 7 7 7 7 7 7 7 7 7 7 7 7 7 7 7 7 7 7 7 7 7 7 7 7 7 7 7 7 7 7 7 7 7 7 7 7 7 7 7 7 7 7 7 7 7 7 7 7 7 7 7 7 7 7 7 ",
"7 7 7 7 7 7 7 7 7 7 7 7 7 7 7 7 7 7 7 7 7 7 7 7 7 7 7 7 7 7 7 7 7 7 7 7 7 7 7 7 7 7 7 7 7 7 7 7 7 7 7 7 7 7 7 7 7 7 7 7 7 7 7 7 7 7 7 7 7 7 7 7 7 7 7 7 7 7 7 7 7 7 7 7 7 7 7 7 7 7 7 7 7 7 7 7 7 7 7 7 7 7 7 7 7 7 7 7 7 7 7 7 7 7 7 7 7 7 7 7 7 7 7 7 7 7 7 7 7 7 7 7 7 7 7 7 7 7 7 7 7 7 7 7 7 7 7 7 7 7 7 7 7 7 7 7 7 7 7 7 7 7 7 7 7 7 7 7 7 7 7 7 7 7 7 7 7 7 7 7 7 7 7 7 7 7 7 7 7 7 7 7 7 7 7 7 7 7 7 7 7 7 7 7 7 7 7 7 7 7 7 7 7 7 7 7 7 7 7 7 7 7 7 7 7 7 7 7 7 7 7 7 7 7 7 7 7 7 7 7 7 7 7 7 7 7 7 7 7 7 7 7 7 7 7 7 7 7 7 7 7 7 7 7 7 7 7 7 7 7 7 7 7 7 7 7 7 7 7 7 7 7 7 7 7 7 7 7 7 7 7 7 7 7 7 7 7 7 7 7 7 7 7 7 7 7 7 7 7 7 7 7 7 7 7 7 7 7 7 7 ",
"7 7 7 7 7 7 7 7 7 7 7 7 7 7 7 7 7 7 7 7 7 7 7 7 7 7 7 7 7 7 7 7 7 7 7 7 7 7 7 7 7 7 7 7 7 7 7 7 7 7 7 7 7 7 7 7 7 7 7 7 7 7 7 7 7 7 7 7 7 7 7 7 7 7 7 7 7 7 7 7 7 7 7 7 7 7 7 7 7 7 7 7 7 7 7 7 7 7 7 7 7 7 7 7 7 7 7 7 7 7 7 7 7 7 7 7 7 7 7 7 7 7 7 7 7 7 7 7 7 7 7 7 7 7 7 7 7 7 7 7 7 7 7 7 7 7 7 7 7 7 7 7 7 7 7 7 7 7 7 7 7 7 7 7 7 7 7 7 7 7 7 7 7 7 7 7 7 7 7 7 7 7 7 7 7 7 7 7 7 7 7 7 7 7 7 7 7 7 7 7 7 7 7 7 7 7 7 7 7 7 7 7 7 7 7 7 7 7 7 7 7 7 7 7 7 7 7 7 7 7 7 7 7 7 7 7 7 7 7 7 7 7 7 7 7 7 7 7 7 7 7 7 7 7 7 7 7 7 7 7 7 7 7 7 7 7 7 7 7 7 7 7 7 7 7 7 7 7 7 7 7 7 7 7 7 7 7 7 7 7 7 7 7 7 7 7 7 7 7 7 7 7 7 7 7 7 7 7 7 7 7 7 7 7 7 7 7 7 7 7 ",
"7 7 7 7 7 7 7 7 7 7 7 7 7 7 7 7 7 7 7 7 7 7 7 7 7 7 7 7 7 7 7 7 7 7 7 7 7 7 7 7 7 7 7 7 7 7 7 7 7 7 7 7 7 7 7 7 7 7 7 7 7 7 7 7 7 7 7 7 7 7 7 7 7 7 7 7 7 7 7 7 7 7 7 7 7 7 7 7 7 7 7 7 7 7 7 7 7 7 7 7 7 7 7 7 7 7 7 7 7 7 7 7 7 7 7 7 7 7 7 7 7 7 7 7 7 7 7 7 7 7 7 7 7 7 7 7 7 7 7 7 7 7 7 7 7 7 7 7 7 7 7 7 7 7 7 7 7 7 7 7 7 7 7 7 7 7 7 7 7 7 7 7 7 7 7 7 7 7 7 7 7 7 7 7 7 7 7 7 7 7 7 7 7 7 7 7 7 7 7 7 7 7 7 7 7 7 7 7 7 7 7 7 7 7 7 7 7 7 7 7 7 7 7 7 7 7 7 7 7 7 7 7 7 7 7 7 7 7 7 7 7 7 7 7 7 7 7 7 7 7 7 7 7 7 7 7 7 7 7 7 7 7 7 7 7 7 7 7 7 7 7 7 7 7 7 7 7 7 7 7 7 7 7 7 7 7 7 7 7 7 7 7 7 7 7 7 7 7 7 7 7 7 7 7 7 7 7 7 7 7 7 7 7 7 7 7 7 7 7 7 ",
"7 7 7 7 7 7 7 7 7 7 7 7 7 7 7 7 7 7 7 7 7 7 7 7 7 7 7 7 7 7 7 7 7 7 7 7 7 7 7 7 7 7 7 7 7 7 7 7 7 7 7 7 7 7 7 7 7 7 7 7 7 7 7 7 7 7 7 7 7 7 7 7 7 7 7 7 7 7 7 7 7 7 7 7 7 7 7 7 7 7 7 7 7 7 7 7 7 7 7 7 7 7 7 7 7 7 7 7 7 7 7 7 7 7 7 7 7 7 7 7 7 7 7 7 7 7 7 7 7 7 7 7 7 7 7 7 7 7 7 7 7 7 7 7 7 7 7 7 7 7 7 7 7 7 7 7 7 7 7 7 7 7 7 7 7 7 7 7 7 7 7 7 7 7 7 7 7 7 7 7 7 7 7 7 7 7 7 7 7 7 7 7 7 7 7 7 7 7 7 7 7 7 7 7 7 7 7 7 7 7 7 7 7 7 7 7 7 7 7 7 7 7 7 7 7 7 7 7 7 7 7 7 7 7 7 7 7 7 7 7 7 7 7 7 7 7 7 7 7 7 7 7 7 7 7 7 7 7 7 7 7 7 7 7 7 7 7 7 7 7 7 7 7 7 7 7 7 7 7 7 7 7 7 7 7 7 7 7 7 7 7 7 7 7 7 7 7 7 7 7 7 7 7 7 7 7 7 7 7 7 7 7 7 7 7 7 7 7 7 7 ",
"7 7 7 7 7 7 7 7 7 7 7 7 7 7 7 7 7 7 7 7 7 7 7 7 7 7 7 7 7 7 7 7 7 7 7 7 7 7 7 7 7 7 7 7 7 7 7 7 7 7 7 7 7 7 7 7 7 7 7 7 7 7 7 7 7 7 7 7 7 7 7 7 7 7 7 7 7 7 7 7 7 7 7 7 7 7 7 7 7 7 7 7 7 7 7 7 7 7 7 7 7 7 7 7 7 7 7 7 7 7 7 7 7 7 7 7 7 7 7 7 7 7 7 7 7 7 7 7 7 7 7 7 7 7 7 7 7 7 7 7 7 7 7 7 7 7 7 7 7 7 7 7 7 7 7 7 7 7 7 7 7 7 7 7 7 7 7 7 7 7 7 7 7 7 7 7 7 7 7 7 7 7 7 7 7 7 7 7 7 7 7 7 7 7 7 7 7 7 7 7 7 7 7 7 7 7 7 7 7 7 7 7 7 7 7 7 7 7 7 7 7 7 7 7 7 7 7 7 7 7 7 7 7 7 7 7 7 7 7 7 7 7 7 7 7 7 7 7 7 7 7 7 7 7 7 7 7 7 7 7 7 7 7 7 7 7 7 7 7 7 7 7 7 7 7 7 7 7 7 7 7 7 7 7 7 7 7 7 7 7 7 7 7 7 7 7 7 7 7 7 7 7 7 7 7 7 7 7 7 7 7 7 7 7 7 7 7 7 7 7 ",
"7 7 7 7 7 7 7 7 7 7 7 7 7 7 7 7 7 7 7 7 7 7 7 7 7 7 7 7 7 7 7 7 7 7 7 7 7 7 7 7 7 7 7 7 7 7 7 7 7 7 7 7 7 7 7 7 7 7 7 7 7 7 7 7 7 7 7 7 7 7 7 7 7 7 7 7 7 7 7 7 7 7 7 7 7 7 7 7 7 7 7 7 7 7 7 7 7 7 7 7 7 7 7 7 7 7 7 7 7 7 7 7 7 7 7 7 7 7 7 7 7 7 7 7 7 7 7 7 7 7 7 7 7 7 7 7 7 7 7 7 7 7 7 7 7 7 7 7 7 7 7 7 7 7 7 7 7 7 7 7 7 7 7 7 7 7 7 7 7 7 7 7 7 7 7 7 7 7 7 7 7 7 7 7 7 7 7 7 7 7 7 7 7 7 7 7 7 7 7 7 7 7 7 7 7 7 7 7 7 7 7 7 7 7 7 7 7 7 7 7 7 7 7 7 7 7 7 7 7 7 7 7 7 7 7 7 7 7 7 7 7 7 7 7 7 7 7 7 7 7 7 7 7 7 7 7 7 7 7 7 7 7 7 7 7 7 7 7 7 7 7 7 7 7 7 7 7 7 7 7 7 7 7 7 7 7 7 7 7 7 7 7 7 7 7 7 7 7 7 7 7 7 7 7 7 7 7 7 7 7 7 7 7 7 7 7 7 7 7 7 ",
"7 7 7 7 7 7 7 7 7 7 7 7 7 7 7 7 7 7 7 7 7 7 7 7 7 7 7 7 7 7 7 7 7 7 7 7 7 7 7 7 7 7 7 7 7 7 7 7 7 7 7 7 7 7 7 7 7 7 7 7 7 7 7 7 7 7 7 7 7 7 7 7 7 7 7 7 7 7 7 7 7 7 7 7 7 7 7 7 7 7 7 7 7 7 7 7 7 7 7 7 7 7 7 7 7 7 7 7 7 7 7 7 7 7 7 7 7 7 7 7 7 7 7 7 7 7 7 7 7 7 7 7 7 7 7 7 7 7 7 7 7 7 7 7 7 7 7 7 7 7 7 7 7 7 7 7 7 7 7 7 7 7 7 7 7 7 7 7 7 7 7 7 7 7 7 7 7 7 7 7 7 7 7 7 7 7 7 7 7 7 7 7 7 7 7 7 7 7 7 7 7 7 7 7 7 7 7 7 7 7 7 7 7 7 7 7 7 7 7 7 7 7 7 7 7 7 7 7 7 7 7 7 7 7 7 7 7 7 7 7 7 7 7 7 7 7 7 7 7 7 7 7 7 7 7 7 7 7 7 7 7 7 7 7 7 7 7 7 7 7 7 7 7 7 7 7 7 7 7 7 7 7 7 7 7 7 7 7 7 7 7 7 7 7 7 7 7 7 7 7 7 7 7 7 7 7 7 7 7 7 7 7 7 7 7 7 7 7 7 7 ",
"7 7 7 7 7 7 7 7 7 7 7 7 7 7 7 7 7 7 7 7 7 7 7 7 7 7 7 7 7 7 7 7 7 7 7 7 7 7 7 7 7 7 7 7 7 7 7 7 7 7 7 7 7 7 7 7 7 7 7 7 7 7 7 7 7 7 7 7 7 7 7 7 7 7 7 7 7 7 7 7 7 7 7 7 7 7 7 7 7 7 7 7 7 7 7 7 7 7 7 7 7 7 7 7 7 7 7 7 7 7 7 7 7 7 7 7 7 7 7 7 7 7 7 7 7 7 7 7 7 7 7 7 7 7 7 7 7 7 7 7 7 7 7 7 7 7 7 7 7 7 7 7 7 7 7 7 7 7 7 7 7 7 7 7 7 7 7 7 7 7 7 7 7 7 7 7 7 7 7 7 7 7 7 7 7 7 7 7 7 7 7 7 7 7 7 7 7 7 7 7 7 7 7 7 7 7 7 7 7 7 7 7 7 7 7 7 7 7 7 7 7 7 7 7 7 7 7 7 7 7 7 7 7 7 7 7 7 7 7 7 7 7 7 7 7 7 7 7 7 7 7 7 7 7 7 7 7 7 7 7 7 7 7 7 7 7 7 7 7 7 7 7 7 7 7 7 7 7 7 7 7 7 7 7 7 7 7 7 7 7 7 7 7 7 7 7 7 7 7 7 7 7 7 7 7 7 7 7 7 7 7 7 7 7 7 7 7 7 7 7 ",
"                                                    o.^ o.^ ] o.<.<.7.x.B.J.R.(.{.@X;X3X;X@X{.(.R.J.B.x.7.<.*.<.B.J.B.]                                                           2           2                                                                                                                         s.                                                                                                                                                                                                3                                                                                     2                                               ",
"                                                  c o.^ o.^ ] o.<.<.7.x.B.J.R.(.{.@X;X3X;X@X{.(.R.J.B.x.7.<.*.<.B.J.B.] c                                                                                                                                               2                                                 V                                                                                                                                                                                                                                                                                                                             V 2     ",
"                                                  G o.^ o.^ ] o.<.<.7.x.B.J.R.(.{.@X;X3X;X@X{.(.R.J.B.x.7.<.*.<.B.J.B.] G           V                                                                                                                                                                                                                                                                                               V                                                                                                                                 ;X(.            ;X;X                                                                      ",
"                                                  Y o.^ o.^ ] o.<.<.7.x.B.J.R.(.{.@X;X3X;X@X{.(.R.J.B.x.7.<.*.<.B.J.B.] Y                                                                                                                                                                                                                                                                                                                                                                                                                                           ;X(.@X;X        ;X(.(.(.                                                                    ",
"          sX                                      ^ o.^ o.^ ] o.<.<.7.x.B.J.R.(.{.@X;X3X;X@X{.(.R.J.B.x.7.<.*.<.B.J.B.] ^                                                                             2                                         2                                                                                                                                       2                                                                                                                                               s.                        ;X(.@X;X7.      ;X(.(.@X7.                      V                                             ",
"                                                  ] o.^ o.^ ] o.<.<.7.x.B.J.R.(.{.@X;X3X;X@X{.(.R.J.B.x.7.<.*.<.B.J.B.] ]                                                                                                                                                                                                                                                                                                                                                                                                                                       ;X(.@X;X7.      ;X(.(.@X7.    V                                                                 ",
"              2         V                         o.o.^ o.^ ] o.<.<.7.x.B.J.R.(.{.@X;X3X;X@X{.(.R.J.B.x.7.<.*.<.B.J.B.] ]                             sX                                                                                                                                                                                                                                                      2                                                                                                                                               ;X(.@X;X7.      ;X(.(.@X7.V                                                                       ",
"                    2                             o.o.^ o.^ ] o.<.<.7.x.B.J.R.(.{.@X;X3X;X@X{.(.R.J.B.x.7.<.*.<.B.J.B.] ]                                 sX                                                                                                                                        2                                                                                                                 2                                                   sX                        3                                                       ;X(.@X;X7.      ;X(.(.@X7.                                                                          ",
"                                  V               ] o.^ o.^ ] o.<.<.7.x.B.J.R.(.{.@X;X3X;X@X{.(.R.J.B.x.7.<.*.<.B.J.B.] ]     s.          V                                                                                                                                             2                                                                       sX  2                                                                                                   s.                                                    G x.x.x.x.x.x.x.x.x.x.x.x.x.x.x.x.;X7.      ;X(.(.@X7.                                                                      V     ",
"                                                  ] o.^ o.^ ] o.<.<.7.x.B.J.R.(.{.@X;X3X;X@X{.(.R.J.B.x.7.<.*.<.B.J.B.] ]                                                                                                 2                                 s.          V                                                                                                                                                                               3                                                             G x.x.x.x.*.*.*.*.*.*.*.*.*.*.*.*.*.*.*.*.x.x.x.x.;X(.(.@X7.        V                                         V                           ",
"                                                  ] o.^ o.^ ] o.<.<.7.x.B.J.R.(.{.@X;X3X;X@X{.(.R.J.B.x.7.<.*.<.B.J.B.] ]                     2                                                       2                       2                                                                                                                                                                                                                                                     V           2                 G x.x.*.*.*.*.*.*.*.*.*.*.*.*.*.*.*.*.*.*.*.*.*.*.*.*.x.x.@X7.                                                                                ",
"                                                  ] ^ *.o.^ ] o.<.<.7.x.B.J.R.(.{.@X;X3X;X@X{.(.R.J.B.x.7.<.*.<.B.J.B.] ]                                                                                                                                                                                                                               2                                                                                                                                                       G x.*.*.*.*.*.*.] ] ] ] ] ] ] ] ] ] ] ] ] ] ] ] *.*.*.*.*.*.7.G                                                                                 ",
"                                                  ] ^ *.o.^ ] o.<.<.7.x.B.J.R.(.{.@X;X3X;X@X{.(.R.J.B.x.7.<.*.<.B.J.B.<.]                                                       V                                                                                                             V                                                                 2                                                                                                                                             G x.*.*.*.] ] ] ]                                 ] ] ] ] *.*.*.x.G                                             sX2                             2 ",
"                2                                 ] ^ *.o.^ ] o.<.<.7.x.B.J.R.(.{.@X;X3X;X@X{.(.R.J.B.x.7.<.*.<.B.J.B.<.]                                                                                                                                                                                                                                                         V                                                                                                                           x.*.*.] ]       ^ <.<.<.<.<.<.<.<.<.<.<.<.<.<.<.<.^       ] ] *.*.x.                                                                              ",
"                                                  ] ^ *.o.^ ] o.<.<.7.x.B.J.R.(.{.@X;X3X;X@X{.(.R.J.B.x.7.<.*.<.B.J.B.7.]               2                                                                                                                                                               V                                                                                                                                                                                                     *.*.]     ^ <.<.<.<.<.J.R.(.{.@X;X3X;X@X{.(.R.J.<.<.<.<.^     ] *.*.                                                                              ",
"                                                  ] ^ *.o.^ ] o.<.<.7.x.B.J.R.(.{.@X;X3X;X@X{.(.R.J.B.x.7.<.*.<.7.B.J.B.]                                                                                                                                                 2                                                                                   V                                                     V                                                                           2             *.]   <.<.o.<.<.7.x.B.J.R.(.{.@X;X3X;X@X{.(.R.J.B.x.7.*.<.<.<.  ] *.                                                                      2       ",
"                              2                 2 ] ^ *.o.^ ] o.<.<.7.x.B.J.R.(.{.@X;X3X;X@X{.(.R.J.B.x.7.<.*.<.<.B.J.B.]                   V                                               V                           V                                                               2                                         2                                                                                                                                                                           ]   *.o.^ ] o.<.7.x.B.J.R.(.{.@X;X3X;X@X{.(.R.J.B.x.7.*.<.B.J.<.  ]                                                                               ",
"                                          sX      ] ^ *.o.^ ] o.<.<.7.x.B.J.R.(.{.@X;X3X;X@X{.(.R.J.B.x.7.<.*.<.<.B.J.B.]                                                                                                                         2                                                     V                   2               V                           2                                                                                                                     2                 o.*.o.^ ] o.<.7.x.B.J.R.(.{.@X;X3X;X@X{.(.R.J.B.x.7.*.<.B.J.B.]                                                                                 ",
"                                                c ] ^ *.o.^ ] o.<.<.7.x.B.J.R.(.{.@X;X3X;X@X{.(.R.J.B.x.7.<.*.<.<.B.J.B.] c                                                                                         2                                                 2                                                   2                           V                                                                                                                                                       c o.*.o.^ ] o.<.7.x.B.J.R.(.{.@X;X3X;X@X{.(.R.J.B.x.7.*.<.B.J.B.] c                                                                               ",
"                                                G ] ^ *.o.^ ] o.<.<.7.x.B.J.R.(.{.@X;X3X;X@X{.(.R.J.B.x.7.<.*.<.<.B.J.B.] G                                                                           V                                                                                                             V                                                                               3                                                                                         3               G o.*.o.^ ] o.<.7.x.B.J.R.(.{.@X;X3X;X@X{.(.R.J.B.x.7.*.<.B.J.B.] G       sX                                                                      ",
"                V                     V         Y ] ^ *.o.^ ] o.<.<.7.x.B.J.R.(.{.@X;X3X;X@X{.(.R.J.B.x.7.<.*.<.<.B.J.B.] Y                                                                                                                                                                                             V                               s.      2                                                         V                                                                           2       Y o.*.o.^ ] o.<.7.x.B.J.R.(.{.@X;X3X;X@X{.(.R.J.B.x.7.*.<.B.J.B.] Y                                     2           V                             ",
"                                                ^ ] ^ *.o.^ ] o.<.<.7.x.B.J.R.(.{.@X;X3X;X@X{.(.R.J.B.x.7.<.*.<.<.B.J.B.] ^                             2                                                                                                                                                                                                                                                 2                                                                                                   ^ o.*.o.^ ] o.<.7.x.B.J.R.(.{.@X;X3X;X@X{.(.R.J.B.x.7.*.<.B.J.B.] ^                         2               V               2 s.                  ",
"                            s.                  ] ] ^ *.o.^ ] o.<.<.7.x.B.J.R.(.{.@X;X3X;X@X{.(.R.J.B.x.7.<.*.<.<.B.J.B.] ]                                                                       V                         2                         sX                      2   2                                                   V           2                                                                                               2                                                           ] o.*.o.^ ] o.<.7.x.B.J.R.(.{.@X;X3X;X@X{.(.R.J.B.x.7.*.<.B.J.B.] ]                                                                               ",
"                  V                             o.] ^ *.o.^ ] o.<.<.7.x.B.J.R.(.{.@X;X3X;X@X{.(.R.J.B.x.7.<.*.<.<.B.J.B.] ]               V                 2                                                                                                                                                                                                                                             V                                                                                                   o.o.*.o.^ ] o.<.7.x.B.J.R.(.{.@X;X3X;X@X{.(.R.J.B.x.7.*.<.B.J.B.] ]                                                                               ",
"                                                o.] ^ *.o.^ ] o.<.<.7.x.B.J.R.(.{.@X;X3X;X@X{.(.R.J.B.x.7.<.*.<.<.B.J.B.] ]                                                                                                 2                                   V             V               2                                     2                                                                                                                                                                     s.  o.o.*.o.^ ] o.<.7.x.B.J.R.(.{.@X;X3X;X@X{.(.R.J.B.x.7.*.<.B.J.B.] ]                                                                               ",
"                        2                       ] ] ^ *.o.^ ] o.<.<.7.x.B.J.R.(.{.@X;X3X;X@X{.(.R.J.B.x.7.<.*.<.<.B.J.B.] ]                                                                                                                                                                                                                                                                                                                                                                                   ] o.*.o.^ ] o.<.7.x.B.J.R.(.{.@X;X3X;X@X{.(.R.J.B.x.7.*.<.B.J.B.] ]                                                                               ",
"                                                ] ] ^ *.o.^ ] o.<.<.7.x.B.J.R.(.{.@X;X3X;X@X{.(.R.J.B.x.7.<.*.<.<.B.J.B.] ]                                                                                                                         2           2                                                   2                                                                                                       2                     V                                                           ] o.*.o.^ ] o.<.7.x.B.J.R.(.{.@X;X3X;X@X{.(.R.J.B.x.7.*.<.B.J.B.7.]                                                                               ",
"                                                ] ] ^ *.o.^ ] o.<.<.7.x.B.J.R.(.{.@X;X3X;X@X{.(.R.J.B.x.7.<.*.<.<.B.J.B.] ]                                                                                                                                                                                                                                               V           3                                                                                                                       ] o.*.o.^ ] o.<.7.x.B.J.R.(.{.@X;X3X;X@X{.(.R.J.B.x.7.*.<.7.B.J.B.]                                                                               ",
"                                                ] ] ^ *.o.^ ] o.<.<.7.x.B.J.R.(.{.@X;X3X;X@X{.(.R.J.B.x.7.<.*.<.<.B.J.B.] ]                                                                                     2 2                                                                                                         V                       3                                                                                                                                   2                     ] o.*.o.^ ] o.<.7.x.B.J.R.(.{.@X;X3X;X@X{.(.R.J.B.x.7.*.<.<.B.J.B.]                 2                                                             ",
"                                                ] ] ^ *.o.^ ] o.<.<.7.x.B.J.R.(.{.@X;X3X;X@X{.(.R.J.B.x.7.<.*.<.<.B.J.B.] ]                                   V                                     V                                                                                                                 2                                     3                                                                           V                                                                     ] o.*.o.^ ] o.<.7.x.B.J.R.(.{.@X;X3X;X@X{.(.R.J.B.x.7.*.<.<.B.J.B.]                                                                               ",
"            V                                   ] ] ^ *.o.^ ] o.<.<.7.x.B.J.R.(.{.@X;X3X;X@X{.(.R.J.B.x.7.<.*.<.<.B.J.B.] ]                                                     2                                                               2                                                                                                                                                                                                                     2                                       ] o.*.o.^ ] o.<.7.x.B.J.R.(.{.@X;X3X;X@X{.(.R.J.B.x.7.*.<.<.B.J.B.]                                                                               ",
"                                                ] ] ^ *.o.^ ] o.<.<.7.x.B.J.R.(.{.@X;X3X;X@X{.(.R.J.B.x.7.<.*.<.<.B.J.B.] ]                           s.                                                                                                                      2       2                                                           V                                                                                                                       2                                   ] o.*.o.^ ] o.<.7.x.B.J.R.(.{.@X;X3X;X@X{.(.R.J.B.x.7.*.<.<.B.J.B.]                               V   2                                           ",
"          2                                     ] ^ o.*.] ^ ] o.<.<.7.x.B.J.R.(.{.@X;X3X;X@X{.(.R.J.B.x.7.<.<.*.<.B.J.B.] ]                                                                                                                 V                                                                                                                             3                                                                                                                                   ] o.*.o.^ ] o.<.7.x.B.J.R.(.{.@X;X3X;X@X{.(.R.J.B.x.7.<.*.<.B.J.B.]                                                                               ",
"                                                ] ^ *.o.^ ] o.*.<.<.7.x.B.J.R.(.{.@X;X3X;X@X{.(.R.J.B.x.7.<.<.*.<.B.J.B.] ]                                                                                                                     2                                                                                                                                                                                                                                                             ] o.o.^ ] o.*.<.7.x.B.J.R.(.{.@X;X3X;X@X{.(.R.J.B.x.7.<.*.<.B.J.B.]                                                                               ",
"                                                ] ^ *.o.^ ] o.<.<.<.7.x.B.J.R.(.{.@X;X3X;X@X{.(.R.J.B.x.7.<.<.*.<.B.J.B.<.]                                                                                                                                                                                                                                                                                     V                                                                                             o.*.o.^ ] o.<.<.7.x.B.J.R.(.{.@X;X3X;X@X{.(.R.J.B.x.7.<.*.<.B.J.B.]                                                                               ",
"                                              c ] ^ *.o.^ ] o.<.<.<.7.x.B.J.R.(.{.@X;X3X;X@X{.(.R.J.B.x.7.<.<.*.<.B.J.B.7.] c                                                                                                                                                                                 V                                             3                                                                                                                                               c o.*.o.^ ] o.<.<.7.x.B.J.R.(.{.@X;X3X;X@X{.(.R.J.B.x.7.<.*.<.B.J.B.] c           V                                               V                 ",
"              V                               G ] ^ *.o.^ ] o.<.<.<.7.x.B.J.R.(.{.@X;X3X;X@X{.(.R.J.B.x.7.<.<.*.<.7.B.J.B.] G                           V                                                                                                                           2                                                                                                                             V                             2                                                           G o.*.o.^ ] o.<.<.7.x.B.J.R.(.{.@X;X3X;X@X{.(.R.J.B.x.7.<.*.<.B.J.B.] G                       V                                                     ",
"                      V                       Y ] ^ *.o.^ ] o.<.<.<.7.x.B.J.R.(.{.@X;X3X;X@X{.(.R.J.B.x.7.<.<.*.<.<.B.J.B.] Y                                                                                                                                                                                                                                                                                                                   sX2                                                         Y o.*.o.^ ] o.<.<.7.x.B.J.R.(.{.@X;X3X;X@X{.(.R.J.B.x.7.<.*.<.B.J.B.] Y                                                                             ",
"                                              ] ] ^ *.o.^ ] o.<.<.<.7.x.B.J.R.(.{.@X;X3X;X@X{.(.R.J.B.x.7.<.<.*.<.<.B.J.B.] ^                                                                                                                                                   2                                                                                                                                                                                                                           ^ o.*.o.^ ] o.<.<.7.x.B.J.R.(.{.@X;X3X;X@X{.(.R.J.B.x.7.<.*.<.B.J.B.] ^                                                                           s.",
"                                              ] ] ^ *.o.^ ] o.<.<.<.7.x.B.J.R.<.] D x y x U G ] 5.J.B.x.7.<.<.*.<.<.B.J.B.] ]                                                                                   d.      V     2                                       2                                           3                                                                                                                                                           2                             ] o.*.o.^ ] o.<.<.7.x.B.J.R.(.{.@X;X3X;X@X{.(.R.J.B.x.7.<.*.<.B.J.B.] ]                                                                             ",
"                                              ] ] ^ *.o.^ ] o.<.<.<.7.x.B. .Y 7 h o.Y U h w ^ D h Y  .x.7.<.<.*.<.<.B.J.B.] ]                                                                                 s.f.s.                          V                   V                                                                                                                                                                         2                                                             V o.o.*.o.^ ] o.<.<.7.x.B.J.R.(.{.@X;X3X;X@X{.(.R.J.B.x.7.<.*.<.B.J.B.] ]                                                       2                     ",
"                                              ] ] ^ *.o.^ ] o.<.<.<.7.#.G x p ,.7 5.c M.G   7.U y w G U <.<.<.*.<.<.B.J.B.] ]                                                                               d.f.sXf.d.                                                                                                          V                                                       s.          3                                                                                                   V   o.o.*.o.^ ] o.<.<.7.x.B.J.R.(.{.@X;X3X;X@X{.(.R.J.B.x.7.<.*.<.B.J.B.] ]                                                                             ",
"                                              ] ] ^ *.o.^ ] o.<.<.<._ h p Y y <Xj.O         - D iX#.> y c  .<.*.<.<.B.J.B.] ]                                                                                 s.f.s.                                                                                                        V                                                                                                                         V                                                     ] o.*.o.^ ] o.<.<.7.x.B.J.R.(.{.@X;X3X;X@X{.(.R.J.B.x.7.<.*.<.B.J.B.] ]                               sX                                            ",
"                                            c ] ] ^ *.o.^ ] o.<.<.Q G U h B.*.> y D #.,.,.#.p $ #.S.G L Y c #.*.<.<.B.J.B.] ]                                             V                                     d.                                                                                                                                                                                                                                                                                          ] o.*.o.^ ] o.<.<.7.x.B.J.R.(.{.@X;X3X=X@X{.(.R.J.B.x.7.<.*.<.B.J.B.] ]                                     2                                       ",
"                  V                         G ] ] ^ *.o.^ ] o.<.#.G - #.!.7 w ] @XmXGXGXGXDXbX{.x   #.R.7 y c *.<.<.B.J.B.] ]             V               ;X;X            (.;X                                                                                                                                      3                                                                                                                                                                                       ] o.*.o.^ ] o.<.<.7.x.B.J.R.<. .D x p x U G ] 5.J.B.x.7.<.*.<.B.J.B.] ]               2                                                             ",
"                                            Y ] ] ^ *.o.^ ] o.<.x c   $ h   !.GXbXyXqXqXqXyXyXDXGXx.1 x     Y c <.<.B.J.B.] ]                           (.(.(.;X        ;X@X(.;X                                                                                                                                                                                                                                                                        2                                                   ] o.*.o.^ ] o.<.<.7.x.B.] Y 7 h o.Y Y h 7 _ D p Y  .x.7.<.*.<.B.J.B.] ]                                                                             ",
"                                            ^ ] ] ^ *.o.^ ] o.Q Y O       qXGXqX9XkXDXDXqXiXDXmXVXGXoX      > L #.<.B.J.B.] ]                           7.@X(.(.;X      7.;X@X(.;X                                                                                                                                                                          V       3                                           3                                                                                           ] o.*.o.^ ] o.<.<.7.#.G x y <.7 5.c M.G   7.U y w G U <.<.*.<.B.J.B.] ]                                                                             ",
"                                            ] ] ] ^ *.o.^ ] o.c h       ].GX9XqXDXoXB.<.9X<XB.7.J.B.;X*.      D D <.B.J.B.] ]                             7.@X(.(.;X      7.;X@X(.;X                V                                         2                                                                                                                                                                                                           V                             V                   ] o.*.o.^ ] o.<.<.^ p h Y p <Xj.O         > D yX*.> y c o.*.<.B.J.B.] ]                                                                             ",
"                                            ] ] ] ^ *.o.^ ] Q D +     Y GX9X9XGX=X+   p DXj.  o.Q     9Xh     7 c ,.B.J.B.] ]                               7.@X(.(.;X      7.;X@X(.;X                                                                                2                       3                                                                                                                                                                           2                                 ] o.*.o.^ ] o.<.Q G U h B.*.> y D o.,.,.o.p $ #.S.G G Y x  .<.B.J.B.7.]                                                                             ",
"      s.                                    ] ] ] ^ *.o.^ ] c h       {.DX9XGX=XO   U DXGXo.c GX#.    iXT.      x ^ B.J.B.] ]                                 7.@X(.(.;X      7.;X@X(.;X                                                                                                                                sX                                                                      3                                   V                                             s.                        ] o.*.o.^ ] o.o.G - #.!.w w ] @XmXGXGXGXGXbXXXh   o.!.7 y c <.7.B.J.B.]                                                                             ",
"                                            ] ] ] ^ *.o.^ ] c p     = kXyXGX=X    Y GXkXyX@XVXGXp   $ kXqX      c U B.J.B.] ]                                   7.@X(.(.;X      7.;Xx.x.x.x.x.x.x.x.x.x.x.x.x.G                                                                                                                                                                                   3                                                                                                         ] o.*.o.^ ] o.x D   $ h   !.GXbXqXqXqXqXqXyXVXGXx.1 c     Y D <.B.J.B.]                                                   V                   V     ",
"                                            ] ] ] ^ *.o.^ ] p x.+   5.kXGX;XO   ^ GXmXiX9XDXGXc   $ 3XDXyXQ   w 7.c B.J.B.] ]                                     7.@X(.(.;Xx.x.x.x.*.*.*.*.*.*.*.*.*.*.*.*.*.x.x.x.x.G                                                                                               Y 7.(.(.(.(.(.(.(.(.(.(.(.(.(.(.(.(.(.(.(.(.(.(.(.(.<.<.<.<.(.(.7.Y                                           2                               2     V                                 ] o.*.o.^ ] G U O       qXGXqX9XbXDXDXyXdXGXmXVXGXoX      > G o.B.J.B.]                                                                             ",
"                        V                   ] ] ] ^ *.] ^ ] 7 T.M.,.!.mX@XO   _ GXmXiXiXdXhXG   > <XGXdX;XT.<.S.j.h B.J.B.] ]           V                           7.@Xx.x.*.*.*.*.*.*.*.*.*.*.*.*.*.*.*.*.*.*.*.*.*.x.x.G                                                                           Y 7.(.(.(.(.(.(.(.(.R.J.J.J.J.J.J.J.J.J.J.R.(.R.J.J.R.(.{.@X3X@X{.(.J.J.J.J.J.J.(.(.(.(.(.(.(.(.<.<.                            2                                                                   c ] o.*.o.^ ] c h       {.GX9X9XDX@XB.,.3X<XB.5.T.B.;X*.      G D B.J.B.] c                                                                           ",
"                                            ] ] ^ o.*.^ ] ] w x.oXR.B.GXw     h h 5 7 w (.!.    M.GXS.].yXj.{.].,.h B.J.B.] ]                                       G 7.*.*.*.*.*.*.] ] ] ] ] ] ] ] ] ] ] ] ] *.*.*.*.*.*.x.G                                                                 Y 7.(.(.(.(.B.x.B.J.J.J.J.J.R.J.J.J.J.J.J.J.J.J.J.R.(.R.J.J.R.(.{.@X3X@X{.(.J.J.J.J.J.J.J.J.J.J.J.J.J.J.J.J.<.<.7.Y                             2                                                   2       G ] o.*.o.^ U D +     Y GXqX9XGX=X+   p DXj.  o.Q     9Xh     7 c M.J.B.] G             V                                                             ",
"                                            ] ] ^ o.*.^ ] ] w j.R.H.M.bX5               H.!.    T.!.  ].yX7.T.T.o.x B.J.B.] ]                                     G x.*.*.*.] ] ] ]                           ] ] ] ] *.*.*.x.G                                 V                         ] (.(.R.R.J.R.J.B.x.B.J.J.J.J.J.R.J.J.J.J.J.J.J.J.J.J.R.(.R.J.J.R.(.{.@X3X@X{.(.R.J.J.J.J.J.J.J.J.J.J.J.J.J.J.J.J.J.J.(.(.]                                                                                     Y ] o.*.o.^ x h       {.VX9XGX=X    U DXGXo.c GX#.    yXT.    O x #.J.B.] Y                                                                           ",
"                                            ] ] ^ o.*.^ ] ] y 7.*.Q M.=X].x.M.M.T. .    H.XX1 1 ,.7 - yX@X<.Y M._ U B.J.B.] ]                                     x.*.*.] ]       ^ <.<.<.<.<.<.<.<.<.<.<.<.<.^       ] ] *.*.x.                                                      ^ B.J.B.J.R.R.J.R.J.B.x.B.J.J.J.J.J.R.J.J.J.J.J.J.J.J.J.J.R.(.R.J.J.R.(.{.@X3X@X{.(.R.J.J.J.J.J.J.J.J.J.J.J.J.J.J.J.J.J.J.J.B.J.B.^                                                               V                 ^ ] o.*.o.^ c y     = bXyXGX=XO   Q GXkXyX@XVXGXp   + kX9X      c ^ J.B.] ^                           V                                               ",
"                                            ] ] ^ o.*.^ ] ] G Q M.H.B.S.GXVXDXDXGX].    ,.GXyXyX;X<XyXdXM.J.S.S.d #.B.J.B.] ]                                     *.*.]     ^ <.<.<.<.<.J.R.(.{.@X@X{.(.R.J.<.<.<.<.^     ] *.*.                                                    <.x.B.J.B.J.R.R.J.R.J.B.x.B.J.J.J.J.J.R.J.J.J.J.J.J.J.J.J.J.R.(.R.J.J.R.(.{.@X3X@X{.(.R.J.J.J.J.J.J.J.J.J.J.J.J.J.J.J.J.J.J.J.B.J.B.x.<.                            2                           2     V               ] ] o.*.o.^ y x.+   7.kXGX;XO   ^ GXmXyX9XDXGXc   $ 9XVXyX^   w 7.U J.B.] ]                                                           2               ",
"                    V                 s.    ] ] ^ o.*.^ ] ]  .7 T.T.,.<.<XbX9XqXDXJ.    ,.GXdXdXdXiXGX{.*.5.(.j.7 <.B.J.B.] ]                                     *.]   <.<.o.<.<.7.x.B.J.R.(.{.@X@X{.(.R.J.B.x.7.*.<.<.<.  ] *.                                  2               ] <.x.B.J.B.J.R.R.J.R.J.B.x.B.J.J.J.J.J.R.J.J.J.J.J.J.J.J.J.J.R.(.R.J.J.R.(.{.@X3X@X{.(.R.J.J.J.J.J.J.J.J.J.J.J.J.J.J.J.J.J.J.J.B.J.B.x.<.]                                         2     2                             o.] o.*.o.^ 7 T.M.*.(.mXoXO   _ GXVXiXdXdXdXG   > ;XGXdX<XT.<.S.x.c J.B.] ]                                                 V                         ",
"                                            ] ] ^ o.*.^ ] ]  .h <.7.Y S.7.dXhX9XyX3XXXXX<XiXqXqX9XbX3X5.x.Y H.Y Q <.B.J.B.] ] c           sX                      ]   *.o.^ ] o.<.7.x.B.J.R.(.{.@X@X{.(.R.J.B.x.7.*.<.B.J.<.  ]                             s.                    ] <.x.B.J.B.J.R.R.J.R.J.B.x.B.J.J.J.J.B.x.x.x.x.x.x.x.x.x.x.x.x.x.x.x.x.x.x.x.x.x.x.x.x.x.x.x.x.x.x.B.J.J.J.J.J.J.J.J.J.J.J.J.J.B.J.B.x.<.]                                                         2                   o.] o.*.o.^ 7 x.oXT.B.GXw     h h 5 7 7 ].!.    M.GXS.].yXj.{.].*.D J.B.] ]                                                                           ",
"                                            ] ] ^ o.*.^ ] ] o.*.7 S.{.(.M.7.iXmXqXiXbXbXdX9XqXyXmX6X5.S.(.].5.1 <.<.B.J.B.] ] G                     V               o.*.o.^ ] o.<.7.x.B.J.R.(.{.@X@X{.(.R.J.B.x.7.*.<.B.J.B.]               2               2                     ] <.x.B.J.B.J.R.R.B.x.x.x.x.x.x.x.x.x.<.^ c c c c c x c c c c c x c c x x c c c c c c c x c c c c ^ <.x.x.x.x.x.x.x.x.x.B.J.J.J.B.J.B.x.<.]                                                                             ] ] o.*.o.^ 7 j.!.H.M.bX5               S.!.    T.!.  ].iX7.R.T.#.U H.B.] ]               C                                                           ",
"                                            ] ] ^ o.*.^ ] ] o.<.G Y R.R.c _ M.@XdXbXkXdXhXkXbXyX{.<._ :.!.A.p ] <.<.B.J.B.] ] Y                                   c o.*.o.^ ] o.<.7.x.B.J.R.(.{.@X@X{.(.R.J.B.x.7.*.<.B.J.B.] c                                                   ] <.x.B.x.x.x.x.x.<.^ c c c c c c c c c c h h p h h h p h p h h h p h h h h p h h p h h h p h p h c c c c c c c c c c ^ <.x.x.x.x.x.B.x.<.]     2                                                                       ] ] o.*.o.^ w j.*.Q x.;X].x.M.x.T. .    H.oX1 1 ,.7 - yX@X<.Y x._ _ H.B.] ]             V t.V                                                         ",
"                                          c ] ] ^ o.*.^ ] ] o.<.<.y #.7.] #._ #.H.oX<X;X=X@X].B.7.o.U ^ 7.Y G *.<.<.B.J.B.<.] ^                                   G o.*.o.^ ] o.<.7.x.B.J.R.(.{.@X@X{.(.R.J.B.x.7.*.<.B.J.B.] G                                                   ] <.x.<.Y c c c c c c h p h o.<.B.R.{.@X@XoX@X@X@X@X@X@X@X@X@X@X@X@X@X@X@X@X@XoX@X@X@X@X@X@X@X@X@X@X@X{.R.B.<.o.h h p c c c c c c Y <.x.<.]                     2           2                                           ] ] o.*.o.^ D Q B.H.B.S.GXDXDXDXGX].    ,.GXyXiX;X<XyXdXM.T.S.B.h 7.J.B.] ]           C t.y.t.C                                                       ",
"                                          G ] ] ^ o.*.^ ] ] o.<.<.<.y ] (.] Q U c ^ Q 5.j.o.G  .d U j.#.Y c <.*.<.<.B.J.B.7.] ]                                   Y o.*.o.^ ] o.<.7.x.B.J.R.(.{.@X@X{.(.R.J.B.x.7.*.<.B.J.B.] Y                                                   ] Y   o.<.B.R.@X@X@X@X@X@X@X@X@X{.R.(.{.(.R.R.R.R.R.R.R.R.R.R.(.{.(.R.(.{.@X;XyXiXkXmXkXiXyX;X@X    R.R.R.R.{.@X@X@X    @X@X{.R.B.<.o.  Y ]         s.                                                              V   ] ] o.*.o.^ _ 7 J.T.,.<.>XkXqXqXDXJ.    ,.GXdXdXdXiXGX{.*.<.(.j.7 B.J.B.] ]             V t.V                                                         ",
"                                          Y ] ] ^ o.*.^ ] ] o.<.<.<.7.c U #.j.Q Y ] ] ^ 5.R.Y <.D ,.x.D U <.<.<.*.<.<.B.J.B.] ]                                   ^ o.*.o.^ ] o.<.7.x.B.J.R.(.{.@X@X{.(.R.J.B.x.7.*.<.B.J.B.] ^                                                     Y <.7.x.B.x.R.(.R.B.x.7.x.B.J.R.R.(.{.(.R.R.R.R.R.R.R.R.R.R.(.{.(.R.(.{.@X;XyXiXkXmXkXdXyX=X@X{.  R.R.R.R.e.w.w.w.w.e.  ] ] ] B.  7.<.Y                                         2                                     ] ] o.*.o.^ ] y <.7.Q S.5.hXhX9XyX3XoXXX;XyXqXqXqXbX3X5.x.Y H.Y Q B.J.B.] ]               C         2                                                 ",
"                                          ^ ] ] ^ o.*.^ ] ] o.<.<.<.7.x. .c ] ,.J.j.T.#.<.].M.S.j.Y j *.5.<.<.<.*.<.<.B.J.B.] ]                                   ] o.*.o.^ ] o.<.7.x.B.J.R.(.{.@X@X{.(.R.J.B.x.7.*.<.B.J.B.] ]                                                   Y <.] ] B.  R.(.] B.x.7.x.B.J.R.R.R.(.{.(.R.R.R.R.R.R.R.R.R.R.(.{.(.R.R.(.{.@X=XyXdXkXmXkXiXyX;X@X  ] ] R.R.] ] ] ] w.w.e.    ] ]   ] 7.<.                                                                              ] ] o.*.o.^ ] ] 7 S.{.(.M.7.iXbXqXiXbXmXdX9XqXiXmX3X5.S.(.].5.5 <.B.J.B.] ]                                                                           ",
"s.                                        ] ] ] ^ o.*.^ ] ] o.<.<.<.7.x.B.J.#.h c Q o.*.*.] Q p h :.B.x.7.<.<.<.*.<.<.B.J.B.] ]                                   o.o.*.o.^ ] o.<.7.x.B.J.R.(.{.@X@X{.(.R.J.B.x.7.*.<.B.J.B.] ]                                                 Y <.] ] ] ] B.R.]   ] x.7.x.B.J.R.R.(.{.(.R.R.R.R.R.R.R.R.R.R.R.(.{.(.R.R.(.{.@X;XyXdXkXmXkXdX  ;X@X{.y y ] _ y y y y _ ] ]       R.J.  ]   <.Y                                                                           ] ] o.*.o.^ ] o.G Y T.R.A _ B.@XdXbXhXdXdXkXbXyX{.<._ ,.!.S.p  .<.B.J.B.] ]                                                                           ",
"  V                                       ] ] ] ^ o.*.^ ] ] o.<.<.<.7.x.B.J.R.<.<.<.7.x.x.7.<.<.7.J.B.x.7.<.<.<.*.<.<.B.J.B.] ]                                   o.o.*.o.^ ] o.<.7.x.B.J.R.(.{.@X@X{.(.R.J.B.x.7.*.<.B.J.B.] ]                       sX                      Y ] ] ]       ] ]       ]     J.R.R.R.(.{.(.R.R.R.R.R.R.R.R.R.R.R.R.(.{.(.R.(.{.@X;XqXdXkXmXkX    ;X@Xy w y ] y y w y c y y ]       ] ]     x.  <.Y                                                                         ] ] o.*.o.^ ] o.<.y o.7.] o.^ *.J.XX<X<X=XoX{.B.7.o.U Q 7.Y G *.<.B.J.B.] ]                                   V                   s.                  ",
"                                          ] ] ] ^ o.*.^ ] ] o.<.<.<.7.x.B.J.R.(.<.<.7.x.x.7.<.<.R.J.B.x.7.<.<.<.*.<.<.B.J.B.] ]                                   ] o.*.o.^ ] o.<.7.x.B.J.R.(.{.@X@X{.(.R.J.B.x.7.*.<.B.J.B.] ]                                             Y <.] ] ]         ]         x.    R.R.(.{.(.R.R.R.R.R.R.R.R.R.R.R.R.R.(.{.(.R.(.{.@X;XyXiXkXmXkXdX  ;X@X] ] w y y y y y w c                     x.7.<.Y                     2                                                 ] o.*.o.^ ] o.*.<.<.y ] (. .Q U c _ Q 5.j.o.G o.p U x.#.Y c <.*.<.B.J.B.] ]                       2                                                   ",
"                                          ] ] ] ^ o.*.^ ] ] o.<.<.<.7.x.B.J.R.(.<.<.7.x.x.7.<.7.R.J.B.x.7.<.<.<.*.<.<.B.J.B.] ]                                   ] o.*.o.^ ] o.<.7.x.B.J.R.(.{.@X@X{.(.R.J.B.x.7.*.<.B.J.B.7.]                                           Y ] ] ] ]                   ] ] J.R.R.R.(.{.(.R.R.R.R.R.R.R.R.R.R.R.R.R.(.{.(.R.R.(.{.@X;XyXdXkXmXkX    ;X] y y y y w w y y x                   J.  x.7.<.Y                                                                     ] o.*.o.^ ] o.<.<.<.7.c U #.j.Q Y ] ] ^ 5.R.Q <.D ,.x.G U <.<.*.<.B.J.B.] ]                                                                           ",
"                              V           ] ] ] ^ o.*.^ ] ] o.<.<.<.7.x.B.J.R.(.{.<.7.x.x.7.<.(.R.J.B.x.7.<.<.<.*.<.<.B.J.B.] ]                           V       ] o.*.o.^ ] o.<.7.x.B.J.R.(.{.@X@X{.(.R.J.B.x.7.*.<.7.B.J.B.]                                         Y ] ]     ]                       ] R.  R.(.{.(.R.R.R.R.R.R.R.R.R.R.R.R.R.(.{.(.R.R.(.{.@X=XqXdXkXmXkXdX  ;X] y w y w y y y w y c c             ] ]   B.x.    Y       sX                                                        c ] o.*.o.^ ] o.<.<.<.7.x. .c | ,.J.j.J.#.<.].x.S.j.Y j *.7.<.<.*.<.B.J.B.7.] c                               V         2                               ",
"                                          ] ] ] ^ o.*.^ ] ] o.<.<.<.7.x.B.J.R.(.{.<.7.x.x.7.7.(.R.J.B.x.7.<.<.<.*.<.<.B.J.B.] ]                                   ] o.*.o.^ ] o.<.7.x.B.J.R.(.{.@X@X{.(.R.J.B.x.7.*.<.<.B.J.B.]                               2       Y ] ]                                   R.(.{.(.R.R.R.R.R.R.R.R.R.R.R.R.R.R.(.{.(.R.R.(.{.@X=XyXdXkXmXkXdXyX] y w y y y y y r y y y r h             ]   ]       <.Y                                   2                           G ] o.*.o.^ ] o.<.<.<.7.x.B.J.#.h x ^ o.*.*.] Q p h ,.B.x.7.<.<.*.<.7.B.J.B.] G                                                                         ",
"            2                             ] ] ] ^ o.*.^ ] ] o.<.<.<.7.x.B.J.R.(.{.@X7.x.x.7.{.(.R.J.B.x.7.<.<.<.*.<.<.B.J.B.] ]                           V       ] o.*.o.^ ] o.<.7.x.B.J.R.(.{.@X@X{.(.R.J.B.x.7.*.<.<.B.J.B.]                                     Y ] ]             <.J.3X3XY           ] R.R.(.{.(.R.R.R.R.R.R.R.R.R.R.R.R.R.R.(.{.(.R.R.(.{.@X;XyXiXkXmXkXdXqXy w y y y y w w y y w w w y                   J.B.x.  <.Y                                                         V   Y ] o.*.o.^ ] o.<.<.<.7.x.B.J.R.<.<.<.7.x.x.7.<.<.7.J.B.x.7.<.<.*.<.<.B.J.B.] Y   2                                                       2             ",
"                                          ] ] ] ^ *.^ ] ] o.*.<.<.<.7.x.B.J.R.(.{.@X7.x.x.7.{.(.R.J.B.x.7.<.<.<.*.<.<.B.J.B.] ]                                   ] o.*.o.^ ] o.<.7.x.B.J.R.(.{.@X@X{.(.R.J.B.x.7.*.<.<.B.J.B.]                                   Y <.]           <.(.3X3Xc c 3XY x.]     ] ] R.(.{.(.R.R.R.R.R.R.R.R.R.R.R.R.R.R.(.{.(.R.R.R.(.{.@X;XqXdXkXmXy y w y y y !.] y y r y y y h                     ] ] B.x.7.<.Y       V                                                   ^ ] o.*.o.^ ] o.<.<.<.7.x.B.J.R.(.<.<.7.x.x.7.<.<.R.J.B.x.7.<.<.*.<.<.B.J.B.] ^                                                                         ",
"                                          ] ] ^ o.*.^ ] ] o.<.<.<.<.7.x.B.J.R.(.{.@X;Xx.x.@X{.(.R.J.B.x.7.<.<.<.*.<.<.B.J.B.] ]                                   ] o.*.o.^ ] o.<.7.x.B.J.R.(.{.@X@X{.(.R.J.B.x.7.*.<.<.B.J.B.]                               2 Y <.7.] ]     <.(.3X(.(.3X    c 3X]           ] {.(.R.R.R.R.R.R.R.R.R.R.R.R.R.R.R.R.(.{.(.R.R.(.{.@X;XyXdXkXy y dXw ;X@X{.(.R.y R.] y y r x                         ] B.x.7.<.Y                                                         ] ] o.*.o.^ ] o.<.<.<.7.x.B.J.R.(.<.<.7.x.x.7.<.7.R.J.B.x.7.<.<.*.<.<.B.J.B.] ]                                                                         ",
"                      V                   ] ] ^ o.*.^ ] ] o.<.<.<.<.7.x.B.J.R.(.{.@X;X3X;X@X{.(.R.J.B.x.7.<.<.<.*.<.<.B.J.B.] ]                                   ] o.*.o.^ ] o.<.7.x.B.J.R.(.{.@X@X{.(.R.J.B.x.7.<.*.<.B.J.B.]                               Y <.  x.] ] <.(.3X(.(.3X{.3XR.  c 3XB.]         (.{.(.R.R.R.R.R.R.R.R.R.R.R.R.R.R.R.R.(.{.(.R.R.(.{.@X;X  dXkXy hXdXyX  @X{.(.  R.R.] ] w y h                           J.B.  7.<.Y                                                       o.] o.*.o.^ ] o.<.<.<.7.x.B.J.R.(.{.<.7.x.x.7.<.(.R.J.B.x.7.<.<.*.<.<.B.J.B.] ]                                                                         ",
"                                          ] ] ^ o.*.^ ] ] o.<.<.<.<.7.x.B.J.R.(.{.@X;X3X;X@X{.(.R.J.B.x.7.<.<.<.*.<.<.B.J.B.] ]                                   ] o.o.^ ] o.*.<.7.x.B.J.R.(.{.@X@X{.(.R.J.B.x.7.<.*.<.B.J.B.]                     2       Y <.    B.<.(.3X(.(.3X3X3X{.J.3X3X3XJ.B.J.]     (.{.(.R.R.R.R.R.R.R.R.R.R.R.R.R.R.R.R.R.(.{.(.R.R.R.(.{.@X;XyXdXkXmXkXdXyX;X@X{.(.R.y y w y x x                       ] R.        7.<.Y                           sX              2         o.] o.*.o.^ ] o.<.<.<.7.x.B.J.R.(.{.<.7.x.x.7.7.(.R.J.B.x.7.<.<.*.<.<.B.J.B.] ]                                                                         ",
"                                          ] ] ^ o.*.^ ] ] o.<.<.<.<.7.x.B.J.R.(.{.@X;X3X;X@X{.(.R.J.B.x.7.<.<.<.*.<.<.B.J.B.] ]                                   o.*.o.^ ] o.<.<.7.x.B.J.R.(.{.@X@X{.(.R.J.B.x.7.<.*.<.B.J.B.]                           Y <.7.x.<.(.3X(.(.3X3X3X{.7.7.(.7.7.  B.J.R.R.  R.(.{.(.R.R.R.R.R.R.R.R.R.R.R.R.R.R.R.R.R.(.{.(.R.R.R.(.{.@X;XqXdXkXmXkXdXqX;X@X] ] T.R.] y c h                         R.J.R.R.    x.7.<.Y                                                   ] ] o.*.o.^ ] o.<.<.<.7.x.B.J.R.(.{.@X7.x.x.7.{.(.R.J.B.x.7.<.<.*.<.<.B.J.B.] ]                                                                         ",
"              sX                          ] ] ^ o.*.^ ] ] o.<.<.<.<.7.x.B.J.R.(.{.@X;X3X;X@X{.(.R.J.B.x.7.<.<.<.*.<.<.B.J.B.] ]                                 c o.*.o.^ ] o.<.<.7.x.B.J.R.(.{.@X@X{.(.R.J.B.x.7.<.*.<.%Xr.B.] c                       Y <.7.<.(.3X(.(.3X3X3X{.7.7.(.7.7.x.    B.J.R.R.R.  (.{.(.R.R.R.R.R.R.R.R.R.R.R.R.R.R.R.R.R.(.{.(.R.R.R.(.{.@X;XyXiXkXmXkXdX_ ] ] ] y y R.] r h                       ] R.R.R.J.R.R.J.B.x.7.<.Y                                   V             ] ] o.*.o.^ ] o.<.<.<.7.x.B.J.R.(.{.@X7.x.x.7.{.(.R.J.B.x.7.<.<.*.<.<.B.J.B.] ]                                       2         V                       ",
"                      V                 c ] ] ^ o.*.^ ] ] o.<.<.<.<.7.x.B.J.R.(.{.@X;X3X;X@X{.(.R.J.B.x.7.<.<.<.*.<.<.B.J.B.] ]                                 G o.*.o.^ ] o.<.<.7.x.B.J.R.(.{.@X@X{.(.R.J.B.x.7.<.*.r.r.r.r.] G                     Y <.<.(.3X(.(.3X3X3X{.7.7.(.7.7.  x.7.x.  J.R.R.R.R.(.  (.R.R.R.R.R.R.R.R.R.R.R.R.R.R.R.R.R.R.(.{.(.R.R.R.(.{.@X=XyXdXkXmXkXdXyXy w y y w ] ] y w y           c y         ] R.R.        J.B.x.7.<.Y                                               ] ] o.*.o.^ ] o.<.<.<.7.x.B.J.R.(.{.@X;Xx.x.@X{.(.R.J.B.x.7.<.<.*.<.<.B.J.B.] ]                                                   2                     ",
"                                        G ] ] ^ o.*.^ ] ] o.<.<.<.<.7.x.B.J.R.(.{.@X;Xo.o.o.{.(.R.J.B.x.7.<.<.<.*.<.<.B.J.B.] ]     s.      V                   Y o.*.o.^ ] o.<.<.7.x.B.J.R.(.{.@X@X{.G x.;X;X;X;X;X;X;X;X;X;X;X;X;X;X;Xx.G         Y <.(.3X(.(.3X3X3X{.7.7.(.7.7.B.B.B.x.7.x.  J.R.R.R.R.(.{.(.R.R.R.R.R.R.R.R.R.R.R.R.R.R.R.R.R.R.(.{.(.R.R.R.R.(.{.@X;XyXiXkXmXkX] y ;X@Xy y y _ y c           y c y           ] ]   ] R.R.  J.B.x.7.<.Y             2                               ] ] o.*.o.^ ] o.<.<.<.7.x.B.J.R.(.{.@X;X3X;X@X{.o.o.o.B.x.7.<.<.*.<.<.B.J.B.] ]                   V                                                     ",
"                      2                 Y ] ] ^ o.*.^ ] ] o.<.<.<.<.7.x.B.J.R.(.{.@Xo.m m m o.(.R.J.B.x.7.<.<.<.*.<.<.B.J.B.] ]                                 ^ o.*.o.^ ] o.<.<.7.x.B.J.R.G x.;X;X;X;X;X{.{.{.{.{.{.{.{.{.{.{.{.{.{.{.;X;X;X;XJ.x.(.3X(.(.3X3X3X{.7.7.(.7.7.R.B.B.B.x.7.x.B.J.  R.R.R.R.(.{.(.R.R.R.R.R.R.R.R.R.R.R.R.R.R.R.R.R.R.(.{.(.R.R.R.R.(.{.@X;XqXdXkXmXkX  yX;X@X{.] y y c w           x y                   ] J.R.R.R.J.B.x.7.<.Y                                           ] ] o.*.o.^ ] o.<.<.<.7.x.B.J.R.(.{.@X;X3X;X@Xo.q.q.q.o.x.7.<.<.*.<.<.B.J.B.] ]                                                                         ",
"                                        ^ ] ] ^ o.*.^ ] ] o.<.<.<.<.7.x.B.J.R.(.{.@Xo.m m m o.(.R.J.B.x.7.<.<.<.*.<.<.B.J.B.] ]                                 ] o.*.o.^ ] o.<.<.7.G x.;X;X;X;X{.{.{.{.{.(.(.(.(.(.(.(.(.(.(.(.(.(.(.(.{.{.J.J.(.3X(.(.3X3X3X{.7.7.(.7.R.(.R.B.B.B.B.x.7.x.B.J.  R.R.R.(.{.(.R.R.R.R.R.R.R.R.R.R.R.R.R.R.R.R.R.R.R.R.(.{.(.R.R.R.(.{.@X;XyXdXkX  kXiXyX;X@X] ] y w c y           c y                     ] ] R.R.R.J.B.x.7.<.Y                                         ] ] o.*.o.^ ] o.<.<.<.7.x.B.J.R.(.{.@X;X3X;X@Xo.q.q.q.o.x.7.<.<.*.<.<.B.J.B.] ]                                                                         ",
"                                        ] ] ] ^ o.*.^ ] ] o.<.<.<.<.7.x.B.J.R.(.{.@Xo.o.o.o.o.(.R.J.B.x.7.<.<.<.*.<.<.B.J.B.] ]                   V             o.o.*.o.^ ] o.G x.;X;X;X{.{.{.{.(.(.(.(.(.J.J.J.J.J.J.J.J.J.J.J.J.J.J.J.J.J.(.3X(.(.3X3X3X{.7.7.(.7.B.R.(.R.B.B.B.B.x.7.x.B.J.  R.R.R.R.(.{.(.R.R.R.R.R.R.R.R.R.R.R.R.R.R.R.R.R.R.R.R.(.{.(.R.R.R.(.{.@X=XyXdXkXmXkXdXqX;X@X] y r h y           c c w y                       J.R.R.R.J.B.x.7.<.Y                                       ] ] o.*.o.^ ] o.<.<.<.7.x.B.J.R.(.{.@X;X3X;X@Xo.o.o.o.o.x.7.<.<.*.<.<.B.J.B.] ]                                                                         ",
"                                        ] ] ] ^ o.*.^ ] ] o.<.<.<.<.7.x.B.J.R.(.{.@Xo.m m m o.(.R.J.B.x.7.<.<.<.*.<.<.B.J.B.] ]                   2             o.o.*.o.^ G x.;X;X{.{.{.(.(.(.(.J.J.J.J.J.J.J.J.J.J.J.J.J.J.J.J.J.J.J.J.(.3X(.(.3X3X3X{.7.7.(.7.x.B.B.R.(.R.B.B.B.B.x.7.x.B.  R.R.R.R.(.{.(.R.R.R.R.R.R.R.R.R.R.R.R.R.R.R.R.R.R.R.R.R.(.{.(.R.R.R.R.(.{.@X;XyXiXkXmXkXdXy y y w y w y         c y w y y w                 R.R.  J.R.R.R.J.B.x.7.<.Y                                     ] ] o.*.o.^ ] o.<.<.<.7.x.B.J.R.(.{.@X;X3X;X@Xo.q.q.q.o.x.7.<.<.*.<.<.B.J.B.] ]                                                                         ",
"                                        ] ] ] ^ o.*.^ ] ] o.<.<.<.<.7.x.B.H.R.(.{.@Xo.m m m o.(.R.J.B.x.7.<.<.<.*.<.<.B.J.B.] ]                                 ] o.*.G x.=X;X{.{.(.(.(.J.J.J.J.J.J.J.J.J.H.J.J.J.J.J.J.J.H.J.J.J.J.(.3X(.!.3X3X3X{.7.7.(.5.B.x.B.B.R.(.R.B.B.B.B.x.7.x.B.J.R.T.R.R.R.(.{.(.R.R.R.R.R.R.R.R.R.R.R.R.R.R.R.R.R.R.R.R.R.!.{.(.R.R.R.R.(.{.@X;XyXdXkXmXkXdXyX=X@Xy (.y   T.R.  y w y y R.  R.e.w.w.  w.e.R.    R.R.R.J.R.T.R.J.B.x.7.<.Y                                   ] ] o.*.o.^ ] o.<.<.<.7.x.B.J.R.(.{.@X=X3X;X@Xo.q.q.q.o.x.7.<.<.<.<.<.B.J.B.] ]                                                                         ",
"                                        ] ] ] ^ o.*.^ ] ] o.<.<.<.<.7.GXGXGXDXGXGXGXGXDXGXGXDXGXFXFXFXFXFXFXFXFXFXFXFXFXFXFXFXFXGXDXGXGXDXGXGXGXGXGXGXDXGXGXDXGXGXGXGXDXGXGXDXGXGXDXGXGXDXGXGXGXGXGXGXDXGXGXDXGXGXGXGXDXGXGXDXGXGXGXGXDXGXGXDXGXGXGXGXGXGXGXDXGXGXGXDXDXGXDXGXGXGXDXGXDXGXGXGXGXGXGXGXDXGXDXDXGXGXDXGXGXGXGXGXDXDXGXGXGXGXGXDXDXGXGXGXGXGXGXGXDXGXGXDXDXGXDXDXGXGXDXGXDXDXGXDXDXGXGXGXGXGXGXGXGXGXGXDXDXDXGXGXGXDXGXGXGXGXGXDXDXGXDXGXGXGXGXGXDXGXGXDXDXGXDXGXGXGXDXGXDXGXGXGXGXGXGXGXDXGXDXDXGXGXDXGXGXGXGXGXDXGXDXGXDXGXGXGXGXGXGXGXDXGXDXDXGXGXDXGXGXGXGXGXDXJ.B.] ]                                                                         ",
"                                        ] ] ] ^ o.*.^ ] ] o.<.<.<.<.7.GXDXGXGXGXDXDXGXGXDXGXGXGXFXFXFXFXFXFXFXFXFXFXFXFXFXFXFXFXGXGXGXGXGXGXDXGXDXDXGXGXDXGXGXGXDXDXGXGXDXGXGXGXGXGXGXDXGXGXDXGXDXDXGXGXDXGXGXGXDXDXGXGXDXGXGXGXDXDXGXGXDXGXGXGXDXDXGXGXDXGXGXGXDXGXGXGXGXGXGXDXGXDXGXGXGXDXDXGXGXDXGXDXGXGXGXGXGXGXGXDXDXDXGXGXGXGXDXGXDXGXGXGXGXGXDXGXGXDXGXGXDXGXGXGXGXGXGXDXGXDXGXGXDXGXGXGXGXDXDXGXGXDXDXGXDXGXGXGXGXGXDXGXGXGXDXGXDXGXGXGXGXGXDXGXGXDXGXGXDXGXGXGXGXGXGXDXGXDXGXGXGXDXDXGXGXDXGXDXGXGXGXGXGXGXGXDXDXDXGXGXGXDXGXGXGXDXDXGXGXDXGXDXGXGXGXGXGXGXGXDXDXDXGXGXJ.B.] ] c                                                                       ",
"                                        ] ] ] ^ o.*.^ ] ] o.<.<.<.<.7.kX3X3X3X3X3X3X3X3X3X3X3X3X3X3X3X3X3X3X3X3X3X3X3X3X3X3X3X3X<X3X3X3X3X3X3X3X3X3X3X3X3X3X3X3X3X3X3X3X3X3X3X3X<X3X3X3X3X3X3X3X3X3X3X3X3X3X3X3X3X3X3X3X3X3X3X3X3X3X3X3X3X3X3X3X3X3X3X3X3X3X3X3X3X3X3X3X<X3X3X3X3X3X3X3X3X3X3X3X3X3X3X3X3X3X3X3X3X3X3X3X3X3X3X3X3X3X3X3X3X3X3X3X<X3X3X3X3X3X3X3X3X3X3X3X<X3X3X3X3X3X3X3X3X3X3X3X3X3X3X3X3X3X3X3X3X3X3X3X3X3X3X3X3X3X3X3X3X3X3X3X<X3X3X3X3X3X3X3X3X3X3X3X<X3X3X3X3X3X3X3X3X3X3X3X3X3X3X3X3X3X3X3X3X3X3X3X3X3X3X3X3X3X3X3X3X3X3X3X3X3X3X3X3X3X3X3X3X3X3X3X3X3X3XkXJ.B.] ] G                                                                       ",
"                                        ] ] ] ^ o.*.^ ] ] o.<.<.<.<.7.kX3X3X3X3X3X3X3X3X3X3X3X3X3X3X3X3X3X3X3X3X3X3X3X3X3X3X3X3X3X3X3X3X3X3X3X3X3X3X3X3X3X3X3X3X3X3X3X3X3X3X3X3X3X3X3X3X3X3X3X3X3X3X3X3X3X3X3X3X3X3X3X3X3X3X3X3X3X3X3X3X3X3X3X3X3X3X3X3X3X3X3X3X3X3X3X3X3X3X3X3X3X3X3X3X3X3X3X3X3X3X3X3X3X3X3X3X3X3X3X3X3X3X3X3X3X3X3X3X3X3X3X3X3X3X3X3X3X3X3X3X3X3X3X3X3X3X3X3X3X3X3X3X3X3X3X3X3X3X3X3X3X3X3X3X3X3X3X3X3X3X3X3X3X3X3X3X3X3X3X3X3X3X3X3X3X3X3X3X3X3X3X3X3X3X3X3X3X3X3X3X3X3X3X3X3X3X3X3X3X3X3X3X3X3X3X3X3X3X3X3X3X3X3X3X3X3X3X3X3X3X3X3X3X3X3X3X3X3X3X3X3X3X3XkXJ.B.] ] Y             2                                                         ",
"                                        ] ] ] ^ o.*.^ ] ] o.<.<.<.<.7.B.B.B.B.B.B.B.B.B.B.B.B.B.B.B.B.B.B.B.B.B.B.B.B.B.B.B.B.B.B.B.B.B.B.B.B.B.B.B.B.B.B.B.B.B.B.B.B.B.B.B.B.B.B.B.B.B.B.B.B.B.B.B.B.B.B.B.B.B.B.B.B.B.B.B.B.B.B.B.B.B.B.B.B.B.B.B.B.B.B.B.B.B.B.B.B.B.B.B.B.B.B.B.B.B.B.B.B.B.B.B.B.B.B.B.B.B.B.B.B.B.B.B.B.B.B.B.B.B.B.B.B.B.B.B.B.B.B.B.B.B.B.B.B.B.B.B.B.B.B.B.B.B.B.B.B.B.B.B.B.B.B.B.B.B.B.B.B.B.B.B.B.B.B.B.B.B.B.B.B.B.B.B.B.B.B.B.B.B.B.B.B.B.B.B.B.B.B.B.B.B.B.B.B.B.B.B.B.B.B.B.B.B.B.B.B.B.B.B.B.B.B.B.B.B.B.B.B.B.B.B.B.B.B.B.B.B.B.B.B.B.B.B.B.B.J.B.] ] ^                                                                       ",
"                                        ] ] ] ^ o.*.^ ] ] o.<.<.<.<.7.x.B.J.;X(.] ] ] ] ] ] ] ] ] ] ] R.{.R.] ] ] ] ] ] ] ] ] ] ] R.{.R.] ] ] ] ] ] ] ] ] ] ] R.{.R.] ] ] ] ] ] ] ] ] ] ] R.{.R.] ] ] ] ] ] ] ] ] ] ] R.{.R.] ] ] ] ] ] ] ] ] ] ] R.{.R.] ] ] ] ] ] ] ] ] ] ] R.{.R.] ] ] ] ] ] ] ] ] ] ] R.{.R.] ] ] ] ] ] ] ] ] ] ] R.{.R.] ] ] ] ] ] ] ] ] ] ] R.{.R.] ] ] ] ] ] ] ] ] ] ] R.{.R.] ] ] ] ] ] ] ] ] ] ] R.{.R.] ] ] ] ] ] ] ] ] ] ] R.{.R.] ] ] ] ] ] ] ] ] ] ] R.{.R.] ] ] ] ] ] ] ] ] ] ] R.{.R.] ] ] ] ] ] ] ] ] ] ] R.{.R.] ] ] ] ] ] ] ] ] ] ] (.;X<.<.B.J.B.] ] ]             s.                                                        ",
"                                        ] ] ] ^ o.*.^ ] ] o.<.<.<.<.7.x.B.J.kX;X] G G G G G G G G G ] R.;XR.] G G G G G G G G G ] R.;XR.] G G G G G G G G G ] R.;XR.] G G G G G G G G G ] R.;XR.] G G G G G G G G G ] R.;XR.] G G G G G G G G G ] R.;XR.] G G G G G G G G G ] R.;XR.] G G G G G G G G G ] R.;XR.] G G G G G G G G G ] R.;XR.] G G G G G G G G G ] R.;XR.] G G G G G G G G G ] R.;XR.] G G G G G G G G G ] R.;XR.] G G G G G G G G G ] R.;XR.] G G G G G G G G G ] R.;XR.] G G G G G G G G G ] R.;XR.] G G G G G G G G G ] R.;XR.] G G G G G G G G G ] ;XkX<.<.B.J.B.7.] ]                     V                                                 ",
"                                        ] ] ] ^ o.*.^ ] ] o.<.<.<.<.7.x.B.J.kX;X] ] ] ] ] ] ] ] ] ] ] R.;XR.] ] ] ] ] ] ] ] ] ] ] R.;XR.] ] ] ] ] ] ] ] ] ] ] R.;XR.] ] ] ] ] ] ] ] ] ] ] R.;XR.] ] ] ] ] ] ] ] ] ] ] R.;XR.] ] ] ] ] ] ] ] ] ] ] R.;XR.] ] ] ] ] ] ] ] ] ] ] R.;XR.] ] ] ] ] ] ] ] ] ] ] R.;XR.] ] ] ] ] ] ] ] ] _ ] R.;XR.] ] ] ] ] ] ] _ ] ] ] R.;XR.] ] ] ] ] _ ] ] ] ] ] R.;XR.] ] ] _ ] ] ] ] ] _ ] R.;XR.] ] ] ] ] ] ] ] ] ] ] R.;XR.] ] ] ] ] ] ] ] ] ] ] R.;XR.] ] ] ] ] ] ] ] ] ] ] R.;XR.] ] ] ] ] ] ] _ ] ] ] R.;XR.] ] ] ] ] _ ] ] ] ] ] ;XkX<.<.7.B.J.B.] ]                                                       sX              ",
"                          s.            ] ] ] ^ o.*.^ ] ] o.<.<.<.<.7.x.B.J.kX;XFXFXFXFXFXFXFXFXFXFXFX;X;XFXFXFXFXFXFXFXFXFXFXFXFX;X;XFXFXFXFXFXFXFXFXFXFXFXFX;X;XFXFXFXFXFXFXFXFXFXFXFXFX;X;XFXFXFXFXFXFXFXFXFXFXFXFX;X;XFXFXFXFXFXFXFXFXFXFXFXFX;X;XFXFXFXFXFXGXGXGXGXGXGXGX=X;XGXGXGXGXGXGXGXGXGXGXDXGX=X;XGXGXGXDXGXGXGXGXDXGXGXGX;X;XGXGXGXGXGXGXDXGXGXGXGXGX;X;XGXGXGXGXGXGXGXGXGXGXGXGX;X;XGXGXDXGXGXGXGXGXGXGXGXGX;X;XGXFXFXFXFXFXFXFXFXFXFXFX;X;XFXFXFXFXFXFXFXFXFXFXFXFX;X;XFXFXFXFXFXFXFXFXFXFXFXFX;X;XFXFXFXFXFXFXFXGXGXGXGXGX;X;XGXGXGXGXGXGXGXGXGXGXGXGX;XkX<.<.<.B.J.B.] ]                                                             V         ",
"                                        ] ] ^ ] o.*.^ ] ] o.<.<.<.<.7.x.B.J.kX;X;X;X;X;X;X;X;X;X;X;X;X;X;X;X;X;X;X;X;X;X;X;X;X;X;X;X;X;X;X;X;X;X;X;X;X;X;X;X;X;X;X;X;X;X;X;X;X;X;X;X;X;X;X;X;X;X;X;X;X;X;X;X;X;X;X;X;X;X;X;X;X;X;X;X;X;X;X;X;X;X;X;X;X;X;X;X;X;X;X;X=X;X=X;X;X;X;X;X=X;X=X;X=X;X=X;X;X;X;X;X;X;X;X;X;X;X=X;X;X;X;X;X=X;X;X;X;X;X=X;X;X;X;X;X=X;X;X;X;X;X=X;X;X=X;X;X=X;X;X;X;X;X;X;X;X;X;X;X=X;X;X;X;X;X;X;X;X;X;X;X;X;X;X;X;X;X;X;X;X;X;X;X;X;X;X;X;X;X;X;X;X;X;X;X;X;X;X;X;X;X;X;X;X;X;X;X;X;X;X;X;X;X;X;X;X;X;X;X=X;X;X;X;X;X=X;X;X=X;X;X=X;X;X;X=X;XkX<.<.<.B.J.B.] ]                                                                       ",
"                                      c ] ] ^ ] o.*.^ ] ] o.<.<.<.<.7.x.B.J.kX;X;X;X;X;X;X;X;X;X;X;X;X;X;X;X;X;X;X;X;X;X;X;X;X;X;X;X;X;X;X;X;X;X;X;X;X;X;X;X;X;X;X;X;X;X;X;X;X;X;X;X;X;X;X;X;X;X;X;X;X;X;X;X;X;X;X;X;X;X;X;X;X;X;X;X;X;X;X;X;X;X;X;X;X;X;X;X;X;X;X;X;X;X;X;X;X;X;X;X;X;X;X;X;X;X;X;X;X;X;X;X;X;X;X;X;X;X;X;X;X;X;X;X;X;X;X;X;X;X;X;X;X;X;X;X;X;X;X;X;X;X;X;X;X;X;X;X;X;X;X;X;X;X;X;X;X;X;X;X;X;X;X;X;X;X;X;X;X;X;X;X;X;X;X;X;X;X;X;X;X;X;X;X;X;X;X;X;X;X;X;X;X;X;X;X;X;X;X;X;X;X;X;X;X;X;X;X;X;X;X;X;X;X;X;X;X;X;X;X;X;X;X;X;X;X;X;X;X;X;X;X;X;X;X;X;X;XkX<.<.<.B.J.B.] ]                                                                       ",
"                                      G ] ] ^ ] o.*.^ ] ] o.<.<.<.<.7.x.B.J.kX;X;X;X;X;X;X;X;X;X;X;X;X;X;X;X;X;X;X;X;X;X;X;X;X;X;X;X;X;X;X;X;X;X;X;X;X;X;X;X;X;X;X;X;X;X;X;X;X;X;X;X;X;X;X;X;X;X;X;X;X;X;X;X;X;X;X;X;X;X;X;X;X;X;X;X;X;X;X;X;X;X;X;X;X;X;X;X;X;X;X;X;X;X;X;X;X;X;X;X;X;X;X;X;X;X;X;X;X;X;X;X;X;X;X;X;X;X;X;X;X;X;X;X;X;X;X;X;X;X;X;X;X;X;X;X;X;X;X;X;X;X;X;X;X;X;X;X;X;X;X;X;X;X;X;X;X;X;X;X;X;X;X;X;X;X;X;X;X;X;X;X;X;X;X;X;X;X;X;X;X;X;X;X;X;X;X;X;X;X;X;X;X;X;X;X;X;X;X;X;X;X;X;X;X;X;X;X;X;X;X;X;X;X;X;X;X;X;X;X;X;X;X;X;X;X;X;X;X;X;X;X;X;X;X;X;X;XkX<.<.<.B.J.B.] ]     2                                                                 ",
"                                      Y ] ] ^ ] o.*.^ ] ] o.<.<.<.<.7.x.B.J.kX;X;X;X;X;X;X;X;X;X;X;X;X;X;X;X;X;X;X;X;X;X;X;X;X;X;X;X;X;X;X;X;X;X;X;X;X;X;X;X;X;X;X;X;X;X;X;X;X;X;X;X;X;X;X;X;X;X;X;X;X;X;X;X;X;X;X;X;X;X;X;X;X;X;X;X;X;X;X;X;X;X;X;X;X;X;X;X;X;X;X;X;X;X;X;X;X;X;X;X;X;X;X;X;X;X;X;X;X;X;X;X;X;X;X;X;X;X;X;X;X;X;X;X;X;X;X;X;X;X;X;X;X;X;X;X;X;X;X;X;X;X;X;X;X;X;X;X;X;X;X;X;X;X;X;X;X=X;X=X;X=X;X;X;X;X;X;X;X;X;X;X;X;X;X;X;X;X;X;X;X;X;X;X;X;X;X;X;X;X;X;X;X;X;X;X;X;X;X;X;X;X;X;X;X;X;X;X;X;X;X;X;X;X;X;X;X;X;X;X;X;X;X;X;X;X;X;X;X;X;X;X;X;X;X;X;X;XkX<.<.<.B.J.B.] ]                                                                       ",
"c c c c c c c c c c c c c c c c c c c ^ ] ] ^ o.*.^ ] ] o.<.<.<.<.<.7.x.B.J.kXkXkXkXkXkXkXkXkXkXkXkXkXkXkXkXkXkXkXkXkXkXkXkXkXkXkXkXkXkXkXkXkXkXkXkXkXkXkXkXkXkXkXkXkXkXkXkXkXkXFXFXFXFXFXFXFXFXFXFXFXFXFXFXFXFXFXFXFXFXFXFXFXFXFXFXFXFXFXFXFXFX;X{.kXkXkXkXkXkXkXkXkXkXkXkXkXkXkXkXkXkXkXkXkXkXkXkXkXkXkXkXkXkXkXkXkXkXkXkXkXkXkXkXkXkXkXkXkXkXkXkXkXkXkXkXkXkXkXkXkXkXkXkXkXkXkXkXkXkXkXkXkXkXkX{.;XGXGXGXGXGXGXGXDXGXGXDXGXGXFXFXFXFXFXFXFXFXFXFXFXFXFXFXFXFXFXFXFXkXkXkXkXkXkXkXkXkXkXkXkXkXkXkXkXkXkXkXkXkXkXkXkXkXkXkXkXkXkXkXkXkXkXkXkXkXkXkXkXkXkXkXkXkXkXkXkXkXkX<.<.<.B.J.B.] ] c c c c c c c c c c c c c c c c c c c c c c c c c c c c c c c c c c c ",
"c c c c c c c c c c c c c c c c c c c ] ] ] ^ o.*.^ ] ] o.<.<.<.<.<.7.x.B.kXdXdXdXdXdXdXdXdXdXdXdXdXdXdXdXdXdXdXdXdXdXdXdXdXdXdXdXdXdXdXdXdXdXdXdXdXdXdXdXdXdXdXdXdXdXdXdXdXdXdXFXFXFXFXFXFXFXFXFXFXFXFXFXFXFXFXFXFXFXFXFXFXFXFXFXFXFXFXFXFXFXFX(.{.dXdXdXdXdXdXdXdXdXdXdXdXdXdXdXdXdXdXdXdXdXdXdXdXdXdXdXdXdXdXdXdXdXdXdXdXdXdXdXdXdXdXdXdXdXdXdXdXdXdXdXdXdXdXdXdXdXdXdXdXdXdXdXdXdXdXdXdXdXdXdX{.(.GXGXGXGXDXDXGXGXDXGXGXGXDXFXFXFXFXFXFXFXFXFXFXFXFXFXFXFXFXFXFXFXdXdXdXdXdXdXdXdXdXdXdXdXdXdXdXdXdXdXdXdXdXdXdXdXdXdXdXdXdXdXdXdXdXdXdXdXdXdXdXdXdXdXdXdXdXdXdXdXdXdXkX<.<.B.J.B.] ] c c c c c c c c c c c c c c c c c c c c c c c c c c c c c c c c c c c ",
"c c c c c c c c c c c c c c c c c c c ] ] ] ^ o.*.^ ] ] o.<.<.<.<.<.7.x.kXdXdXdXdXdXdXdXdXdXdXdXdXdXdXdXdXdXdXdXdXdXdXdXdXdXdXdXdXdXdXdXdXdXdXdXdXdXdXdXdXdXdXdXdXdXdXdXdXdXdXFXFXFXFXFXFXFXFXFXFXFXFXFXFXFXFXFXFXFXFXFXFXFXFXFXFXFXFXFXFXFXFXFXR.{.dXdXdXdXdXdXdXdXdXdXdXdXdXdXdXdXdXdXdXdXdXdXdXdXdXdXdXdXdXdXdXdXdXdXdXdXdXdXdXdXdXdXdXdXdXdXdXdXdXdXdXdXdXdXdXdXdXdXdXdXdXdXdXdXdXdXdXdXdXdXdX{.R.DXDXDXGXGXDXGXGXDXGXDXGXGXFXFXFXFXFXFXFXFXFXFXFXFXFXFXFXFXFXFXFXFXdXdXdXdXdXdXdXdXdXdXdXdXdXdXdXdXdXdXdXdXdXdXdXdXdXdXdXdXdXdXdXdXdXdXdXdXdXdXdXdXdXdXdXdXdXdXdXdXdXdXkX<.B.J.B.] ] c c c c c G c c c c c c c c c c c c c c c c c c c c c c G c c c c c c ",
"c c c c c c c G c c c c c c c G c c c ] ] ] ^ o.*.^ ] ] o.<.<.<.<.<.7.kXdXdXdXdXdXdXdXdXdXdXdXdXdXdXdXdXdXdXdXdXdXdXdXdXdXdXdXdXdXdXdXdXdXdXdXdXdXdXdXdXdXdXdXdXdXdXdXdXdXdXdXFXFXFXFXFXFXFXFXFXFXFXFXFXFXFXFXFXFXFXFXFXFXFXFXFXFXFXFXFXFXFXFXFXR.{.dXdXdXdXdXdXdXdXdXdXdXdXdXdXdXdXdXdXdXdXdXdXdXdXdXdXdXdXdXdXdXdXdXdXdXdXdXdXdXdXdXdXdXdXdXdXdXdXdXdXdXdXdXdXdXdXdXdXdXdXdXdXdXdXdXdXdXdXdXdXdX{.R.GXGXGXDXGXGXGXGXGXDXGXDXGXFXFXFXFXFXFXFXFXFXFXFXFXFXFXFXFXFXFXFXFXdXdXdXdXdXdXdXdXdXdXdXdXdXdXdXdXdXdXdXdXdXdXdXdXdXdXdXdXdXdXdXdXdXdXdXdXdXdXdXdXdXdXdXdXdXdXdXdXdXdXdXkXB.J.B.] ] c c c G c c c c c c c c G c c c c c c c c c G c c G c c c c G c c G c ",
"c c c c G G c c G G G c c c c c G c c ] ] ] ^ o.*.^ ] ] o.<.<.<.<.<.kXdXdXdXdXdXdXdXdXdXdXdXdXdXdXdXdXdXdXdXdXdXdXdXdXdXdXdXdXdXdXdXdXdXdXdXdXdXdXdXdXdXdXdXdXdXdXdXdXdXdXdXFXFXFXFXFXFXFXFXFXFXFXFXFXFXFXFXFXFXFXFXFXFXFXFXFXFXFXFXFXFXFXFXFX3XR.{.dXdXdXdXdXdXdXdXdXdXdXdXdXdXdXdXdXdXdXdXdXdXdXdXdXdXdXdXdXdXdXdXdXdXdXdXdXdXdXdXdXdXdXdXdXdXdXdXdXdXdXdXdXdXdXdXdXdXdXdXdXdXdXdXdXdXdXdXdXdXdX{.R.3XGXDXGXGXGXDXDXGXGXGXDXGXFXFXFXFXFXFXFXFXFXFXFXFXFXFXFXFXFXFXFXFXFXdXdXdXdXdXdXdXdXdXdXdXdXdXdXdXdXdXdXdXdXdXdXdXdXdXdXdXdXdXdXdXdXdXdXdXdXdXdXdXdXdXdXdXdXdXdXdXdXdXdXdXkXJ.B.] ] c c G c G G G G c c G c c c c G c c c c G G G G c c c G c c c c G G c ",
"G c c c c G c G c G G G G G c G c G c ] ] ] ^ o.*.^ ] ] o.<.<.<.<.kXdXdXdXdXdXdXdXdXdXdXdXdXdXdXdXdXdXdXdXdXdXdXdXdXdXdXdXdXdXdXdXdXdXdXdXdXdXdXdXdXdXdXdXdXdXdXdXdXdXdXdXdXFXFXFXFXFXFXFXFXFXFXFXFXFXFXFXFXFXFXFXFXFXFXFXFXFXFXFXFXFXFXFXFXFX(.R.{.dXdXdXdXdXdXdXdXdXdXdXdXdXdXdXdXdXdXdXdXdXdXdXdXdXdXdXdXdXdXdXdXdXdXdXdXdXdXdXdXdXdXdXdXdXdXdXdXdXdXdXdXdXdXdXdXdXdXdXdXdXdXdXdXdXdXdXdXdXdXdX{.R.(.GXGXDXDXGXDXDXGXGXGXDXGXFXFXFXFXFXFXFXFXFXFXFXFXFXFXFXFXFXFXFXFXFXdXdXdXdXdXdXdXdXdXdXdXdXdXdXdXdXdXdXdXdXdXdXdXdXdXdXdXdXdXdXdXdXdXdXdXdXdXdXdXdXdXdXdXdXdXdXdXdXdXdXdXdXkXB.] ] c c G G G G G G G c G c c G G c G c G c G G G G c G G G G c c G G G G ",
"G Y c G G G G G Y G G G G G Y G G G Y ] ] ] ^ o.*.^ ] ] o.<.<.<.kXdXdXdXdXdXdXdXdXdXdXdXdXdXdXdXdXdXdXdXdXdXdXdXdXdXdXdXdXdXdXdXdXdXdXdXdXdXdXdXdXdXdXdXdXdXdXdXdXdXdXdXdXFXFXFXFXFXFXFXFXFXFXFXFXFXFXFXFXFXFXFXFXFXFXFXFXFXFXFXFXFXFXFXFXFXFX(.R.{.dXdXdXdXdXdXdXdXdXdXdXdXdXdXdXdXdXdXdXdXdXdXdXdXdXdXdXdXdXdXdXdXdXdXdXdXdXdXdXdXdXdXdXdXdXdXdXdXdXdXdXdXdXdXdXdXdXdXdXdXdXdXdXdXdXdXdXdXdXdXdX{.R.(.DXGXGXGXGXGXGXGXDXGXDXGXFXFXFXFXFXFXFXFXFXFXFXFXFXFXFXFXFXFXFXFXFXFXdXdXdXdXdXdXdXdXdXdXdXdXdXdXdXdXdXdXdXdXdXdXdXdXdXdXdXdXdXdXdXdXdXdXdXdXdXdXdXdXdXdXdXdXdXdXdXdXdXdXdXdXkX] ] Y G G G G G G G G Y G Y G G Y Y Y c G G G Y Y G Y G c c G Y G Y Y G G ",
"G G G G G Y Y Y G Y G G G G Y G G G Y ] ] ] ^ o.*.^ ] ] o.<.<.kXdXdXdXdXdXdXdXdXdXdXdXdXdXdXdXdXdXdXdXdXdXdXdXdXdXdXdXdXdXdXdXdXdXdXdXdXdXdXdXdXdXdXdXdXdXdXdXdXdXdXdXdXdXFXFXFXFXFXFXFXFXFXFXFXFXFXFXFXFXFXFXFXFXFXFXFXFXFXFXFXFXFXFXFXFXFXFXR.{.dXdXdXdXdXdXdXdXdXdXdXdXdXdXdXdXdXdXdXdXdXdXdXdXdXdXdXdXdXdXdXdXdXdXdXdXdXdXdXdXdXdXdXdXdXdXdXdXdXdXdXdXdXdXdXdXdXdXdXdXdXdXdXdXdXdXdXdXdXdXdXdXdX{.R.GXGXDXGXDXGXGXDXGXDXGXGXFXFXFXFXFXFXFXFXFXFXFXFXFXFXFXFXFXFXFXFXFXFXdXdXdXdXdXdXdXdXdXdXdXdXdXdXdXdXdXdXdXdXdXdXdXdXdXdXdXdXdXdXdXdXdXdXdXdXdXdXdXdXdXdXdXdXdXdXdXdXdXdXdXdXdXkX] G G Y G G Y G Y G G G Y G G G Y G G G Y G Y G Y G Y Y G G G G Y G G Y ",
"G Y Y G G Y Y Y Y Y Y G Y Y Y Y Y Y G ] ] ] ^ o.*.^ ] ] o.<.kXdXdXdXdXdXdXdXdXdXdXdXdXdXdXdXdXdXdXdXdXdXdXdXdXdXdXdXdXdXdXdXdXdXdXdXdXdXdXdXdXdXdXdXdXdXdXdXdXdXdXdXdXdXFXFXFXFXFXFXFXFXFXFXFXFXFXFXFXFXFXFXFXFXFXFXFXFXFXFXFXFXFXFXFXFXFXFX3XR.{.dXdXdXdXdXdXdXdXdXdXdXdXdXdXdXdXdXdXdXdXdXdXdXdXdXdXdXdXdXdXdXdXdXdXdXdXdXdXdXdXdXdXdXdXdXdXdXdXdXdXdXdXdXdXdXdXdXdXdXdXdXdXdXdXdXdXdXdXdXdXdXdXdX{.R.<XGXGXGXDXGXGXDXGXGXGXDXFXFXFXFXFXFXFXFXFXFXFXFXFXFXFXFXFXFXFXFXFXFXFXdXdXdXdXdXdXdXdXdXdXdXdXdXdXdXdXdXdXdXdXdXdXdXdXdXdXdXdXdXdXdXdXdXdXdXdXdXdXdXdXdXdXdXdXdXdXdXdXdXdXdXdXdXkXY Y Y G G G Y G G G Y G Y G G G Y Y G Y Y Y G Y Y Y G G G Y Y Y Y G G ",
"Y G G ^ G Y Y Y G Y Y Y Y Y Y Y Y ^ Y ] ] ] ^ o.*.^ ] ] o.kXdXdXdXdXdXdXdXdXdXdXdXdXdXdXdXdXdXdXdXdXdXdXdXdXdXdXdXdXdXdXdXdXdXdXdXdXdXdXdXdXdXdXdXdXdXdXdXdXdXdXdXdXdXdXFXFXFXFXFXFXFXFXFXFXFXFXFXFXFXFXFXFXFXFXFXFXFXFXFXFXFXFXFXFXFXFXFXFX(.R.{.dXdXdXdXdXdXdXdXdXdXdXdXdXdXdXdXdXdXdXdXdXdXdXdXdXdXdXdXdXdXdXdXdXdXdXdXdXdXdXdXdXdXdXdXdXdXdXdXdXdXdXdXdXdXdXdXdXdXdXdXdXdXdXdXdXdXdXdXdXdXdXdXdX{.R.(.DXGXGXFXFXFXFXFXFXFXFXFXFXFXFXFXFXFXFXFXFXFXFXFXFXFXFXFXFXFXFXFXFXFXdXdXdXdXdXdXdXdXdXdXdXdXdXdXdXdXdXdXdXdXdXdXdXdXdXdXdXdXdXdXdXdXdXdXdXdXdXdXdXdXdXdXdXdXdXdXdXdXdXdXdXdXdXdXkXG Y Y Y Y Y Y G Y Y ^ Y Y Y Y Y G Y Y Y Y Y G Y Y Y G Y ^ Y Y ^ ^ Y ",
"Y Y Y ^ Y ^ ^ Y Y Y ^ Y Y ^ Y Y Y Y Y ] ] ] ^ o.*.^ ] ] kXdXdXdXdXdXdXdXdXdXdXdXdXdXdXdXdXdXdXdXdXdXdXdXdXdXdXdXdXdXdXdXdXdXdXdXdXdXdXdXdXdXdXdXdXdXdXdXdXdXdXdXdXdXdXFXFXFXFXFXFXFXFXFXFXFXFXFXFXFXFXFXFXFXFXFXFXFXFXFXFXFXFXFXFXFXFXFXFXFX(.R.{.dXdXdXdXdXdXdXdXdXdXdXdXdXdXdXdXdXdXdXdXdXdXdXdXdXdXdXdXdXdXdXdXdXdXdXdXdXdXdXdXdXdXdXdXdXdXdXdXdXdXdXdXdXdXdXdXdXdXdXdXdXdXdXdXdXdXdXdXdXdXdXdXdX{.R.(.GXGXDXFXFXFXFXFXFXFXFXFXFXFXFXFXFXFXFXFXFXFXFXFXFXFXFXFXFXFXFXFXFXFXFXdXdXdXdXdXdXdXdXdXdXdXdXdXdXdXdXdXdXdXdXdXdXdXdXdXdXdXdXdXdXdXdXdXdXdXdXdXdXdXdXdXdXdXdXdXdXdXdXdXdXdXdXdXdXkX^ Y Y Y Y Y Y ^ ^ Y Y Y Y Y ^ Y Y Y ^ ^ Y ^ ^ Y ^ ^ Y Y Y Y ^ ^ Y ",
"Y Y Y Y ^ Y ^ ^ Y ^ Y ^ Y Y ^ Y ^ Y Y ] ] ] ^ o.*.^ ] kXdXdXdXdXdXdXdXdXdXdXdXdXdXdXdXdXdXdXdXdXdXdXdXdXdXdXdXdXdXdXdXdXdXdXdXdXdXdXdXdXdXdXdXdXdXdXdXdXdXdXdXdXdXdXdXFXFXFXFXFXFXFXFXFXFXFXFXFXFXFXFXFXFXFXFXFXFXFXFXFXFXFXFXFXFXFXFXFXFXFX(.R.{.dXdXdXdXdXdXdXdXdXdXdXdXdXdXdXdXdXdXdXdXdXdXdXdXdXdXdXdXdXdXdXdXdXdXdXdXdXdXdXdXdXdXdXdXdXdXdXdXdXdXdXdXdXdXdXdXdXdXdXdXdXdXdXdXdXdXdXdXdXdXdXdXdX{.R.(.GXGXDXFXFXFXFXFXFXFXFXFXFXFXFXFXFXFXFXFXFXFXFXFXFXFXFXFXFXFXFXFXFXFXFXdXdXdXdXdXdXdXdXdXdXdXdXdXdXdXdXdXdXdXdXdXdXdXdXdXdXdXdXdXdXdXdXdXdXdXdXdXdXdXdXdXdXdXdXdXdXdXdXdXdXdXdXdXdXdXkX^ ^ ^ ^ ^ ^ Y Y ^ Y ^ ^ Y Y Y Y ^ Y ^ ^ Y ^ Y Y ^ ^ ^ ^ Y Y ^ Y ",
"Y Y ^ ^ ^ ^ Y ^ Y ] ^ ^ ^ ^ Y Y ^ ^ ] ] ] ] ^ o.*.^ kXdXdXdXdXdXdXdXdXdXdXdXdXdXdXdXdXdXdXdXdXdXdXdXdXdXdXdXdXdXdXdXdXdXdXdXdXdXdXdXdXdXdXdXdXdXdXdXdXdXdXdXdXdXdXdXFXFXFXFXFXFXFXFXFXFXFXFXFXFXFXFXFXFXFXFXFXFXFXFXFXFXFXFXFXFXFXFXFXFXFX3X(.R.{.dXdXdXdXdXdXdXdXdXdXdXdXdXdXdXdXdXdXdXdXdXdXdXdXdXdXdXdXdXdXdXdXdXdXdXdXdXdXdXdXdXdXdXdXdXdXdXdXdXdXdXdXdXdXdXdXdXdXdXdXdXdXdXdXdXdXdXdXdXdXdXdXdX{.R.(.<XGXGXFXFXFXFXFXFXFXFXFXFXFXFXFXFXFXFXFXFXFXFXFXFXFXFXFXFXFXFXFXFXFXFXFXdXdXdXdXdXdXdXdXdXdXdXdXdXdXdXdXdXdXdXdXdXdXdXdXdXdXdXdXdXdXdXdXdXdXdXdXdXdXdXdXdXdXdXdXdXdXdXdXdXdXdXdXdXdXdXkX^ ^ ^ ] ^ ^ ^ ] ^ ^ ^ ^ ^ ^ ^ ^ ^ Y ^ ^ ^ Y Y ^ ^ ^ Y Y ^ ^ ^ ",
"^ ^ ] ^ ^ ] ^ ^ ^ Y ^ ] ^ ] ^ ] ] Y ^ ] ] ] ^ o.*.kXdXdXdXdXdXdXdXdXdXdXdXdXdXdXdXdXdXdXdXdXdXdXdXdXdXdXdXdXdXdXdXdXdXdXdXdXdXdXdXdXdXdXdXdXdXdXdXdXdXdXdXdXdXdXdXdXFXFXFXFXFXFXFXFXFXFXFXFXFXFXFXFXFXFXFXFXFXFXFXFXFXFXFXFXFXFXFXFXFXFXFX(.(.R.{.dXdXdXdXdXdXdXdXdXdXdXdXdXdXdXdXdXdXdXdXdXdXdXdXdXdXdXdXdXdXdXdXdXdXdXdXdXdXdXdXdXdXdXdXdXdXdXdXdXdXdXdXdXdXdXdXdXdXdXdXdXdXdXdXdXdXdXdXdXdXdXdXdX{.R.(.(.GXGXFXFXFXFXFXFXFXFXFXFXFXFXFXFXFXFXFXFXFXFXFXFXFXFXFXFXFXFXFXFXFXFXFXdXdXdXdXdXdXdXdXdXdXdXdXdXdXdXdXdXdXdXdXdXdXdXdXdXdXdXdXdXdXdXdXdXdXdXdXdXdXdXdXdXdXdXdXdXdXdXdXdXdXdXdXdXdXdXdXkX] ] ] Y ^ ^ Y ^ ^ ] ^ ] ^ ^ ^ ] Y ] ^ ] ] Y ^ ] ^ ^ ] ^ ^ ^ ",
"] ^ ] ^ ^ ] ^ ] ] ^ ] ] ^ ] ^ ^ ^ ^ ] ] ] ] ^ o.kXkXkXkXkXkXkXkXkXkXkXkXkXkXkXkXkXkXkXkXkXkXkXkXkXkXkXkXkXkXkXkXkXkXkXkXkXkXkXkXkXkXkXkXkXkXkXkXkXkXkXkXkXkXkXkXkXFXFXFXFXFXFXFXFXFXFXFXFXFXFXFXFXFXFXFXFXFXFXFXFXFXFXFXFXFXFXFXFXFXFXFXFX(.(.R.{.kXkXkXkXkXkXkXkXkXkXkXkXkXkXkXkXkXkXkXkXkXkXkXkXkXkXkXkXkXkXkXkXkXkXkXkXkXkXkXkXkXkXkXkXkXkXkXkXkXkXkXkXkXkXkXkXkXkXkXkXkXkXkXkXkXkXkXkXkXkXkXkXkX{.R.(.(.GXDXFXFXFXFXFXFXFXFXFXFXFXFXFXFXFXFXFXFXFXFXFXFXFXFXFXFXFXFXFXFXFXFXFXFXkXkXkXkXkXkXkXkXkXkXkXkXkXkXkXkXkXkXkXkXkXkXkXkXkXkXkXkXkXkXkXkXkXkXkXkXkXkXkXkXkXkXkXkXkXkXkXkXkXkXkXkXkXkXkXkXkX] ] ^ ] ] ] ^ ] ] ^ ] ^ ] ^ ] ^ ^ ^ ^ ^ ] ] ^ ^ ] ^ ^ ^ ] ",
"] ] ] ] ] ^ ] ^ ^ ] ^ ] ] ^ ] ] ^ ^ ] ] ] ] ^ o.kX;X;X;X;X;X;X;X;X;X;X;X;X;X;X;X;X;X;X;X;X;X;X;X;X;X;X;X;X;X;X;X;X;X;X;X;X;X;X;X;X;X;X;X;X;X;X;X;X;X;X;X;X;X;X;X;XFXFXFXFXFXFXFXFXFXFXFXFXFXFXFXFXFXFXFXFXFXFXFXFXFXFXFXFXFXFXFXFXFXFXFXFX(.(.(.R.{.;X;X;X;X;X;X;X;X;X;X;X;X;X;X;X;X;X;X;X;X;X;X;XdXZ Z Z Z Z Z Z Z Z Z Z Z Z Z Z Z Z Z Z Z Z Z Z dX;X;X;X;X;X;X;X;X;X;X;X;X;X;X;X;X;X;X;X;X;X;X;X{.R.(.(.(.GXDXFXFXFXFXFXFXFXFXFXFXFXFXFXFXFXFXFXFXFXFXFXFXFXFXFXFXFXFXFXFXFXFXFXFX;X;X;X;X;X;X;X;X;X;X;X;X;X;X;X;X;X;X;X;X;X;X;X;X;X;X;X;X;X;X;X;X;X;X;X;X;X;X;X;X;X;X;X;X;X;X;X;X;X;X;X;X;X;X;X;XkXo.] ^ ] ] ^ ] ] ] ] ] ^ ] ] o.] ] ] ^ ] ] ] ^ ^ ] ] ^ ^ o.",
"] o.^ ] ^ ] o.] ] ^ ] ] o.^ ] ] ] ] ] ] ] ] ^ o.kX;X;X;X;X;X;X;X;X;X;X;X;X;X;X;X;X;X;X;X;X;X;X;X;X;X;X;X;X;X;X;X;X;X;X;X;X;X;X;X;X;X;X;X;X;X;X;X;X;X;X;X;X;X;X;XFXFXFXFXFXFXFXFXFXFXFXFXFXFXFXFXFXFXFXFXFXFXFXFXFXFXFXFXFXFXFXFXFXFXFXFX3X(.(.(.R.{.;X;X;X;X;X;X;X;X;X;X;X;X;X;X;X;X;X;X;X(.7.] ;XdXZ Z Z Z Z Z Z Z Z Z Z Z Z Z Z Z Z Z Z Z Z Z Z dX;X(.7.] ;X;X;X;X;X;X;X;X;X;X;X;X;X;X;X;X;X;X;X{.R.(.(.(.3XGXFXFXFXFXFXFXFXFXFXFXFXFXFXFXFXFXFXFXFXFXFXFXFXFXFXFXFXFXFXFXFXFXFXFXFX;X;X;X;X;X;X;X;X;X;X;X;X;X;X;X;X;X;X;X;X;X;X;X;X;X;X;X;X;X;X;X;X;X;X;X;X;X;X;X;X;X;X;X;X;X;X;X;X;X;X;X;X;X;X;XkXo.] ] ^ ] ] ] ] ] ] ] ] ] o.] ^ o.o.o.] o.] ] ] ] ] o.o.] ",
"] o.o.] o.] ] o.o.o.] ] ] o.] o.o.o.o.] ] ^ ] o.kX;X;X;X;X;X;X;X;X;X;X;X;X;X;X;X;X;X;X;X;X;X;X;X;X;X;X;X;X;X;X;X;X;X;X;X;X;X;X;X;X;X;X;X;X;X;X;X;X;X;X;X;X;X;X;XFXFXFXFXFXFXFXFXFXFXFXFXFXFXFXFXFXFXFXFXFXFXFXFXFXFXFXFXFXFXFXFXFXFXFXFX(.(.(.(.R.{.;X;X;X;X;X;X;X;X;X;X;X;X;X;X;X;X;X;X;X(.7.] ;XdXZ Z u.u.u.u.u.u.u.u.u.u.u.u.u.u.u.u.u.u.u.Z Z dX;X(.7.] ;X;X;X;X;X;X;X;X;X;X;X;X;X;X;X;X;X;X;X{.R.(.(.(.(.GXGXGXGXDXFXFXFXFXFXFXFXFXFXFXFXFXFXFXFXFXFXFXFXFXFXFXFXFXFXFXFXFXFXFXFX;X;X;X;X;X;X;X;X;X;X;X;X;X;X;X;X;X;X;X;X;X;X;X;X;X;X;X;X;X;X;X;X;X;X;X;X;X;X;X;X;X;X;X;X;X;X;X;X;X;X;X;X;X;X;XkXo.o.o.o.] ] ] o.o.o.] o.] o.] o.o.o.] o.o.o.] o.o.] o.o.] ",
"o.o.] ] o.o.o.o.o.o.] o.] o.o.o.o.o.] ] ] ^ ] o.kX;X;X;X;X;X;X;X;X;X;X;X;X;X;X;X;X;X;X;X;X;X;X;X;X;X;X;X;X;X;X;X;X;X;X;X;X;X;X;X;X;X;X;X;X;X;X;X;X;X;X;X;X;X;XFXFXFXFXFXFXFXFXFXFXFXFXFXFXFXFXFXFXFXFXFXFXFXFXFXFXFXFXFXFXFXFXFXFXFXFXFX(.(.(.(.R.{.;X;X;X;X;X;X;X;X;X;X;X;X;X;X;X;X;X;X;X(.7.] ;XdXZ Z u.p.p.p.p.p.p.p.i.u.i.p.p.p.p.p.p.p.u.Z Z dX;X(.7.] ;X;X;X;X;X;X;X;X;X;X;X;X;X;X;X;X;X;X;X{.R.(.(.(.(.GXGXDXGXGXFXFXFXFXFXFXFXFXFXFXFXFXFXFXFXFXFXFXFXFXFXFXFXFXFXFXFXFXFXFXFXFX;X;X;X;X;X;X;X;X;X;X;X;X;X;X;X;X;X;X;X;X;X;X;X;X;X;X;X;X;X;X;X;X;X;X;X;X;X;X;X;X;X;X;X;X;X;X;X;X;X;X;X;X;X;XkXo.o.o.o.] o.o.o.o.o.] o.o.] ] o.o.o.o.o.o.] o.o.o.o.] o.o.",
"o.] o.*.*.*.o.*.o.o.*.o.o.o.*.o.o.o.] ] ] ^ ] o.kX;X;X;X;X;X;X;X;X;X;X;X;X;X;X;X;X;X;X;X;X;X;X;X;X;X;X;X;X;X;X;X;X;X;X;X;X;X;X;X;X;X;X;X;X;X;X;X;X;X;X;X;X;X;XFXFXFXFXFXFXFXFXFXFXFXFXFXFXFXFXFXFXFXFXFXFXFXFXFXFXFXFXFXFXFXFXFXFXFXFXFX(.(.(.(.R.{.;X;X;X;X;X;X;X;X;X;X;X;X;X;X;X;X;X;X;XGXGXGX;XdXZ Z u.p.p.&X&X&X&Xp.i.u.i.p.&X&X&X&Xp.p.u.Z Z dX;XGXGXDX;X;X;X;X;X;X;X;X;X;X;X;X;X;X;X;X;X;X;X{.R.(.(.(.!.GXDXGXDXGXFXFXFXFXFXFXFXFXFXFXFXFXFXFXFXFXFXFXFXFXFXFXFXFXFXFXFXFXFXFXFXFX;X;X;X;X;X;X;X;X;X;X;X;X;X;X;X;X;X;X;X;X;X;X;X;X;X;X;X;X;X;X;X;X;X;X;X;X;X;X;X;X;X;X;X;X;X;X;X;X;X;X;X;X;X;XkXo.o.] ] o.] o.o.o.o.] o.o.o.o.o.o.*.o.o.o.o.*.o.] o.o.*.o.",
"o.*.o.o.o.o.o.o.o.*.*.*.*.*.o.o.o.*.] ] ] ^ ] o.kX;X;X;X;X;X;X;X;X;X;X;X;X;X;X;X;X;X;X;X;X;X;X;X;X;X;X;X;X;X;X;X;X;X;X;X;X;X;X;X;X;X;X;X;X;X;X;X;X;X;X;X;X;XFXFXFXFXFXFXFXFXFXFXFXFXFXFXFXFXFXFXFXFXFXFXFXFXFXFXFXFXFXFXFXFXFXFXFXFXFX3X(.(.(.(.R.{.;X;X;X;X;X;X;X;X;X;X;X;X;X;X;X;X;X;XmXmXbXmXmXdXZ Z u.p.p.h.h.h.h.p.i.u.i.p.h.h.h.h.p.p.u.Z Z dXmXmXmXmXmX;X;X;X;X;X;X;X;X;X;X;X;X;X;X;X;X;X;X{.R.(.(.(.(.3XGXGXDXGXFXFXFXFXFXFXFXFXFXFXFXFXFXFXFXFXFXFXFXFXFXFXFXFXFXFXFXFXFXFXFXFXFX;X;X;X;X;X;X;X;X;X;X;X;X;X;X;X;X;X;X;X;X;X;X;X;X;X;X;X;X;X;X;X;X;X;X;X;X;X;X;X;X;X;X;X;X;X;X;X;X;X;X;X;X;XkXo.o.o.*.*.*.*.o.o.o.*.o.o.o.o.o.o.*.o.*.o.*.o.o.*.o.o.o.o.",
"o.o.*.*.*.*.o.*.*.*.*.*.o.o.o.o.*.*.] ] ] ^ ] o.kX;X;X;X;X;X;X;X;X;X;X;X;X;X;X;X;X;X;X;X;X;X;X;X;X;X;X;X;X;X;X;X;X;X;X;X;X;X;X;X;X;X;X;X;X;X;X;X;X;X;X;X;X;XFXFXFXFXFXFXFXFXFXFXFXFXFXFXFXFXFXFXFXFXFXFXFXFXFXFXFXFXFXFXFXFXFXFXFXFXFX(.(.(.(.(.R.{.;X;X;X;X;X;X;X;X;X;X;X;X;X;X;X;X;XmXkXkXmXkXkXdXZ Z u.p.p.g.g.g.g.p.i.u.i.p.g.g.g.g.p.p.u.Z Z dXkXkXmXkXkXmX;X;X;X;X;X;X;X;X;X;X;X;X;X;X;X;X;X{.R.(.(.(.(.(.GXDXFXFXFXFXFXFXFXFXFXFXFXFXFXFXFXFXFXFXFXFXFXFXFXFXFXFXFXFXFXFXFXFXFXFXFX;X;X;X;X;X;X;X;X;X;X;X;X;X;X;X;X;X;X;X;X;X;X;X;X;X;X;X;X;X;X;X;X;X;X;X;X;X;X;X;X;X;X;X;X;X;X;X;X;X;X;X;X;XkX*.o.*.*.*.o.o.*.*.*.*.*.*.*.*.o.*.*.o.o.*.o.*.o.*.*.o.*.o.",
"<.*.o.*.*.<.*.*.*.*.*.*.*.<.*.*.*.*.] ] ] ^ ] o.w.B B B B B B B B B B B B B B B B B B B B B B B B B B B B B B B B B B B B B B B B B B B B B B B B B B B B FXFXFXFXFXFXFXFXFXFXFXFXFXFXFXFXFXFXFXFXFXFXFXFXFXFXFXFXFXFXFXFXFXFXFXFXFXFX(.(.(.(.N M N B B B B B B B B B B B B B B B B w.w.w.w.w.w.w.dXu.u.i.p.p.a.a.a.a.p.i.u.i.p.a.a.a.a.p.p.i.u.u.dXw.w.w.w.w.w.w.B B B B B B B B B B B B B B B B N M (.(.(.(.(.GXGXFXFXFXFXFXFXFXFXFXFXFXFXFXFXFXFXFXFXFXFXFXFXFXFXFXFXFXFXFXFXFXFXFXFXFXFXB B B B B B B B B B B B B B B B B B B B B B B B B B B B B B B B B B B B B B B B B B B B B B B B B B B B e.*.<.*.*.*.*.<.*.*.*.*.o.*.*.*.<.*.*.<.*.o.*.*.<.*.<.*.o.*.",
"*.*.*.<.<.<.*.*.*.*.<.*.*.*.*.*.<.<.] ] ] ^ ] o.w.B B B B B B B B B B B B B B B B B B B B B B B B B B B B B B B B B B B B B B B B B B B B B B B B B B B B FXFXFXFXFXFXFXFXFXFXFXFXFXFXFXFXFXFXFXFXFXFXFXFXFXFXFXFXFXFXFXFXFXFXFXFXFXFX(.(.N N N M N B B B B B B B B B B B B B B B w.w.w.w.w.w.w.w.dXi.i.p.p.p.p.p.p.p.p.i.u.i.p.p.p.p.p.p.p.p.i.i.dXw.w.w.w.w.w.w.w.B B B B B B B B B B B B B B B N M N N N (.(.DXGXGXFXFXFXFXFXFXFXFXFXFXFXFXFXFXFXFXFXFXFXFXFXFXFXFXFXFXFXFXFXFXFXFXFXFXFXB B B B B B B B B B B B B B B B B B B B B B B B B B B B B B B B B B B B B B B B B B B B B B B B B B B B e.*.<.<.<.*.*.*.*.*.*.<.<.*.*.*.*.<.<.*.*.*.*.*.<.<.*.*.*.<.",
"*.<.*.*.<.*.*.*.<.*.<.*.*.<.*.*.<.<.] ] ] ^ ] o.w.B B B B B B B B B B B B B B B B B B B B B B B B B B B B B B B B B B B B B B B B B B B B B B B B B B B w.w.w.w.w.w.w.w.w.w.w.w.w.w.w.w.w.w.w.w.w.w.w.w.w.w.w.w.w.w.w.w.w.w.w.w.w.w.e.N N N N N M N B B B B B B B B B B B B B B w.w.w.w.w.w.w.w.w.dXp.p.p.p.p.p.p.p.p.p.i.u.i.p.p.p.p.p.p.p.p.p.p.dXw.w.w.w.w.w.w.w.w.B B B B B B B B B B B B B B N M N N N N N e.w.w.w.w.w.w.w.w.w.w.w.w.w.w.w.w.w.w.w.w.w.w.w.w.w.w.w.w.w.w.w.w.w.w.w.w.w.e.B B B B B B B B B B B B B B B B B B B B B B B B B B B B B B B B B B B B B B B B B B B B B B B B B B B e.*.*.*.*.*.<.*.*.*.*.<.*.*.<.<.<.*.<.<.<.<.<.*.*.<.<.<.*.*.",
"*.<.<.*.*.*.*.<.<.*.<.*.*.<.<.<.*.<.] ] ] ^ ] o.kX;X;X;X;X;X;X;X;X;X;X;X;X;X;X;X;X;X;X;X;X;X;X;X;X;X;X;X;X;X;X;X;X;X;X;X;X;X;X;X;X;X;X;X;X;X;X;X;X;X;X;Xw.w.w.w.w.w.w.w.w.w.w.w.w.w.w.w.w.w.w.w.w.w.w.w.w.w.w.w.w.w.w.w.w.w.w.w.w.e.N N N N N (.R.{.;X;X;X;X;X;X;X;X;X;X;X;X;X;X;X;X;X;X;X;X;X;X;XdXp.p.p.p.p.p.p.p.p.p.i.u.i.p.p.p.p.p.p.p.p.p.p.dX;X;X;X;X;X;X;X;X;X;X;X;X;X;X;X;X;X;X;X;X;X;X;X{.R.N N N N N N e.w.w.w.w.w.w.w.w.w.w.w.w.w.w.w.w.w.w.w.w.w.w.w.w.w.w.w.w.w.w.w.w.w.w.w.w.e.;X;X;X;X;X;X;X;X;X;X;X;X;X;X;X;X;X;X;X;X;X;X;X;X;X;X;X;X;X;X;X;X;X;X;X;X;X;X;X;X;X;X;X;X;X;X;X;X;X;X;XkX<.<.*.<.<.<.*.<.*.<.<.*.*.<.<.*.*.<.<.<.<.<.<.*.<.<.<.<.<.",
"<.<.<.<.<.<.<.<.<.<.<.<.<.*.<.<.<.<.] ] ] ^ ] o.kX;X;X;X;X;X;X;X;X;X;X;X;X;X;X;X;X;X;X;X;X;X;X;X;X;X;X;X;X;X;X;X;X;X;X;X;X;X;X;X;X;X;X;X;X;X;X;X;X;X;Xw.w.w.w.w.w.w.w.w.w.w.w.w.w.w.w.w.w.w.w.w.w.w.w.w.w.w.w.w.w.w.w.w.w.w.w.w.w.e.N N (.(.(.(.R.{.;X;X;X;X;X;X;X;X;X;X;X;X;X;X;X;X;X;X;X;X;X;X;XdXp.p.p.p.p.p.p.p.p.p.i.u.i.p.p.p.p.p.p.p.p.p.p.dX;X;X;X;X;X;X;X;X;X;X;X;X;X;X;X;X;X;X;X;X;X;X;X{.R.(.(.(.(.N N e.w.w.w.w.w.w.w.w.w.w.w.w.w.w.w.w.w.w.w.w.w.w.w.w.w.w.w.w.w.w.w.w.w.w.w.w.w.e.;X;X;X;X;X;X;X;X;X;X;X;X;X;X;X;X;X;X;X;X;X;X;X;X;X;X;X;X;X;X;X;X;X;X;X;X;X;X;X;X;X;X;X;X;X;X;X;X;X;XkX<.<.<.<.<.<.<.<.<.<.<.<.<.*.<.<.<.<.<.<.<.<.<.<.<.<.<.<.<.",
"<.<.<.<.<.<.<.<.<.<.<.<.<.<.<.<.<.<.] ] ] ^ ] o.kX;X;X;X;X;X;X;X;X;X;X;X;X;X;X;X;X;X;X;X;X;X;X;X;X;X;X;X;X;X;X;X;X;X;X;X;X;X;X;X;X;X;X;X;X;X;X;X;X;X;XFXFXFXFXFXFXFXFXFXFXFXFXFXFXFXFXFXFXFXFXFXFXFXFXFXFXFXFXFXFXFXFXFXFXFXFXFXFXFX(.(.(.(.(.(.R.{.;X;X;X;X;X;X;X;X;X;X;X;X;X;X;X;X;X;X;X;X;X;X;XdXp.p.p.p.p.p.p.p.p.p.i.u.i.p.p.p.p.p.p.p.p.p.p.dX;X;X;X;X;X;X;X;X;X;X;X;X;X;X;X;X;X;X;X;X;X;X;X{.R.(.(.(.(.(.(.FXFXFXFXFXFXFXFXFXFXFXFXFXFXFXFXFXFXFXFXFXFXFXFXFXFXFXFXFXFXFXFXFXFXFXFXFXFXFX;X;X;X;X;X;X;X;X;X;X;X;X;X;X;X;X;X;X;X;X;X;X;X;X;X;X;X;X;X;X;X;X;X;X;X;X;X;X;X;X;X;X;X;X;X;X;X;X;X;XkX<.<.<.<.<.<.<.<.<.<.<.<.<.<.<.<.<.<.<.<.<.<.<.<.<.<.<.<.<.",
"7 7 7 7 7 7 7 7 7 7 7 7 7 7 7 7 7 7 7 7 7 7 7 7 7 7 7 7 7 7 7 7 7 7 7 7 7 7 7 7 7 7 7 7 7 7 7 7 7 7 7 7 7 7 7 7 7 7 7 7 7 7 7 7 7 7 7 7 7 7 7 7 7 7 7 7 7 7 7 7 7 7 7 7 7 7 7 7 7 7 7 7 7 7 7 7 7 7 7 7 7 7 7 7 7 7 7 7 7 7 7 7 7 7 7 7 7 7 7 7 7 7 7 7 7 7 7 7 7 7 7 7 7 7 7 7 7 7 7 7 7 7 7 7 7 7 7 7 7 7 7 7 7 7 7 7 7 7 7 7 7 7 7 7 7 7 7 7 7 7 7 7 7 7 7 7 7 7 7 7 7 7 7 7 7 7 7 7 7 7 7 7 7 7 7 7 7 7 7 7 7 7 7 7 7 7 7 7 7 7 7 7 7 7 7 7 7 7 7 7 7 7 7 7 7 7 7 7 7 7 7 7 7 7 7 7 7 7 7 7 7 7 7 7 7 7 7 7 7 7 7 7 7 7 7 7 7 7 7 7 7 7 7 7 7 7 7 7 7 7 7 7 7 7 7 7 7 7 7 7 7 7 7 7 7 7 7 7 7 7 7 7 7 7 7 7 7 7 7 7 7 7 7 7 7 7 7 7 7 7 7 7 7 7 7 7 7 7 7 7 ",
"7 7 7 7 7 7 7 7 7 7 7 7 7 7 7 7 7 7 7 7 7 7 7 7 7 7 7 7 7 7 7 7 7 7 7 7 7 7 7 7 7 7 7 7 7 7 7 7 7 7 7 7 7 7 7 7 7 7 7 7 7 7 7 7 7 7 7 7 7 7 7 7 7 7 7 7 7 7 7 7 7 7 7 7 7 7 7 7 7 7 7 7 7 7 7 7 7 7 7 7 7 7 7 7 7 7 7 7 7 7 7 7 7 7 7 7 7 7 7 7 7 7 7 7 7 7 7 7 7 7 7 7 7 7 7 7 7 7 7 7 7 7 7 7 7 7 7 7 7 7 7 7 7 7 7 7 7 7 7 7 7 7 7 7 7 7 7 7 7 7 7 7 7 7 7 7 7 7 7 7 7 7 7 7 7 7 7 7 7 7 7 7 7 7 7 7 7 7 7 7 7 7 7 7 7 7 7 7 7 7 7 7 7 7 7 7 7 7 7 7 7 7 7 7 7 7 7 7 7 7 7 7 7 7 7 7 7 7 7 7 7 7 7 7 7 7 7 7 7 7 7 7 7 7 7 7 7 7 7 7 7 7 7 7 7 7 7 7 7 7 7 7 7 7 7 7 7 7 7 7 7 7 7 7 7 7 7 7 7 7 7 7 7 7 7 7 7 7 7 7 7 7 7 7 7 7 7 7 7 7 7 7 7 7 7 7 7 7 7 7 ",
"7 7 7 7 7 7 7 7 7 7 7 7 7 7 7 7 7 7 7 7 7 7 7 7 7 7 7 7 7 7 7 7 7 7 7 7 7 7 7 7 7 7 7 7 7 7 7 7 7 7 7 7 7 7 7 7 7 7 7 7 7 7 7 7 7 7 7 7 7 7 7 7 7 7 7 7 7 7 7 7 7 7 7 7 7 7 7 7 7 7 7 7 7 7 7 7 7 7 7 7 7 7 7 7 7 7 7 7 7 7 7 7 7 7 7 7 7 7 7 7 7 7 7 7 7 7 7 7 7 7 7 7 7 7 7 7 7 7 7 7 7 7 7 7 7 7 7 7 7 7 7 7 7 7 7 7 7 7 7 7 7 7 7 7 7 7 7 7 7 7 7 7 7 7 7 7 7 7 7 7 7 7 7 7 7 7 7 7 7 7 7 7 7 7 7 7 7 7 7 7 7 7 7 7 7 7 7 7 7 7 7 7 7 7 7 7 7 7 7 7 7 7 7 7 7 7 7 7 7 7 7 7 7 7 7 7 7 7 7 7 7 7 7 7 7 7 7 7 7 7 7 7 7 7 7 7 7 7 7 7 7 7 7 7 7 7 7 7 7 7 7 7 7 7 7 7 7 7 7 7 7 7 7 7 7 7 7 7 7 7 7 7 7 7 7 7 7 7 7 7 7 7 7 7 7 7 7 7 7 7 7 7 7 7 7 7 7 7 7 7 ",
"7 7 7 7 7 7 7 7 7 7 7 7 7 7 7 7 7 7 7 7 7 7 7 7 7 7 7 7 7 7 7 7 7 7 7 7 7 7 7 7 7 7 7 7 7 7 7 7 7 7 7 7 7 7 7 7 7 7 7 7 7 7 7 7 7 7 7 7 7 7 7 7 7 7 7 7 7 7 7 7 7 7 7 7 7 7 7 7 7 7 7 7 7 7 7 7 7 7 7 7 7 7 7 7 7 7 7 7 7 7 7 7 7 7 7 7 7 7 7 7 7 7 7 7 7 7 7 7 7 7 7 7 7 7 7 7 7 7 7 7 7 7 7 7 7 7 7 7 7 7 7 7 7 7 7 7 7 7 7 7 7 7 7 7 7 7 7 7 7 7 7 7 7 7 7 7 7 7 7 7 7 7 7 7 7 7 7 7 7 7 7 7 7 7 7 7 7 7 7 7 7 7 7 7 7 7 7 7 7 7 7 7 7 7 7 7 7 7 7 7 7 7 7 7 7 7 7 7 7 7 7 7 7 7 7 7 7 7 7 7 7 7 7 7 7 7 7 7 7 7 7 7 7 7 7 7 7 7 7 7 7 7 7 7 7 7 7 7 7 7 7 7 7 7 7 7 7 7 7 7 7 7 7 7 7 7 7 7 7 7 7 7 7 7 7 7 7 7 7 7 7 7 7 7 7 7 7 7 7 7 7 7 7 7 7 7 7 7 7 7 ",
"7 7 7 7 7 7 7 7 7 7 7 7 7 7 7 7 7 7 7 7 7 7 7 7 7 7 7 7 7 7 7 7 7 7 7 7 7 7 7 7 7 7 7 7 7 7 7 7 7 7 7 7 7 7 7 7 7 7 7 7 7 7 7 7 7 7 7 7 7 7 7 7 7 7 7 7 7 7 7 7 7 7 7 7 7 7 7 7 7 7 7 7 7 7 7 7 7 7 7 7 7 7 7 7 7 7 7 7 7 7 7 7 7 7 7 7 7 7 7 7 7 7 7 7 7 7 7 7 7 7 7 7 7 7 7 7 7 7 7 7 7 7 7 7 7 7 7 7 7 7 7 7 7 7 7 7 7 7 7 7 7 7 7 7 7 7 7 7 7 7 7 7 7 7 7 7 7 7 7 7 7 7 7 7 7 7 7 7 7 7 7 7 7 7 7 7 7 7 7 7 7 7 7 7 7 7 7 7 7 7 7 7 7 7 7 7 7 7 7 7 7 7 7 7 7 7 7 7 7 7 7 7 7 7 7 7 7 7 7 7 7 7 7 7 7 7 7 7 7 7 7 7 7 7 7 7 7 7 7 7 7 7 7 7 7 7 7 7 7 7 7 7 7 7 7 7 7 7 7 7 7 7 7 7 7 7 7 7 7 7 7 7 7 7 7 7 7 7 7 7 7 7 7 7 7 7 7 7 7 7 7 7 7 7 7 7 7 7 7 7 ",
"7 7 7 7 7 7 7 7 7 7 7 7 7 7 7 7 7 7 7 7 7 7 7 7 7 7 7 7 7 7 7 7 7 7 7 7 7 7 7 7 7 7 7 7 7 7 7 7 7 7 7 7 7 7 7 7 7 7 7 7 7 7 7 7 7 7 7 7 7 7 7 7 7 7 7 7 7 7 7 7 7 7 7 7 7 7 7 7 7 7 7 7 7 7 7 7 7 7 7 7 7 7 7 7 7 7 7 7 7 7 7 7 7 7 7 7 7 7 7 7 7 7 7 7 7 7 7 7 7 7 7 7 7 7 7 7 7 7 7 7 7 7 7 7 7 7 7 7 7 7 7 7 7 7 7 7 7 7 7 7 7 7 7 7 7 7 7 7 7 7 7 7 7 7 7 7 7 7 7 7 7 7 7 7 7 7 7 7 7 7 7 7 7 7 7 7 7 7 7 7 7 7 7 7 7 7 7 7 7 7 7 7 7 7 7 7 7 7 7 7 7 7 7 7 7 7 7 7 7 7 7 7 7 7 7 7 7 7 7 7 7 7 7 7 7 7 7 7 7 7 7 7 7 7 7 7 7 7 7 7 7 7 7 7 7 7 7 7 7 7 7 7 7 7 7 7 7 7 7 7 7 7 7 7 7 7 7 7 7 7 7 7 7 7 7 7 7 7 7 7 7 7 7 7 7 7 7 7 7 7 7 7 7 7 7 7 7 7 7 7 ",
"7 7 7 7 7 7 7 7 7 7 7 7 7 7 7 7 7 7 7 7 7 7 7 7 7 7 7 7 7 7 7 7 7 7 7 7 7 7 7 7 7 7 7 7 7 7 7 7 7 7 7 7 7 7 7 7 7 7 7 7 7 7 7 7 7 7 7 7 7 7 7 7 7 7 7 7 7 7 7 7 7 7 7 7 7 7 7 7 7 7 7 7 7 7 7 7 7 7 7 7 7 7 7 7 7 7 7 7 7 7 7 7 7 7 7 7 7 7 7 7 7 7 7 7 7 7 7 7 7 7 7 7 7 7 7 7 7 7 7 7 7 7 7 7 7 7 7 7 7 7 7 7 7 7 7 7 7 7 7 7 7 7 7 7 7 7 7 7 7 7 7 7 7 7 7 7 7 7 7 7 7 7 7 7 7 7 7 7 7 7 7 7 7 7 7 7 7 7 7 7 7 7 7 7 7 7 7 7 7 7 7 7 7 7 7 7 7 7 7 7 7 7 7 7 7 7 7 7 7 7 7 7 7 7 7 7 7 7 7 7 7 7 7 7 7 7 7 7 7 7 7 7 7 7 7 7 7 7 7 7 7 7 7 7 7 7 7 7 7 7 7 7 7 7 7 7 7 7 7 7 7 7 7 7 7 7 7 7 7 7 7 7 7 7 7 7 7 7 7 7 7 7 7 7 7 7 7 7 7 7 7 7 7 7 7 7 7 7 7 7 ",
"7 7 7 7 7 7 7 7 7 7 7 7 7 7 7 7 7 7 7 7 7 7 7 7 7 7 7 7 7 7 7 7 7 7 7 7 7 7 7 7 7 7 7 7 7 7 7 7 7 7 7 7 7 7 7 7 7 7 7 7 7 7 7 7 7 7 7 7 7 7 7 7 7 7 7 7 7 7 7 7 7 7 7 7 7 7 7 7 7 7 7 7 7 7 7 7 7 7 7 7 7 7 7 7 7 7 7 7 7 7 7 7 7 7 7 7 7 7 7 7 7 7 7 7 7 7 7 7 7 7 7 7 7 7 7 7 7 7 7 7 7 7 7 7 7 7 7 7 7 7 7 7 7 7 7 7 7 7 7 7 7 7 7 7 7 7 7 7 7 7 7 7 7 7 7 7 7 7 7 7 7 7 7 7 7 7 7 7 7 7 7 7 7 7 7 7 7 7 7 7 7 7 7 7 7 7 7 7 7 7 7 7 7 7 7 7 7 7 7 7 7 7 7 7 7 7 7 7 7 7 7 7 7 7 7 7 7 7 7 7 7 7 7 7 7 7 7 7 7 7 7 7 7 7 7 7 7 7 7 7 7 7 7 7 7 7 7 7 7 7 7 7 7 7 7 7 7 7 7 7 7 7 7 7 7 7 7 7 7 7 7 7 7 7 7 7 7 7 7 7 7 7 7 7 7 7 7 7 7 7 7 7 7 7 7 7 7 7 7 7 ",
"7 7 7 7 7 7 7 7 7 7 7 7 7 7 7 7 7 7 7 7 7 7 7 7 7 7 7 7 7 7 7 7 7 7 7 7 7 7 7 7 7 7 7 7 7 7 7 7 7 7 7 7 7 7 7 7 7 7 7 7 7 7 7 7 7 7 7 7 7 7 7 7 7 7 7 7 7 7 7 7 7 7 7 7 7 7 7 7 7 7 7 7 7 7 7 7 7 7 7 7 7 7 7 7 7 7 7 7 7 7 7 7 7 7 7 7 7 7 7 7 7 7 7 7 7 7 7 7 7 7 7 7 7 7 7 7 7 7 7 7 7 7 7 7 7 7 7 7 7 7 7 7 7 7 7 7 7 7 7 7 7 7 7 7 7 7 7 7 7 7 7 7 7 7 7 7 7 7 7 7 7 7 7 7 7 7 7 7 7 7 7 7 7 7 7 7 7 7 7 7 7 7 7 7 7 7 7 7 7 7 7 7 7 7 7 7 7 7 7 7 7 7 7 7 7 7 7 7 7 7 7 7 7 7 7 7 7 7 7 7 7 7 7 7 7 7 7 7 7 7 7 7 7 7 7 7 7 7 7 7 7 7 7 7 7 7 7 7 7 7 7 7 7 7 7 7 7 7 7 7 7 7 7 7 7 7 7 7 7 7 7 7 7 7 7 7 7 7 7 7 7 7 7 7 7 7 7 7 7 7 7 7 7 7 7 7 7 7 7 7 ",
"7 7 7 7 7 7 7 7 7 7 7 7 7 7 7 7 7 7 7 7 7 7 7 7 7 7 7 7 7 7 7 7 7 7 7 7 7 7 7 7 7 7 7 7 7 7 7 7 7 7 7 7 7 7 7 7 7 7 7 7 7 7 7 7 7 7 7 7 7 7 7 7 7 7 7 7 7 7 7 7 7 7 7 7 7 7 7 7 7 7 7 7 7 7 7 7 7 7 7 7 7 7 7 7 7 7 7 7 7 7 7 7 7 7 7 7 7 7 7 7 7 7 7 7 7 7 7 7 7 7 7 7 7 7 7 7 7 7 7 7 7 7 7 7 7 7 7 7 7 7 7 7 7 7 7 7 7 7 7 7 7 7 7 7 7 7 7 7 7 7 7 7 7 7 7 7 7 7 7 7 7 7 7 7 7 7 7 7 7 7 7 7 7 7 7 7 7 7 7 7 7 7 7 7 7 7 7 7 7 7 7 7 7 7 7 7 7 7 7 7 7 7 7 7 7 7 7 7 7 7 7 7 7 7 7 7 7 7 7 7 7 7 7 7 7 7 7 7 7 7 7 7 7 7 7 7 7 7 7 7 7 7 7 7 7 7 7 7 7 7 7 7 7 7 7 7 7 7 7 7 7 7 7 7 7 7 7 7 7 7 7 7 7 7 7 7 7 7 7 7 7 7 7 7 7 7 7 7 7 7 7 7 7 7 7 7 7 7 7 7 ",
"7 7 7 7 7 7 7 7 7 7 7 7 7 7 7 7 7 7 7 7 7 7 7 7 7 7 7 7 7 7 7 7 7 7 7 7 7 7 7 7 7 7 7 7 7 7 7 7 7 7 7 7 7 7 7 7 7 7 7 7 7 7 7 7 7 7 7 7 7 7 7 7 7 7 7 7 7 7 7 7 7 7 7 7 7 7 7 7 7 7 7 7 7 7 7 7 7 7 7 7 7 7 7 7 7 7 7 7 7 7 7 7 7 7 7 7 7 7 7 7 7 7 7 7 7 7 7 7 7 7 7 7 7 7 7 7 7 7 7 7 7 7 7 7 7 7 7 7 7 7 7 7 7 7 7 7 7 7 7 7 7 7 7 7 7 7 7 7 7 7 7 7 7 7 7 7 7 7 7 7 7 7 7 7 7 7 7 7 7 7 7 7 7 7 7 7 7 7 7 7 7 7 7 7 7 7 7 7 7 7 7 7 7 7 7 7 7 7 7 7 7 7 7 7 7 7 7 7 7 7 7 7 7 7 7 7 7 7 7 7 7 7 7 7 7 7 7 7 7 7 7 7 7 7 7 7 7 7 7 7 7 7 7 7 7 7 7 7 7 7 7 7 7 7 7 7 7 7 7 7 7 7 7 7 7 7 7 7 7 7 7 7 7 7 7 7 7 7 7 7 7 7 7 7 7 7 7 7 7 7 7 7 7 7 7 7 7 7 7 7 ",
"7 7 7 7 7 7 7 7 7 7 7 7 7 7 7 7 7 7 7 7 7 7 7 7 7 7 7 7 7 7 7 7 7 7 7 7 7 7 7 7 7 7 7 7 7 7 7 7 7 7 7 7 7 7 7 7 7 7 7 7 7 7 7 7 7 7 7 7 7 7 7 7 7 7 7 7 7 7 7 7 7 7 7 7 7 7 7 7 7 7 7 7 7 7 7 7 7 7 7 7 7 7 7 7 7 7 7 7 7 7 7 7 7 7 7 7 7 7 7 7 7 7 7 7 7 7 7 7 7 7 7 7 7 7 7 7 7 7 7 7 7 7 7 7 7 7 7 7 7 7 7 7 7 7 7 7 7 7 7 7 7 7 7 7 7 7 7 7 7 7 7 7 7 7 7 7 7 7 7 7 7 7 7 7 7 7 7 7 7 7 7 7 7 7 7 7 7 7 7 7 7 7 7 7 7 7 7 7 7 7 7 7 7 7 7 7 7 7 7 7 7 7 7 7 7 7 7 7 7 7 7 7 7 7 7 7 7 7 7 7 7 7 7 7 7 7 7 7 7 7 7 7 7 7 7 7 7 7 7 7 7 7 7 7 7 7 7 7 7 7 7 7 7 7 7 7 7 7 7 7 7 7 7 7 7 7 7 7 7 7 7 7 7 7 7 7 7 7 7 7 7 7 7 7 7 7 7 7 7 7 7 7 7 7 7 7 7 7 7 7 ",
"7 7 7 7 7 7 7 7 7 7 7 7 7 7 7 7 7 7 7 7 7 7 7 7 7 7 7 7 7 7 7 7 7 7 7 7 7 7 7 7 7 7 7 7 7 7 7 7 7 7 7 7 7 7 7 7 7 7 7 7 7 7 7 7 7 7 7 7 7 7 7 7 7 7 7 7 7 7 7 7 7 7 7 7 7 7 7 7 7 7 7 7 7 7 7 7 7 7 7 7 7 7 7 7 7 7 7 7 7 7 7 7 7 7 7 7 7 7 7 7 7 7 7 7 7 7 7 7 7 7 7 7 7 7 7 7 7 7 7 7 7 7 7 7 7 7 7 7 7 7 7 7 7 7 7 7 7 7 7 7 7 7 7 7 7 7 7 7 7 7 7 7 7 7 7 7 7 7 7 7 7 7 7 7 7 7 7 7 7 7 7 7 7 7 7 7 7 7 7 7 7 7 7 7 7 7 7 7 7 7 7 7 7 7 7 7 7 7 7 7 7 7 7 7 7 7 7 7 7 7 7 7 7 7 7 7 7 7 7 7 7 7 7 7 7 7 7 7 7 7 7 7 7 7 7 7 7 7 7 7 7 7 7 7 7 7 7 7 7 7 7 7 7 7 7 7 7 7 7 7 7 7 7 7 7 7 7 7 7 7 7 7 7 7 7 7 7 7 7 7 7 7 7 7 7 7 7 7 7 7 7 7 7 7 7 7 7 7 7 7 ",
"7 7 7 7 7 7 7 7 7 7 7 7 7 7 7 7 7 7 7 7 7 7 7 7 7 7 7 7 7 7 7 7 7 7 7 7 7 7 7 7 7 7 7 7 7 7 7 7 7 7 7 7 7 7 7 7 7 7 7 7 7 7 7 7 7 7 7 7 7 7 7 7 7 7 7 7 7 7 7 7 7 7 7 7 7 7 7 7 7 7 7 7 7 7 7 7 7 7 7 7 7 7 7 7 7 7 7 7 7 7 7 7 7 7 7 7 7 7 7 7 7 7 7 7 7 7 7 7 7 7 7 7 7 7 7 7 7 7 7 7 7 7 7 7 7 7 7 7 7 7 7 7 7 7 7 7 7 7 7 7 7 7 7 7 7 7 7 7 7 7 7 7 7 7 7 7 7 7 7 7 7 7 7 7 7 7 7 7 7 7 7 7 7 7 7 7 7 7 7 7 7 7 7 7 7 7 7 7 7 7 7 7 7 7 7 7 7 7 7 7 7 7 7 7 7 7 7 7 7 7 7 7 7 7 7 7 7 7 7 7 7 7 7 7 7 7 7 7 7 7 7 7 7 7 7 7 7 7 7 7 7 7 7 7 7 7 7 7 7 7 7 7 7 7 7 7 7 7 7 7 7 7 7 7 7 7 7 7 7 7 7 7 7 7 7 7 7 7 7 7 7 7 7 7 7 7 7 7 7 7 7 7 7 7 7 7 7 7 7 7 ",
"7 7 7 7 7 7 7 7 7 7 7 7 7 7 7 7 7 7 7 7 7 7 7 7 7 7 7 7 7 7 7 7 7 7 7 7 7 7 7 7 7 7 7 7 7 7 7 7 7 7 7 7 7 7 7 7 7 7 7 7 7 7 7 7 7 7 7 7 7 7 7 7 7 7 7 7 7 7 7 7 7 7 7 7 7 7 7 7 7 7 7 7 7 7 7 7 7 7 7 7 7 7 7 7 7 7 7 7 7 7 7 7 7 7 7 7 7 7 7 7 7 7 7 7 7 7 7 7 7 7 7 7 7 7 7 7 7 7 7 7 7 7 7 7 7 7 7 7 7 7 7 7 7 7 7 7 7 7 7 7 7 7 7 7 7 7 7 7 7 7 7 7 7 7 7 7 7 7 7 7 7 7 7 7 7 7 7 7 7 7 7 7 7 7 7 7 7 7 7 7 7 7 7 7 7 7 7 7 7 7 7 7 7 7 7 7 7 7 7 7 7 7 7 7 7 7 7 7 7 7 7 7 7 7 7 7 7 7 7 7 7 7 7 7 7 7 7 7 7 7 7 7 7 7 7 7 7 7 7 7 7 7 7 7 7 7 7 7 7 7 7 7 7 7 7 7 7 7 7 7 7 7 7 7 7 7 7 7 7 7 7 7 7 7 7 7 7 7 7 7 7 7 7 7 7 7 7 7 7 7 7 7 7 7 7 7 7 7 7 7 ",
"7 7 7 7 7 7 7 7 7 7 7 7 7 7 7 7 7 7 7 7 7 7 7 7 7 7 7 7 7 7 7 7 7 7 7 7 7 7 7 7 7 7 7 7 7 7 7 7 7 7 7 7 7 7 7 7 7 7 7 7 7 7 7 7 7 7 7 7 7 7 7 7 7 7 7 7 7 7 7 7 7 7 7 7 7 7 7 7 7 7 7 7 7 7 7 7 7 7 7 7 7 7 7 7 7 7 7 7 7 7 7 7 7 7 7 7 7 7 7 7 7 7 7 7 7 7 7 7 7 7 7 7 7 7 7 7 7 7 7 7 7 7 7 7 7 7 7 7 7 7 7 7 7 7 7 7 7 7 7 7 7 7 7 7 7 7 7 7 7 7 7 7 7 7 7 7 7 7 7 7 7 7 7 7 7 7 7 7 7 7 7 7 7 7 7 7 7 7 7 7 7 7 7 7 7 7 7 7 7 7 7 7 7 7 7 7 7 7 7 7 7 7 7 7 7 7 7 7 7 7 7 7 7 7 7 7 7 7 7 7 7 7 7 7 7 7 7 7 7 7 7 7 7 7 7 7 7 7 7 7 7 7 7 7 7 7 7 7 7 7 7 7 7 7 7 7 7 7 7 7 7 7 7 7 7 7 7 7 7 7 7 7 7 7 7 7 7 7 7 7 7 7 7 7 7 7 7 7 7 7 7 7 7 7 7 7 7 7 7 7 ",
"7 7 7 7 7 7 7 7 7 7 7 7 7 7 7 7 7 7 7 7 7 7 7 7 7 7 7 7 7 7 7 7 7 7 7 7 7 7 7 7 7 7 7 7 7 7 7 7 7 7 7 7 7 7 7 7 7 7 7 7 7 7 7 7 7 7 7 7 7 7 7 7 7 7 7 7 7 7 7 7 7 7 7 7 7 7 7 7 7 7 7 7 7 7 7 7 7 7 7 7 7 7 7 7 7 7 7 7 7 7 7 7 7 7 7 7 7 7 7 7 7 7 7 7 7 7 7 7 7 7 7 7 7 7 7 7 7 7 7 7 7 7 7 7 7 7 7 7 7 7 7 7 7 7 7 7 7 7 7 7 7 7 7 7 7 7 7 7 7 7 7 7 7 7 7 7 7 7 7 7 7 7 7 7 7 7 7 7 7 7 7 7 7 7 7 7 7 7 7 7 7 7 7 7 7 7 7 7 7 7 7 7 7 7 7 7 7 7 7 7 7 7 7 7 7 7 7 7 7 7 7 7 7 7 7 7 7 7 7 7 7 7 7 7 7 7 7 7 7 7 7 7 7 7 7 7 7 7 7 7 7 7 7 7 7 7 7 7 7 7 7 7 7 7 7 7 7 7 7 7 7 7 7 7 7 7 7 7 7 7 7 7 7 7 7 7 7 7 7 7 7 7 7 7 7 7 7 7 7 7 7 7 7 7 7 7 7 7 7 7 ",
"7 7 7 7 7 7 7 7 7 7 7 7 7 7 7 7 7 7 7 7 7 7 7 7 7 7 7 7 7 7 7 7 7 7 7 7 7 7 7 7 7 7 7 7 7 7 7 7 7 7 7 7 7 7 7 7 7 7 7 7 7 7 7 7 7 7 7 7 7 7 7 7 7 7 7 7 7 7 7 7 7 7 7 7 7 7 7 7 7 7 7 7 7 7 7 7 7 7 7 7 7 7 7 7 7 7 7 7 7 7 7 7 7 7 7 7 7 7 7 7 7 7 7 7 7 7 7 7 7 7 7 7 7 7 7 7 7 7 7 7 7 7 7 7 7 7 7 7 7 7 7 7 7 7 7 7 7 7 7 7 7 7 7 7 7 7 7 7 7 7 7 7 7 7 7 7 7 7 7 7 7 7 7 7 7 7 7 7 7 7 7 7 7 7 7 7 7 7 7 7 7 7 7 7 7 7 7 7 7 7 7 7 7 7 7 7 7 7 7 7 7 7 7 7 7 7 7 7 7 7 7 7 7 7 7 7 7 7 7 7 7 7 7 7 7 7 7 7 7 7 7 7 7 7 7 7 7 7 7 7 7 7 7 7 7 7 7 7 7 7 7 7 7 7 7 7 7 7 7 7 7 7 7 7 7 7 7 7 7 7 7 7 7 7 7 7 7 7 7 7 7 7 7 7 7 7 7 7 7 7 7 7 7 7 7 7 7 7 7 7 ",
"7 7 7 7 7 7 7 7 7 7 7 7 7 7 7 7 7 7 7 7 7 7 7 7 7 7 7 7 7 7 7 7 7 7 7 7 7 7 7 7 7 7 7 7 7 7 7 7 7 7 7 7 7 7 7 7 7 7 7 7 7 7 7 7 7 7 7 7 7 7 7 7 7 7 7 7 7 7 7 7 7 7 7 7 7 7 7 7 7 7 7 7 7 7 7 7 7 7 7 7 7 7 7 7 7 7 7 7 7 7 7 7 7 7 7 7 7 7 7 7 7 7 7 7 7 7 7 7 7 7 7 7 7 7 7 7 7 7 7 7 7 7 7 7 7 7 7 7 7 7 7 7 7 7 7 7 7 7 7 7 7 7 7 7 7 7 7 7 7 7 7 7 7 7 7 7 7 7 7 7 7 7 7 7 7 7 7 7 7 7 7 7 7 7 7 7 7 7 7 7 7 7 7 7 7 7 7 7 7 7 7 7 7 7 7 7 7 7 7 7 7 7 7 7 7 7 7 7 7 7 7 7 7 7 7 7 7 7 7 7 7 7 7 7 7 7 7 7 7 7 7 7 7 7 7 7 7 7 7 7 7 7 7 7 7 7 7 7 7 7 7 7 7 7 7 7 7 7 7 7 7 7 7 7 7 7 7 7 7 7 7 7 7 7 7 7 7 7 7 7 7 7 7 7 7 7 7 7 7 7 7 7 7 7 7 7 7 7 7 7 ",
"7 7 7 7 7 7 7 7 7 7 7 7 7 7 7 7 7 7 7 7 7 7 7 7 7 7 7 7 7 7 7 7 7 7 7 7 7 7 7 7 7 7 7 7 7 7 7 7 7 7 7 7 7 7 7 7 7 7 7 7 7 7 7 7 7 7 7 7 7 7 7 7 7 7 7 7 7 7 7 7 7 7 7 7 7 7 7 7 7 7 7 7 7 7 7 7 7 7 7 7 7 7 7 7 7 7 7 7 7 7 7 7 7 7 7 7 7 7 7 7 7 7 7 7 7 7 7 7 7 7 7 7 7 7 7 7 7 7 7 7 7 7 7 7 7 7 7 7 7 7 7 7 7 7 7 7 7 7 7 7 7 7 7 7 7 7 7 7 7 7 7 7 7 7 7 7 7 7 7 7 7 7 7 7 7 7 7 7 7 7 7 7 7 7 7 7 7 7 7 7 7 7 7 7 7 7 7 7 7 7 7 7 7 7 7 7 7 7 7 7 7 7 7 7 7 7 7 7 7 7 7 7 7 7 7 7 7 7 7 7 7 7 7 7 7 7 7 7 7 7 7 7 7 7 7 7 7 7 7 7 7 7 7 7 7 7 7 7 7 7 7 7 7 7 7 7 7 7 7 7 7 7 7 7 7 7 7 7 7 7 7 7 7 7 7 7 7 7 7 7 7 7 7 7 7 7 7 7 7 7 7 7 7 7 7 7 7 7 7 7 ",
"7 7 7 7 7 7 7 7 7 7 7 7 7 7 7 7 7 7 7 7 7 7 7 7 7 7 7 7 7 7 7 7 7 7 7 7 7 7 7 7 7 7 7 7 7 7 7 7 7 7 7 7 7 7 7 7 7 7 7 7 7 7 7 7 7 7 7 7 7 7 7 7 7 7 7 7 7 7 7 7 7 7 7 7 7 7 7 7 7 7 7 7 7 7 7 7 7 7 7 7 7 7 7 7 7 7 7 7 7 7 7 7 7 7 7 7 7 7 7 7 7 7 7 7 7 7 7 7 7 7 7 7 7 7 7 7 7 7 7 7 7 7 7 7 7 7 7 7 7 7 7 7 7 7 7 7 7 7 7 7 7 7 7 7 7 7 7 7 7 7 7 7 7 7 7 7 7 7 7 7 7 7 7 7 7 7 7 7 7 7 7 7 7 7 7 7 7 7 7 7 7 7 7 7 7 7 7 7 7 7 7 7 7 7 7 7 7 7 7 7 7 7 7 7 7 7 7 7 7 7 7 7 7 7 7 7 7 7 7 7 7 7 7 7 7 7 7 7 7 7 7 7 7 7 7 7 7 7 7 7 7 7 7 7 7 7 7 7 7 7 7 7 7 7 7 7 7 7 7 7 7 7 7 7 7 7 7 7 7 7 7 7 7 7 7 7 7 7 7 7 7 7 7 7 7 7 7 7 7 7 7 7 7 7 7 7 7 7 7 7 ",
"7 7 7 7 7 7 7 7 7 7 7 7 7 7 7 7 7 7 7 7 7 7 7 7 7 7 7 7 7 7 7 7 7 7 7 7 7 7 7 7 7 7 7 7 7 7 7 7 7 7 7 7 7 7 7 7 7 7 7 7 7 7 7 7 7 7 7 7 7 7 7 7 7 7 7 7 7 7 7 7 7 7 7 7 7 7 7 7 7 7 7 7 7 7 7 7 7 7 7 7 7 7 7 7 7 7 7 7 7 7 7 7 7 7 7 7 7 7 7 7 7 7 7 7 7 7 7 7 7 7 7 7 7 7 7 7 7 7 7 7 7 7 7 7 7 7 7 7 7 7 7 7 7 7 7 7 7 7 7 7 7 7 7 7 7 7 7 7 7 7 7 7 7 7 7 7 7 7 7 7 7 7 7 7 7 7 7 7 7 7 7 7 7 7 7 7 7 7 7 7 7 7 7 7 7 7 7 7 7 7 7 7 7 7 7 7 7 7 7 7 7 7 7 7 7 7 7 7 7 7 7 7 7 7 7 7 7 7 7 7 7 7 7 7 7 7 7 7 7 7 7 7 7 7 7 7 7 7 7 7 7 7 7 7 7 7 7 7 7 7 7 7 7 7 7 7 7 7 7 7 7 7 7 7 7 7 7 7 7 7 7 7 7 7 7 7 7 7 7 7 7 7 7 7 7 7 7 7 7 7 7 7 7 7 7 7 7 7 7 7 ",
"7 7 7 7 7 7 7 7 7 7 7 7 7 7 7 7 7 7 7 7 7 7 7 7 7 7 7 7 7 7 7 7 7 7 7 7 7 7 7 7 7 7 7 7 7 7 7 7 7 7 7 7 7 7 7 7 7 7 7 7 7 7 7 7 7 7 7 7 7 7 7 7 7 7 7 7 7 7 7 7 7 7 7 7 7 7 7 7 7 7 7 7 7 7 7 7 7 7 7 7 7 7 7 7 7 7 7 7 7 7 7 7 7 7 7 7 7 7 7 7 7 7 7 7 7 7 7 7 7 7 7 7 7 7 7 7 7 7 7 7 7 7 7 7 7 7 7 7 7 7 7 7 7 7 7 7 7 7 7 7 7 7 7 7 7 7 7 7 7 7 7 7 7 7 7 7 7 7 7 7 7 7 7 7 7 7 7 7 7 7 7 7 7 7 7 7 7 7 7 7 7 7 7 7 7 7 7 7 7 7 7 7 7 7 7 7 7 7 7 7 7 7 7 7 7 7 7 7 7 7 7 7 7 7 7 7 7 7 7 7 7 7 7 7 7 7 7 7 7 7 7 7 7 7 7 7 7 7 7 7 7 7 7 7 7 7 7 7 7 7 7 7 7 7 7 7 7 7 7 7 7 7 7 7 7 7 7 7 7 7 7 7 7 7 7 7 7 7 7 7 7 7 7 7 7 7 7 7 7 7 7 7 7 7 7 7 7 7 7 7 ",
"7 7 7 7 7 7 7 7 7 7 7 7 7 7 7 7 7 7 7 7 7 7 7 7 7 7 7 7 7 7 7 7 7 7 7 7 7 7 7 7 7 7 7 7 7 7 7 7 7 7 7 7 7 7 7 7 7 7 7 7 7 7 7 7 7 7 7 7 7 7 7 7 7 7 7 7 7 7 7 7 7 7 7 7 7 7 7 7 7 7 7 7 7 7 7 7 7 7 7 7 7 7 7 7 7 7 7 7 7 7 7 7 7 7 7 7 7 7 7 7 7 7 7 7 7 7 7 7 7 7 7 7 7 7 7 7 7 7 7 7 7 7 7 7 7 7 7 7 7 7 7 7 7 7 7 7 7 7 7 7 7 7 7 7 7 7 7 7 7 7 7 7 7 7 7 7 7 7 7 7 7 7 7 7 7 7 7 7 7 7 7 7 7 7 7 7 7 7 7 7 7 7 7 7 7 7 7 7 7 7 7 7 7 7 7 7 7 7 7 7 7 7 7 7 7 7 7 7 7 7 7 7 7 7 7 7 7 7 7 7 7 7 7 7 7 7 7 7 7 7 7 7 7 7 7 7 7 7 7 7 7 7 7 7 7 7 7 7 7 7 7 7 7 7 7 7 7 7 7 7 7 7 7 7 7 7 7 7 7 7 7 7 7 7 7 7 7 7 7 7 7 7 7 7 7 7 7 7 7 7 7 7 7 7 7 7 7 7 7 7 ",
"7 7 7 7 7 7 7 7 7 7 7 7 7 7 7 7 7 7 7 7 7 7 7 7 7 7 7 7 7 7 7 7 7 7 7 7 7 7 7 7 7 7 7 7 7 7 7 7 7 7 7 7 7 7 7 7 7 7 7 7 7 7 7 7 7 7 7 7 7 7 7 7 7 7 7 7 7 7 7 7 7 7 7 7 7 7 7 7 7 7 7 7 7 7 7 7 7 7 7 7 7 7 7 7 7 7 7 7 7 7 7 7 7 7 7 7 7 7 7 7 7 7 7 7 7 7 7 7 7 7 7 7 7 7 7 7 7 7 7 7 7 7 7 7 7 7 7 7 7 7 7 7 7 7 7 7 7 7 7 7 7 7 7 7 7 7 7 7 7 7 7 7 7 7 7 7 7 7 7 7 7 7 7 7 7 7 7 7 7 7 7 7 7 7 7 7 7 7 7 7 7 7 7 7 7 7 7 7 7 7 7 7 7 7 7 7 7 7 7 7 7 7 7 7 7 7 7 7 7 7 7 7 7 7 7 7 7 7 7 7 7 7 7 7 7 7 7 7 7 7 7 7 7 7 7 7 7 7 7 7 7 7 7 7 7 7 7 7 7 7 7 7 7 7 7 7 7 7 7 7 7 7 7 7 7 7 7 7 7 7 7 7 7 7 7 7 7 7 7 7 7 7 7 7 7 7 7 7 7 7 7 7 7 7 7 7 7 7 7 7 ",
"7 7 7 7 7 7 7 7 7 7 7 7 7 7 7 7 7 7 7 7 7 7 7 7 7 7 7 7 7 7 7 7 7 7 7 7 7 7 7 7 7 7 7 7 7 7 7 7 7 7 7 7 7 7 7 7 7 7 7 7 7 7 7 7 7 7 7 7 7 7 7 7 7 7 7 7 7 7 7 7 7 7 7 7 7 7 7 7 7 7 7 7 7 7 7 7 7 7 7 7 7 7 7 7 7 7 7 7 7 7 7 7 7 7 7 7 7 7 7 7 7 7 7 7 7 7 7 7 7 7 7 7 7 7 7 7 7 7 7 7 7 7 7 7 7 7 7 7 7 7 7 7 7 7 7 7 7 7 7 7 7 7 7 7 7 7 7 7 7 7 7 7 7 7 7 7 7 7 7 7 7 7 7 7 7 7 7 7 7 7 7 7 7 7 7 7 7 7 7 7 7 7 7 7 7 7 7 7 7 7 7 7 7 7 7 7 7 7 7 7 7 7 7 7 7 7 7 7 7 7 7 7 7 7 7 7 7 7 7 7 7 7 7 7 7 7 7 7 7 7 7 7 7 7 7 7 7 7 7 7 7 7 7 7 7 7 7 7 7 7 7 7 7 7 7 7 7 7 7 7 7 7 7 7 7 7 7 7 7 7 7 7 7 7 7 7 7 7 7 7 7 7 7 7 7 7 7 7 7 7 7 7 7 7 7 7 7 7 7 7 ",
"7 7 7 7 7 7 7 7 7 7 7 7 7 7 7 7 7 7 7 7 7 7 7 7 7 7 7 7 7 7 7 7 7 7 7 7 7 7 7 7 7 7 7 7 7 7 7 7 7 7 7 7 7 7 7 7 7 7 7 7 7 7 7 7 7 7 7 7 7 7 7 7 7 7 7 7 7 7 7 7 7 7 7 7 7 7 7 7 7 7 7 7 7 7 7 7 7 7 7 7 7 7 7 7 7 7 7 7 7 7 7 7 7 7 7 7 7 7 7 7 7 7 7 7 7 7 7 7 7 7 7 7 7 7 7 7 7 7 7 7 7 7 7 7 7 7 7 7 7 7 7 7 7 7 7 7 7 7 7 7 7 7 7 7 7 7 7 7 7 7 7 7 7 7 7 7 7 7 7 7 7 7 7 7 7 7 7 7 7 7 7 7 7 7 7 7 7 7 7 7 7 7 7 7 7 7 7 7 7 7 7 7 7 7 7 7 7 7 7 7 7 7 7 7 7 7 7 7 7 7 7 7 7 7 7 7 7 7 7 7 7 7 7 7 7 7 7 7 7 7 7 7 7 7 7 7 7 7 7 7 7 7 7 7 7 7 7 7 7 7 7 7 7 7 7 7 7 7 7 7 7 7 7 7 7 7 7 7 7 7 7 7 7 7 7 7 7 7 7 7 7 7 7 7 7 7 7 7 7 7 7 7 7 7 7 7 7 7 7 7 ",
"7 7 7 7 7 7 7 7 7 7 7 7 7 7 7 7 7 7 7 7 7 7 7 7 7 7 7 7 7 7 7 7 7 7 7 7 7 7 7 7 7 7 7 7 7 7 7 7 7 7 7 7 7 7 7 7 7 7 7 7 7 7 7 7 7 7 7 7 7 7 7 7 7 7 7 7 7 7 7 7 7 7 7 7 7 7 7 7 7 7 7 7 7 7 7 7 7 7 7 7 7 7 7 7 7 7 7 7 7 7 7 7 7 7 7 7 7 7 7 7 7 7 7 7 7 7 7 7 7 7 7 7 7 7 7 7 7 7 7 7 7 7 7 7 7 7 7 7 7 7 7 7 7 7 7 7 7 7 7 7 7 7 7 7 7 7 7 7 7 7 7 7 7 7 7 7 7 7 7 7 7 7 7 7 7 7 7 7 7 7 7 7 7 7 7 7 7 7 7 7 7 7 7 7 7 7 7 7 7 7 7 7 7 7 7 7 7 7 7 7 7 7 7 7 7 7 7 7 7 7 7 7 7 7 7 7 7 7 7 7 7 7 7 7 7 7 7 7 7 7 7 7 7 7 7 7 7 7 7 7 7 7 7 7 7 7 7 7 7 7 7 7 7 7 7 7 7 7 7 7 7 7 7 7 7 7 7 7 7 7 7 7 7 7 7 7 7 7 7 7 7 7 7 7 7 7 7 7 7 7 7 7 7 7 7 7 7 7 7 7 ",
"7 7 7 7 7 7 7 7 7 7 7 7 7 7 7 7 7 7 7 7 7 7 7 7 7 7 7 7 7 7 7 7 7 7 7 7 7 7 7 7 7 7 7 7 7 7 7 7 7 7 7 7 7 7 7 7 7 7 7 7 7 7 7 7 7 7 7 7 7 7 7 7 7 7 7 7 7 7 7 7 7 7 7 7 7 7 7 7 7 7 7 7 7 7 7 7 7 7 7 7 7 7 7 7 7 7 7 7 7 7 7 7 7 7 7 7 7 7 7 7 7 7 7 7 7 7 7 7 7 7 7 7 7 7 7 7 7 7 7 7 7 7 7 7 7 7 7 7 7 7 7 7 7 7 7 7 7 7 7 7 7 7 7 7 7 7 7 7 7 7 7 7 7 7 7 7 7 7 7 7 7 7 7 7 7 7 7 7 7 7 7 7 7 7 7 7 7 7 7 7 7 7 7 7 7 7 7 7 7 7 7 7 7 7 7 7 7 7 7 7 7 7 7 7 7 7 7 7 7 7 7 7 7 7 7 7 7 7 7 7 7 7 7 7 7 7 7 7 7 7 7 7 7 7 7 7 7 7 7 7 7 7 7 7 7 7 7 7 7 7 7 7 7 7 7 7 7 7 7 7 7 7 7 7 7 7 7 7 7 7 7 7 7 7 7 7 7 7 7 7 7 7 7 7 7 7 7 7 7 7 7 7 7 7 7 7 7 7 7 7 ",
"7 7 7 7 7 7 7 7 7 7 7 7 7 7 7 7 7 7 7 7 7 7 7 7 7 7 7 7 7 7 7 7 7 7 7 7 7 7 7 7 7 7 7 7 7 7 7 7 7 7 7 7 7 7 7 7 7 7 7 7 7 7 7 7 7 7 7 7 7 7 7 7 7 7 7 7 7 7 7 7 7 7 7 7 7 7 7 7 7 7 7 7 7 7 7 7 7 7 7 7 7 7 7 7 7 7 7 7 7 7 7 7 7 7 7 7 7 7 7 7 7 7 7 7 7 7 7 7 7 7 7 7 7 7 7 7 7 7 7 7 7 7 7 7 7 7 7 7 7 7 7 7 7 7 7 7 7 7 7 7 7 7 7 7 7 7 7 7 7 7 7 7 7 7 7 7 7 7 7 7 7 7 7 7 7 7 7 7 7 7 7 7 7 7 7 7 7 7 7 7 7 7 7 7 7 7 7 7 7 7 7 7 7 7 7 7 7 7 7 7 7 7 7 7 7 7 7 7 7 7 7 7 7 7 7 7 7 7 7 7 7 7 7 7 7 7 7 7 7 7 7 7 7 7 7 7 7 7 7 7 7 7 7 7 7 7 7 7 7 7 7 7 7 7 7 7 7 7 7 7 7 7 7 7 7 7 7 7 7 7 7 7 7 7 7 7 7 7 7 7 7 7 7 7 7 7 7 7 7 7 7 7 7 7 7 7 7 7 7 7 ",
"7 7 7 7 7 7 7 7 7 7 7 7 7 7 7 7 7 7 7 7 7 7 7 7 7 7 7 7 7 7 7 7 7 7 7 7 7 7 7 7 7 7 7 7 7 7 7 7 7 7 7 7 7 7 7 7 7 7 7 7 7 7 7 7 7 7 7 7 7 7 7 7 7 7 7 7 7 7 7 7 7 7 7 7 7 7 7 7 7 7 7 7 7 7 7 7 7 7 7 7 7 7 7 7 7 7 7 7 7 7 7 7 7 7 7 7 7 7 7 7 7 7 7 7 7 7 7 7 7 7 7 7 7 7 7 7 7 7 7 7 7 7 7 7 7 7 7 7 7 7 7 7 7 7 7 7 7 7 7 7 7 7 7 7 7 7 7 7 7 7 7 7 7 7 7 7 7 7 7 7 7 7 7 7 7 7 7 7 7 7 7 7 7 7 7 7 7 7 7 7 7 7 7 7 7 7 7 7 7 7 7 7 7 7 7 7 7 7 7 7 7 7 7 7 7 7 7 7 7 7 7 7 7 7 7 7 7 7 7 7 7 7 7 7 7 7 7 7 7 7 7 7 7 7 7 7 7 7 7 7 7 7 7 7 7 7 7 7 7 7 7 7 7 7 7 7 7 7 7 7 7 7 7 7 7 7 7 7 7 7 7 7 7 7 7 7 7 7 7 7 7 7 7 7 7 7 7 7 7 7 7 7 7 7 7 7 7 7 7 7 ",
"7 7 7 7 7 7 7 7 7 7 7 7 7 7 7 7 7 7 7 7 7 7 7 7 7 7 7 7 7 7 7 7 7 7 7 7 7 7 7 7 7 7 7 7 7 7 7 7 7 7 7 7 7 7 7 7 7 7 7 7 7 7 7 7 7 7 7 7 7 7 7 7 7 7 7 7 7 7 7 7 7 7 7 7 7 7 7 7 7 7 7 7 7 7 7 7 7 7 7 7 7 7 7 7 7 7 7 7 7 7 7 7 7 7 7 7 7 7 7 7 7 7 7 7 7 7 7 7 7 7 7 7 7 7 7 7 7 7 7 7 7 7 7 7 7 7 7 7 7 7 7 7 7 7 7 7 7 7 7 7 7 7 7 7 7 7 7 7 7 7 7 7 7 7 7 7 7 7 7 7 7 7 7 7 7 7 7 7 7 7 7 7 7 7 7 7 7 7 7 7 7 7 7 7 7 7 7 7 7 7 7 7 7 7 7 7 7 7 7 7 7 7 7 7 7 7 7 7 7 7 7 7 7 7 7 7 7 7 7 7 7 7 7 7 7 7 7 7 7 7 7 7 7 7 7 7 7 7 7 7 7 7 7 7 7 7 7 7 7 7 7 7 7 7 7 7 7 7 7 7 7 7 7 7 7 7 7 7 7 7 7 7 7 7 7 7 7 7 7 7 7 7 7 7 7 7 7 7 7 7 7 7 7 7 7 7 7 7 7 7 ",
"7 7 7 7 7 7 7 7 7 7 7 7 7 7 7 7 7 7 7 7 7 7 7 7 7 7 7 7 7 7 7 7 7 7 7 7 7 7 7 7 7 7 7 7 7 7 7 7 7 7 7 7 7 7 7 7 7 7 7 7 7 7 7 7 7 7 7 7 7 7 7 7 7 7 7 7 7 7 7 7 7 7 7 7 7 7 7 7 7 7 7 7 7 7 7 7 7 7 7 7 7 7 7 7 7 7 7 7 7 7 7 7 7 7 7 7 7 7 7 7 7 7 7 7 7 7 7 7 7 7 7 7 7 7 7 7 7 7 7 7 7 7 7 7 7 7 7 7 7 7 7 7 7 7 7 7 7 7 7 7 7 7 7 7 7 7 7 7 7 7 7 7 7 7 7 7 7 7 7 7 7 7 7 7 7 7 7 7 7 7 7 7 7 7 7 7 7 7 7 7 7 7 7 7 7 7 7 7 7 7 7 7 7 7 7 7 7 7 7 7 7 7 7 7 7 7 7 7 7 7 7 7 7 7 7 7 7 7 7 7 7 7 7 7 7 7 7 7 7 7 7 7 7 7 7 7 7 7 7 7 7 7 7 7 7 7 7 7 7 7 7 7 7 7 7 7 7 7 7 7 7 7 7 7 7 7 7 7 7 7 7 7 7 7 7 7 7 7 7 7 7 7 7 7 7 7 7 7 7 7 7 7 7 7 7 7 7 7 7 7 ",
"7 7 7 7 7 7 7 7 7 7 7 7 7 7 7 7 7 7 7 7 7 7 7 7 7 7 7 7 7 7 7 7 7 7 7 7 7 7 7 7 7 7 7 7 7 7 7 7 7 7 7 7 7 7 7 7 7 7 7 7 7 7 7 7 7 7 7 7 7 7 7 7 7 7 7 7 7 7 7 7 7 7 7 7 7 7 7 7 7 7 7 7 7 7 7 7 7 7 7 7 7 7 7 7 7 7 7 7 7 7 7 7 7 7 7 7 7 7 7 7 7 7 7 7 7 7 7 7 7 7 7 7 7 7 7 7 7 7 7 7 7 7 7 7 7 7 7 7 7 7 7 7 7 7 7 7 7 7 7 7 7 7 7 7 7 7 7 7 7 7 7 7 7 7 7 7 7 7 7 7 7 7 7 7 7 7 7 7 7 7 7 7 7 7 7 7 7 7 7 7 7 7 7 7 7 7 7 7 7 7 7 7 7 7 7 7 7 7 7 7 7 7 7 7 7 7 7 7 7 7 7 7 7 7 7 7 7 7 7 7 7 7 7 7 7 7 7 7 7 7 7 7 7 7 7 7 7 7 7 7 7 7 7 7 7 7 7 7 7 7 7 7 7 7 7 7 7 7 7 7 7 7 7 7 7 7 7 7 7 7 7 7 7 7 7 7 7 7 7 7 7 7 7 7 7 7 7 7 7 7 7 7 7 7 7 7 7 7 7 7 ",
"7 7 7 7 7 7 7 7 7 7 7 7 7 7 7 7 7 7 7 7 7 7 7 7 7 7 7 7 7 7 7 7 7 7 7 7 7 7 7 7 7 7 7 7 7 7 7 7 7 7 7 7 7 7 7 7 7 7 7 7 7 7 7 7 7 7 7 7 7 7 7 7 7 7 7 7 7 7 7 7 7 7 7 7 7 7 7 7 7 7 7 7 7 7 7 7 7 7 7 7 7 7 7 7 7 7 7 7 7 7 7 7 7 7 7 7 7 7 7 7 7 7 7 7 7 7 7 7 7 7 7 7 7 7 7 7 7 7 7 7 7 7 7 7 7 7 7 7 7 7 7 7 7 7 7 7 7 7 7 7 7 7 7 7 7 7 7 7 7 7 7 7 7 7 7 7 7 7 7 7 7 7 7 7 7 7 7 7 7 7 7 7 7 7 7 7 7 7 7 7 7 7 7 7 7 7 7 7 7 7 7 7 7 7 7 7 7 7 7 7 7 7 7 7 7 7 7 7 7 7 7 7 7 7 7 7 7 7 7 7 7 7 7 7 7 7 7 7 7 7 7 7 7 7 7 7 7 7 7 7 7 7 7 7 7 7 7 7 7 7 7 7 7 7 7 7 7 7 7 7 7 7 7 7 7 7 7 7 7 7 7 7 7 7 7 7 7 7 7 7 7 7 7 7 7 7 7 7 7 7 7 7 7 7 7 7 7 7 7 7 ",
"7 7 7 7 7 7 7 7 7 7 7 7 7 7 7 7 7 7 7 7 7 7 7 7 7 7 7 7 7 7 7 7 7 7 7 7 7 7 7 7 7 7 7 7 7 7 7 7 7 7 7 7 7 7 7 7 7 7 7 7 7 7 7 7 7 7 7 7 7 7 7 7 7 7 7 7 7 7 7 7 7 7 7 7 7 7 7 7 7 7 7 7 7 7 7 7 7 7 7 7 7 7 7 7 7 7 7 7 7 7 7 7 7 7 7 7 7 7 7 7 7 7 7 7 7 7 7 7 7 7 7 7 7 7 7 7 7 7 7 7 7 7 7 7 7 7 7 7 7 7 7 7 7 7 7 7 7 7 7 7 7 7 7 7 7 7 7 7 7 7 7 7 7 7 7 7 7 7 7 7 7 7 7 7 7 7 7 7 7 7 7 7 7 7 7 7 7 7 7 7 7 7 7 7 7 7 7 7 7 7 7 7 7 7 7 7 7 7 7 7 7 7 7 7 7 7 7 7 7 7 7 7 7 7 7 7 7 7 7 7 7 7 7 7 7 7 7 7 7 7 7 7 7 7 7 7 7 7 7 7 7 7 7 7 7 7 7 7 7 7 7 7 7 7 7 7 7 7 7 7 7 7 7 7 7 7 7 7 7 7 7 7 7 7 7 7 7 7 7 7 7 7 7 7 7 7 7 7 7 7 7 7 7 7 7 7 7 7 7 7 ",
"7 7 7 7 7 7 7 7 7 7 7 7 7 7 7 7 7 7 7 7 7 7 7 7 7 7 7 7 7 7 7 7 7 7 7 7 7 7 7 7 7 7 7 7 7 7 7 7 7 7 7 7 7 7 7 7 7 7 7 7 7 7 7 7 7 7 7 7 7 7 7 7 7 7 7 7 7 7 7 7 7 7 7 7 7 7 7 7 7 7 7 7 7 7 7 7 7 7 7 7 7 7 7 7 7 7 7 7 7 7 7 7 7 7 7 7 7 7 7 7 7 7 7 7 7 7 7 7 7 7 7 7 7 7 7 7 7 7 7 7 7 7 7 7 7 7 7 7 7 7 7 7 7 7 7 7 7 7 7 7 7 7 7 7 7 7 7 7 7 7 7 7 7 7 7 7 7 7 7 7 7 7 7 7 7 7 7 7 7 7 7 7 7 7 7 7 7 7 7 7 7 7 7 7 7 7 7 7 7 7 7 7 7 7 7 7 7 7 7 7 7 7 7 7 7 7 7 7 7 7 7 7 7 7 7 7 7 7 7 7 7 7 7 7 7 7 7 7 7 7 7 7 7 7 7 7 7 7 7 7 7 7 7 7 7 7 7 7 7 7 7 7 7 7 7 7 7 7 7 7 7 7 7 7 7 7 7 7 7 7 7 7 7 7 7 7 7 7 7 7 7 7 7 7 7 7 7 7 7 7 7 7 7 7 7 7 7 7 7 7 "
};
