/* XPM */
static char *end_floor3_035[] = {
/* columns rows colors chars-per-pixel */
"320 200 254 2 ",
"   c black",
".  c #020202",
"X  c gray1",
"o  c #040404",
"O  c gray2",
"+  c gray3",
"@  c gray4",
"#  c #0B0B0B",
"$  c #0C0C0C",
"%  c gray5",
"&  c #0E0E0E",
"*  c gray7",
"=  c #131313",
"-  c gray8",
";  c gray9",
":  c #181818",
">  c #191919",
",  c #1B1B1B",
"<  c gray11",
"1  c #1E1E1E",
"2  c #1F1F1F",
"3  c #00002C",
"4  c #00003C",
"5  c #202020",
"6  c gray13",
"7  c #232323",
"8  c gray14",
"9  c #252525",
"0  c gray15",
"q  c #272727",
"w  c #282828",
"e  c gray16",
"r  c #2A2A2A",
"t  c #2B2B2B",
"y  c #2C2C2C",
"u  c #2D2D2D",
"i  c #2E2E2E",
"p  c #2F2F2F",
"a  c #303030",
"s  c #313131",
"d  c #323232",
"f  c #333333",
"g  c #343434",
"h  c #353535",
"j  c #363636",
"k  c #373737",
"l  c #383838",
"z  c #393939",
"x  c #3A3A3A",
"c  c #3B3B3B",
"v  c #3C3C3C",
"b  c #3D3D3D",
"n  c #3E3E3E",
"m  c #3F3F3F",
"M  c #600000",
"N  c #004400",
"B  c #005C00",
"V  c #007400",
"C  c #000050",
"Z  c #000064",
"A  c #244870",
"S  c #404040",
"D  c #414141",
"F  c #424242",
"G  c #434343",
"H  c #444444",
"J  c #454545",
"K  c #464646",
"L  c #474747",
"P  c #484848",
"I  c #494949",
"U  c #4A4A4A",
"Y  c #4B4B4B",
"T  c #4C4C4C",
"R  c gray30",
"E  c #4E4E4E",
"W  c gray31",
"Q  c #505050",
"!  c #515151",
"~  c #525252",
"^  c #535353",
"/  c gray33",
"(  c #555555",
")  c #565656",
"_  c #575757",
"`  c #585858",
"'  c #595959",
"]  c #5B5B5B",
"[  c gray36",
"{  c #5D5D5D",
"}  c #5E5E5E",
"|  c #5F5F5F",
" . c #606060",
".. c gray38",
"X. c #626262",
"o. c #636363",
"O. c #646464",
"+. c #656565",
"@. c gray40",
"#. c #676767",
"$. c #686868",
"%. c #696969",
"&. c #6A6A6A",
"*. c #6B6B6B",
"=. c #6C6C6C",
"-. c #6D6D6D",
";. c gray43",
":. c #6F6F6F",
">. c gray44",
",. c #717171",
"<. c #727272",
"1. c #747474",
"2. c #757575",
"3. c #767676",
"4. c #777777",
"5. c #797979",
"6. c #7A7A7A",
"7. c #7B7B7B",
"8. c #7C7C7C",
"9. c #7D7D7D",
"0. c #7E7E7E",
"q. c gray50",
"w. c #F80000",
"e. c #984C08",
"r. c #C47024",
"t. c #008C00",
"y. c #00A400",
"u. c #D09050",
"i. c #040488",
"p. c #0C0CAC",
"a. c #2C5480",
"s. c #346090",
"d. c #3C6CA0",
"f. c #4C78A8",
"g. c #1010C0",
"h. c #4040D0",
"j. c #7878E0",
"k. c #5884B0",
"l. c #6C90BC",
"z. c #808080",
"x. c #818181",
"c. c gray51",
"v. c #838383",
"b. c #848484",
"n. c gray52",
"m. c #868686",
"M. c gray53",
"N. c #888888",
"B. c #898989",
"V. c gray54",
"C. c #8B8B8B",
"Z. c gray55",
"A. c #8D8D8D",
"S. c #8E8E8E",
"D. c gray56",
"F. c #909090",
"G. c gray57",
"H. c #939393",
"J. c gray58",
"K. c gray59",
"L. c #979797",
"P. c #989898",
"I. c gray60",
"U. c #9A9A9A",
"Y. c #9B9B9B",
"T. c gray61",
"R. c #9D9D9D",
"E. c gray62",
"W. c #9F9F9F",
"Q. c #A0A0A0",
"!. c gray63",
"~. c #A2A2A2",
"^. c gray64",
"/. c #A4A4A4",
"(. c #A5A5A5",
"). c gray65",
"_. c #A7A7A7",
"`. c gray66",
"'. c #AAAAAA",
"]. c gray67",
"[. c #ACACAC",
"{. c gray68",
"}. c #AEAEAE",
"|. c #AFAFAF",
" X c gray69",
".X c #B1B1B1",
"XX c #B2B2B2",
"oX c gray70",
"OX c #B6B6B6",
"+X c #B7B7B7",
"@X c gray72",
"#X c #B9B9B9",
"$X c #BBBBBB",
"%X c #BCBCBC",
"&X c gray74",
"*X c gray",
"=X c #ECD0B4",
"-X c #80A0C4",
";X c #C0C0C0",
":X c gray76",
">X c #C3C3C3",
",X c gray77",
"<X c #C6C6C6",
"1X c gray78",
"2X c #C8C8C8",
"3X c gray79",
"4X c #CACACA",
"5X c #CBCBCB",
"6X c gray80",
"7X c #CDCDCD",
"8X c #CECECE",
"9X c #D0D0D0",
"0X c gray82",
"qX c #D2D2D2",
"wX c LightGray",
"eX c gray83",
"rX c #D5D5D5",
"tX c gray84",
"yX c #D8D8D8",
"uX c gray85",
"iX c #DADADA",
"pX c gray86",
"aX c gainsboro",
"sX c #DDDDDD",
"dX c gray87",
"fX c #DFDFDF",
"gX c #D8D8F4",
"hX c gray88",
"jX c #E1E1E1",
"kX c #E2E2E2",
"lX c #E4E4E4",
"zX c #E6E6E6",
"xX c gray91",
"cX c #E9E9E9",
"vX c #EAEAEA",
"bX c gray92",
"nX c #ECECEC",
"mX c gray93",
"MX c #EEEEEE",
"NX c #EFEFEF",
"BX c gray94",
"VX c #F1F1F1",
"CX c gray95",
"ZX c #F3F3F3",
"AX c #F4F4F4",
"SX c #F6F6F6",
"DX c gray97",
"FX c #F8F8F8",
"GX c #F9F9F9",
"HX c gray98",
"JX c gray99",
"KX c #FDFDFD",
"LX c #FEFEFE",
"PX c white",
/* pixels */
"8 8 8 8 8 8 8 8 8 8 8 8 8 8 8 8 8 8 8 8 8 8 8 8 8 8 8 8 8 8 8 8 8 8 8 8 8 8 8 8 8 8 8 8 8 8 8 8 8 8 8 8 8 8 8 8 8 8 8 8 8 8 8 8 8 8 8 8 8 8 8 8 8 8 8 8 8 8 8 8 8 8 8 8 8 8 8 8 8 8 8 8 8 8 8 8 8 8 8 8 8 8 8 8 8 8 8 8 8 8 8 8 8 8 8 8 8 8 8 8 8 8 8 8 8 8 8 8 8 8 8 8 8 8 8 8 8 8 8 8 8 8 8 8 8 8 8 8 8 8 8 8 8 8 8 8 8 8 8 8 8 8 8 8 8 8 8 8 8 8 8 8 8 8 8 8 8 8 8 8 8 8 8 8 8 8 8 8 8 8 8 8 8 8 8 8 8 8 8 8 8 8 8 8 8 8 8 8 8 8 8 8 8 8 8 8 8 8 8 8 8 8 8 8 8 8 8 8 8 8 8 8 8 8 8 8 8 8 8 8 8 8 8 8 8 8 8 8 8 8 8 8 8 8 8 8 8 8 8 8 8 8 8 8 8 8 8 8 8 8 8 8 8 8 8 8 8 8 8 8 8 8 8 8 8 8 8 8 8 8 8 8 8 8 8 8 8 8 8 8 8 8 8 8 8 8 8 8 8 8 8 8 8 8 8 8 8 8 8 8 ",
"8 8 8 8 8 8 8 8 8 8 8 8 8 8 8 8 8 8 8 8 8 8 8 8 8 8 8 8 8 8 8 8 8 8 8 8 8 8 8 8 8 8 8 8 8 8 8 8 8 8 8 8 8 8 8 8 8 8 8 8 8 8 8 8 8 8 8 8 8 8 8 8 8 8 8 8 8 8 8 8 8 8 8 8 8 8 8 8 8 8 8 8 8 8 8 8 8 8 8 8 8 8 8 8 8 8 8 8 8 8 8 8 8 8 8 8 8 8 8 8 8 8 8 8 8 8 8 8 8 8 8 8 8 8 8 8 8 8 8 8 8 8 8 8 8 8 8 8 8 8 8 8 8 8 8 8 8 8 8 8 8 8 8 8 8 8 8 8 8 8 8 8 8 8 8 8 8 8 8 8 8 8 8 8 8 8 8 8 8 8 8 8 8 8 8 8 8 8 8 8 8 8 8 8 8 8 8 8 8 8 8 8 8 8 8 8 8 8 8 8 8 8 8 8 8 8 8 8 8 8 8 8 8 8 8 8 8 8 8 8 8 8 8 8 8 8 8 8 8 8 8 8 8 8 8 8 8 8 8 8 8 8 8 8 8 8 8 8 8 8 8 8 8 8 8 8 8 8 8 8 8 8 8 8 8 8 8 8 8 8 8 8 8 8 8 8 8 8 8 8 8 8 8 8 8 8 8 8 8 8 8 8 8 8 8 8 8 8 8 8 ",
"8 8 8 8 8 8 8 8 8 8 8 8 8 8 8 8 8 8 8 8 8 8 8 8 8 8 8 8 8 8 8 8 8 8 8 8 8 8 8 8 8 8 8 8 8 8 8 8 8 8 8 8 8 8 8 8 8 8 8 8 8 8 8 8 8 8 8 8 8 8 8 8 8 8 8 8 8 8 8 8 8 8 8 8 8 8 8 8 8 8 8 8 8 8 8 8 8 8 8 8 8 8 8 8 8 8 8 8 8 8 8 8 8 8 8 8 8 8 8 8 8 8 8 8 8 8 8 8 8 8 8 8 8 8 8 8 8 8 8 8 8 8 8 8 8 8 8 8 8 8 8 8 8 8 8 8 8 8 8 8 8 8 8 8 8 8 8 8 8 8 8 8 8 8 8 8 8 8 8 8 8 8 8 8 8 8 8 8 8 8 8 8 8 8 8 8 8 8 8 8 8 8 8 8 8 8 8 8 8 8 8 8 8 8 8 8 8 8 8 8 8 8 8 8 8 8 8 8 8 8 8 8 8 8 8 8 8 8 8 8 8 8 8 8 8 8 8 8 8 8 8 8 8 8 8 8 8 8 8 8 8 8 8 8 8 8 8 8 8 8 8 8 8 8 8 8 8 8 8 8 8 8 8 8 8 8 8 8 8 8 8 8 8 8 8 8 8 8 8 8 8 8 8 8 8 8 8 8 8 8 8 8 8 8 8 8 8 8 8 8 ",
"8 8 8 8 8 8 8 8 8 8 8 8 8 8 8 8 8 8 8 8 8 8 8 8 8 8 8 8 8 8 8 8 8 8 8 8 8 8 8 8 8 8 8 8 8 8 8 8 8 8 8 8 8 8 8 8 8 8 8 8 8 8 8 8 8 8 8 8 8 8 8 8 8 8 8 8 8 8 8 8 8 8 8 8 8 8 8 8 8 8 8 8 8 8 8 8 8 8 8 8 8 8 8 8 8 8 8 8 8 8 8 8 8 8 8 8 8 8 8 8 8 8 8 8 8 8 8 8 8 8 8 8 8 8 8 8 8 8 8 8 8 8 8 8 8 8 8 8 8 8 8 8 8 8 8 8 8 8 8 8 8 8 8 8 8 8 8 8 8 8 8 8 8 8 8 8 8 8 8 8 8 8 8 8 8 8 8 8 8 8 8 8 8 8 8 8 8 8 8 8 8 8 8 8 8 8 8 8 8 8 8 8 8 8 8 8 8 8 8 8 8 8 8 8 8 8 8 8 8 8 8 8 8 8 8 8 8 8 8 8 8 8 8 8 8 8 8 8 8 8 8 8 8 8 8 8 8 8 8 8 8 8 8 8 8 8 8 8 8 8 8 8 8 8 8 8 8 8 8 8 8 8 8 8 8 8 8 8 8 8 8 8 8 8 8 8 8 8 8 8 8 8 8 8 8 8 8 8 8 8 8 8 8 8 8 8 8 8 8 8 ",
"8 8 8 8 8 8 8 8 8 8 8 8 8 8 8 8 8 8 8 8 8 8 8 8 8 8 8 8 8 8 8 8 8 8 8 8 8 8 8 8 8 8 8 8 8 8 8 8 8 8 8 8 8 8 8 8 8 8 8 8 8 8 8 8 8 8 8 8 8 8 8 8 8 8 8 8 8 8 8 8 8 8 8 8 8 8 8 8 8 8 8 8 8 8 8 8 8 8 8 8 8 8 8 8 8 8 8 8 8 8 8 8 8 8 8 8 8 8 8 8 8 8 8 8 8 8 8 8 8 8 8 8 8 8 8 8 8 8 8 8 8 8 8 8 8 8 8 8 8 8 8 8 8 8 8 8 8 8 8 8 8 8 8 8 8 8 8 8 8 8 8 8 8 8 8 8 8 8 8 8 8 8 8 8 8 8 8 8 8 8 8 8 8 8 8 8 8 8 8 8 8 8 8 8 8 8 8 8 8 8 8 8 8 8 8 8 8 8 8 8 8 8 8 8 8 8 8 8 8 8 8 8 8 8 8 8 8 8 8 8 8 8 8 8 8 8 8 8 8 8 8 8 8 8 8 8 8 8 8 8 8 8 8 8 8 8 8 8 8 8 8 8 8 8 8 8 8 8 8 8 8 8 8 8 8 8 8 8 8 8 8 8 8 8 8 8 8 8 8 8 8 8 8 8 8 8 8 8 8 8 8 8 8 8 8 8 8 8 8 8 ",
"8 8 8 8 8 8 8 8 8 8 8 8 8 8 8 8 8 8 8 8 8 8 8 8 8 8 8 8 8 8 8 8 8 8 8 8 8 8 8 8 8 8 8 8 8 8 8 8 8 8 8 8 8 8 8 8 8 8 8 8 8 8 8 8 8 8 8 8 8 8 8 8 8 8 8 8 8 8 8 8 8 8 8 8 8 8 8 8 8 8 8 8 8 8 8 8 8 8 8 8 8 8 8 8 8 8 8 8 8 8 8 8 8 8 8 8 8 8 8 8 8 8 8 8 8 8 8 8 8 8 8 8 8 8 8 8 8 8 8 8 8 8 8 8 8 8 8 8 8 8 8 8 8 8 8 8 8 8 8 8 8 8 8 8 8 8 8 8 8 8 8 8 8 8 8 8 8 8 8 8 8 8 8 8 8 8 8 8 8 8 8 8 8 8 8 8 8 8 8 8 8 8 8 8 8 8 8 8 8 8 8 8 8 8 8 8 8 8 8 8 8 8 8 8 8 8 8 8 8 8 8 8 8 8 8 8 8 8 8 8 8 8 8 8 8 8 8 8 8 8 8 8 8 8 8 8 8 8 8 8 8 8 8 8 8 8 8 8 8 8 8 8 8 8 8 8 8 8 8 8 8 8 8 8 8 8 8 8 8 8 8 8 8 8 8 8 8 8 8 8 8 8 8 8 8 8 8 8 8 8 8 8 8 8 8 8 8 8 8 8 ",
"8 8 8 8 8 8 8 8 8 8 8 8 8 8 8 8 8 8 8 8 8 8 8 8 8 8 8 8 8 8 8 8 8 8 8 8 8 8 8 8 8 8 8 8 8 8 8 8 8 8 8 8 8 8 8 8 8 8 8 8 8 8 8 8 8 8 8 8 8 8 8 8 8 8 8 8 8 8 8 8 8 8 8 8 8 8 8 8 8 8 8 8 8 8 8 8 8 8 8 8 8 8 8 8 8 8 8 8 8 8 8 8 8 8 8 8 8 8 8 8 8 8 8 8 8 8 8 8 8 8 8 8 8 8 8 8 8 8 8 8 8 8 8 8 8 8 8 8 8 8 8 8 8 8 8 8 8 8 8 8 8 8 8 8 8 8 8 8 8 8 8 8 8 8 8 8 8 8 8 8 8 8 8 8 8 8 8 8 8 8 8 8 8 8 8 8 8 8 8 8 8 8 8 8 8 8 8 8 8 8 8 8 8 8 8 8 8 8 8 8 8 8 8 8 8 8 8 8 8 8 8 8 8 8 8 8 8 8 8 8 8 8 8 8 8 8 8 8 8 8 8 8 8 8 8 8 8 8 8 8 8 8 8 8 8 8 8 8 8 8 8 8 8 8 8 8 8 8 8 8 8 8 8 8 8 8 8 8 8 8 8 8 8 8 8 8 8 8 8 8 8 8 8 8 8 8 8 8 8 8 8 8 8 8 8 8 8 8 8 8 ",
"8 8 8 8 8 8 8 8 8 8 8 8 8 8 8 8 8 8 8 8 8 8 8 8 8 8 8 8 8 8 8 8 8 8 8 8 8 8 8 8 8 8 8 8 8 8 8 8 8 8 8 8 8 8 8 8 8 8 8 8 8 8 8 8 8 8 8 8 8 8 8 8 8 8 8 8 8 8 8 8 8 8 8 8 8 8 8 8 8 8 8 8 8 8 8 8 8 8 8 8 8 8 8 8 8 8 8 8 8 8 8 8 8 8 8 8 8 8 8 8 8 8 8 8 8 8 8 8 8 8 8 8 8 8 8 8 8 8 8 8 8 8 8 8 8 8 8 8 8 8 8 8 8 8 8 8 8 8 8 8 8 8 8 8 8 8 8 8 8 8 8 8 8 8 8 8 8 8 8 8 8 8 8 8 8 8 8 8 8 8 8 8 8 8 8 8 8 8 8 8 8 8 8 8 8 8 8 8 8 8 8 8 8 8 8 8 8 8 8 8 8 8 8 8 8 8 8 8 8 8 8 8 8 8 8 8 8 8 8 8 8 8 8 8 8 8 8 8 8 8 8 8 8 8 8 8 8 8 8 8 8 8 8 8 8 8 8 8 8 8 8 8 8 8 8 8 8 8 8 8 8 8 8 8 8 8 8 8 8 8 8 8 8 8 8 8 8 8 8 8 8 8 8 8 8 8 8 8 8 8 8 8 8 8 8 8 8 8 8 8 ",
"8 8 8 8 8 8 8 8 8 8 8 8 8 8 8 8 8 8 8 8 8 8 8 8 8 8 8 8 8 8 8 8 8 8 8 8 8 8 8 8 8 8 8 8 8 8 8 8 8 8 8 8 8 8 8 8 8 8 8 8 8 8 8 8 8 8 8 8 8 8 8 8 8 8 8 8 8 8 8 8 8 8 8 8 8 8 8 8 8 8 8 8 8 8 8 8 8 8 8 8 8 8 8 8 8 8 8 8 8 8 8 8 8 8 8 8 8 8 8 8 8 8 8 8 8 8 8 8 8 8 8 8 8 8 8 8 8 8 8 8 8 8 8 8 8 8 8 8 8 8 8 8 8 8 8 8 8 8 8 8 8 8 8 8 8 8 8 8 8 8 8 8 8 8 8 8 8 8 8 8 8 8 8 8 8 8 8 8 8 8 8 8 8 8 8 8 8 8 8 8 8 8 8 8 8 8 8 8 8 8 8 8 8 8 8 8 8 8 8 8 8 8 8 8 8 8 8 8 8 8 8 8 8 8 8 8 8 8 8 8 8 8 8 8 8 8 8 8 8 8 8 8 8 8 8 8 8 8 8 8 8 8 8 8 8 8 8 8 8 8 8 8 8 8 8 8 8 8 8 8 8 8 8 8 8 8 8 8 8 8 8 8 8 8 8 8 8 8 8 8 8 8 8 8 8 8 8 8 8 8 8 8 8 8 8 8 8 8 8 8 ",
"8 8 8 8 8 8 8 8 8 8 8 8 8 8 8 8 8 8 8 8 8 8 8 8 8 8 8 8 8 8 8 8 8 8 8 8 8 8 8 8 8 8 8 8 8 8 8 8 8 8 8 8 8 8 8 8 8 8 8 8 8 8 8 8 8 8 8 8 8 8 8 8 8 8 8 8 8 8 8 8 8 8 8 8 8 8 8 8 8 8 8 8 8 8 8 8 8 8 8 8 8 8 8 8 8 8 8 8 8 8 8 8 8 8 8 8 8 8 8 8 8 8 8 8 8 8 8 8 8 8 8 8 8 8 8 8 8 8 8 8 8 8 8 8 8 8 8 8 8 8 8 8 8 8 8 8 8 8 8 8 8 8 8 8 8 8 8 8 8 8 8 8 8 8 8 8 8 8 8 8 8 8 8 8 8 8 8 8 8 8 8 8 8 8 8 8 8 8 8 8 8 8 8 8 8 8 8 8 8 8 8 8 8 8 8 8 8 8 8 8 8 8 8 8 8 8 8 8 8 8 8 8 8 8 8 8 8 8 8 8 8 8 8 8 8 8 8 8 8 8 8 8 8 8 8 8 8 8 8 8 8 8 8 8 8 8 8 8 8 8 8 8 8 8 8 8 8 8 8 8 8 8 8 8 8 8 8 8 8 8 8 8 8 8 8 8 8 8 8 8 8 8 8 8 8 8 8 8 8 8 8 8 8 8 8 8 8 8 8 8 ",
"8 8 8 8 8 8 8 8 8 8 8 8 8 8 8 8 8 8 8 8 8 8 8 8 8 8 8 8 8 8 8 8 8 8 8 8 8 8 8 8 8 8 8 8 8 8 8 8 8 8 8 8 8 8 8 8 8 8 8 8 8 8 8 8 8 8 8 8 8 8 8 8 8 8 8 8 8 8 8 8 8 8 8 8 8 8 8 8 8 8 8 8 8 8 8 8 8 8 8 8 8 8 8 8 8 8 8 8 8 8 8 8 8 8 8 8 8 8 8 8 8 8 8 8 8 8 8 8 8 8 8 8 8 8 8 8 8 8 8 8 8 8 8 8 8 8 8 8 8 8 8 8 8 8 8 8 8 8 8 8 8 8 8 8 8 8 8 8 8 8 8 8 8 8 8 8 8 8 8 8 8 8 8 8 8 8 8 8 8 8 8 8 8 8 8 8 8 8 8 8 8 8 8 8 8 8 8 8 8 8 8 8 8 8 8 8 8 8 8 8 8 8 8 8 8 8 8 8 8 8 8 8 8 8 8 8 8 8 8 8 8 8 8 8 8 8 8 8 8 8 8 8 8 8 8 8 8 8 8 8 8 8 8 8 8 8 8 8 8 8 8 8 8 8 8 8 8 8 8 8 8 8 8 8 8 8 8 8 8 8 8 8 8 8 8 8 8 8 8 8 8 8 8 8 8 8 8 8 8 8 8 8 8 8 8 8 8 8 8 8 ",
"8 8 8 8 8 8 8 8 8 8 8 8 8 8 8 8 8 8 8 8 8 8 8 8 8 8 8 8 8 8 8 8 8 8 8 8 8 8 8 8 8 8 8 8 8 8 8 8 8 8 8 8 8 8 8 8 8 8 8 8 8 8 8 8 8 8 8 8 8 8 8 8 8 8 8 8 8 8 8 8 8 8 8 8 8 8 8 8 8 8 8 8 8 8 8 8 8 8 8 8 8 8 8 8 8 8 8 8 8 8 8 8 8 8 8 8 8 8 8 8 8 8 8 8 8 8 8 8 8 8 8 8 8 8 8 8 8 8 8 8 8 8 8 8 8 8 8 8 8 8 8 8 8 8 8 8 8 8 8 8 8 8 8 8 8 8 8 8 8 8 8 8 8 8 8 8 8 8 8 8 8 8 8 8 8 8 8 8 8 8 8 8 8 8 8 8 8 8 8 8 8 8 8 8 8 8 8 8 8 8 8 8 8 8 8 8 8 8 8 8 8 8 8 8 8 8 8 8 8 8 8 8 8 8 8 8 8 8 8 8 8 8 8 8 8 8 8 8 8 8 8 8 8 8 8 8 8 8 8 8 8 8 8 8 8 8 8 8 8 8 8 8 8 8 8 8 8 8 8 8 8 8 8 8 8 8 8 8 8 8 8 8 8 8 8 8 8 8 8 8 8 8 8 8 8 8 8 8 8 8 8 8 8 8 8 8 8 8 8 8 ",
"8 8 8 8 8 8 8 8 8 8 8 8 8 8 8 8 8 8 8 8 8 8 8 8 8 8 8 8 8 8 8 8 8 8 8 8 8 8 8 8 8 8 8 8 8 8 8 8 8 8 8 8 8 8 8 8 8 8 8 8 8 8 8 8 8 8 8 8 8 8 8 8 8 8 8 8 8 8 8 8 8 8 8 8 8 8 8 8 8 8 8 8 8 8 8 8 8 8 8 8 8 8 8 8 8 8 8 8 8 8 8 8 8 8 8 8 8 8 8 8 8 8 8 8 8 8 8 8 8 8 8 8 8 8 8 8 8 8 8 8 8 8 8 8 8 8 8 8 8 8 8 8 8 8 8 8 8 8 8 8 8 8 8 8 8 8 8 8 8 8 8 8 8 8 8 8 8 8 8 8 8 8 8 8 8 8 8 8 8 8 8 8 8 8 8 8 8 8 8 8 8 8 8 8 8 8 8 8 8 8 8 8 8 8 8 8 8 8 8 8 8 8 8 8 8 8 8 8 8 8 8 8 8 8 8 8 8 8 8 8 8 8 8 8 8 8 8 8 8 8 8 8 8 8 8 8 8 8 8 8 8 8 8 8 8 8 8 8 8 8 8 8 8 8 8 8 8 8 8 8 8 8 8 8 8 8 8 8 8 8 8 8 8 8 8 8 8 8 8 8 8 8 8 8 8 8 8 8 8 8 8 8 8 8 8 8 8 8 8 8 ",
"8 8 8 8 8 8 8 8 8 8 8 8 8 8 8 8 8 8 8 8 8 8 8 8 8 8 8 8 8 8 8 8 8 8 8 8 8 8 8 8 8 8 8 8 8 8 8 8 8 8 8 8 8 8 8 8 8 8 8 8 8 8 8 8 8 8 8 8 8 8 8 8 8 8 8 8 8 8 8 8 8 8 8 8 8 8 8 8 8 8 8 8 8 8 8 8 8 8 8 8 8 8 8 8 8 8 8 8 8 8 8 8 8 8 8 8 8 8 8 8 8 8 8 8 8 8 8 8 8 8 8 8 8 8 8 8 8 8 8 8 8 8 8 8 8 8 8 8 8 8 8 8 8 8 8 8 8 8 8 8 8 8 8 8 8 8 8 8 8 8 8 8 8 8 8 8 8 8 8 8 8 8 8 8 8 8 8 8 8 8 8 8 8 8 8 8 8 8 8 8 8 8 8 8 8 8 8 8 8 8 8 8 8 8 8 8 8 8 8 8 8 8 8 8 8 8 8 8 8 8 8 8 8 8 8 8 8 8 8 8 8 8 8 8 8 8 8 8 8 8 8 8 8 8 8 8 8 8 8 8 8 8 8 8 8 8 8 8 8 8 8 8 8 8 8 8 8 8 8 8 8 8 8 8 8 8 8 8 8 8 8 8 8 8 8 8 8 8 8 8 8 8 8 8 8 8 8 8 8 8 8 8 8 8 8 8 8 8 8 8 ",
"8 8 8 8 8 8 8 8 8 8 8 8 8 8 8 8 8 8 8 8 8 8 8 8 8 8 8 8 8 8 8 8 8 8 8 8 8 8 8 8 8 8 8 8 8 8 8 8 8 8 8 8 8 8 8 8 8 8 8 8 8 8 8 8 8 8 8 8 8 8 8 8 8 8 8 8 8 8 8 8 8 8 8 8 8 8 8 8 8 8 8 8 8 8 8 8 8 8 8 8 8 8 8 8 8 8 8 8 8 8 8 8 8 8 8 8 8 8 8 8 8 8 8 8 8 8 8 8 8 8 8 8 8 8 8 8 8 8 8 8 8 8 8 8 8 8 8 8 8 8 8 8 8 8 8 8 8 8 8 8 8 8 8 8 8 8 8 8 8 8 8 8 8 8 8 8 8 8 8 8 8 8 8 8 8 8 8 8 8 8 8 8 8 8 8 8 8 8 8 8 8 8 8 8 8 8 8 8 8 8 8 8 8 8 8 8 8 8 8 8 8 8 8 8 8 8 8 8 8 8 8 8 8 8 8 8 8 8 8 8 8 8 8 8 8 8 8 8 8 8 8 8 8 8 8 8 8 8 8 8 8 8 8 8 8 8 8 8 8 8 8 8 8 8 8 8 8 8 8 8 8 8 8 8 8 8 8 8 8 8 8 8 8 8 8 8 8 8 8 8 8 8 8 8 8 8 8 8 8 8 8 8 8 8 8 8 8 8 8 8 ",
"8 8 8 8 8 8 8 8 8 8 8 8 8 8 8 8 8 8 8 8 8 8 8 8 8 8 8 8 8 8 8 8 8 8 8 8 8 8 8 8 8 8 8 8 8 8 8 8 8 8 8 8 8 8 8 8 8 8 8 8 8 8 8 8 8 8 8 8 8 8 8 8 8 8 8 8 8 8 8 8 8 8 8 8 8 8 8 8 8 8 8 8 8 8 8 8 8 8 8 8 8 8 8 8 8 8 8 8 8 8 8 8 8 8 8 8 8 8 8 8 8 8 8 8 8 8 8 8 8 8 8 8 8 8 8 8 8 8 8 8 8 8 8 8 8 8 8 8 8 8 8 8 8 8 8 8 8 8 8 8 8 8 8 8 8 8 8 8 8 8 8 8 8 8 8 8 8 8 8 8 8 8 8 8 8 8 8 8 8 8 8 8 8 8 8 8 8 8 8 8 8 8 8 8 8 8 8 8 8 8 8 8 8 8 8 8 8 8 8 8 8 8 8 8 8 8 8 8 8 8 8 8 8 8 8 8 8 8 8 8 8 8 8 8 8 8 8 8 8 8 8 8 8 8 8 8 8 8 8 8 8 8 8 8 8 8 8 8 8 8 8 8 8 8 8 8 8 8 8 8 8 8 8 8 8 8 8 8 8 8 8 8 8 8 8 8 8 8 8 8 8 8 8 8 8 8 8 8 8 8 8 8 8 8 8 8 8 8 8 8 ",
"8 8 8 8 8 8 8 8 8 8 8 8 8 8 8 8 8 8 8 8 8 8 8 8 8 8 8 8 8 8 8 8 8 8 8 8 8 8 8 8 8 8 8 8 8 8 8 8 8 8 8 8 8 8 8 8 8 8 8 8 8 8 8 8 8 8 8 8 8 8 8 8 8 8 8 8 8 8 8 8 8 8 8 8 8 8 8 8 8 8 8 8 8 8 8 8 8 8 8 8 8 8 8 8 8 8 8 8 8 8 8 8 8 8 8 8 8 8 8 8 8 8 8 8 8 8 8 8 8 8 8 8 8 8 8 8 8 8 8 8 8 8 8 8 8 8 8 8 8 8 8 8 8 8 8 8 8 8 8 8 8 8 8 8 8 8 8 8 8 8 8 8 8 8 8 8 8 8 8 8 8 8 8 8 8 8 8 8 8 8 8 8 8 8 8 8 8 8 8 8 8 8 8 8 8 8 8 8 8 8 8 8 8 8 8 8 8 8 8 8 8 8 8 8 8 8 8 8 8 8 8 8 8 8 8 8 8 8 8 8 8 8 8 8 8 8 8 8 8 8 8 8 8 8 8 8 8 8 8 8 8 8 8 8 8 8 8 8 8 8 8 8 8 8 8 8 8 8 8 8 8 8 8 8 8 8 8 8 8 8 8 8 8 8 8 8 8 8 8 8 8 8 8 8 8 8 8 8 8 8 8 8 8 8 8 8 8 8 8 8 ",
"8 8 8 8 8 8 8 8 8 8 8 8 8 8 8 8 8 8 8 8 8 8 8 8 8 8 8 8 8 8 8 8 8 8 8 8 8 8 8 8 8 8 8 8 8 8 8 8 8 8 8 8 8 8 8 8 8 8 8 8 8 8 8 8 8 8 8 8 8 8 8 8 8 8 8 8 8 8 8 8 8 8 8 8 8 8 8 8 8 8 8 8 8 8 8 8 8 8 8 8 8 8 8 8 8 8 8 8 8 8 8 8 8 8 8 8 8 8 8 8 8 8 8 8 8 8 8 8 8 8 8 8 8 8 8 8 8 8 8 8 8 8 8 8 8 8 8 8 8 8 8 8 8 8 8 8 8 8 8 8 8 8 8 8 8 8 8 8 8 8 8 8 8 8 8 8 8 8 8 8 8 8 8 8 8 8 8 8 8 8 8 8 8 8 8 8 8 8 8 8 8 8 8 8 8 8 8 8 8 8 8 8 8 8 8 8 8 8 8 8 8 8 8 8 8 8 8 8 8 8 8 8 8 8 8 8 8 8 8 8 8 8 8 8 8 8 8 8 8 8 8 8 8 8 8 8 8 8 8 8 8 8 8 8 8 8 8 8 8 8 8 8 8 8 8 8 8 8 8 8 8 8 8 8 8 8 8 8 8 8 8 8 8 8 8 8 8 8 8 8 8 8 8 8 8 8 8 8 8 8 8 8 8 8 8 8 8 8 8 8 ",
"8 8 8 8 8 8 8 8 8 8 8 8 8 8 8 8 8 8 8 8 8 8 8 8 8 8 8 8 8 8 8 8 8 8 8 8 8 8 8 8 8 8 8 8 8 8 8 8 8 8 8 8 8 8 8 8 8 8 8 8 8 8 8 8 8 8 8 8 8 8 8 8 8 8 8 8 8 8 8 8 8 8 8 8 8 8 8 8 8 8 8 8 8 8 8 8 8 8 8 8 8 8 8 8 8 8 8 8 8 8 8 8 8 8 8 8 8 8 8 8 8 8 8 8 8 8 8 8 8 8 8 8 8 8 8 8 8 8 8 8 8 8 8 8 8 8 8 8 8 8 8 8 8 8 8 8 8 8 8 8 8 8 8 8 8 8 8 8 8 8 8 8 8 8 8 8 8 8 8 8 8 8 8 8 8 8 8 8 8 8 8 8 8 8 8 8 8 8 8 8 8 8 8 8 8 8 8 8 8 8 8 8 8 8 8 8 8 8 8 8 8 8 8 8 8 8 8 8 8 8 8 8 8 8 8 8 8 8 8 8 8 8 8 8 8 8 8 8 8 8 8 8 8 8 8 8 8 8 8 8 8 8 8 8 8 8 8 8 8 8 8 8 8 8 8 8 8 8 8 8 8 8 8 8 8 8 8 8 8 8 8 8 8 8 8 8 8 8 8 8 8 8 8 8 8 8 8 8 8 8 8 8 8 8 8 8 8 8 8 8 ",
"8 8 8 8 8 8 8 8 8 8 8 8 8 8 8 8 8 8 8 8 8 8 8 8 8 8 8 8 8 8 8 8 8 8 8 8 8 8 8 8 8 8 8 8 8 8 8 8 8 8 8 8 8 8 8 8 8 8 8 8 8 8 8 8 8 8 8 8 8 8 8 8 8 8 8 8 8 8 8 8 8 8 8 8 8 8 8 8 8 8 8 8 8 8 8 8 8 8 8 8 8 8 8 8 8 8 8 8 8 8 8 8 8 8 8 8 8 8 8 8 8 8 8 8 8 8 8 8 8 8 8 8 8 8 8 8 8 8 8 8 8 8 8 8 8 8 8 8 8 8 8 8 8 8 8 8 8 8 8 8 8 8 8 8 8 8 8 8 8 8 8 8 8 8 8 8 8 8 8 8 8 8 8 8 8 8 8 8 8 8 8 8 8 8 8 8 8 8 8 8 8 8 8 8 8 8 8 8 8 8 8 8 8 8 8 8 8 8 8 8 8 8 8 8 8 8 8 8 8 8 8 8 8 8 8 8 8 8 8 8 8 8 8 8 8 8 8 8 8 8 8 8 8 8 8 8 8 8 8 8 8 8 8 8 8 8 8 8 8 8 8 8 8 8 8 8 8 8 8 8 8 8 8 8 8 8 8 8 8 8 8 8 8 8 8 8 8 8 8 8 8 8 8 8 8 8 8 8 8 8 8 8 8 8 8 8 8 8 8 8 ",
"8 8 8 8 8 8 8 8 8 8 8 8 8 8 8 8 8 8 8 8 8 8 8 8 8 8 8 8 8 8 8 8 8 8 8 8 8 8 8 8 8 8 8 8 8 8 8 8 8 8 8 8 8 8 8 8 8 8 8 8 8 8 8 8 8 8 8 8 8 8 8 8 8 8 8 8 8 8 8 8 8 8 8 8 8 8 8 8 8 8 8 8 8 8 8 8 8 8 8 8 8 8 8 8 8 8 8 8 8 8 8 8 8 8 8 8 8 8 8 8 8 8 8 8 8 8 8 8 8 8 8 8 8 8 8 8 8 8 8 8 8 8 8 8 8 8 8 8 8 8 8 8 8 8 8 8 8 8 8 8 8 8 8 8 8 8 8 8 8 8 8 8 8 8 8 8 8 8 8 8 8 8 8 8 8 8 8 8 8 8 8 8 8 8 8 8 8 8 8 8 8 8 8 8 8 8 8 8 8 8 8 8 8 8 8 8 8 8 8 8 8 8 8 8 8 8 8 8 8 8 8 8 8 8 8 8 8 8 8 8 8 8 8 8 8 8 8 8 8 8 8 8 8 8 8 8 8 8 8 8 8 8 8 8 8 8 8 8 8 8 8 8 8 8 8 8 8 8 8 8 8 8 8 8 8 8 8 8 8 8 8 8 8 8 8 8 8 8 8 8 8 8 8 8 8 8 8 8 8 8 8 8 8 8 8 8 8 8 8 8 ",
"8 8 8 8 8 8 8 8 8 8 8 8 8 8 8 8 8 8 8 8 8 8 8 8 8 8 8 8 8 8 8 8 8 8 8 8 8 8 8 8 8 8 8 8 8 8 8 8 8 8 8 8 8 8 8 8 8 8 8 8 8 8 8 8 8 8 8 8 8 8 8 8 8 8 8 8 8 8 8 8 8 8 8 8 8 8 8 8 8 8 8 8 8 8 8 8 8 8 8 8 8 8 8 8 8 8 8 8 8 8 8 8 8 8 8 8 8 8 8 8 8 8 8 8 8 8 8 8 8 8 8 8 8 8 8 8 8 8 8 8 8 8 8 8 8 8 8 8 8 8 8 8 8 8 8 8 8 8 8 8 8 8 8 8 8 8 8 8 8 8 8 8 8 8 8 8 8 8 8 8 8 8 8 8 8 8 8 8 8 8 8 8 8 8 8 8 8 8 8 8 8 8 8 8 8 8 8 8 8 8 8 8 8 8 8 8 8 8 8 8 8 8 8 8 8 8 8 8 8 8 8 8 8 8 8 8 8 8 8 8 8 8 8 8 8 8 8 8 8 8 8 8 8 8 8 8 8 8 8 8 8 8 8 8 8 8 8 8 8 8 8 8 8 8 8 8 8 8 8 8 8 8 8 8 8 8 8 8 8 8 8 8 8 8 8 8 8 8 8 8 8 8 8 8 8 8 8 8 8 8 8 8 8 8 8 8 8 8 8 8 ",
"8 8 8 8 8 8 8 8 8 8 8 8 8 8 8 8 8 8 8 8 8 8 8 8 8 8 8 8 8 8 8 8 8 8 8 8 8 8 8 8 8 8 8 8 8 8 8 8 8 8 8 8 8 8 8 8 8 8 8 8 8 8 8 8 8 8 8 8 8 8 8 8 8 8 8 8 8 8 8 8 8 8 8 8 8 8 8 8 8 8 8 8 8 8 8 8 8 8 8 8 8 8 8 8 8 8 8 8 8 8 8 8 8 8 8 8 8 8 8 8 8 8 8 8 8 8 8 8 8 8 8 8 8 8 8 8 8 8 8 8 8 8 8 8 8 8 8 8 8 8 8 8 8 8 8 8 8 8 8 8 8 8 8 8 8 8 8 8 8 8 8 8 8 8 8 8 8 8 8 8 8 8 8 8 8 8 8 8 8 8 8 8 8 8 8 8 8 8 8 8 8 8 8 8 8 8 8 8 8 8 8 8 8 8 8 8 8 8 8 8 8 8 8 8 8 8 8 8 8 8 8 8 8 8 8 8 8 8 8 8 8 8 8 8 8 8 8 8 8 8 8 8 8 8 8 8 8 8 8 8 8 8 8 8 8 8 8 8 8 8 8 8 8 8 8 8 8 8 8 8 8 8 8 8 8 8 8 8 8 8 8 8 8 8 8 8 8 8 8 8 8 8 8 8 8 8 8 8 8 8 8 8 8 8 8 8 8 8 8 8 ",
"8 8 8 8 8 8 8 8 8 8 8 8 8 8 8 8 8 8 8 8 8 8 8 8 8 8 8 8 8 8 8 8 8 8 8 8 8 8 8 8 8 8 8 8 8 8 8 8 8 8 8 8 8 8 8 8 8 8 8 8 8 8 8 8 8 8 8 8 8 8 8 8 8 8 8 8 8 8 8 8 8 8 8 8 8 8 8 8 8 8 8 8 8 8 8 8 8 8 8 8 8 8 8 8 8 8 8 8 8 8 8 8 8 8 8 8 8 8 8 8 8 8 8 8 8 8 8 8 8 8 8 8 8 8 8 8 8 8 8 8 8 8 8 8 8 8 8 8 8 8 8 8 8 8 8 8 8 8 8 8 8 8 8 8 8 8 8 8 8 8 8 8 8 8 8 8 8 8 8 8 8 8 8 8 8 8 8 8 8 8 8 8 8 8 8 8 8 8 8 8 8 8 8 8 8 8 8 8 8 8 8 8 8 8 8 8 8 8 8 8 8 8 8 8 8 8 8 8 8 8 8 8 8 8 8 8 8 8 8 8 8 8 8 8 8 8 8 8 8 8 8 8 8 8 8 8 8 8 8 8 8 8 8 8 8 8 8 8 8 8 8 8 8 8 8 8 8 8 8 8 8 8 8 8 8 8 8 8 8 8 8 8 8 8 8 8 8 8 8 8 8 8 8 8 8 8 8 8 8 8 8 8 8 8 8 8 8 8 8 8 ",
"8 8 8 8 8 8 8 8 8 8 8 8 8 8 8 8 8 8 8 8 8 8 8 8 8 8 8 8 8 8 8 8 8 8 8 8 8 8 8 8 8 8 8 8 8 8 8 8 8 8 8 8 8 8 8 8 8 8 8 8 8 8 8 8 8 8 8 8 8 8 8 8 8 8 8 8 8 8 8 8 8 8 8 8 8 8 8 8 8 8 8 8 8 8 8 8 8 8 8 8 8 8 8 8 8 8 8 8 8 8 8 8 8 8 8 8 8 8 8 8 8 8 8 8 8 8 8 8 8 8 8 8 8 8 8 8 8 8 8 8 8 8 8 8 8 8 8 8 8 8 8 8 8 8 8 8 8 8 8 8 8 8 8 8 8 8 8 8 8 8 8 8 8 8 8 8 8 8 8 8 8 8 8 8 8 8 8 8 8 8 8 8 8 8 8 8 8 8 8 8 8 8 8 8 8 8 8 8 8 8 8 8 8 8 8 8 8 8 8 8 8 8 8 8 8 8 8 8 8 8 8 8 8 8 8 8 8 8 8 8 8 8 8 8 8 8 8 8 8 8 8 8 8 8 8 8 8 8 8 8 8 8 8 8 8 8 8 8 8 8 8 8 8 8 8 8 8 8 8 8 8 8 8 8 8 8 8 8 8 8 8 8 8 8 8 8 8 8 8 8 8 8 8 8 8 8 8 8 8 8 8 8 8 8 8 8 8 8 8 8 ",
"8 8 8 8 8 8 8 8 8 8 8 8 8 8 8 8 8 8 8 8 8 8 8 8 8 8 8 8 8 8 8 8 8 8 8 8 8 8 8 8 8 8 8 8 8 8 8 8 8 8 8 8 8 8 8 8 8 8 8 8 8 8 8 8 8 8 8 8 8 8 8 8 8 8 8 8 8 8 8 8 8 8 8 8 8 8 8 8 8 8 8 8 8 8 8 8 8 8 8 8 8 8 8 8 8 8 8 8 8 8 8 8 8 8 8 8 8 8 8 8 8 8 8 8 8 8 8 8 8 8 8 8 8 8 8 8 8 8 8 8 8 8 8 8 8 8 8 8 8 8 8 8 8 8 8 8 8 8 8 8 8 8 8 8 8 8 8 8 8 8 8 8 8 8 8 8 8 8 8 8 8 8 8 8 8 8 8 8 8 8 8 8 8 8 8 8 8 8 8 8 8 8 8 8 8 8 8 8 8 8 8 8 8 8 8 8 8 8 8 8 8 8 8 8 8 8 8 8 8 8 8 8 8 8 8 8 8 8 8 8 8 8 8 8 8 8 8 8 8 8 8 8 8 8 8 8 8 8 8 8 8 8 8 8 8 8 8 8 8 8 8 8 8 8 8 8 8 8 8 8 8 8 8 8 8 8 8 8 8 8 8 8 8 8 8 8 8 8 8 8 8 8 8 8 8 8 8 8 8 8 8 8 8 8 8 8 8 8 8 8 ",
"8 8 8 8 8 8 8 8 8 8 8 8 8 8 8 8 8 8 8 8 8 8 8 8 8 8 8 8 8 8 8 8 8 8 8 8 8 8 8 8 8 8 8 8 8 8 8 8 8 8 8 8 8 8 8 8 8 8 8 8 8 8 8 8 8 8 8 8 8 8 8 8 8 8 8 8 8 8 8 8 8 8 8 8 8 8 8 8 8 8 8 8 8 8 8 8 8 8 8 8 8 8 8 8 8 8 8 8 8 8 8 8 8 8 8 8 8 8 8 8 8 8 8 8 8 8 8 8 8 8 8 8 8 8 8 8 8 8 8 8 8 8 8 8 8 8 8 8 8 8 8 8 8 8 8 8 8 8 8 8 8 8 8 8 8 8 8 8 8 8 8 8 8 8 8 8 8 8 8 8 8 8 8 8 8 8 8 8 8 8 8 8 8 8 8 8 8 8 8 8 8 8 8 8 8 8 8 8 8 8 8 8 8 8 8 8 8 8 8 8 8 8 8 8 8 8 8 8 8 8 8 8 8 8 8 8 8 8 8 8 8 8 8 8 8 8 8 8 8 8 8 8 8 8 8 8 8 8 8 8 8 8 8 8 8 8 8 8 8 8 8 8 8 8 8 8 8 8 8 8 8 8 8 8 8 8 8 8 8 8 8 8 8 8 8 8 8 8 8 8 8 8 8 8 8 8 8 8 8 8 8 8 8 8 8 8 8 8 8 8 ",
"8 8 8 8 8 8 8 8 8 8 8 8 8 8 8 8 8 8 8 8 8 8 8 8 8 8 8 8 8 8 8 8 8 8 8 8 8 8 8 8 8 8 8 8 8 8 8 8 8 8 8 8 8 8 8 8 8 8 8 8 8 8 8 8 8 8 8 8 8 8 8 8 8 8 8 8 8 8 8 8 8 8 8 8 8 8 8 8 8 8 8 8 8 8 8 8 8 8 8 8 8 8 8 8 8 8 8 8 8 8 8 8 8 8 8 8 8 8 8 8 8 8 8 8 8 8 8 8 8 8 8 8 8 8 8 8 8 8 8 8 8 8 8 8 8 8 8 8 8 8 8 8 8 8 8 8 8 8 8 8 8 8 8 8 8 8 8 8 8 8 8 8 8 8 8 8 8 8 8 8 8 8 8 8 8 8 8 8 8 8 8 8 8 8 8 8 8 8 8 8 8 8 8 8 8 8 8 8 8 8 8 8 8 8 8 8 8 8 8 8 8 8 8 8 8 8 8 8 8 8 8 8 8 8 8 8 8 8 8 8 8 8 8 8 8 8 8 8 8 8 8 8 8 8 8 8 8 8 8 8 8 8 8 8 8 8 8 8 8 8 8 8 8 8 8 8 8 8 8 8 8 8 8 8 8 8 8 8 8 8 8 8 8 8 8 8 8 8 8 8 8 8 8 8 8 8 8 8 8 8 8 8 8 8 8 8 8 8 8 8 ",
"8 8 8 8 8 8 8 8 8 8 8 8 8 8 8 8 8 8 8 8 8 8 8 8 8 8 8 8 8 8 8 8 8 8 8 8 8 8 8 8 8 8 8 8 8 8 8 8 8 8 8 8 8 8 8 8 8 8 8 8 8 8 8 8 8 8 8 8 8 8 8 8 8 8 8 8 8 8 8 8 8 8 8 8 8 8 8 8 8 8 8 8 8 8 8 8 8 8 8 8 8 8 8 8 8 8 8 8 8 8 8 8 8 8 8 8 8 8 8 8 8 8 8 8 8 8 8 8 8 8 8 8 8 8 8 8 8 8 8 8 8 8 8 8 8 8 8 8 8 8 8 8 8 8 8 8 8 8 8 8 8 8 8 8 8 8 8 8 8 8 8 8 8 8 8 8 8 8 8 8 8 8 8 8 8 8 8 8 8 8 8 8 8 8 8 8 8 8 8 8 8 8 8 8 8 8 8 8 8 8 8 8 8 8 8 8 8 8 8 8 8 8 8 8 8 8 8 8 8 8 8 8 8 8 8 8 8 8 8 8 8 8 8 8 8 8 8 8 8 8 8 8 8 8 8 8 8 8 8 8 8 8 8 8 8 8 8 8 8 8 8 8 8 8 8 8 8 8 8 8 8 8 8 8 8 8 8 8 8 8 8 8 8 8 8 8 8 8 8 8 8 8 8 8 8 8 8 8 8 8 8 8 8 8 8 8 8 8 8 8 ",
"8 8 8 8 8 8 8 8 8 8 8 8 8 8 8 8 8 8 8 8 8 8 8 8 8 8 8 8 8 8 8 8 8 8 8 8 8 8 8 8 8 8 8 8 8 8 8 8 8 8 8 8 8 8 8 8 8 8 8 8 8 8 8 8 8 8 8 8 8 8 8 8 8 8 8 8 8 8 8 8 8 8 8 8 8 8 8 8 8 8 8 8 8 8 8 8 8 8 8 8 8 8 8 8 8 8 8 8 8 8 8 8 8 8 8 8 8 8 8 8 8 8 8 8 8 8 8 8 8 8 8 8 8 8 8 8 8 8 8 8 8 8 8 8 8 8 8 8 8 8 8 8 8 8 8 8 8 8 8 8 8 8 8 8 8 8 8 8 8 8 8 8 8 8 8 8 8 8 8 8 8 8 8 8 8 8 8 8 8 8 8 8 8 8 8 8 8 8 8 8 8 8 8 8 8 8 8 8 8 8 8 8 8 8 8 8 8 8 8 8 8 8 8 8 8 8 8 8 8 8 8 8 8 8 8 8 8 8 8 8 8 8 8 8 8 8 8 8 8 8 8 8 8 8 8 8 8 8 8 8 8 8 8 8 8 8 8 8 8 8 8 8 8 8 8 8 8 8 8 8 8 8 8 8 8 8 8 8 8 8 8 8 8 8 8 8 8 8 8 8 8 8 8 8 8 8 8 8 8 8 8 8 8 8 8 8 8 8 8 8 ",
"8 8 8 8 8 8 8 8 8 8 8 8 8 8 8 8 8 8 8 8 8 8 8 8 8 8 8 8 8 8 8 8 8 8 8 8 8 8 8 8 8 8 8 8 8 8 8 8 8 8 8 8 8 8 8 8 8 8 8 8 8 8 8 8 8 8 8 8 8 8 8 8 8 8 8 8 8 8 8 8 8 8 8 8 8 8 8 8 8 8 8 8 8 8 8 8 8 8 8 8 8 8 8 8 8 8 8 8 8 8 8 8 8 8 8 8 8 8 8 8 8 8 8 8 8 8 8 8 8 8 8 8 8 8 8 8 8 8 8 8 8 8 8 8 8 8 8 8 8 8 8 8 8 8 8 8 8 8 8 8 8 8 8 8 8 8 8 8 8 8 8 8 8 8 8 8 8 8 8 8 8 8 8 8 8 8 8 8 8 8 8 8 8 8 8 8 8 8 8 8 8 8 8 8 8 8 8 8 8 8 8 8 8 8 8 8 8 8 8 8 8 8 8 8 8 8 8 8 8 8 8 8 8 8 8 8 8 8 8 8 8 8 8 8 8 8 8 8 8 8 8 8 8 8 8 8 8 8 8 8 8 8 8 8 8 8 8 8 8 8 8 8 8 8 8 8 8 8 8 8 8 8 8 8 8 8 8 8 8 8 8 8 8 8 8 8 8 8 8 8 8 8 8 8 8 8 8 8 8 8 8 8 8 8 8 8 8 8 8 8 ",
"8 8 8 8 8 8 8 8 8 8 8 8 8 8 8 8 8 8 8 8 8 8 8 8 8 8 8 8 8 8 8 8 8 8 8 8 8 8 8 8 8 8 8 8 8 8 8 8 8 8 8 8 8 8 8 8 8 8 8 8 8 8 8 8 8 8 8 8 8 8 8 8 8 8 8 8 8 8 8 8 8 8 8 8 8 8 8 8 8 8 8 8 8 8 8 8 8 8 8 8 8 8 8 8 8 8 8 8 8 8 8 8 8 8 8 8 8 8 8 8 8 8 8 8 8 8 8 8 8 8 8 8 8 8 8 8 8 8 8 8 8 8 8 8 8 8 8 8 8 8 8 8 8 8 8 8 8 8 8 8 8 8 8 8 8 8 8 8 8 8 8 8 8 8 8 8 8 8 8 8 8 8 8 8 8 8 8 8 8 8 8 8 8 8 8 8 8 8 8 8 8 8 8 8 8 8 8 8 8 8 8 8 8 8 8 8 8 8 8 8 8 8 8 8 8 8 8 8 8 8 8 8 8 8 8 8 8 8 8 8 8 8 8 8 8 8 8 8 8 8 8 8 8 8 8 8 8 8 8 8 8 8 8 8 8 8 8 8 8 8 8 8 8 8 8 8 8 8 8 8 8 8 8 8 8 8 8 8 8 8 8 8 8 8 8 8 8 8 8 8 8 8 8 8 8 8 8 8 8 8 8 8 8 8 8 8 8 8 8 8 ",
"8 8 8 8 8 8 8 8 8 8 8 8 8 8 8 8 8 8 8 8 8 8 8 8 8 8 8 8 8 8 8 8 8 8 8 8 8 8 8 8 8 8 8 8 8 8 8 8 8 8 8 8 8 8 8 8 8 8 8 8 8 8 8 8 8 8 8 8 8 8 8 8 8 8 8 8 8 8 8 8 8 8 8 8 8 8 8 8 8 8 8 8 8 8 8 8 8 8 8 8 8 8 8 8 8 8 8 8 8 8 8 8 8 8 8 8 8 8 8 8 8 8 8 8 8 8 8 8 8 8 8 8 8 8 8 8 8 8 8 8 8 8 8 8 8 8 8 8 8 8 8 8 8 8 8 8 8 8 8 8 8 8 8 8 8 8 8 8 8 8 8 8 8 8 8 8 8 8 8 8 8 8 8 8 8 8 8 8 8 8 8 8 8 8 8 8 8 8 8 8 8 8 8 8 8 8 8 8 8 8 8 8 8 8 8 8 8 8 8 8 8 8 8 8 8 8 8 8 8 8 8 8 8 8 8 8 8 8 8 8 8 8 8 8 8 8 8 8 8 8 8 8 8 8 8 8 8 8 8 8 8 8 8 8 8 8 8 8 8 8 8 8 8 8 8 8 8 8 8 8 8 8 8 8 8 8 8 8 8 8 8 8 8 8 8 8 8 8 8 8 8 8 8 8 8 8 8 8 8 8 8 8 8 8 8 8 8 8 8 8 ",
"8 8 8 8 8 8 8 8 8 8 8 8 8 8 8 8 8 8 8 8 8 8 8 8 8 8 8 8 8 8 8 8 8 8 8 8 8 8 8 8 8 8 8 8 8 8 8 8 8 8 8 8 8 8 8 8 8 8 8 8 8 8 8 8 8 8 8 8 8 8 8 8 8 8 8 8 8 8 8 8 8 8 8 8 8 8 8 8 8 8 8 8 8 8 8 8 8 8 8 8 8 8 8 8 8 8 8 8 8 8 8 8 8 8 8 8 8 8 8 8 8 8 8 8 8 8 8 8 8 8 8 8 8 8 8 8 8 8 8 8 8 8 8 8 8 8 8 8 8 8 8 8 8 8 8 8 8 8 8 8 8 8 8 8 8 8 8 8 8 8 8 8 8 8 8 8 8 8 8 8 8 8 8 8 8 8 8 8 8 8 8 8 8 8 8 8 8 8 8 8 8 8 8 8 8 8 8 8 8 8 8 8 8 8 8 8 8 8 8 8 8 8 8 8 8 8 8 8 8 8 8 8 8 8 8 8 8 8 8 8 8 8 8 8 8 8 8 8 8 8 8 8 8 8 8 8 8 8 8 8 8 8 8 8 8 8 8 8 8 8 8 8 8 8 8 8 8 8 8 8 8 8 8 8 8 8 8 8 8 8 8 8 8 8 8 8 8 8 8 8 8 8 8 8 8 8 8 8 8 8 8 8 8 8 8 8 8 8 8 8 ",
"8 8 8 8 8 8 8 8 8 8 8 8 8 8 8 8 8 8 8 8 8 8 8 8 8 8 8 8 8 8 8 8 8 8 8 8 8 8 8 8 8 8 8 8 8 8 8 8 8 8 8 8 8 8 8 8 8 8 8 8 8 8 8 8 8 8 8 8 8 8 8 8 8 8 8 8 8 8 8 8 8 8 8 8 8 8 8 8 8 8 8 8 8 8 8 8 8 8 8 8 8 8 8 8 8 8 8 8 8 8 8 8 8 8 8 8 8 8 8 8 8 8 8 8 8 8 8 8 8 8 8 8 8 8 8 8 8 8 8 8 8 8 8 8 8 8 8 8 8 8 8 8 8 8 8 8 8 8 8 8 8 8 8 8 8 8 8 8 8 8 8 8 8 8 8 8 8 8 8 8 8 8 8 8 8 8 8 8 8 8 8 8 8 8 8 8 8 8 8 8 8 8 8 8 8 8 8 8 8 8 8 8 8 8 8 8 8 8 8 8 8 8 8 8 8 8 8 8 8 8 8 8 8 8 8 8 8 8 8 8 8 8 8 8 8 8 8 8 8 8 8 8 8 8 8 8 8 8 8 8 8 8 8 8 8 8 8 8 8 8 8 8 8 8 8 8 8 8 8 8 8 8 8 8 8 8 8 8 8 8 8 8 8 8 8 8 8 8 8 8 8 8 8 8 8 8 8 8 8 8 8 8 8 8 8 8 8 8 8 8 ",
"8 8 8 8 8 8 8 8 8 8 8 8 8 8 8 8 8 8 8 8 8 8 8 8 8 8 8 8 8 8 8 8 8 8 8 8 8 8 8 8 8 8 8 8 8 8 8 8 8 8 8 8 8 8 8 8 8 8 8 8 8 8 8 8 8 8 8 8 8 8 8 8 8 8 8 8 8 8 8 8 8 8 8 8 8 8 8 8 8 8 8 8 8 8 8 8 8 8 8 8 8 8 8 8 8 8 8 8 8 8 8 8 8 8 8 8 8 8 8 8 8 8 8 8 8 8 8 8 8 8 8 8 8 8 8 8 8 8 8 8 8 8 8 8 8 8 8 8 8 8 8 8 8 8 8 8 8 8 8 8 8 8 8 8 8 8 8 8 8 8 8 8 8 8 8 8 8 8 8 8 8 8 8 8 8 8 8 8 8 8 8 8 8 8 8 8 8 8 8 8 8 8 8 8 8 8 8 8 8 8 8 8 8 8 8 8 8 8 8 8 8 8 8 8 8 8 8 8 8 8 8 8 8 8 8 8 8 8 8 8 8 8 8 8 8 8 8 8 8 8 8 8 8 8 8 8 8 8 8 8 8 8 8 8 8 8 8 8 8 8 8 8 8 8 8 8 8 8 8 8 8 8 8 8 8 8 8 8 8 8 8 8 8 8 8 8 8 8 8 8 8 8 8 8 8 8 8 8 8 8 8 8 8 8 8 8 8 8 8 8 ",
"8 8 8 8 8 8 8 8 8 8 8 8 8 8 8 8 8 8 8 8 8 8 8 8 8 8 8 8 8 8 8 8 8 8 8 8 8 8 8 8 8 8 8 8 8 8 8 8 8 8 8 8 8 8 8 8 8 8 8 8 8 8 8 8 8 8 8 8 8 8 8 8 8 8 8 8 8 8 8 8 8 8 8 8 8 8 8 8 8 8 8 8 8 8 8 8 8 8 8 8 8 8 8 8 8 8 8 8 8 8 8 8 8 8 8 8 8 8 8 8 8 8 8 8 8 8 8 8 8 8 8 8 8 8 8 8 8 8 8 8 8 8 8 8 8 8 8 8 8 8 8 8 8 8 8 8 8 8 8 8 8 8 8 8 8 8 8 8 8 8 8 8 8 8 8 8 8 8 8 8 8 8 8 8 8 8 8 8 8 8 8 8 8 8 8 8 8 8 8 8 8 8 8 8 8 8 8 8 8 8 8 8 8 8 8 8 8 8 8 8 8 8 8 8 8 8 8 8 8 8 8 8 8 8 8 8 8 8 8 8 8 8 8 8 8 8 8 8 8 8 8 8 8 8 8 8 8 8 8 8 8 8 8 8 8 8 8 8 8 8 8 8 8 8 8 8 8 8 8 8 8 8 8 8 8 8 8 8 8 8 8 8 8 8 8 8 8 8 8 8 8 8 8 8 8 8 8 8 8 8 8 8 8 8 8 8 8 8 8 8 ",
"                                                    O./ O./ [ O.1.1.8.b.Z.P.Q.`. X%X,X6X,X%X X`.Q.P.Z.b.8.1.=.1.Z.P.Z.[                                                           3           3                                                                                                                         g.                                                                                                                                                                                                4                                                                                     3                                               ",
"                                                  v O./ O./ [ O.1.1.8.b.Z.P.Q.`. X%X,X6X,X%X X`.Q.P.Z.b.8.1.=.1.Z.P.Z.[ v                                                                                                                                               3                                                 C                                                                                                                                                                                                                                                                                                                             C 3     ",
"                                                  H O./ O./ [ O.1.1.8.b.Z.P.Q.`. X%X,X6X,X%X X`.Q.P.Z.b.8.1.=.1.Z.P.Z.[ H           C                                                                                                                                                                                                                                                                                               C                                                                                                                                 ,X`.            ,X,X                                                                      ",
"                                                  T O./ O./ [ O.1.1.8.b.Z.P.Q.`. X%X,X6X,X%X X`.Q.P.Z.b.8.1.=.1.Z.P.Z.[ T                                                                                                                                                                                                                                                                                                                                                                                                                                           ,X`.%X,X        ,X`.`.`.                                                                    ",
"          gX                                      / O./ O./ [ O.1.1.8.b.Z.P.Q.`. X%X,X6X,X%X X`.Q.P.Z.b.8.1.=.1.Z.P.Z.[ /                                                                             3                                         3                                                                                                                                       3                                                                                                                                               g.                        ,X`.%X,X8.      ,X`.`.%X8.                      C                                             ",
"                                                  [ O./ O./ [ O.1.1.8.b.Z.P.Q.`. X%X,X6X,X%X X`.Q.P.Z.b.8.1.=.1.Z.P.Z.[ [                                                                                                                                                                                                                                                                                                                                                                                                                                       ,X`.%X,X8.      ,X`.`.%X8.    C                                                                 ",
"              3         C                         O.O./ O./ [ O.1.1.8.b.Z.P.Q.`. X%X,X6X,X%X X`.Q.P.Z.b.8.1.=.1.Z.P.Z.[ [                             gX                                                                                                                                                                                                                                                      3                                                                                                                                               ,X`.%X,X8.      ,X`.`.%X8.C                                                                       ",
"                    3                             O.O./ O./ [ O.1.1.8.b.Z.P.Q.`. X%X,X6X,X%X X`.Q.P.Z.b.8.1.=.1.Z.P.Z.[ [                                 gX                                                                                                                                        3                                                                                                                 3                                                   gX                        4                                                       ,X`.%X,X8.      ,X`.`.%X8.                                                                          ",
"                                  C               [ O./ O./ [ O.1.1.8.b.Z.P.Q.`. X%X,X6X,X%X X`.Q.P.Z.b.8.1.=.1.Z.P.Z.[ [     g.          C                                                                                                                                             3                                                                       gX  3                                                                                                   g.                                                    H b.b.b.b.b.b.b.b.b.b.b.b.b.b.b.b.,X8.      ,X`.`.%X8.                                                                      C     ",
"                                                  [ O./ O./ [ O.1.1.8.b.Z.P.Q.`. X%X,X6X,X%X X`.Q.P.Z.b.8.1.=.1.Z.P.Z.[ [                                                                                                 3                                 g.          C                                                                                                                                                                               4                                                             H b.b.b.b.=.=.=.=.=.=.=.=.=.=.=.=.=.=.=.=.b.b.b.b.,X`.`.%X8.        C                                         C                           ",
"                                                  [ O./ O./ [ O.1.1.8.b.Z.P.Q.`. X%X,X6X,X%X X`.Q.P.Z.b.8.1.=.1.Z.P.Z.[ [                     3                                                       3                       3                                                                                                                                                                                                                                                     C           3                 H b.b.=.=.=.=.=.=.=.=.=.=.=.=.=.=.=.=.=.=.=.=.=.=.=.=.b.b.%X8.                                                                                ",
"                                                  [ / =.O./ [ O.1.1.8.b.Z.P.Q.`. X%X,X6X,X%X X`.Q.P.Z.b.8.1.=.1.Z.P.Z.[ [                                                                                                                                                                                                                               3                                                                                                                                                       H b.=.=.=.=.=.=.[ [ [ [ [ [ [ [ [ [ [ [ [ [ [ [ =.=.=.=.=.=.8.H                                                                                 ",
"                                                  [ / =.O./ [ O.1.1.8.b.Z.P.Q.`. X%X,X6X,X%X X`.Q.P.Z.b.8.1.=.1.Z.P.Z.1.[                                                       C                                                                                                             C                                                                 3                                                                                                                                             H b.=.=.=.[ [ [ [                                 [ [ [ [ =.=.=.b.H                                             gX3                             3 ",
"                3                                 [ / =.O./ [ O.1.1.8.b.Z.P.Q.`. X%X,X6X,X%X X`.Q.P.Z.b.8.1.=.1.Z.P.Z.1.[                                                                                                                                                                                                                                                         C                                                                                                                           b.=.=.[ [       / 1.1.1.1.1.1.1.1.1.1.1.1.1.1.1.1./       [ [ =.=.b.                                                                              ",
"                                                  [ / =.O./ [ O.1.1.8.b.Z.P.Q.`. X%X,X6X,X%X X`.Q.P.Z.b.8.1.=.1.Z.P.Z.8.[               3                                                                                                                                                               C                                                                                                                                                                                                     =.=.[     / 1.1.1.1.1.P.Q.`. X%X,X6X,X%X X`.Q.P.1.1.1.1./     [ =.=.                                                                              ",
"                                                  [ / =.O./ [ O.1.1.8.b.Z.P.Q.`. X%X,X6X,X%X X`.Q.P.Z.b.8.1.=.1.8.Z.P.Z.[                                                                                                                                                 3                                                                                   C                                                     C                                                                           3             =.[   1.1.O.1.1.8.b.Z.P.Q.`. X%X,X6X,X%X X`.Q.P.Z.b.8.=.1.1.1.  [ =.                                                                      3       ",
"                              3                 3 [ / =.O./ [ O.1.1.8.b.Z.P.Q.`. X%X,X6X,X%X X`.Q.P.Z.b.8.1.=.1.1.Z.P.Z.[                   C                                               C                           C                                                               3                                         3                                                                                                                                                                           [   =.O./ [ O.1.8.b.Z.P.Q.`. X%X,X6X,X%X X`.Q.P.Z.b.8.=.1.Z.P.1.  [                                                                               ",
"                                          gX      [ / =.O./ [ O.1.1.8.b.Z.P.Q.`. X%X,X6X,X%X X`.Q.P.Z.b.8.1.=.1.1.Z.P.Z.[                                                                                                                         3                                                     C                   3               C                           3                                                                                                                     3                 O.=.O./ [ O.1.8.b.Z.P.Q.`. X%X,X6X,X%X X`.Q.P.Z.b.8.=.1.Z.P.Z.[                                                                                 ",
"                                                v [ / =.O./ [ O.1.1.8.b.Z.P.Q.`. X%X,X6X,X%X X`.Q.P.Z.b.8.1.=.1.1.Z.P.Z.[ v                                                                                         3                                                 3                                                   3                           C                                                                                                                                                       v O.=.O./ [ O.1.8.b.Z.P.Q.`. X%X,X6X,X%X X`.Q.P.Z.b.8.=.1.Z.P.Z.[ v                                                                               ",
"                                                H [ / =.O./ [ O.1.1.8.b.Z.P.Q.`. X%X,X6X,X%X X`.Q.P.Z.b.8.1.=.1.1.Z.P.Z.[ H                                                                           C                                                                                                             C                                                                               4                                                                                         4               H O.=.O./ [ O.1.8.b.Z.P.Q.`. X%X,X6X,X%X X`.Q.P.Z.b.8.=.1.Z.P.Z.[ H       gX                                                                      ",
"                C                     C         T [ / =.O./ [ O.1.1.8.b.Z.P.Q.`. X%X,X6X,X%X X`.Q.P.Z.b.8.1.=.1.1.Z.P.Z.[ T                                                                                                                                                                                             C                               g.      3                                                         C                                                                           3       T O.=.O./ [ O.1.8.b.Z.P.Q.`. X%X,X6X,X%X X`.Q.P.Z.b.8.=.1.Z.P.Z.[ T                                     3           C                             ",
"                                                / [ / =.O./ [ O.1.1.8.b.Z.P.Q.`. X%X,X6X,X%X X`.Q.P.Z.b.8.1.=.1.1.Z.P.Z.[ /                             3                                                                                                                                                                                                                                                 3                                                                                                   / O.=.O./ [ O.1.8.b.Z.P.Q.`. X%X,X6X,X%X X`.Q.P.Z.b.8.=.1.Z.P.Z.[ /                         3               C               3 g.                  ",
"                            g.                  [ [ / =.O./ [ O.1.1.8.b.Z.P.Q.`. X%X,X6X,X%X X`.Q.P.Z.b.8.1.=.1.1.Z.P.Z.[ [                                                                       C                         3                         gX                      3   3                                                   C           3                                                                                               3                                                           [ O.=.O./ [ O.1.8.b.Z.P.Q.`. X%X,X6X,X%X X`.Q.P.Z.b.8.=.1.Z.P.Z.[ [                                                                               ",
"                  C                             O.[ / =.O./ [ O.1.1.8.b.Z.P.Q.`. X%X,X6X,X%X X`.Q.P.Z.b.8.1.=.1.1.Z.P.Z.[ [               C                 3                                                                                                                                                                                                                                             C                                                                                                   O.O.=.O./ [ O.1.8.b.Z.P.Q.`. X%X,X6X,X%X X`.Q.P.Z.b.8.=.1.Z.P.Z.[ [                                                                               ",
"                                                O.[ / =.O./ [ O.1.1.8.b.Z.P.Q.`. X%X,X6X,X%X X`.Q.P.Z.b.8.1.=.1.1.Z.P.Z.[ [                                                                                                 3                                   C             C               3                                     3                                                                                                                                                                     g.  O.O.=.O./ [ O.1.8.b.Z.P.Q.`. X%X,X6X,X%X X`.Q.P.Z.b.8.=.1.Z.P.Z.[ [                                                                               ",
"                        3                       [ [ / =.O./ [ O.1.1.8.b.Z.P.Q.`. X%X,X6X,X%X X`.Q.P.Z.b.8.1.=.1.1.Z.P.Z.[ [                                                                                                                                                                                                                                                                                                                                                                                   [ O.=.O./ [ O.1.8.b.Z.P.Q.`. X%X,X6X,X%X X`.Q.P.Z.b.8.=.1.Z.P.Z.[ [                                                                               ",
"                                                [ [ / =.O./ [ O.1.1.8.b.Z.P.Q.`. X%X,X6X,X%X X`.Q.P.Z.b.8.1.=.1.1.Z.P.Z.[ [                                                                                                                         3           3                                                   3                                                                                                       3                     C                                                           [ O.=.O./ [ O.1.8.b.Z.P.Q.`. X%X,X6X,X%X X`.Q.P.Z.b.8.=.1.Z.P.Z.8.[                                                                               ",
"                                                [ [ / =.O./ [ O.1.1.8.b.Z.P.Q.`. X%X,X6X,X%X X`.Q.P.Z.b.8.1.=.1.1.Z.P.Z.[ [                                                                                                                                                                                                                                               C           4                                                                                                                       [ O.=.O./ [ O.1.8.b.Z.P.Q.`. X%X,X6X,X%X X`.Q.P.Z.b.8.=.1.8.Z.P.Z.[                                                                               ",
"                                                [ [ / =.O./ [ O.1.1.8.b.Z.P.Q.`. X%X,X6X,X%X X`.Q.P.Z.b.8.1.=.1.1.Z.P.Z.[ [                                                                                     3 3                                                                                                         C                       4                                                                                                                                   3                     [ O.=.O./ [ O.1.8.b.Z.P.Q.`. X%X,X6X,X%X X`.Q.P.Z.b.8.=.1.1.Z.P.Z.[                 3                                                             ",
"                                                [ [ / =.O./ [ O.1.1.8.b.Z.P.Q.`. X%X,X6X,X%X X`.Q.P.Z.b.8.1.=.1.1.Z.P.Z.[ [                                   C                                     C                                                                                                                 3                                     4                                                                           C                                                                     [ O.=.O./ [ O.1.8.b.Z.P.Q.`. X%X,X6X,X%X X`.Q.P.Z.b.8.=.1.1.Z.P.Z.[                                                                               ",
"            C                                   [ [ / =.O./ [ O.1.1.8.b.Z.P.Q.`. X%X,X6X,X%X X`.Q.P.Z.b.8.1.=.1.1.Z.P.Z.[ [                                                     3                                                               3                                                                                                                                                                                                                     3                                       [ O.=.O./ [ O.1.8.b.Z.P.Q.`. X%X,X6X,X%X X`.Q.P.Z.b.8.=.1.1.Z.P.Z.[                                                                               ",
"                                                [ [ / =.O./ [ O.1.1.8.b.Z.P.Q.`. X%X,X6X,X%X X`.Q.P.Z.b.8.1.=.1.1.Z.P.Z.[ [                           g.                                                                                                                      3       3                                                           C                                                                                                                       3                                   [ O.=.O./ [ O.1.8.b.Z.P.Q.`. X%X,X6X,X%X X`.Q.P.Z.b.8.=.1.1.Z.P.Z.[                               C   3                                           ",
"          3                                     [ / O.=.[ / [ O.1.1.8.b.Z.P.Q.`. X%X,X6X,X%X X`.Q.P.Z.b.8.1.1.=.1.Z.P.Z.[ [                                                                                                                 C                                                                                                                             4                                                                                                                                   [ O.=.O./ [ O.1.8.b.Z.P.Q.`. X%X,X6X,X%X X`.Q.P.Z.b.8.1.=.1.Z.P.Z.[                                                                               ",
"                                                [ / =.O./ [ O.=.1.1.8.b.Z.P.Q.`. X%X,X6X,X%X X`.Q.P.Z.b.8.1.1.=.1.Z.P.Z.[ [                                                                                                                     3                                                                                                                                                                                                                                                             [ O.O./ [ O.=.1.8.b.Z.P.Q.`. X%X,X6X,X%X X`.Q.P.Z.b.8.1.=.1.Z.P.Z.[                                                                               ",
"                                                [ / =.O./ [ O.1.1.1.8.b.Z.P.Q.`. X%X,X6X,X%X X`.Q.P.Z.b.8.1.1.=.1.Z.P.Z.1.[                                                                                                                                                                                                                                                                                     C                                                                                             O.=.O./ [ O.1.1.8.b.Z.P.Q.`. X%X,X6X,X%X X`.Q.P.Z.b.8.1.=.1.Z.P.Z.[                                                                               ",
"                                              v [ / =.O./ [ O.1.1.1.8.b.Z.P.Q.`. X%X,X6X,X%X X`.Q.P.Z.b.8.1.1.=.1.Z.P.Z.8.[ v                                                                                                                                                                                 C                                             4                                                                                                                                               v O.=.O./ [ O.1.1.8.b.Z.P.Q.`. X%X,X6X,X%X X`.Q.P.Z.b.8.1.=.1.Z.P.Z.[ v           C                                               C                 ",
"              C                               H [ / =.O./ [ O.1.1.1.8.b.Z.P.Q.`. X%X,X6X,X%X X`.Q.P.Z.b.8.1.1.=.1.8.Z.P.Z.[ H                           C                                                                                                                           3                                                                                                                             C                             3                                                           H O.=.O./ [ O.1.1.8.b.Z.P.Q.`. X%X,X6X,X%X X`.Q.P.Z.b.8.1.=.1.Z.P.Z.[ H                       C                                                     ",
"                      C                       T [ / =.O./ [ O.1.1.1.8.b.Z.P.Q.`. X%X,X6X,X%X X`.Q.P.Z.b.8.1.1.=.1.1.Z.P.Z.[ T                                                                                                                                                                                                                                                                                                                   gX3                                                         T O.=.O./ [ O.1.1.8.b.Z.P.Q.`. X%X,X6X,X%X X`.Q.P.Z.b.8.1.=.1.Z.P.Z.[ T                                                                             ",
"                                              [ [ / =.O./ [ O.1.1.1.8.b.Z.P.Q.`. X%X,X6X,X%X X`.Q.P.Z.b.8.1.1.=.1.1.Z.P.Z.[ /                                                                                                                                                   3                                                                                                                                                                                                                           / O.=.O./ [ O.1.1.8.b.Z.P.Q.`. X%X,X6X,X%X X`.Q.P.Z.b.8.1.=.1.Z.P.Z.[ /                                                                           g.",
"                                              [ [ / =.O./ [ O.1.1.1.8.b.Z.P.Q.1.[ F c u c Y H [ 6.P.Z.b.8.1.1.=.1.1.Z.P.Z.[ [                                                                                   h.      C     3                                       3                                           4                                                                                                                                                           3                             [ O.=.O./ [ O.1.1.8.b.Z.P.Q.`. X%X,X6X,X%X X`.Q.P.Z.b.8.1.=.1.Z.P.Z.[ [                                                                             ",
"                                              [ [ / =.O./ [ O.1.1.1.8.b.Z...T 8 j O.T Y j e / F j T ..b.8.1.1.=.1.1.Z.P.Z.[ [                                                                                 g.j.g.                          C                   C                                                                                                                                                                         3                                                             C O.O.=.O./ [ O.1.1.8.b.Z.P.Q.`. X%X,X6X,X%X X`.Q.P.Z.b.8.1.=.1.Z.P.Z.[ [                                                       3                     ",
"                                              [ [ / =.O./ [ O.1.1.1.8.$.H c a <.8 6.v V.H   8.Y u e H Y 1.1.1.=.1.1.Z.P.Z.[ [                                                                               h.j.gXj.h.                                                                                                          C                                                       g.          4                                                                                                   C   O.O.=.O./ [ O.1.1.8.b.Z.P.Q.`. X%X,X6X,X%X X`.Q.P.Z.b.8.1.=.1.Z.P.Z.[ [                                                                             ",
"                                              [ [ / =.O./ [ O.1.1.1.` j a T u 3Xz.O         - F sX$.> u v ..1.=.1.1.Z.P.Z.[ [                                                                                 g.j.g.                                                                                                        C                                                                                                                         C                                                     [ O.=.O./ [ O.1.1.8.b.Z.P.Q.`. X%X,X6X,X%X X`.Q.P.Z.b.8.1.=.1.Z.P.Z.[ [                               gX                                            ",
"                                            v [ [ / =.O./ [ O.1.1.! H Y j Z.=.> u F $.<.<.$.a $ $.G.H P T v $.=.1.1.Z.P.Z.[ [                                             C                                     h.                                                                                                                                                                                                                                                                                          [ O.=.O./ [ O.1.1.8.b.Z.P.Q.`. X%X,X6X:X%X X`.Q.P.Z.b.8.1.=.1.Z.P.Z.[ [                                     3                                       ",
"                  C                         H [ [ / =.O./ [ O.1.$.H - $./.8 e [ %XBXKXKXKXHXMX Xc   $.Q.8 u v =.1.1.Z.P.Z.[ [             C               ,X,X            `.,X                                                                                                                                      4                                                                                                                                                                                       [ O.=.O./ [ O.1.1.8.b.Z.P.Q.1...F c a c Y H [ 6.P.Z.b.8.1.=.1.Z.P.Z.[ [               3                                                             ",
"                                            T [ [ / =.O./ [ O.1.c v   $ j   /.KXMXpXrXrXrXpXpXHXKXb.2 c     T v 1.1.Z.P.Z.[ [                           `.`.`.,X        ,X%X`.,X                                                                                                                                                                                                                                                                        3                                                   [ O.=.O./ [ O.1.1.8.b.Z.[ T 8 j O.T T j 8 ` F a T ..b.8.1.=.1.Z.P.Z.[ [                                                                             ",
"                                            / [ [ / =.O./ [ O.! T O       rXKXrXwXxXHXHXrXsXHXBXAXKX@X      > P $.1.Z.P.Z.[ [                           8.%X`.`.,X      8.,X%X`.,X                                                                                                                                                                          C       4                                           4                                                                                           [ O.=.O./ [ O.1.1.8.$.H c u 1.8 6.v V.H   8.Y u e H Y 1.1.=.1.Z.P.Z.[ [                                                                             ",
"                                            [ [ [ / =.O./ [ O.v j       }.KXwXrXHX@XZ.1.wX3XZ.8.P.Z.,X=.      F F 1.Z.P.Z.[ [                             8.%X`.`.,X      8.,X%X`.,X                C                                         3                                                                                                                                                                                                           C                             C                   [ O.=.O./ [ O.1.1./ a j T a 3Xz.O         > F pX=.> u v O.=.1.Z.P.Z.[ [                                                                             ",
"                                            [ [ [ / =.O./ [ ! F +     T KXwXwXKX:X+   a HXz.  O.!     wXj     8 v <.Z.P.Z.[ [                               8.%X`.`.,X      8.,X%X`.,X                                                                                3                       4                                                                                                                                                                           3                                 [ O.=.O./ [ O.1.! H Y j Z.=.> u F O.<.<.O.a $ $.G.H H T c ..1.Z.P.Z.8.[                                                                             ",
"      g.                                    [ [ [ / =.O./ [ v j        XHXwXKX:XO   Y HXKXO.v KX$.    sXW.      c / Z.P.Z.[ [                                 8.%X`.`.,X      8.,X%X`.,X                                                                                                                                gX                                                                      4                                   C                                             g.                        [ O.=.O./ [ O.O.H - $./.e e [ %XBXKXKXKXKXMX+Xj   O./.8 u v 1.8.Z.P.Z.[                                                                             ",
"                                            [ [ [ / =.O./ [ v a     = xXpXKX:X    T KXxXpX%XAXKXa   $ xXrX      v Y Z.P.Z.[ [                                   8.%X`.`.,X      8.,Xb.b.b.b.b.b.b.b.b.b.b.b.b.H                                                                                                                                                                                   4                                                                                                         [ O.=.O./ [ O.c F   $ j   /.KXMXrXrXrXrXrXpXAXKXb.2 v     T F 1.Z.P.Z.[                                                   C                   C     ",
"                                            [ [ [ / =.O./ [ a b.+   6.xXKX,XO   / KXBXsXwXHXKXv   $ 6XHXpX!   e 8.v Z.P.Z.[ [                                     8.%X`.`.,Xb.b.b.b.=.=.=.=.=.=.=.=.=.=.=.=.=.b.b.b.b.H                                                                                               T 8.`.`.`.`.`.`.`.`.`.`.`.`.`.`.`.`.`.`.`.`.`.`.`.`.1.1.1.1.`.`.8.T                                           3                               3     C                                 [ O.=.O./ [ H Y O       rXKXrXwXMXHXHXpXhXKXBXAXKX@X      > H O.Z.P.Z.[                                                                             ",
"                        C                   [ [ [ / =.[ / [ 8 W.V.<./.BX%XO   ` KXBXsXsXhXlXH   > 3XKXhX,XW.1.G.z.j Z.P.Z.[ [           C                           8.%Xb.b.=.=.=.=.=.=.=.=.=.=.=.=.=.=.=.=.=.=.=.=.=.b.b.H                                                                           T 8.`.`.`.`.`.`.`.`.Q.P.P.P.P.P.P.P.P.P.P.Q.`.Q.P.P.Q.`. X%X6X%X X`.P.P.P.P.P.P.`.`.`.`.`.`.`.`.1.1.                            3                                                                   v [ O.=.O./ [ v j        XKXwXwXHX%XZ.<.6X3XZ.6.W.Z.,X=.      H F Z.P.Z.[ v                                                                           ",
"                                            [ [ / O.=./ [ [ e b.@XQ.Z.KXe     j j 6 8 e `./.    V.KXG.}.pXz. X}.<.j Z.P.Z.[ [                                       H 8.=.=.=.=.=.=.[ [ [ [ [ [ [ [ [ [ [ [ [ =.=.=.=.=.=.b.H                                                                 T 8.`.`.`.`.Z.b.Z.P.P.P.P.P.Q.P.P.P.P.P.P.P.P.P.P.Q.`.Q.P.P.Q.`. X%X6X%X X`.P.P.P.P.P.P.P.P.P.P.P.P.P.P.P.P.1.1.8.T                             3                                                   3       H [ O.=.O./ Y F +     T KXrXwXKX:X+   a HXz.  O.!     wXj     8 v V.P.Z.[ H             C                                                             ",
"                                            [ [ / O.=./ [ [ e z.Q.L.V.MX6               L./.    W./.  }.pX8.W.W.O.c Z.P.Z.[ [                                     H b.=.=.=.[ [ [ [                           [ [ [ [ =.=.=.b.H                                 C                         [ `.`.Q.Q.P.Q.P.Z.b.Z.P.P.P.P.P.Q.P.P.P.P.P.P.P.P.P.P.Q.`.Q.P.P.Q.`. X%X6X%X X`.Q.P.P.P.P.P.P.P.P.P.P.P.P.P.P.P.P.P.P.`.`.[                                                                                     T [ O.=.O./ c j        XAXwXKX:X    Y HXKXO.v KX$.    pXW.    O c $.P.Z.[ T                                                                           ",
"                                            [ [ / O.=./ [ [ u 8.=.! V.:X}.b.V.V.W...    L.+X2 2 <.8 - pX%X1.T V.` Y Z.P.Z.[ [                                     b.=.=.[ [       / 1.1.1.1.1.1.1.1.1.1.1.1.1./       [ [ =.=.b.                                                      / Z.P.Z.P.Q.Q.P.Q.P.Z.b.Z.P.P.P.P.P.Q.P.P.P.P.P.P.P.P.P.P.Q.`.Q.P.P.Q.`. X%X6X%X X`.Q.P.P.P.P.P.P.P.P.P.P.P.P.P.P.P.P.P.P.P.Z.P.Z./                                                               C                 / [ O.=.O./ v u     = MXpXKX:XO   ! KXxXpX%XAXKXa   + xXwX      v / P.Z.[ /                           C                                               ",
"                                            [ [ / O.=./ [ [ H ! V.L.Z.G.KXAXHXHXKX}.    <.KXpXpX,X3XpXhXV.P.G.G.f $.Z.P.Z.[ [                                     =.=.[     / 1.1.1.1.1.P.Q.`. X%X%X X`.Q.P.1.1.1.1./     [ =.=.                                                    1.b.Z.P.Z.P.Q.Q.P.Q.P.Z.b.Z.P.P.P.P.P.Q.P.P.P.P.P.P.P.P.P.P.Q.`.Q.P.P.Q.`. X%X6X%X X`.Q.P.P.P.P.P.P.P.P.P.P.P.P.P.P.P.P.P.P.P.Z.P.Z.b.1.                            3                           3     C               [ [ O.=.O./ u b.+   8.xXKX,XO   / KXBXpXwXHXKXv   $ wXAXpX/   e 8.Y P.Z.[ [                                                           3               ",
"                    C                 g.    [ [ / O.=./ [ [ ..8 W.W.<.1.3XMXwXrXHXP.    <.KXhXhXhXsXKX X=.6.`.z.8 1.Z.P.Z.[ [                                     =.[   1.1.O.1.1.8.b.Z.P.Q.`. X%X%X X`.Q.P.Z.b.8.=.1.1.1.  [ =.                                  3               [ 1.b.Z.P.Z.P.Q.Q.P.Q.P.Z.b.Z.P.P.P.P.P.Q.P.P.P.P.P.P.P.P.P.P.Q.`.Q.P.P.Q.`. X%X6X%X X`.Q.P.P.P.P.P.P.P.P.P.P.P.P.P.P.P.P.P.P.P.Z.P.Z.b.1.[                                         3     3                             O.[ O.=.O./ 8 W.V.=.`.BX@XO   ` KXAXsXhXhXhXH   > ,XKXhX3XW.1.G.b.v P.Z.[ [                                                 C                         ",
"                                            [ [ / O.=./ [ [ ..j 1.8.T G.8.hXlXwXpX6X+X+X3XsXrXrXwXMX6X6.b.T L.T ! 1.Z.P.Z.[ [ v           gX                      [   =.O./ [ O.1.8.b.Z.P.Q.`. X%X%X X`.Q.P.Z.b.8.=.1.Z.P.1.  [                             g.                    [ 1.b.Z.P.Z.P.Q.Q.P.Q.P.Z.b.Z.P.P.P.P.Z.b.b.b.b.b.b.b.b.b.b.b.b.b.b.b.b.b.b.b.b.b.b.b.b.b.b.b.b.b.b.Z.P.P.P.P.P.P.P.P.P.P.P.P.P.Z.P.Z.b.1.[                                                         3                   O.[ O.=.O./ 8 b.@XW.Z.KXe     j j 6 8 8 }./.    V.KXG.}.pXz. X}.=.F P.Z.[ [                                                                           ",
"                                            [ [ / O.=./ [ [ O.=.8 G. X`.V.8.sXBXrXsXMXMXhXwXrXpXBX9X6.G.`.}.6.2 1.1.Z.P.Z.[ [ H                     C               O.=.O./ [ O.1.8.b.Z.P.Q.`. X%X%X X`.Q.P.Z.b.8.=.1.Z.P.Z.[               3               3                     [ 1.b.Z.P.Z.P.Q.Q.Z.b.b.b.b.b.b.b.b.b.1./ v v v v v c v v v v v c v v c c v v v v v v v c v v v v / 1.b.b.b.b.b.b.b.b.b.Z.P.P.P.Z.P.Z.b.1.[                                                                             [ [ O.=.O./ 8 z./.L.V.MX6               G./.    W./.  }.sX8.Q.W.$.Y L.Z.[ [               Z                                                           ",
"                                            [ [ / O.=./ [ [ O.1.H T Q.Q.v ` V.%XhXMXxXhXlXxXMXpX X1.` >./.F.a [ 1.1.Z.P.Z.[ [ T                                   v O.=.O./ [ O.1.8.b.Z.P.Q.`. X%X%X X`.Q.P.Z.b.8.=.1.Z.P.Z.[ v                                                   [ 1.b.Z.b.b.b.b.b.1./ v v v v v v v v v v j j a j j j a j a j j j a j j j j a j j a j j j a j a j v v v v v v v v v v / 1.b.b.b.b.b.Z.b.1.[     3                                                                       [ [ O.=.O./ e z.=.! b.,X}.b.V.b.W...    L.@X2 2 <.8 - pX%X1.T b.` ` L.Z.[ [             C i.C                                                         ",
"                                          v [ [ / O.=./ [ [ O.1.1.u $.8.[ $.` $.L.@X3X,X:X%X}.Z.8.O.Y / 8.T H =.1.1.Z.P.Z.1.[ /                                   H O.=.O./ [ O.1.8.b.Z.P.Q.`. X%X%X X`.Q.P.Z.b.8.=.1.Z.P.Z.[ H                                                   [ 1.b.1.T v v v v v v j a j O.1.Z.Q. X%X%X@X%X%X%X%X%X%X%X%X%X%X%X%X%X%X%X%X%X@X%X%X%X%X%X%X%X%X%X%X%X XQ.Z.1.O.j j a v v v v v v T 1.b.1.[                     3           3                                           [ [ O.=.O./ F ! Z.L.Z.G.KXHXHXHXKX}.    <.KXpXsX,X3XpXhXV.W.G.Z.j 8.P.Z.[ [           Z i.p.i.Z                                                       ",
"                                          H [ [ / O.=./ [ [ O.1.1.1.u [ `.[ ! Y v / ! 6.z.O.H ..f Y z.$.T v 1.=.1.1.Z.P.Z.8.[ [                                   T O.=.O./ [ O.1.8.b.Z.P.Q.`. X%X%X X`.Q.P.Z.b.8.=.1.Z.P.Z.[ T                                                   [ T   O.1.Z.Q.%X%X%X%X%X%X%X%X%X XQ.`. X`.Q.Q.Q.Q.Q.Q.Q.Q.Q.Q.`. X`.Q.`. X%X,XpXsXxXBXxXsXpX,X%X    Q.Q.Q.Q. X%X%X%X    %X%X XQ.Z.1.O.  T [         g.                                                              C   [ [ O.=.O./ ` 8 P.W.<.1.1XxXrXrXHXP.    <.KXhXhXhXsXKX X=.1.`.z.8 Z.P.Z.[ [             C i.C                                                         ",
"                                          T [ [ / O.=./ [ [ O.1.1.1.8.v Y $.z.! T [ [ / 6.Q.T 1.F <.b.F Y 1.1.1.=.1.1.Z.P.Z.[ [                                   / O.=.O./ [ O.1.8.b.Z.P.Q.`. X%X%X X`.Q.P.Z.b.8.=.1.Z.P.Z.[ /                                                     T 1.8.b.Z.b.Q.`.Q.Z.b.8.b.Z.P.Q.Q.`. X`.Q.Q.Q.Q.Q.Q.Q.Q.Q.Q.`. X`.Q.`. X%X,XpXsXxXBXxXhXpX:X%X X  Q.Q.Q.Q.y.t.t.t.t.y.  [ [ [ Z.  8.1.T                                         3                                     [ [ O.=.O./ [ u 1.8.! G.6.lXlXwXpX6X@X+X,XpXrXrXrXMX6X6.b.T L.T ! Z.P.Z.[ [               Z         3                                                 ",
"                                          / [ [ / O.=./ [ [ O.1.1.1.8.b...v [ <.P.z.W.$.1.}.V.G.z.T k =.6.1.1.1.=.1.1.Z.P.Z.[ [                                   [ O.=.O./ [ O.1.8.b.Z.P.Q.`. X%X%X X`.Q.P.Z.b.8.=.1.Z.P.Z.[ [                                                   T 1.[ [ Z.  Q.`.[ Z.b.8.b.Z.P.Q.Q.Q.`. X`.Q.Q.Q.Q.Q.Q.Q.Q.Q.Q.`. X`.Q.Q.`. X%X:XpXhXxXBXxXsXpX,X%X  [ [ Q.Q.[ [ [ [ t.t.y.    [ [   [ 8.1.                                                                              [ [ O.=.O./ [ [ 8 G. X`.V.8.sXMXrXsXMXBXhXwXrXsXBX6X6.G.`.}.6.6 1.Z.P.Z.[ [                                                                           ",
"g.                                        [ [ [ / O.=./ [ [ O.1.1.1.8.b.Z.P.$.j v ! O.=.=.[ ! a j >.Z.b.8.1.1.1.=.1.1.Z.P.Z.[ [                                   O.O.=.O./ [ O.1.8.b.Z.P.Q.`. X%X%X X`.Q.P.Z.b.8.=.1.Z.P.Z.[ [                                                 T 1.[ [ [ [ Z.Q.[   [ b.8.b.Z.P.Q.Q.`. X`.Q.Q.Q.Q.Q.Q.Q.Q.Q.Q.Q.`. X`.Q.Q.`. X%X,XpXhXxXBXxXhX  ,X%X Xu u [ ` u u u u ` [ [       Q.P.  [   1.T                                                                           [ [ O.=.O./ [ O.H T W.Q.S ` Z.%XhXMXlXhXhXxXMXpX X1.` <./.G.a ..1.Z.P.Z.[ [                                                                           ",
"  C                                       [ [ [ / O.=./ [ [ O.1.1.1.8.b.Z.P.Q.1.1.1.8.b.b.8.1.1.8.P.Z.b.8.1.1.1.=.1.1.Z.P.Z.[ [                                   O.O.=.O./ [ O.1.8.b.Z.P.Q.`. X%X%X X`.Q.P.Z.b.8.=.1.Z.P.Z.[ [                       gX                      T [ [ [       [ [       [     P.Q.Q.Q.`. X`.Q.Q.Q.Q.Q.Q.Q.Q.Q.Q.Q.Q.`. X`.Q.`. X%X,XrXhXxXBXxX    ,X%Xu e u [ u u e u v u u [       [ [     b.  1.T                                                                         [ [ O.=.O./ [ O.1.u O.8.[ O./ =.P.+X3X3X:X@X XZ.8.O.Y ! 8.T H =.1.Z.P.Z.[ [                                   C                   g.                  ",
"                                          [ [ [ / O.=./ [ [ O.1.1.1.8.b.Z.P.Q.`.1.1.8.b.b.8.1.1.Q.P.Z.b.8.1.1.1.=.1.1.Z.P.Z.[ [                                   [ O.=.O./ [ O.1.8.b.Z.P.Q.`. X%X%X X`.Q.P.Z.b.8.=.1.Z.P.Z.[ [                                             T 1.[ [ [         [         b.    Q.Q.`. X`.Q.Q.Q.Q.Q.Q.Q.Q.Q.Q.Q.Q.Q.`. X`.Q.`. X%X,XpXsXxXBXxXhX  ,X%X[ [ e u u u u u e v                     b.8.1.T                     3                                                 [ O.=.O./ [ O.=.1.1.u [ `...! Y v ` ! 6.z.O.H O.a Y b.$.T v 1.=.1.Z.P.Z.[ [                       3                                                   ",
"                                          [ [ [ / O.=./ [ [ O.1.1.1.8.b.Z.P.Q.`.1.1.8.b.b.8.1.8.Q.P.Z.b.8.1.1.1.=.1.1.Z.P.Z.[ [                                   [ O.=.O./ [ O.1.8.b.Z.P.Q.`. X%X%X X`.Q.P.Z.b.8.=.1.Z.P.Z.8.[                                           T [ [ [ [                   [ [ P.Q.Q.Q.`. X`.Q.Q.Q.Q.Q.Q.Q.Q.Q.Q.Q.Q.Q.`. X`.Q.Q.`. X%X,XpXhXxXBXxX    ,X[ u u u u e e u u c                   P.  b.8.1.T                                                                     [ O.=.O./ [ O.1.1.1.8.v Y $.z.! T [ [ / 6.Q.! 1.F <.b.H Y 1.1.=.1.Z.P.Z.[ [                                                                           ",
"                              C           [ [ [ / O.=./ [ [ O.1.1.1.8.b.Z.P.Q.`. X1.8.b.b.8.1.`.Q.P.Z.b.8.1.1.1.=.1.1.Z.P.Z.[ [                           C       [ O.=.O./ [ O.1.8.b.Z.P.Q.`. X%X%X X`.Q.P.Z.b.8.=.1.8.Z.P.Z.[                                         T [ [     [                       [ Q.  Q.`. X`.Q.Q.Q.Q.Q.Q.Q.Q.Q.Q.Q.Q.Q.`. X`.Q.Q.`. X%X:XrXhXxXBXxXhX  ,X[ u e u e u u u e u v v             [ [   Z.b.    T       gX                                                        v [ O.=.O./ [ O.1.1.1.8.b...v  .<.P.z.P.$.1.}.b.G.z.T k =.8.1.1.=.1.Z.P.Z.8.[ v                               C         3                               ",
"                                          [ [ [ / O.=./ [ [ O.1.1.1.8.b.Z.P.Q.`. X1.8.b.b.8.8.`.Q.P.Z.b.8.1.1.1.=.1.1.Z.P.Z.[ [                                   [ O.=.O./ [ O.1.8.b.Z.P.Q.`. X%X%X X`.Q.P.Z.b.8.=.1.1.Z.P.Z.[                               3       T [ [                                   Q.`. X`.Q.Q.Q.Q.Q.Q.Q.Q.Q.Q.Q.Q.Q.Q.`. X`.Q.Q.`. X%X:XpXhXxXBXxXhXpX[ u e u u u u u t u u u t j             [   [       1.T                                   3                           H [ O.=.O./ [ O.1.1.1.8.b.Z.P.$.j c / O.=.=.[ ! a j <.Z.b.8.1.1.=.1.8.Z.P.Z.[ H                                                                         ",
"            3                             [ [ [ / O.=./ [ [ O.1.1.1.8.b.Z.P.Q.`. X%X8.b.b.8. X`.Q.P.Z.b.8.1.1.1.=.1.1.Z.P.Z.[ [                           C       [ O.=.O./ [ O.1.8.b.Z.P.Q.`. X%X%X X`.Q.P.Z.b.8.=.1.1.Z.P.Z.[                                     T [ [             1.P.6X6XT           [ Q.Q.`. X`.Q.Q.Q.Q.Q.Q.Q.Q.Q.Q.Q.Q.Q.Q.`. X`.Q.Q.`. X%X,XpXsXxXBXxXhXrXu e u u u u e e u u e e e u                   P.Z.b.  1.T                                                         C   T [ O.=.O./ [ O.1.1.1.8.b.Z.P.Q.1.1.1.8.b.b.8.1.1.8.P.Z.b.8.1.1.=.1.1.Z.P.Z.[ T   3                                                       3             ",
"                                          [ [ [ / =./ [ [ O.=.1.1.1.8.b.Z.P.Q.`. X%X8.b.b.8. X`.Q.P.Z.b.8.1.1.1.=.1.1.Z.P.Z.[ [                                   [ O.=.O./ [ O.1.8.b.Z.P.Q.`. X%X%X X`.Q.P.Z.b.8.=.1.1.Z.P.Z.[                                   T 1.[           1.`.6X6Xv v 6XT b.[     [ [ Q.`. X`.Q.Q.Q.Q.Q.Q.Q.Q.Q.Q.Q.Q.Q.Q.`. X`.Q.Q.Q.`. X%X,XrXhXxXBXu u e u u u /.[ u u t u u u j                     [ [ Z.b.8.1.T       C                                                   / [ O.=.O./ [ O.1.1.1.8.b.Z.P.Q.`.1.1.8.b.b.8.1.1.Q.P.Z.b.8.1.1.=.1.1.Z.P.Z.[ /                                                                         ",
"                                          [ [ / O.=./ [ [ O.1.1.1.1.8.b.Z.P.Q.`. X%X,Xb.b.%X X`.Q.P.Z.b.8.1.1.1.=.1.1.Z.P.Z.[ [                                   [ O.=.O./ [ O.1.8.b.Z.P.Q.`. X%X%X X`.Q.P.Z.b.8.=.1.1.Z.P.Z.[                               3 T 1.8.[ [     1.`.6X`.`.6X    v 6X[           [  X`.Q.Q.Q.Q.Q.Q.Q.Q.Q.Q.Q.Q.Q.Q.Q.Q.`. X`.Q.Q.`. X%X,XpXhXxXu u hXe ,X%X X`.Q.u Q.[ u u t c                         [ Z.b.8.1.T                                                         [ [ O.=.O./ [ O.1.1.1.8.b.Z.P.Q.`.1.1.8.b.b.8.1.8.Q.P.Z.b.8.1.1.=.1.1.Z.P.Z.[ [                                                                         ",
"                      C                   [ [ / O.=./ [ [ O.1.1.1.1.8.b.Z.P.Q.`. X%X,X6X,X%X X`.Q.P.Z.b.8.1.1.1.=.1.1.Z.P.Z.[ [                                   [ O.=.O./ [ O.1.8.b.Z.P.Q.`. X%X%X X`.Q.P.Z.b.8.1.=.1.Z.P.Z.[                               T 1.  b.[ [ 1.`.6X`.`.6X X6XQ.  v 6XZ.[         `. X`.Q.Q.Q.Q.Q.Q.Q.Q.Q.Q.Q.Q.Q.Q.Q.Q.`. X`.Q.Q.`. X%X,X  hXxXu lXhXpX  %X X`.  Q.Q.[ [ e u j                           P.Z.  8.1.T                                                       O.[ O.=.O./ [ O.1.1.1.8.b.Z.P.Q.`. X1.8.b.b.8.1.`.Q.P.Z.b.8.1.1.=.1.1.Z.P.Z.[ [                                                                         ",
"                                          [ [ / O.=./ [ [ O.1.1.1.1.8.b.Z.P.Q.`. X%X,X6X,X%X X`.Q.P.Z.b.8.1.1.1.=.1.1.Z.P.Z.[ [                                   [ O.O./ [ O.=.1.8.b.Z.P.Q.`. X%X%X X`.Q.P.Z.b.8.1.=.1.Z.P.Z.[                     3       T 1.    Z.1.`.6X`.`.6X6X6X XP.6X6X6XP.Z.P.[     `. X`.Q.Q.Q.Q.Q.Q.Q.Q.Q.Q.Q.Q.Q.Q.Q.Q.Q.`. X`.Q.Q.Q.`. X%X,XpXhXxXBXxXhXpX,X%X X`.Q.u u e u c c                       [ Q.        8.1.T                           gX              3         O.[ O.=.O./ [ O.1.1.1.8.b.Z.P.Q.`. X1.8.b.b.8.8.`.Q.P.Z.b.8.1.1.=.1.1.Z.P.Z.[ [                                                                         ",
"                                          [ [ / O.=./ [ [ O.1.1.1.1.8.b.Z.P.Q.`. X%X,X6X,X%X X`.Q.P.Z.b.8.1.1.1.=.1.1.Z.P.Z.[ [                                   O.=.O./ [ O.1.1.8.b.Z.P.Q.`. X%X%X X`.Q.P.Z.b.8.1.=.1.Z.P.Z.[                           T 1.8.b.1.`.6X`.`.6X6X6X X8.8.`.8.8.  Z.P.Q.Q.  Q.`. X`.Q.Q.Q.Q.Q.Q.Q.Q.Q.Q.Q.Q.Q.Q.Q.Q.Q.`. X`.Q.Q.Q.`. X%X,XrXhXxXBXxXhXrX,X%X[ [ W.Q.[ u v j                         Q.P.Q.Q.    b.8.1.T                                                   [ [ O.=.O./ [ O.1.1.1.8.b.Z.P.Q.`. X%X8.b.b.8. X`.Q.P.Z.b.8.1.1.=.1.1.Z.P.Z.[ [                                                                         ",
"              gX                          [ [ / O.=./ [ [ O.1.1.1.1.8.b.Z.P.Q.`. X%X,X6X,X%X X`.Q.P.Z.b.8.1.1.1.=.1.1.Z.P.Z.[ [                                 v O.=.O./ [ O.1.1.8.b.Z.P.Q.`. X%X%X X`.Q.P.Z.b.8.1.=.1.=Xu.Z.[ v                       T 1.8.1.`.6X`.`.6X6X6X X8.8.`.8.8.b.    Z.P.Q.Q.Q.  `. X`.Q.Q.Q.Q.Q.Q.Q.Q.Q.Q.Q.Q.Q.Q.Q.Q.Q.`. X`.Q.Q.Q.`. X%X,XpXsXxXBXxXhX` [ [ [ u u Q.[ t j                       [ Q.Q.Q.P.Q.Q.P.Z.b.8.1.T                                   C             [ [ O.=.O./ [ O.1.1.1.8.b.Z.P.Q.`. X%X8.b.b.8. X`.Q.P.Z.b.8.1.1.=.1.1.Z.P.Z.[ [                                       3         C                       ",
"                      C                 v [ [ / O.=./ [ [ O.1.1.1.1.8.b.Z.P.Q.`. X%X,X6X,X%X X`.Q.P.Z.b.8.1.1.1.=.1.1.Z.P.Z.[ [                                 H O.=.O./ [ O.1.1.8.b.Z.P.Q.`. X%X%X X`.Q.P.Z.b.8.1.=.u.u.u.u.[ H                     T 1.1.`.6X`.`.6X6X6X X8.8.`.8.8.  b.8.b.  P.Q.Q.Q.Q.`.  `.Q.Q.Q.Q.Q.Q.Q.Q.Q.Q.Q.Q.Q.Q.Q.Q.Q.Q.`. X`.Q.Q.Q.`. X%X:XpXhXxXBXxXhXpXu e u u e [ [ u e u           v u         [ Q.Q.        P.Z.b.8.1.T                                               [ [ O.=.O./ [ O.1.1.1.8.b.Z.P.Q.`. X%X,Xb.b.%X X`.Q.P.Z.b.8.1.1.=.1.1.Z.P.Z.[ [                                                   3                     ",
"                                        H [ [ / O.=./ [ [ O.1.1.1.1.8.b.Z.P.Q.`. X%X,XO.O.O. X`.Q.P.Z.b.8.1.1.1.=.1.1.Z.P.Z.[ [     g.      C                   T O.=.O./ [ O.1.1.8.b.Z.P.Q.`. X%X%X XH b.,X,X,X,X,X,X,X,X,X,X,X,X,X,X,Xb.H         T 1.`.6X`.`.6X6X6X X8.8.`.8.8.Z.Z.Z.b.8.b.  P.Q.Q.Q.Q.`. X`.Q.Q.Q.Q.Q.Q.Q.Q.Q.Q.Q.Q.Q.Q.Q.Q.Q.Q.`. X`.Q.Q.Q.Q.`. X%X,XpXsXxXBXxX[ u ,X%Xu u u ` u v           u v u           [ [   [ Q.Q.  P.Z.b.8.1.T             3                               [ [ O.=.O./ [ O.1.1.1.8.b.Z.P.Q.`. X%X,X6X,X%X XO.O.O.Z.b.8.1.1.=.1.1.Z.P.Z.[ [                   C                                                     ",
"                      3                 T [ [ / O.=./ [ [ O.1.1.1.1.8.b.Z.P.Q.`. X%XO.M M M O.`.Q.P.Z.b.8.1.1.1.=.1.1.Z.P.Z.[ [                                 / O.=.O./ [ O.1.1.8.b.Z.P.Q.H b.,X,X,X,X,X X X X X X X X X X X X X X X X,X,X,X,XP.b.`.6X`.`.6X6X6X X8.8.`.8.8.Q.Z.Z.Z.b.8.b.Z.P.  Q.Q.Q.Q.`. X`.Q.Q.Q.Q.Q.Q.Q.Q.Q.Q.Q.Q.Q.Q.Q.Q.Q.Q.`. X`.Q.Q.Q.Q.`. X%X,XrXhXxXBXxX  pX,X%X X[ u u v e           c u                   [ P.Q.Q.Q.P.Z.b.8.1.T                                           [ [ O.=.O./ [ O.1.1.1.8.b.Z.P.Q.`. X%X,X6X,X%XO.w.w.w.O.b.8.1.1.=.1.1.Z.P.Z.[ [                                                                         ",
"                                        / [ [ / O.=./ [ [ O.1.1.1.1.8.b.Z.P.Q.`. X%XO.M M M O.`.Q.P.Z.b.8.1.1.1.=.1.1.Z.P.Z.[ [                                 [ O.=.O./ [ O.1.1.8.H b.,X,X,X,X X X X X X`.`.`.`.`.`.`.`.`.`.`.`.`.`.`. X XP.P.`.6X`.`.6X6X6X X8.8.`.8.Q.`.Q.Z.Z.Z.Z.b.8.b.Z.P.  Q.Q.Q.`. X`.Q.Q.Q.Q.Q.Q.Q.Q.Q.Q.Q.Q.Q.Q.Q.Q.Q.Q.Q.Q.`. X`.Q.Q.Q.`. X%X,XpXhXxX  xXsXpX,X%X[ [ u e v u           v u                     [ [ Q.Q.Q.P.Z.b.8.1.T                                         [ [ O.=.O./ [ O.1.1.1.8.b.Z.P.Q.`. X%X,X6X,X%XO.w.w.w.O.b.8.1.1.=.1.1.Z.P.Z.[ [                                                                         ",
"                                        [ [ [ / O.=./ [ [ O.1.1.1.1.8.b.Z.P.Q.`. X%XO.O.O.O.O.`.Q.P.Z.b.8.1.1.1.=.1.1.Z.P.Z.[ [                   C             O.O.=.O./ [ O.H b.,X,X,X X X X X`.`.`.`.`.P.P.P.P.P.P.P.P.P.P.P.P.P.P.P.P.P.`.6X`.`.6X6X6X X8.8.`.8.Z.Q.`.Q.Z.Z.Z.Z.b.8.b.Z.P.  Q.Q.Q.Q.`. X`.Q.Q.Q.Q.Q.Q.Q.Q.Q.Q.Q.Q.Q.Q.Q.Q.Q.Q.Q.Q.`. X`.Q.Q.Q.`. X%X:XpXhXxXBXxXhXrX,X%X[ u t j u           v v e u                       P.Q.Q.Q.P.Z.b.8.1.T                                       [ [ O.=.O./ [ O.1.1.1.8.b.Z.P.Q.`. X%X,X6X,X%XO.O.O.O.O.b.8.1.1.=.1.1.Z.P.Z.[ [                                                                         ",
"                                        [ [ [ / O.=./ [ [ O.1.1.1.1.8.b.Z.P.Q.`. X%XO.M M M O.`.Q.P.Z.b.8.1.1.1.=.1.1.Z.P.Z.[ [                   3             O.O.=.O./ H b.,X,X X X X`.`.`.`.P.P.P.P.P.P.P.P.P.P.P.P.P.P.P.P.P.P.P.P.`.6X`.`.6X6X6X X8.8.`.8.b.Z.Z.Q.`.Q.Z.Z.Z.Z.b.8.b.Z.  Q.Q.Q.Q.`. X`.Q.Q.Q.Q.Q.Q.Q.Q.Q.Q.Q.Q.Q.Q.Q.Q.Q.Q.Q.Q.Q.`. X`.Q.Q.Q.Q.`. X%X,XpXsXxXBXxXhXu u u e u e u         v u e u u e                 Q.Q.  P.Q.Q.Q.P.Z.b.8.1.T                                     [ [ O.=.O./ [ O.1.1.1.8.b.Z.P.Q.`. X%X,X6X,X%XO.w.w.w.O.b.8.1.1.=.1.1.Z.P.Z.[ [                                                                         ",
"                                        [ [ [ / O.=./ [ [ O.1.1.1.1.8.b.Z.L.Q.`. X%XO.M M M O.`.Q.P.Z.b.8.1.1.1.=.1.1.Z.P.Z.[ [                                 [ O.=.H b.:X,X X X`.`.`.P.P.P.P.P.P.P.P.P.L.P.P.P.P.P.P.P.L.P.P.P.P.`.6X`./.6X6X6X X8.8.`.6.Z.b.Z.Z.Q.`.Q.Z.Z.Z.Z.b.8.b.Z.P.Q.W.Q.Q.Q.`. X`.Q.Q.Q.Q.Q.Q.Q.Q.Q.Q.Q.Q.Q.Q.Q.Q.Q.Q.Q.Q.Q./. X`.Q.Q.Q.Q.`. X%X,XpXhXxXBXxXhXpX:X%Xu `.u   W.Q.  u e u u Q.  Q.y.t.t.  t.y.Q.    Q.Q.Q.P.Q.W.Q.P.Z.b.8.1.T                                   [ [ O.=.O./ [ O.1.1.1.8.b.Z.P.Q.`. X%X:X6X,X%XO.w.w.w.O.b.8.1.1.1.1.1.Z.P.Z.[ [                                                                         ",
"                                        [ [ [ / O.=./ [ [ O.1.1.1.1.8.KXKXKXHXKXKXKXKXHXKXKXHXKXJXJXJXJXJXJXJXJXJXJXJXJXJXJXJXJXKXHXKXKXHXKXKXKXKXKXKXHXKXKXHXKXKXKXKXHXKXKXHXKXKXHXKXKXHXKXKXKXKXKXKXHXKXKXHXKXKXKXKXHXKXKXHXKXKXKXKXHXKXKXHXKXKXKXKXKXKXKXHXKXKXKXHXHXKXHXKXKXKXHXKXHXKXKXKXKXKXKXKXHXKXHXHXKXKXHXKXKXKXKXKXHXHXKXKXKXKXKXHXHXKXKXKXKXKXKXKXHXKXKXHXHXKXHXHXKXKXHXKXHXHXKXHXHXKXKXKXKXKXKXKXKXKXKXHXHXHXKXKXKXHXKXKXKXKXKXHXHXKXHXKXKXKXKXKXHXKXKXHXHXKXHXKXKXKXHXKXHXKXKXKXKXKXKXKXHXKXHXHXKXKXHXKXKXKXKXKXHXKXHXKXHXKXKXKXKXKXKXKXHXKXHXHXKXKXHXKXKXKXKXKXHXP.Z.[ [                                                                         ",
"                                        [ [ [ / O.=./ [ [ O.1.1.1.1.8.KXHXKXKXKXHXHXKXKXHXKXKXKXJXJXJXJXJXJXJXJXJXJXJXJXJXJXJXJXKXKXKXKXKXKXHXKXHXHXKXKXHXKXKXKXHXHXKXKXHXKXKXKXKXKXKXHXKXKXHXKXHXHXKXKXHXKXKXKXHXHXKXKXHXKXKXKXHXHXKXKXHXKXKXKXHXHXKXKXHXKXKXKXHXKXKXKXKXKXKXHXKXHXKXKXKXHXHXKXKXHXKXHXKXKXKXKXKXKXKXHXHXHXKXKXKXKXHXKXHXKXKXKXKXKXHXKXKXHXKXKXHXKXKXKXKXKXKXHXKXHXKXKXHXKXKXKXKXHXHXKXKXHXHXKXHXKXKXKXKXKXHXKXKXKXHXKXHXKXKXKXKXKXHXKXKXHXKXKXHXKXKXKXKXKXKXHXKXHXKXKXKXHXHXKXKXHXKXHXKXKXKXKXKXKXKXHXHXHXKXKXKXHXKXKXKXHXHXKXKXHXKXHXKXKXKXKXKXKXKXHXHXHXKXKXP.Z.[ [ v                                                                       ",
"                                        [ [ [ / O.=./ [ [ O.1.1.1.1.8.xX6X6X6X6X6X6X6X6X6X6X6X6X6X6X6X6X6X6X6X6X6X6X6X6X6X6X6X6X3X6X6X6X6X6X6X6X6X6X6X6X6X6X6X6X6X6X6X6X6X6X6X6X3X6X6X6X6X6X6X6X6X6X6X6X6X6X6X6X6X6X6X6X6X6X6X6X6X6X6X6X6X6X6X6X6X6X6X6X6X6X6X6X6X6X6X6X3X6X6X6X6X6X6X6X6X6X6X6X6X6X6X6X6X6X6X6X6X6X6X6X6X6X6X6X6X6X6X6X6X6X6X6X3X6X6X6X6X6X6X6X6X6X6X6X3X6X6X6X6X6X6X6X6X6X6X6X6X6X6X6X6X6X6X6X6X6X6X6X6X6X6X6X6X6X6X6X6X6X6X6X3X6X6X6X6X6X6X6X6X6X6X6X3X6X6X6X6X6X6X6X6X6X6X6X6X6X6X6X6X6X6X6X6X6X6X6X6X6X6X6X6X6X6X6X6X6X6X6X6X6X6X6X6X6X6X6X6X6X6X6X6X6X6XxXP.Z.[ [ H                                                                       ",
"                                        [ [ [ / O.=./ [ [ O.1.1.1.1.8.xX6X6X6X6X6X6X6X6X6X6X6X6X6X6X6X6X6X6X6X6X6X6X6X6X6X6X6X6X6X6X6X6X6X6X6X6X6X6X6X6X6X6X6X6X6X6X6X6X6X6X6X6X6X6X6X6X6X6X6X6X6X6X6X6X6X6X6X6X6X6X6X6X6X6X6X6X6X6X6X6X6X6X6X6X6X6X6X6X6X6X6X6X6X6X6X6X6X6X6X6X6X6X6X6X6X6X6X6X6X6X6X6X6X6X6X6X6X6X6X6X6X6X6X6X6X6X6X6X6X6X6X6X6X6X6X6X6X6X6X6X6X6X6X6X6X6X6X6X6X6X6X6X6X6X6X6X6X6X6X6X6X6X6X6X6X6X6X6X6X6X6X6X6X6X6X6X6X6X6X6X6X6X6X6X6X6X6X6X6X6X6X6X6X6X6X6X6X6X6X6X6X6X6X6X6X6X6X6X6X6X6X6X6X6X6X6X6X6X6X6X6X6X6X6X6X6X6X6X6X6X6X6X6X6X6X6X6X6X6X6X6X6X6XxXP.Z.[ [ T             3                                                         ",
"                                        [ [ [ / O.=./ [ [ O.1.1.1.1.8.Z.Z.Z.Z.Z.Z.Z.Z.Z.Z.Z.Z.Z.Z.Z.Z.Z.Z.Z.Z.Z.Z.Z.Z.Z.Z.Z.Z.Z.Z.Z.Z.Z.Z.Z.Z.Z.Z.Z.Z.Z.Z.Z.Z.Z.Z.Z.Z.Z.Z.Z.Z.Z.Z.Z.Z.Z.Z.Z.Z.Z.Z.Z.Z.Z.Z.Z.Z.Z.Z.Z.Z.Z.Z.Z.Z.Z.Z.Z.Z.Z.Z.Z.Z.Z.Z.Z.Z.Z.Z.Z.Z.Z.Z.Z.Z.Z.Z.Z.Z.Z.Z.Z.Z.Z.Z.Z.Z.Z.Z.Z.Z.Z.Z.Z.Z.Z.Z.Z.Z.Z.Z.Z.Z.Z.Z.Z.Z.Z.Z.Z.Z.Z.Z.Z.Z.Z.Z.Z.Z.Z.Z.Z.Z.Z.Z.Z.Z.Z.Z.Z.Z.Z.Z.Z.Z.Z.Z.Z.Z.Z.Z.Z.Z.Z.Z.Z.Z.Z.Z.Z.Z.Z.Z.Z.Z.Z.Z.Z.Z.Z.Z.Z.Z.Z.Z.Z.Z.Z.Z.Z.Z.Z.Z.Z.Z.Z.Z.Z.Z.Z.Z.Z.Z.Z.Z.Z.Z.Z.Z.Z.Z.Z.Z.Z.Z.Z.Z.Z.Z.Z.Z.Z.Z.Z.Z.Z.Z.Z.Z.Z.Z.Z.Z.Z.Z.Z.Z.Z.Z.Z.Z.Z.Z.Z.P.Z.[ [ /                                                                       ",
"                                        [ [ [ / O.=./ [ [ O.1.1.1.1.8.b.Z.P.,X`.[ [ [ [ [ [ [ [ [ [ [ Q. XQ.[ [ [ [ [ [ [ [ [ [ [ Q. XQ.[ [ [ [ [ [ [ [ [ [ [ Q. XQ.[ [ [ [ [ [ [ [ [ [ [ Q. XQ.[ [ [ [ [ [ [ [ [ [ [ Q. XQ.[ [ [ [ [ [ [ [ [ [ [ Q. XQ.[ [ [ [ [ [ [ [ [ [ [ Q. XQ.[ [ [ [ [ [ [ [ [ [ [ Q. XQ.[ [ [ [ [ [ [ [ [ [ [ Q. XQ.[ [ [ [ [ [ [ [ [ [ [ Q. XQ.[ [ [ [ [ [ [ [ [ [ [ Q. XQ.[ [ [ [ [ [ [ [ [ [ [ Q. XQ.[ [ [ [ [ [ [ [ [ [ [ Q. XQ.[ [ [ [ [ [ [ [ [ [ [ Q. XQ.[ [ [ [ [ [ [ [ [ [ [ Q. XQ.[ [ [ [ [ [ [ [ [ [ [ Q. XQ.[ [ [ [ [ [ [ [ [ [ [ `.,X1.1.Z.P.Z.[ [ [             g.                                                        ",
"                                        [ [ [ / O.=./ [ [ O.1.1.1.1.8.b.Z.P.xX,X[ H H H H H H H H H [ Q.,XQ.[ H H H H H H H H H [ Q.,XQ.[ H H H H H H H H H [ Q.,XQ.[ H H H H H H H H H [ Q.,XQ.[ H H H H H H H H H [ Q.,XQ.[ H H H H H H H H H [ Q.,XQ.[ H H H H H H H H H [ Q.,XQ.[ H H H H H H H H H [ Q.,XQ.[ H H H H H H H H H [ Q.,XQ.[ H H H H H H H H H [ Q.,XQ.[ H H H H H H H H H [ Q.,XQ.[ H H H H H H H H H [ Q.,XQ.[ H H H H H H H H H [ Q.,XQ.[ H H H H H H H H H [ Q.,XQ.[ H H H H H H H H H [ Q.,XQ.[ H H H H H H H H H [ Q.,XQ.[ H H H H H H H H H [ ,XxX1.1.Z.P.Z.8.[ [                     C                                                 ",
"                                        [ [ [ / O.=./ [ [ O.1.1.1.1.8.b.Z.P.xX,X[ [ [ [ [ [ [ [ [ [ [ Q.,XQ.[ [ [ [ [ [ [ [ [ [ [ Q.,XQ.[ [ [ [ [ [ [ [ [ [ [ Q.,XQ.[ [ [ [ [ [ [ [ [ [ [ Q.,XQ.[ [ [ [ [ [ [ [ [ [ [ Q.,XQ.[ [ [ [ [ [ [ [ [ [ [ Q.,XQ.[ [ [ [ [ [ [ [ [ [ [ Q.,XQ.[ [ [ [ [ [ [ [ [ [ [ Q.,XQ.[ [ [ [ [ [ [ [ [ ` [ Q.,XQ.[ [ [ [ [ [ [ ` [ [ [ Q.,XQ.[ [ [ [ [ ` [ [ [ [ [ Q.,XQ.[ [ [ ` [ [ [ [ [ ` [ Q.,XQ.[ [ [ [ [ [ [ [ [ [ [ Q.,XQ.[ [ [ [ [ [ [ [ [ [ [ Q.,XQ.[ [ [ [ [ [ [ [ [ [ [ Q.,XQ.[ [ [ [ [ [ [ ` [ [ [ Q.,XQ.[ [ [ [ [ ` [ [ [ [ [ ,XxX1.1.8.Z.P.Z.[ [                                                       gX              ",
"                          g.            [ [ [ / O.=./ [ [ O.1.1.1.1.8.b.Z.P.xX,XJXJXJXJXJXJXJXJXJXJXJX,X,XJXJXJXJXJXJXJXJXJXJXJXJX,X,XJXJXJXJXJXJXJXJXJXJXJXJX,X,XJXJXJXJXJXJXJXJXJXJXJXJX,X,XJXJXJXJXJXJXJXJXJXJXJXJX,X,XJXJXJXJXJXJXJXJXJXJXJXJX,X,XJXJXJXJXJXKXKXKXKXKXKXKX:X,XKXKXKXKXKXKXKXKXKXKXHXKX:X,XKXKXKXHXKXKXKXKXHXKXKXKX,X,XKXKXKXKXKXKXHXKXKXKXKXKX,X,XKXKXKXKXKXKXKXKXKXKXKXKX,X,XKXKXHXKXKXKXKXKXKXKXKXKX,X,XKXJXJXJXJXJXJXJXJXJXJXJX,X,XJXJXJXJXJXJXJXJXJXJXJXJX,X,XJXJXJXJXJXJXJXJXJXJXJXJX,X,XJXJXJXJXJXJXJXKXKXKXKXKX,X,XKXKXKXKXKXKXKXKXKXKXKXKX,XxX1.1.1.Z.P.Z.[ [                                                             C         ",
"                                        [ [ / [ O.=./ [ [ O.1.1.1.1.8.b.Z.P.xX,X,X,X,X,X,X,X,X,X,X,X,X,X,X,X,X,X,X,X,X,X,X,X,X,X,X,X,X,X,X,X,X,X,X,X,X,X,X,X,X,X,X,X,X,X,X,X,X,X,X,X,X,X,X,X,X,X,X,X,X,X,X,X,X,X,X,X,X,X,X,X,X,X,X,X,X,X,X,X,X,X,X,X,X,X,X,X,X,X,X,X:X,X:X,X,X,X,X,X:X,X:X,X:X,X:X,X,X,X,X,X,X,X,X,X,X,X:X,X,X,X,X,X:X,X,X,X,X,X:X,X,X,X,X,X:X,X,X,X,X,X:X,X,X:X,X,X:X,X,X,X,X,X,X,X,X,X,X,X:X,X,X,X,X,X,X,X,X,X,X,X,X,X,X,X,X,X,X,X,X,X,X,X,X,X,X,X,X,X,X,X,X,X,X,X,X,X,X,X,X,X,X,X,X,X,X,X,X,X,X,X,X,X,X,X,X,X,X,X:X,X,X,X,X,X:X,X,X:X,X,X:X,X,X,X:X,XxX1.1.1.Z.P.Z.[ [                                                                       ",
"                                      v [ [ / [ O.=./ [ [ O.1.1.1.1.8.b.Z.P.xX,X,X,X,X,X,X,X,X,X,X,X,X,X,X,X,X,X,X,X,X,X,X,X,X,X,X,X,X,X,X,X,X,X,X,X,X,X,X,X,X,X,X,X,X,X,X,X,X,X,X,X,X,X,X,X,X,X,X,X,X,X,X,X,X,X,X,X,X,X,X,X,X,X,X,X,X,X,X,X,X,X,X,X,X,X,X,X,X,X,X,X,X,X,X,X,X,X,X,X,X,X,X,X,X,X,X,X,X,X,X,X,X,X,X,X,X,X,X,X,X,X,X,X,X,X,X,X,X,X,X,X,X,X,X,X,X,X,X,X,X,X,X,X,X,X,X,X,X,X,X,X,X,X,X,X,X,X,X,X,X,X,X,X,X,X,X,X,X,X,X,X,X,X,X,X,X,X,X,X,X,X,X,X,X,X,X,X,X,X,X,X,X,X,X,X,X,X,X,X,X,X,X,X,X,X,X,X,X,X,X,X,X,X,X,X,X,X,X,X,X,X,X,X,X,X,X,X,X,X,X,X,X,X,X,X,X,XxX1.1.1.Z.P.Z.[ [                                                                       ",
"                                      H [ [ / [ O.=./ [ [ O.1.1.1.1.8.b.Z.P.xX,X,X,X,X,X,X,X,X,X,X,X,X,X,X,X,X,X,X,X,X,X,X,X,X,X,X,X,X,X,X,X,X,X,X,X,X,X,X,X,X,X,X,X,X,X,X,X,X,X,X,X,X,X,X,X,X,X,X,X,X,X,X,X,X,X,X,X,X,X,X,X,X,X,X,X,X,X,X,X,X,X,X,X,X,X,X,X,X,X,X,X,X,X,X,X,X,X,X,X,X,X,X,X,X,X,X,X,X,X,X,X,X,X,X,X,X,X,X,X,X,X,X,X,X,X,X,X,X,X,X,X,X,X,X,X,X,X,X,X,X,X,X,X,X,X,X,X,X,X,X,X,X,X,X,X,X,X,X,X,X,X,X,X,X,X,X,X,X,X,X,X,X,X,X,X,X,X,X,X,X,X,X,X,X,X,X,X,X,X,X,X,X,X,X,X,X,X,X,X,X,X,X,X,X,X,X,X,X,X,X,X,X,X,X,X,X,X,X,X,X,X,X,X,X,X,X,X,X,X,X,X,X,X,X,X,X,XxX1.1.1.Z.P.Z.[ [     3                                                                 ",
"                                      T [ [ / [ O.=./ [ [ O.1.1.1.1.8.b.Z.P.xX,X,X,X,X,X,X,X,X,X,X,X,X,X,X,X,X,X,X,X,X,X,X,X,X,X,X,X,X,X,X,X,X,X,X,X,X,X,X,X,X,X,X,X,X,X,X,X,X,X,X,X,X,X,X,X,X,X,X,X,X,X,X,X,X,X,X,X,X,X,X,X,X,X,X,X,X,X,X,X,X,X,X,X,X,X,X,X,X,X,X,X,X,X,X,X,X,X,X,X,X,X,X,X,X,X,X,X,X,X,X,X,X,X,X,X,X,X,X,X,X,X,X,X,X,X,X,X,X,X,X,X,X,X,X,X,X,X,X,X,X,X,X,X,X,X,X,X,X,X,X,X,X,X,X,X,X:X,X:X,X:X,X,X,X,X,X,X,X,X,X,X,X,X,X,X,X,X,X,X,X,X,X,X,X,X,X,X,X,X,X,X,X,X,X,X,X,X,X,X,X,X,X,X,X,X,X,X,X,X,X,X,X,X,X,X,X,X,X,X,X,X,X,X,X,X,X,X,X,X,X,X,X,X,X,X,X,XxX1.1.1.Z.P.Z.[ [                                                                       ",
"v v v v v v v v v v v v v v v v v v v / [ [ / O.=./ [ [ O.1.1.1.1.1.8.b.Z.P.xXxXxXxXxXxXxXxXxXxXxXxXxXxXxXxXxXxXxXxXxXxXxXxXxXxXxXxXxXxXxXxXxXxXxXxXxXxXxXxXxXxXxXxXxXxXxXxXxXxXJXJXJXJXJXJXJXJXJXJXJXJXJXJXJXJXJXJXJXJXJXJXJXJXJXJXJXJXJXJXJXJX,X XxXxXxXxXxXxXxXxXxXxXxXxXxXxXxXxXxXxXxXxXxXxXxXxXxXxXxXxXxXxXxXxXxXxXxXxXxXxXxXxXxXxXxXxXxXxXxXxXxXxXxXxXxXxXxXxXxXxXxXxXxXxXxXxXxXxXxXxXxXxXxX X,XKXKXKXKXKXKXKXHXKXKXHXKXKXJXJXJXJXJXJXJXJXJXJXJXJXJXJXJXJXJXJXJXxXxXxXxXxXxXxXxXxXxXxXxXxXxXxXxXxXxXxXxXxXxXxXxXxXxXxXxXxXxXxXxXxXxXxXxXxXxXxXxXxXxXxXxXxXxXxXxXxXxX1.1.1.Z.P.Z.[ [ v v v v v v v v v v v v v v v v v v v v v v v v v v v v v v v v v v v ",
"v v v v v v v v v v v v v v v v v v v [ [ [ / O.=./ [ [ O.1.1.1.1.1.8.b.Z.xXhXhXhXhXhXhXhXhXhXhXhXhXhXhXhXhXhXhXhXhXhXhXhXhXhXhXhXhXhXhXhXhXhXhXhXhXhXhXhXhXhXhXhXhXhXhXhXhXhXhXJXJXJXJXJXJXJXJXJXJXJXJXJXJXJXJXJXJXJXJXJXJXJXJXJXJXJXJXJXJXJXJX`. XhXhXhXhXhXhXhXhXhXhXhXhXhXhXhXhXhXhXhXhXhXhXhXhXhXhXhXhXhXhXhXhXhXhXhXhXhXhXhXhXhXhXhXhXhXhXhXhXhXhXhXhXhXhXhXhXhXhXhXhXhXhXhXhXhXhXhXhXhXhXhX X`.KXKXKXKXHXHXKXKXHXKXKXKXHXJXJXJXJXJXJXJXJXJXJXJXJXJXJXJXJXJXJXJXhXhXhXhXhXhXhXhXhXhXhXhXhXhXhXhXhXhXhXhXhXhXhXhXhXhXhXhXhXhXhXhXhXhXhXhXhXhXhXhXhXhXhXhXhXhXhXhXhXhXxX1.1.Z.P.Z.[ [ v v v v v v v v v v v v v v v v v v v v v v v v v v v v v v v v v v v ",
"v v v v v v v v v v v v v v v v v v v [ [ [ / O.=./ [ [ O.1.1.1.1.1.8.b.xXhXhXhXhXhXhXhXhXhXhXhXhXhXhXhXhXhXhXhXhXhXhXhXhXhXhXhXhXhXhXhXhXhXhXhXhXhXhXhXhXhXhXhXhXhXhXhXhXhXhXJXJXJXJXJXJXJXJXJXJXJXJXJXJXJXJXJXJXJXJXJXJXJXJXJXJXJXJXJXJXJXJXJXQ. XhXhXhXhXhXhXhXhXhXhXhXhXhXhXhXhXhXhXhXhXhXhXhXhXhXhXhXhXhXhXhXhXhXhXhXhXhXhXhXhXhXhXhXhXhXhXhXhXhXhXhXhXhXhXhXhXhXhXhXhXhXhXhXhXhXhXhXhXhXhXhX XQ.HXHXHXKXKXHXKXKXHXKXHXKXKXJXJXJXJXJXJXJXJXJXJXJXJXJXJXJXJXJXJXJXJXhXhXhXhXhXhXhXhXhXhXhXhXhXhXhXhXhXhXhXhXhXhXhXhXhXhXhXhXhXhXhXhXhXhXhXhXhXhXhXhXhXhXhXhXhXhXhXhXhXhXxX1.Z.P.Z.[ [ v v v v v H v v v v v v v v v v v v v v v v v v v v v v H v v v v v v ",
"v v v v v v v H v v v v v v v H v v v [ [ [ / O.=./ [ [ O.1.1.1.1.1.8.xXhXhXhXhXhXhXhXhXhXhXhXhXhXhXhXhXhXhXhXhXhXhXhXhXhXhXhXhXhXhXhXhXhXhXhXhXhXhXhXhXhXhXhXhXhXhXhXhXhXhXhXJXJXJXJXJXJXJXJXJXJXJXJXJXJXJXJXJXJXJXJXJXJXJXJXJXJXJXJXJXJXJXJXJXQ. XhXhXhXhXhXhXhXhXhXhXhXhXhXhXhXhXhXhXhXhXhXhXhXhXhXhXhXhXhXhXhXhXhXhXhXhXhXhXhXhXhXhXhXhXhXhXhXhXhXhXhXhXhXhXhXhXhXhXhXhXhXhXhXhXhXhXhXhXhXhXhX XQ.KXKXKXHXKXKXKXKXKXHXKXHXKXJXJXJXJXJXJXJXJXJXJXJXJXJXJXJXJXJXJXJXJXhXhXhXhXhXhXhXhXhXhXhXhXhXhXhXhXhXhXhXhXhXhXhXhXhXhXhXhXhXhXhXhXhXhXhXhXhXhXhXhXhXhXhXhXhXhXhXhXhXhXhXxXZ.P.Z.[ [ v v v H v v v v v v v v H v v v v v v v v v H v v H v v v v H v v H v ",
"v v v v H H v v H H H v v v v v H v v [ [ [ / O.=./ [ [ O.1.1.1.1.1.xXhXhXhXhXhXhXhXhXhXhXhXhXhXhXhXhXhXhXhXhXhXhXhXhXhXhXhXhXhXhXhXhXhXhXhXhXhXhXhXhXhXhXhXhXhXhXhXhXhXhXhXJXJXJXJXJXJXJXJXJXJXJXJXJXJXJXJXJXJXJXJXJXJXJXJXJXJXJXJXJXJXJXJXJX6XQ. XhXhXhXhXhXhXhXhXhXhXhXhXhXhXhXhXhXhXhXhXhXhXhXhXhXhXhXhXhXhXhXhXhXhXhXhXhXhXhXhXhXhXhXhXhXhXhXhXhXhXhXhXhXhXhXhXhXhXhXhXhXhXhXhXhXhXhXhXhXhXhX XQ.6XKXHXKXKXKXHXHXKXKXKXHXKXJXJXJXJXJXJXJXJXJXJXJXJXJXJXJXJXJXJXJXJXJXhXhXhXhXhXhXhXhXhXhXhXhXhXhXhXhXhXhXhXhXhXhXhXhXhXhXhXhXhXhXhXhXhXhXhXhXhXhXhXhXhXhXhXhXhXhXhXhXhXhXhXxXP.Z.[ [ v v H v H H H H v v H v v v v H v v v v H H H H v v v H v v v v H H v ",
"H v v v v H v H v H H H H H v H v H v [ [ [ / O.=./ [ [ O.1.1.1.1.xXhXhXhXhXhXhXhXhXhXhXhXhXhXhXhXhXhXhXhXhXhXhXhXhXhXhXhXhXhXhXhXhXhXhXhXhXhXhXhXhXhXhXhXhXhXhXhXhXhXhXhXhXJXJXJXJXJXJXJXJXJXJXJXJXJXJXJXJXJXJXJXJXJXJXJXJXJXJXJXJXJXJXJXJXJX`.Q. XhXhXhXhXhXhXhXhXhXhXhXhXhXhXhXhXhXhXhXhXhXhXhXhXhXhXhXhXhXhXhXhXhXhXhXhXhXhXhXhXhXhXhXhXhXhXhXhXhXhXhXhXhXhXhXhXhXhXhXhXhXhXhXhXhXhXhXhXhXhXhX XQ.`.KXKXHXHXKXHXHXKXKXKXHXKXJXJXJXJXJXJXJXJXJXJXJXJXJXJXJXJXJXJXJXJXJXhXhXhXhXhXhXhXhXhXhXhXhXhXhXhXhXhXhXhXhXhXhXhXhXhXhXhXhXhXhXhXhXhXhXhXhXhXhXhXhXhXhXhXhXhXhXhXhXhXhXhXhXxXZ.[ [ v v H H H H H H H v H v v H H v H v H v H H H H v H H H H v v H H H H ",
"H T v H H H H H T H H H H H T H H H T [ [ [ / O.=./ [ [ O.1.1.1.xXhXhXhXhXhXhXhXhXhXhXhXhXhXhXhXhXhXhXhXhXhXhXhXhXhXhXhXhXhXhXhXhXhXhXhXhXhXhXhXhXhXhXhXhXhXhXhXhXhXhXhXhXJXJXJXJXJXJXJXJXJXJXJXJXJXJXJXJXJXJXJXJXJXJXJXJXJXJXJXJXJXJXJXJXJXJX`.Q. XhXhXhXhXhXhXhXhXhXhXhXhXhXhXhXhXhXhXhXhXhXhXhXhXhXhXhXhXhXhXhXhXhXhXhXhXhXhXhXhXhXhXhXhXhXhXhXhXhXhXhXhXhXhXhXhXhXhXhXhXhXhXhXhXhXhXhXhXhXhXhX XQ.`.HXKXKXKXKXKXKXKXHXKXHXKXJXJXJXJXJXJXJXJXJXJXJXJXJXJXJXJXJXJXJXJXJXJXhXhXhXhXhXhXhXhXhXhXhXhXhXhXhXhXhXhXhXhXhXhXhXhXhXhXhXhXhXhXhXhXhXhXhXhXhXhXhXhXhXhXhXhXhXhXhXhXhXhXhXhXxX[ [ T H H H H H H H H T H T H H T T T v H H H T T H T H v v H T H T T H H ",
"H H H H H T T T H T H H H H T H H H T [ [ [ / O.=./ [ [ O.1.1.xXhXhXhXhXhXhXhXhXhXhXhXhXhXhXhXhXhXhXhXhXhXhXhXhXhXhXhXhXhXhXhXhXhXhXhXhXhXhXhXhXhXhXhXhXhXhXhXhXhXhXhXhXhXJXJXJXJXJXJXJXJXJXJXJXJXJXJXJXJXJXJXJXJXJXJXJXJXJXJXJXJXJXJXJXJXJXJXQ. XhXhXhXhXhXhXhXhXhXhXhXhXhXhXhXhXhXhXhXhXhXhXhXhXhXhXhXhXhXhXhXhXhXhXhXhXhXhXhXhXhXhXhXhXhXhXhXhXhXhXhXhXhXhXhXhXhXhXhXhXhXhXhXhXhXhXhXhXhXhXhXhXhX XQ.KXKXHXKXHXKXKXHXKXHXKXKXJXJXJXJXJXJXJXJXJXJXJXJXJXJXJXJXJXJXJXJXJXJXhXhXhXhXhXhXhXhXhXhXhXhXhXhXhXhXhXhXhXhXhXhXhXhXhXhXhXhXhXhXhXhXhXhXhXhXhXhXhXhXhXhXhXhXhXhXhXhXhXhXhXhXhXxX[ H H T H H T H T H H H T H H H T H H H T H T H T H T T H H H H T H H T ",
"H T T H H T T T T T T H T T T T T T H [ [ [ / O.=./ [ [ O.1.xXhXhXhXhXhXhXhXhXhXhXhXhXhXhXhXhXhXhXhXhXhXhXhXhXhXhXhXhXhXhXhXhXhXhXhXhXhXhXhXhXhXhXhXhXhXhXhXhXhXhXhXhXhXJXJXJXJXJXJXJXJXJXJXJXJXJXJXJXJXJXJXJXJXJXJXJXJXJXJXJXJXJXJXJXJXJXJX6XQ. XhXhXhXhXhXhXhXhXhXhXhXhXhXhXhXhXhXhXhXhXhXhXhXhXhXhXhXhXhXhXhXhXhXhXhXhXhXhXhXhXhXhXhXhXhXhXhXhXhXhXhXhXhXhXhXhXhXhXhXhXhXhXhXhXhXhXhXhXhXhXhXhXhX XQ.3XKXKXKXHXKXKXHXKXKXKXHXJXJXJXJXJXJXJXJXJXJXJXJXJXJXJXJXJXJXJXJXJXJXJXhXhXhXhXhXhXhXhXhXhXhXhXhXhXhXhXhXhXhXhXhXhXhXhXhXhXhXhXhXhXhXhXhXhXhXhXhXhXhXhXhXhXhXhXhXhXhXhXhXhXhXhXhXxXT T T H H H T H H H T H T H H H T T H T T T H T T T H H H T T T T H H ",
"T H H / H T T T H T T T T T T T T / T [ [ [ / O.=./ [ [ O.xXhXhXhXhXhXhXhXhXhXhXhXhXhXhXhXhXhXhXhXhXhXhXhXhXhXhXhXhXhXhXhXhXhXhXhXhXhXhXhXhXhXhXhXhXhXhXhXhXhXhXhXhXhXhXJXJXJXJXJXJXJXJXJXJXJXJXJXJXJXJXJXJXJXJXJXJXJXJXJXJXJXJXJXJXJXJXJXJX`.Q. XhXhXhXhXhXhXhXhXhXhXhXhXhXhXhXhXhXhXhXhXhXhXhXhXhXhXhXhXhXhXhXhXhXhXhXhXhXhXhXhXhXhXhXhXhXhXhXhXhXhXhXhXhXhXhXhXhXhXhXhXhXhXhXhXhXhXhXhXhXhXhXhXhX XQ.`.HXKXKXJXJXJXJXJXJXJXJXJXJXJXJXJXJXJXJXJXJXJXJXJXJXJXJXJXJXJXJXJXJXJXhXhXhXhXhXhXhXhXhXhXhXhXhXhXhXhXhXhXhXhXhXhXhXhXhXhXhXhXhXhXhXhXhXhXhXhXhXhXhXhXhXhXhXhXhXhXhXhXhXhXhXhXhXhXxXH T T T T T T H T T / T T T T T H T T T T T H T T T H T / T T / / T ",
"T T T / T / / T T T / T T / T T T T T [ [ [ / O.=./ [ [ xXhXhXhXhXhXhXhXhXhXhXhXhXhXhXhXhXhXhXhXhXhXhXhXhXhXhXhXhXhXhXhXhXhXhXhXhXhXhXhXhXhXhXhXhXhXhXhXhXhXhXhXhXhXhXJXJXJXJXJXJXJXJXJXJXJXJXJXJXJXJXJXJXJXJXJXJXJXJXJXJXJXJXJXJXJXJXJXJXJX`.Q. XhXhXhXhXhXhXhXhXhXhXhXhXhXhXhXhXhXhXhXhXhXhXhXhXhXhXhXhXhXhXhXhXhXhXhXhXhXhXhXhXhXhXhXhXhXhXhXhXhXhXhXhXhXhXhXhXhXhXhXhXhXhXhXhXhXhXhXhXhXhXhXhXhX XQ.`.KXKXHXJXJXJXJXJXJXJXJXJXJXJXJXJXJXJXJXJXJXJXJXJXJXJXJXJXJXJXJXJXJXJXJXhXhXhXhXhXhXhXhXhXhXhXhXhXhXhXhXhXhXhXhXhXhXhXhXhXhXhXhXhXhXhXhXhXhXhXhXhXhXhXhXhXhXhXhXhXhXhXhXhXhXhXhXhXhXxX/ T T T T T T / / T T T T T / T T T / / T / / T / / T T T T / / T ",
"T T T T / T / / T / T / T T / T / T T [ [ [ / O.=./ [ xXhXhXhXhXhXhXhXhXhXhXhXhXhXhXhXhXhXhXhXhXhXhXhXhXhXhXhXhXhXhXhXhXhXhXhXhXhXhXhXhXhXhXhXhXhXhXhXhXhXhXhXhXhXhXhXJXJXJXJXJXJXJXJXJXJXJXJXJXJXJXJXJXJXJXJXJXJXJXJXJXJXJXJXJXJXJXJXJXJXJX`.Q. XhXhXhXhXhXhXhXhXhXhXhXhXhXhXhXhXhXhXhXhXhXhXhXhXhXhXhXhXhXhXhXhXhXhXhXhXhXhXhXhXhXhXhXhXhXhXhXhXhXhXhXhXhXhXhXhXhXhXhXhXhXhXhXhXhXhXhXhXhXhXhXhXhX XQ.`.KXKXHXJXJXJXJXJXJXJXJXJXJXJXJXJXJXJXJXJXJXJXJXJXJXJXJXJXJXJXJXJXJXJXJXhXhXhXhXhXhXhXhXhXhXhXhXhXhXhXhXhXhXhXhXhXhXhXhXhXhXhXhXhXhXhXhXhXhXhXhXhXhXhXhXhXhXhXhXhXhXhXhXhXhXhXhXhXhXhXxX/ / / / / / T T / T / / T T T T / T / / T / T T / / / / T T / T ",
"T T / / / / T / T [ / / / / T T / / [ [ [ [ / O.=./ xXhXhXhXhXhXhXhXhXhXhXhXhXhXhXhXhXhXhXhXhXhXhXhXhXhXhXhXhXhXhXhXhXhXhXhXhXhXhXhXhXhXhXhXhXhXhXhXhXhXhXhXhXhXhXhXJXJXJXJXJXJXJXJXJXJXJXJXJXJXJXJXJXJXJXJXJXJXJXJXJXJXJXJXJXJXJXJXJXJXJX6X`.Q. XhXhXhXhXhXhXhXhXhXhXhXhXhXhXhXhXhXhXhXhXhXhXhXhXhXhXhXhXhXhXhXhXhXhXhXhXhXhXhXhXhXhXhXhXhXhXhXhXhXhXhXhXhXhXhXhXhXhXhXhXhXhXhXhXhXhXhXhXhXhXhXhXhX XQ.`.3XKXKXJXJXJXJXJXJXJXJXJXJXJXJXJXJXJXJXJXJXJXJXJXJXJXJXJXJXJXJXJXJXJXJXJXhXhXhXhXhXhXhXhXhXhXhXhXhXhXhXhXhXhXhXhXhXhXhXhXhXhXhXhXhXhXhXhXhXhXhXhXhXhXhXhXhXhXhXhXhXhXhXhXhXhXhXhXhXhXhXxX/ / / [ / / / [ / / / / / / / / / T / / / T T / / / T T / / / ",
"/ / [ / / [ / / / T / [ / [ / [ [ T / [ [ [ / O.=.xXhXhXhXhXhXhXhXhXhXhXhXhXhXhXhXhXhXhXhXhXhXhXhXhXhXhXhXhXhXhXhXhXhXhXhXhXhXhXhXhXhXhXhXhXhXhXhXhXhXhXhXhXhXhXhXhXJXJXJXJXJXJXJXJXJXJXJXJXJXJXJXJXJXJXJXJXJXJXJXJXJXJXJXJXJXJXJXJXJXJXJX`.`.Q. XhXhXhXhXhXhXhXhXhXhXhXhXhXhXhXhXhXhXhXhXhXhXhXhXhXhXhXhXhXhXhXhXhXhXhXhXhXhXhXhXhXhXhXhXhXhXhXhXhXhXhXhXhXhXhXhXhXhXhXhXhXhXhXhXhXhXhXhXhXhXhXhXhX XQ.`.`.KXKXJXJXJXJXJXJXJXJXJXJXJXJXJXJXJXJXJXJXJXJXJXJXJXJXJXJXJXJXJXJXJXJXJXhXhXhXhXhXhXhXhXhXhXhXhXhXhXhXhXhXhXhXhXhXhXhXhXhXhXhXhXhXhXhXhXhXhXhXhXhXhXhXhXhXhXhXhXhXhXhXhXhXhXhXhXhXhXhXhXxX[ [ [ T / / T / / [ / [ / / / [ T [ / [ [ T / [ / / [ / / / ",
"[ / [ / / [ / [ [ / [ [ / [ / / / / [ [ [ [ / O.xXxXxXxXxXxXxXxXxXxXxXxXxXxXxXxXxXxXxXxXxXxXxXxXxXxXxXxXxXxXxXxXxXxXxXxXxXxXxXxXxXxXxXxXxXxXxXxXxXxXxXxXxXxXxXxXxXJXJXJXJXJXJXJXJXJXJXJXJXJXJXJXJXJXJXJXJXJXJXJXJXJXJXJXJXJXJXJXJXJXJXJXJX`.`.Q. XxXxXxXxXxXxXxXxXxXxXxXxXxXxXxXxXxXxXxXxXxXxXxXxXxXxXxXxXxXxXxXxXxXxXxXxXxXxXxXxXxXxXxXxXxXxXxXxXxXxXxXxXxXxXxXxXxXxXxXxXxXxXxXxXxXxXxXxXxXxXxXxXxX XQ.`.`.KXHXJXJXJXJXJXJXJXJXJXJXJXJXJXJXJXJXJXJXJXJXJXJXJXJXJXJXJXJXJXJXJXJXJXJXxXxXxXxXxXxXxXxXxXxXxXxXxXxXxXxXxXxXxXxXxXxXxXxXxXxXxXxXxXxXxXxXxXxXxXxXxXxXxXxXxXxXxXxXxXxXxXxXxXxXxXxXxXxXxXxXxX[ [ / [ [ [ / [ [ / [ / [ / [ / / / / / [ [ / / [ / / / [ ",
"[ [ [ [ [ / [ / / [ / [ [ / [ [ / / [ [ [ [ / O.xX,X,X,X,X,X,X,X,X,X,X,X,X,X,X,X,X,X,X,X,X,X,X,X,X,X,X,X,X,X,X,X,X,X,X,X,X,X,X,X,X,X,X,X,X,X,X,X,X,X,X,X,X,X,X,X,XJXJXJXJXJXJXJXJXJXJXJXJXJXJXJXJXJXJXJXJXJXJXJXJXJXJXJXJXJXJXJXJXJXJXJXJX`.`.`.Q. X,X,X,X,X,X,X,X,X,X,X,X,X,X,X,X,X,X,X,X,X,X,X,XhXA A A A A A A A A A A A A A A A A A A A A A A hX,X,X,X,X,X,X,X,X,X,X,X,X,X,X,X,X,X,X,X,X,X,X,X XQ.`.`.`.KXHXJXJXJXJXJXJXJXJXJXJXJXJXJXJXJXJXJXJXJXJXJXJXJXJXJXJXJXJXJXJXJXJXJXJX,X,X,X,X,X,X,X,X,X,X,X,X,X,X,X,X,X,X,X,X,X,X,X,X,X,X,X,X,X,X,X,X,X,X,X,X,X,X,X,X,X,X,X,X,X,X,X,X,X,X,X,X,X,X,X,XxXO.[ / [ [ / [ [ [ [ [ / [ [ O.[ [ [ / [ [ [ / / [ [ / / O.",
"[ O./ [ / [ O.[ [ / [ [ O./ [ [ [ [ [ [ [ [ / O.xX,X,X,X,X,X,X,X,X,X,X,X,X,X,X,X,X,X,X,X,X,X,X,X,X,X,X,X,X,X,X,X,X,X,X,X,X,X,X,X,X,X,X,X,X,X,X,X,X,X,X,X,X,X,X,XJXJXJXJXJXJXJXJXJXJXJXJXJXJXJXJXJXJXJXJXJXJXJXJXJXJXJXJXJXJXJXJXJXJXJXJX6X`.`.`.Q. X,X,X,X,X,X,X,X,X,X,X,X,X,X,X,X,X,X,X,X`.8.[ ,XhXA A A A A A A A A A A A A A A A A A A A A A A hX,X`.8.[ ,X,X,X,X,X,X,X,X,X,X,X,X,X,X,X,X,X,X,X XQ.`.`.`.6XKXJXJXJXJXJXJXJXQ.Q.Q.Q.Q.Q.Q.Q.Q.Q.Q.Q.Q.Q.Q.Q.Q.Q.Q.Q.JXJXJXJXJXJXJXJX,X,X,X,X,X,X,X,X,X,X,X,X,X,X,X,X,X,X,X,X,X,X,X,X,X,X,X,X,X,X,X,X,X,X,X,X,X,X,X,X,X,X,X,X,X,X,X,X,X,X,X,X,X,X,XxXO.[ [ / [ [ [ [ [ [ [ [ [ O.[ / O.O.O.[ O.[ [ [ [ [ O.O.[ ",
"[ O.O.[ O.[ [ O.O.O.[ [ [ O.[ O.O.O.O.[ [ / [ O.xX,X,X,X,X,X,X,X,X,X,X,X,X,X,X,X,X,X,X,X,X,X,X,X,X,X,X,X,X,X,X,X,X,X,X,X,X,X,X,X,X,X,X,X,X,X,X,X,X,X,X,X,X,X,X,XJXJXJXJXJXJXJXJXJXJXJXJXJXJXJXJXJXJXJXJXJXJXJXJXJXJXJXJXJXJXJXJXJXJXJXJX`.`.`.`.Q. X,X,X,X,X,X,X,X,X,X,X,X,X,X,X,X,X,X,X,X`.8.[ ,XhXA A a.a.a.a.a.a.a.a.a.a.a.a.a.a.a.a.a.a.a.A A hX,X`.8.[ ,X,X,X,X,X,X,X,X,X,X,X,X,X,X,X,X,X,X,X XQ.`.`.`.`.KXKXKXKXHXJXJXJXJXr.< < < < < < < < < < < < < < < r.Z.Z.JXJXJXJXJXJXJXJX,X,X,X,X,X,X,X,X,X,X,X,X,X,X,X,X,X,X,X,X,X,X,X,X,X,X,X,X,X,X,X,X,X,X,X,X,X,X,X,X,X,X,X,X,X,X,X,X,X,X,X,X,X,X,XxXO.O.O.O.[ [ [ O.O.O.[ O.[ O.[ O.O.O.[ O.O.O.[ O.O.[ O.O.[ ",
"O.O.[ [ O.O.O.O.O.O.[ O.[ O.O.O.O.O.[ [ [ / [ O.xX,X,X,X,X,X,X,X,X,X,X,X,X,X,X,X,X,X,X,X,X,X,X,X,X,X,X,X,X,X,X,X,X,X,X,X,X,X,X,X,X,X,X,X,X,X,X,X,X,X,X,X,X,X,XJXJXJXJXJXJXJXJXJXJXJXJXJXJXJXJXJXJXJXJXJXJXJXJXJXJXJXJXJXJXJXJXJXJXJXJXJX`.`.`.`.Q. X,X,X,X,X,X,X,X,X,X,X,X,X,X,X,X,X,X,X,X`.8.[ ,XhXA A a.d.d.d.d.d.d.d.s.a.s.d.d.d.d.d.d.d.a.A A hX,X`.8.[ ,X,X,X,X,X,X,X,X,X,X,X,X,X,X,X,X,X,X,X XQ.`.`.`.`.KXKXHXKXKXJXJXJXJXo r.r.r.e.e.e.e.e.e.e.e.e.r.r.r.H H Z.JXJXJXJXJXJXJXJXJX,X,X,X,X,X,X,X,X,X,X,X,X,X,X,X,X,X,X,X,X,X,X,X,X,X,X,X,X,X,X,X,X,X,X,X,X,X,X,X,X,X,X,X,X,X,X,X,X,X,X,X,X,X,XxXO.O.O.O.[ O.O.O.O.O.[ O.O.[ [ O.O.O.O.O.O.[ O.O.O.O.[ O.O.",
"O.[ O.=.=.=.O.=.O.O.=.O.O.O.=.O.O.O.[ [ [ / [ O.xX,X,X,X,X,X,X,X,X,X,X,X,X,X,X,X,X,X,X,X,X,X,X,X,X,X,X,X,X,X,X,X,X,X,X,X,X,X,X,X,X,X,X,X,X,X,X,X,X,X,X,X,X,X,XJXJXJXJXJXJXJXJXJXJXJXJXJXJXJXJXJXJXJXJXJXJXJXJXJXJXJXJXJXJXJXJXJXJXJXJXJX`.`.`.`.Q. X,X,X,X,X,X,X,X,X,X,X,X,X,X,X,X,X,X,X,XKXKXKX,XhXA A a.d.d.-X-X-X-Xd.s.a.s.d.-X-X-X-Xd.d.a.A A hX,XKXKXHX,X,X,X,X,X,X,X,X,X,X,X,X,X,X,X,X,X,X,X XQ.`.`.`./.KXHXKXHXKXJXJXJXJXJXJXJXJXJXJXJXJXJXJXJXJXJXJXJXJXJXJXJXJXJXJXJXJXJXJXJXJX,X,X,X,X,X,X,X,X,X,X,X,X,X,X,X,X,X,X,X,X,X,X,X,X,X,X,X,X,X,X,X,X,X,X,X,X,X,X,X,X,X,X,X,X,X,X,X,X,X,X,X,X,X,XxXO.O.[ [ O.[ O.O.O.O.[ O.O.O.O.O.O.=.O.O.O.O.=.O.[ O.O.=.O.",
"O.=.O.O.O.O.O.O.O.=.=.=.=.=.O.O.O.=.[ [ [ / [ O.xX,X,X,X,X,X,X,X,X,X,X,X,X,X,X,X,X,X,X,X,X,X,X,X,X,X,X,X,X,X,X,X,X,X,X,X,X,X,X,X,X,X,X,X,X,X,X,X,X,X,X,X,X,XJXJXJXJXJXJXJXJXJXJXJXJXJXJXJXJXJXJXJXJXJXJXJXJXJXJXJXJXJXJXJXJXJXJXJXJXJX6X`.`.`.`.Q. X,X,X,X,X,X,X,X,X,X,X,X,X,X,X,X,X,X,XBXBXMXBXBXhXA A a.d.d.l.l.l.l.d.s.a.s.d.l.l.l.l.d.d.a.A A hXBXBXBXBXBX,X,X,X,X,X,X,X,X,X,X,X,X,X,X,X,X,X,X XQ.`.`.`.`.6XKXKXHXKXJXJXJXJXJXJXJXJXJXJXJXJXJXJXJXJXJXJXJXJXJXJXJXJXJXJXJXJXJXJXJXJXJX,X,X,X,X,X,X,X,X,X,X,X,X,X,X,X,X,X,X,X,X,X,X,X,X,X,X,X,X,X,X,X,X,X,X,X,X,X,X,X,X,X,X,X,X,X,X,X,X,X,X,X,X,XxXO.O.O.=.=.=.=.O.O.O.=.O.O.O.O.O.O.=.O.=.O.=.O.O.=.O.O.O.O.",
"O.O.=.=.=.=.O.=.=.=.=.=.O.O.O.O.=.=.[ [ [ / [ O.xX,X,X,X,X,X,X,X,X,X,X,X,X,X,X,X,X,X,X,X,X,X,X,X,X,X,X,X,X,X,X,X,X,X,X,X,X,X,X,X,X,X,X,X,X,X,X,X,X,X,X,X,X,XJXJXJXJXJXJXJXJXJXJXJXJXJXJXJXJXJXJXJXJXJXJXJXJXJXJXJXJXJXJXJXJXJXJXJXJXJX`.`.`.`.`.Q. X,X,X,X,X,X,X,X,X,X,X,X,X,X,X,X,X,XBXxXxXBXxXxXhXA A a.d.d.k.k.k.k.d.s.a.s.d.k.k.k.k.d.d.a.A A hXxXxXBXxXxXBX,X,X,X,X,X,X,X,X,X,X,X,X,X,X,X,X,X XQ.`.`.`.`.`.KXHXJXJXJXJXJXJXJXJXJXJXJXJXJXJXJXJXJXJXJXJXJXJXJXJXJXJXJXJXJXJXJXJXJXJXJX,X,X,X,X,X,X,X,X,X,X,X,X,X,X,X,X,X,X,X,X,X,X,X,X,X,X,X,X,X,X,X,X,X,X,X,X,X,X,X,X,X,X,X,X,X,X,X,X,X,X,X,X,XxX=.O.=.=.=.O.O.=.=.=.=.=.=.=.=.O.=.=.O.O.=.O.=.O.=.=.O.=.O.",
"1.=.O.=.=.1.=.=.=.=.=.=.=.1.=.=.=.=.[ [ [ / [ O.t.V V V V V V V V V V V V V V V V V V V V V V V V V V V V V V V V V V V V V V V V V V V V V V V V V V V V JXJXJXJXJXJXJXJXJXJXJXJXJXJXJXJXJXJXJXJXJXJXJXJXJXJXJXJXJXJXJXJXJXJXJXJXJXJX`.`.`.`.B N B V V V V V V V V V V V V V V V V t.t.t.t.t.t.t.hXa.a.s.d.d.f.f.f.f.d.s.a.s.d.f.f.f.f.d.d.s.a.a.hXt.t.t.t.t.t.t.V V V V V V V V V V V V V V V V B N `.`.`.`.`.KXKXJXJXJXJXJXJXJXJXJXJXJXJXJXJXJXJXJXJXJXJXJXJXJXJXJXJXJXJXJXJXJXJXJXJXJXJXV V V V V V V V V V V V V V V V V V V V V V V V V V V V V V V V V V V V V V V V V V V V V V V V V V V V y.=.1.=.=.=.=.1.=.=.=.=.O.=.=.=.1.=.=.1.=.O.=.=.1.=.1.=.O.=.",
"=.=.=.1.1.1.=.=.=.=.1.=.=.=.=.=.1.1.[ [ [ / [ O.t.V V V V V V V V V V V V V V V V V V V V V V V V V V V V V V V V V V V V V V V V V V V V V V V V V V V V JXJXJXJXJXJXJXJXJXJXJXJXJXJXJXJXJXJXJXJXJXJXJXJXJXJXJXJXJXJXJXJXJXJXJXJXJXJX`.`.B B B N B V V V V V V V V V V V V V V V t.t.t.t.t.t.t.t.hXs.s.d.d.d.d.d.d.d.d.s.a.s.d.d.d.d.d.d.d.d.s.s.hXt.t.t.t.t.t.t.t.V V V V V V V V V V V V V V V B N B B B `.`.HXKXKXJXJXJXJXJXJXJXJXJXJXJXJXJXJXJXJXJXJXJXJXJXJXJXJXJXJXJXJXJXJXJXJXJXJXJXV V V V V V V V V V V V V V V V V V V V V V V V V V V V V V V V V V V V V V V V V V V V V V V V V V V V y.=.1.1.1.=.=.=.=.=.=.1.1.=.=.=.=.1.1.=.=.=.=.=.1.1.=.=.=.1.",
"=.1.=.=.1.=.=.=.1.=.1.=.=.1.=.=.1.1.[ [ [ / [ O.t.V V V V V V V V V V V V V V V V V V V V V V V V V V V V V V V V V V V V V V V V V V V V V V V V V V V t.t.t.t.t.t.t.t.t.t.t.t.t.t.t.t.t.t.t.t.t.t.t.t.t.t.t.t.t.t.t.t.t.t.t.t.t.t.y.B B B B B N B V V V V V V V V V V V V V V t.t.t.t.t.t.t.t.t.hXd.d.d.d.d.d.d.d.d.d.s.a.s.d.d.d.d.d.d.d.d.d.d.hXt.t.t.t.t.t.t.t.t.V V V V V V V V V V V V V V B N B B B B B y.t.t.t.t.t.t.t.t.t.t.t.t.t.t.t.t.t.t.t.t.t.t.t.t.t.t.t.t.t.t.t.t.t.t.t.t.t.y.V V V V V V V V V V V V V V V V V V V V V V V V V V V V V V V V V V V V V V V V V V V V V V V V V V V y.=.=.=.=.=.1.=.=.=.=.1.=.=.1.1.1.=.1.1.1.1.1.=.=.1.1.1.=.=.",
"=.1.1.=.=.=.=.1.1.=.1.=.=.1.1.1.=.1.[ [ [ / [ O.xX,X,X,X,X,X,X,X,X,X,X,X,X,X,X,X,X,X,X,X,X,X,X,X,X,X,X,X,X,X,X,X,X,X,X,X,X,X,X,X,X,X,X,X,X,X,X,X,X,X,X,Xt.t.t.t.t.t.t.t.t.t.t.t.t.t.t.t.t.t.t.t.t.t.t.t.t.t.t.t.t.t.t.t.t.t.t.t.t.y.B B B B B `.Q. X,X,X,X,X,X,X,X,X,X,X,X,X,X,X,X,X,X,X,X,X,X,X,XhXd.d.d.d.d.d.d.d.d.d.s.a.s.d.d.d.d.d.d.d.d.d.d.hX,X,X,X,X,X,X,X,X,X,X,X,X,X,X,X,X,X,X,X,X,X,X,X XQ.B B B B B B y.t.t.t.t.t.t.t.t.t.t.t.t.t.t.t.t.t.t.t.t.t.t.t.t.t.t.t.t.t.t.t.t.t.t.t.t.y.,X,X,X,X,X,X,X,X,X,X,X,X,X,X,X,X,X,X,X,X,X,X,X,X,X,X,X,X,X,X,X,X,X,X,X,X,X,X,X,X,X,X,X,X,X,X,X,X,X,X,XxX1.1.=.1.1.1.=.1.=.1.1.=.=.1.1.=.=.1.1.1.1.1.1.=.1.1.1.1.1.",
"1.1.1.1.1.1.1.1.1.1.1.1.1.=.1.1.1.1.[ [ [ / [ O.xX,X,X,X,X,X,X,X,X,X,X,X,X,X,X,X,X,X,X,X,X,X,X,X,X,X,X,X,X,X,X,X,X,X,X,X,X,X,X,X,X,X,X,X,X,X,X,X,X,X,Xt.t.t.t.t.t.t.t.t.t.t.t.t.t.t.t.t.t.t.t.t.t.t.t.t.t.t.t.t.t.t.t.t.t.t.t.t.t.y.B B `.`.`.`.Q. X,X,X,X,X,X,X,X,X,X,X,X,X,X,X,X,X,X,X,X,X,X,X,XhXd.d.d.d.d.d.d.d.d.d.s.a.s.d.d.d.d.d.d.d.d.d.d.hX,X,X,X,X,X,X,X,X,X,X,X,X,X,X,X,X,X,X,X,X,X,X,X XQ.`.`.`.`.B B y.t.t.t.t.t.t.t.t.t.t.t.t.t.t.t.t.t.t.t.t.t.t.t.t.t.t.t.t.t.t.t.t.t.t.t.t.t.y.,X,X,X,X,X,X,X,X,X,X,X,X,X,X,X,X,X,X,X,X,X,X,X,X,X,X,X,X,X,X,X,X,X,X,X,X,X,X,X,X,X,X,X,X,X,X,X,X,X,XxX1.1.1.1.1.1.1.1.1.1.1.1.1.=.1.1.1.1.1.1.1.1.1.1.1.1.1.1.1.",
"1.1.1.1.1.1.1.1.1.1.1.1.1.1.1.1.1.1.[ [ [ / [ O.xX,X,X,X,X,X,X,X,X,X,X,X,X,X,X,X,X,X,X,X,X,X,X,X,X,X,X,X,X,X,X,X,X,X,X,X,X,X,X,X,X,X,X,X,X,X,X,X,X,X,XJXJXJXJXJXJXJXJXJXJXJXJXJXJXJXJXJXJXJXJXJXJXJXJXJXJXJXJXJXJXJXJXJXJXJXJXJXJXJX`.`.`.`.`.`.Q. X,X,X,X,X,X,X,X,X,X,X,X,X,X,X,X,X,X,X,X,X,X,X,XhXd.d.d.d.d.d.d.d.d.d.s.a.s.d.d.d.d.d.d.d.d.d.d.hX,X,X,X,X,X,X,X,X,X,X,X,X,X,X,X,X,X,X,X,X,X,X,X XQ.`.`.`.`.`.`.JXJXJXJXJXJXJXJXJXJXJXJXJXJXJXJXJXJXJXJXJXJXJXJXJXJXJXJXJXJXJXJXJXJXJXJXJXJXJX,X,X,X,X,X,X,X,X,X,X,X,X,X,X,X,X,X,X,X,X,X,X,X,X,X,X,X,X,X,X,X,X,X,X,X,X,X,X,X,X,X,X,X,X,X,X,X,X,X,XxX1.1.1.1.1.1.1.1.1.1.1.1.1.1.1.1.1.1.1.1.1.1.1.1.1.1.1.1.1.",
"8 8 8 8 8 8 8 8 8 8 8 8 8 8 8 8 8 8 8 8 8 8 8 8 8 8 8 8 8 8 8 8 8 8 8 8 8 8 8 8 8 8 8 8 8 8 8 8 8 8 8 8 8 8 8 8 8 8 8 8 8 8 8 8 8 8 8 8 8 8 8 8 8 8 8 8 8 8 8 8 8 8 8 8 8 8 8 8 8 8 8 8 8 8 8 8 8 8 8 8 8 8 8 8 8 8 8 8 8 8 8 8 8 8 8 8 8 8 8 8 8 8 8 8 8 8 8 8 8 8 8 8 8 8 8 8 8 8 8 8 8 8 8 8 8 8 8 8 8 8 8 8 8 8 8 8 8 8 8 8 8 8 8 8 8 8 8 8 8 8 8 8 8 8 8 8 8 8 8 8 8 8 8 8 8 8 8 8 8 8 8 8 8 8 8 8 8 8 8 8 8 8 8 8 8 8 8 8 8 8 8 8 8 8 8 8 8 8 8 8 8 8 8 8 8 8 8 8 8 8 8 8 8 8 8 8 8 8 8 8 8 8 8 8 8 8 8 8 8 8 8 8 8 8 8 8 8 8 8 8 8 8 8 8 8 8 8 8 8 8 8 8 8 8 8 8 8 8 8 8 8 8 8 8 8 8 8 8 8 8 8 8 8 8 8 8 8 8 8 8 8 8 8 8 8 8 8 8 8 8 8 8 8 8 8 8 8 8 8 8 ",
"8 8 8 8 8 8 8 8 8 8 8 8 8 8 8 8 8 8 8 8 8 8 8 8 8 8 8 8 8 8 8 8 8 8 8 8 8 8 8 8 8 8 8 8 8 8 8 8 8 8 8 8 8 8 8 8 8 8 8 8 8 8 8 8 8 8 8 8 8 8 8 8 8 8 8 8 8 8 8 8 8 8 8 8 8 8 8 8 8 8 8 8 8 8 8 8 8 8 8 8 8 8 8 8 8 8 8 8 8 8 8 8 8 8 8 8 8 8 8 8 8 8 8 8 8 8 8 8 8 8 8 8 8 8 8 8 8 8 8 8 8 8 8 8 8 8 8 8 8 8 8 8 8 8 8 8 8 8 8 8 8 8 8 8 8 8 8 8 8 8 8 8 8 8 8 8 8 8 8 8 8 8 8 8 8 8 8 8 8 8 8 8 8 8 8 8 8 8 8 8 8 8 8 8 8 8 8 8 8 8 8 8 8 8 8 8 8 8 8 8 8 8 8 8 8 8 8 8 8 8 8 8 8 8 8 8 8 8 8 8 8 8 8 8 8 8 8 8 8 8 8 8 8 8 8 8 8 8 8 8 8 8 8 8 8 8 8 8 8 8 8 8 8 8 8 8 8 8 8 8 8 8 8 8 8 8 8 8 8 8 8 8 8 8 8 8 8 8 8 8 8 8 8 8 8 8 8 8 8 8 8 8 8 8 8 8 8 8 8 8 ",
"8 8 8 8 8 8 8 8 8 8 8 8 8 8 8 8 8 8 8 8 8 8 8 8 8 8 8 8 8 8 8 8 8 8 8 8 8 8 8 8 8 8 8 8 8 8 8 8 8 8 8 8 8 8 8 8 8 8 8 8 8 8 8 8 8 8 8 8 8 8 8 8 8 8 8 8 8 8 8 8 8 8 8 8 8 8 8 8 8 8 8 8 8 8 8 8 8 8 8 8 8 8 8 8 8 8 8 8 8 8 8 8 8 8 8 8 8 8 8 8 8 8 8 8 8 8 8 8 8 8 8 8 8 8 8 8 8 8 8 8 8 8 8 8 8 8 8 8 8 8 8 8 8 8 8 8 8 8 8 8 8 8 8 8 8 8 8 8 8 8 8 8 8 8 8 8 8 8 8 8 8 8 8 8 8 8 8 8 8 8 8 8 8 8 8 8 8 8 8 8 8 8 8 8 8 8 8 8 8 8 8 8 8 8 8 8 8 8 8 8 8 8 8 8 8 8 8 8 8 8 8 8 8 8 8 8 8 8 8 8 8 8 8 8 8 8 8 8 8 8 8 8 8 8 8 8 8 8 8 8 8 8 8 8 8 8 8 8 8 8 8 8 8 8 8 8 8 8 8 8 8 8 8 8 8 8 8 8 8 8 8 8 8 8 8 8 8 8 8 8 8 8 8 8 8 8 8 8 8 8 8 8 8 8 8 8 8 8 8 8 ",
"8 8 8 8 8 8 8 8 8 8 8 8 8 8 8 8 8 8 8 8 8 8 8 8 8 8 8 8 8 8 8 8 8 8 8 8 8 8 8 8 8 8 8 8 8 8 8 8 8 8 8 8 8 8 8 8 8 8 8 8 8 8 8 8 8 8 8 8 8 8 8 8 8 8 8 8 8 8 8 8 8 8 8 8 8 8 8 8 8 8 8 8 8 8 8 8 8 8 8 8 8 8 8 8 8 8 8 8 8 8 8 8 8 8 8 8 8 8 8 8 8 8 8 8 8 8 8 8 8 8 8 8 8 8 8 8 8 8 8 8 8 8 8 8 8 8 8 8 8 8 8 8 8 8 8 8 8 8 8 8 8 8 8 8 8 8 8 8 8 8 8 8 8 8 8 8 8 8 8 8 8 8 8 8 8 8 8 8 8 8 8 8 8 8 8 8 8 8 8 8 8 8 8 8 8 8 8 8 8 8 8 8 8 8 8 8 8 8 8 8 8 8 8 8 8 8 8 8 8 8 8 8 8 8 8 8 8 8 8 8 8 8 8 8 8 8 8 8 8 8 8 8 8 8 8 8 8 8 8 8 8 8 8 8 8 8 8 8 8 8 8 8 8 8 8 8 8 8 8 8 8 8 8 8 8 8 8 8 8 8 8 8 8 8 8 8 8 8 8 8 8 8 8 8 8 8 8 8 8 8 8 8 8 8 8 8 8 8 8 8 ",
"8 8 8 8 8 8 8 8 8 8 8 8 8 8 8 8 8 8 8 8 8 8 8 8 8 8 8 8 8 8 8 8 8 8 8 8 8 8 8 8 8 8 8 8 8 8 8 8 8 8 8 8 8 8 8 8 8 8 8 8 8 8 8 8 8 8 8 8 8 8 8 8 8 8 8 8 8 8 8 8 8 8 8 8 8 8 8 8 8 8 8 8 8 8 8 8 8 8 8 8 8 8 8 8 8 8 8 8 8 8 8 8 8 8 8 8 8 8 8 8 8 8 8 8 8 8 8 8 8 8 8 8 8 8 8 8 8 8 8 8 8 8 8 8 8 8 8 8 8 8 8 8 8 8 8 8 8 8 8 8 8 8 8 8 8 8 8 8 8 8 8 8 8 8 8 8 8 8 8 8 8 8 8 8 8 8 8 8 8 8 8 8 8 8 8 8 8 8 8 8 8 8 8 8 8 8 8 8 8 8 8 8 8 8 8 8 8 8 8 8 8 8 8 8 8 8 8 8 8 8 8 8 8 8 8 8 8 8 8 8 8 8 8 8 8 8 8 8 8 8 8 8 8 8 8 8 8 8 8 8 8 8 8 8 8 8 8 8 8 8 8 8 8 8 8 8 8 8 8 8 8 8 8 8 8 8 8 8 8 8 8 8 8 8 8 8 8 8 8 8 8 8 8 8 8 8 8 8 8 8 8 8 8 8 8 8 8 8 8 8 ",
"8 8 8 8 8 8 8 8 8 8 8 8 8 8 8 8 8 8 8 8 8 8 8 8 8 8 8 8 8 8 8 8 8 8 8 8 8 8 8 8 8 8 8 8 8 8 8 8 8 8 8 8 8 8 8 8 8 8 8 8 8 8 8 8 8 8 8 8 8 8 8 8 8 8 8 8 8 8 8 8 8 8 8 8 8 8 8 8 8 8 8 8 8 8 8 8 8 8 8 8 8 8 8 8 8 8 8 8 8 8 8 8 8 8 8 8 8 8 8 8 8 8 8 8 8 8 8 8 8 8 8 8 8 8 8 8 8 8 8 8 8 8 8 8 8 8 8 8 8 8 8 8 8 8 8 8 8 8 8 8 8 8 8 8 8 8 8 8 8 8 8 8 8 8 8 8 8 8 8 8 8 8 8 8 8 8 8 8 8 8 8 8 8 8 8 8 8 8 8 8 8 8 8 8 8 8 8 8 8 8 8 8 8 8 8 8 8 8 8 8 8 8 8 8 8 8 8 8 8 8 8 8 8 8 8 8 8 8 8 8 8 8 8 8 8 8 8 8 8 8 8 8 8 8 8 8 8 8 8 8 8 8 8 8 8 8 8 8 8 8 8 8 8 8 8 8 8 8 8 8 8 8 8 8 8 8 8 8 8 8 8 8 8 8 8 8 8 8 8 8 8 8 8 8 8 8 8 8 8 8 8 8 8 8 8 8 8 8 8 8 ",
"8 8 8 8 8 8 8 8 8 8 8 8 8 8 8 8 8 8 8 8 8 8 8 8 8 8 8 8 8 8 8 8 8 8 8 8 8 8 8 8 8 8 8 8 8 8 8 8 8 8 8 8 8 8 8 8 8 8 8 8 8 8 8 8 8 8 8 8 8 8 8 8 8 8 8 8 8 8 8 8 8 8 8 8 8 8 8 8 8 8 8 8 8 8 8 8 8 8 8 8 8 8 8 8 8 8 8 8 8 8 8 8 8 8 8 8 8 8 8 8 8 8 8 8 8 8 8 8 8 8 8 8 8 8 8 8 8 8 8 8 8 8 8 8 8 8 8 8 8 8 8 8 8 8 8 8 8 8 8 8 8 8 8 8 8 8 8 8 8 8 8 8 8 8 8 8 8 8 8 8 8 8 8 8 8 8 8 8 8 8 8 8 8 8 8 8 8 8 8 8 8 8 8 8 8 8 8 8 8 8 8 8 8 8 8 8 8 8 8 8 8 8 8 8 8 8 8 8 8 8 8 8 8 8 8 8 8 8 8 8 8 8 8 8 8 8 8 8 8 8 8 8 8 8 8 8 8 8 8 8 8 8 8 8 8 8 8 8 8 8 8 8 8 8 8 8 8 8 8 8 8 8 8 8 8 8 8 8 8 8 8 8 8 8 8 8 8 8 8 8 8 8 8 8 8 8 8 8 8 8 8 8 8 8 8 8 8 8 8 8 ",
"8 8 8 8 8 8 8 8 8 8 8 8 8 8 8 8 8 8 8 8 8 8 8 8 8 8 8 8 8 8 8 8 8 8 8 8 8 8 8 8 8 8 8 8 8 8 8 8 8 8 8 8 8 8 8 8 8 8 8 8 8 8 8 8 8 8 8 8 8 8 8 8 8 8 8 8 8 8 8 8 8 8 8 8 8 8 8 8 8 8 8 8 8 8 8 8 8 8 8 8 8 8 8 8 8 8 8 8 8 8 8 8 8 8 8 8 8 8 8 8 8 8 8 8 8 8 8 8 8 8 8 8 8 8 8 8 8 8 8 8 8 8 8 8 8 8 8 8 8 8 8 8 8 8 8 8 8 8 8 8 8 8 8 8 8 8 8 8 8 8 8 8 8 8 8 8 8 8 8 8 8 8 8 8 8 8 8 8 8 8 8 8 8 8 8 8 8 8 8 8 8 8 8 8 8 8 8 8 8 8 8 8 8 8 8 8 8 8 8 8 8 8 8 8 8 8 8 8 8 8 8 8 8 8 8 8 8 8 8 8 8 8 8 8 8 8 8 8 8 8 8 8 8 8 8 8 8 8 8 8 8 8 8 8 8 8 8 8 8 8 8 8 8 8 8 8 8 8 8 8 8 8 8 8 8 8 8 8 8 8 8 8 8 8 8 8 8 8 8 8 8 8 8 8 8 8 8 8 8 8 8 8 8 8 8 8 8 8 8 8 ",
"8 8 8 8 8 8 8 8 8 8 8 8 8 8 8 8 8 8 8 8 8 8 8 8 8 8 8 8 8 8 8 8 8 8 8 8 8 8 8 8 8 8 8 8 8 8 8 8 8 8 8 8 8 8 8 8 8 8 8 8 8 8 8 8 8 8 8 8 8 8 8 8 8 8 8 8 8 8 8 8 8 8 8 8 8 8 8 8 8 8 8 8 8 8 8 8 8 8 8 8 8 8 8 8 8 8 8 8 8 8 8 8 8 8 8 8 8 8 8 8 8 8 8 8 8 8 8 8 8 8 8 8 8 8 8 8 8 8 8 8 8 8 8 8 8 8 8 8 8 8 8 8 8 8 8 8 8 8 8 8 8 8 8 8 8 8 8 8 8 8 8 8 8 8 8 8 8 8 8 8 8 8 8 8 8 8 8 8 8 8 8 8 8 8 8 8 8 8 8 8 8 8 8 8 8 8 8 8 8 8 8 8 8 8 8 8 8 8 8 8 8 8 8 8 8 8 8 8 8 8 8 8 8 8 8 8 8 8 8 8 8 8 8 8 8 8 8 8 8 8 8 8 8 8 8 8 8 8 8 8 8 8 8 8 8 8 8 8 8 8 8 8 8 8 8 8 8 8 8 8 8 8 8 8 8 8 8 8 8 8 8 8 8 8 8 8 8 8 8 8 8 8 8 8 8 8 8 8 8 8 8 8 8 8 8 8 8 8 8 8 ",
"8 8 8 8 8 8 8 8 8 8 8 8 8 8 8 8 8 8 8 8 8 8 8 8 8 8 8 8 8 8 8 8 8 8 8 8 8 8 8 8 8 8 8 8 8 8 8 8 8 8 8 8 8 8 8 8 8 8 8 8 8 8 8 8 8 8 8 8 8 8 8 8 8 8 8 8 8 8 8 8 8 8 8 8 8 8 8 8 8 8 8 8 8 8 8 8 8 8 8 8 8 8 8 8 8 8 8 8 8 8 8 8 8 8 8 8 8 8 8 8 8 8 8 8 8 8 8 8 8 8 8 8 8 8 8 8 8 8 8 8 8 8 8 8 8 8 8 8 8 8 8 8 8 8 8 8 8 8 8 8 8 8 8 8 8 8 8 8 8 8 8 8 8 8 8 8 8 8 8 8 8 8 8 8 8 8 8 8 8 8 8 8 8 8 8 8 8 8 8 8 8 8 8 8 8 8 8 8 8 8 8 8 8 8 8 8 8 8 8 8 8 8 8 8 8 8 8 8 8 8 8 8 8 8 8 8 8 8 8 8 8 8 8 8 8 8 8 8 8 8 8 8 8 8 8 8 8 8 8 8 8 8 8 8 8 8 8 8 8 8 8 8 8 8 8 8 8 8 8 8 8 8 8 8 8 8 8 8 8 8 8 8 8 8 8 8 8 8 8 8 8 8 8 8 8 8 8 8 8 8 8 8 8 8 8 8 8 8 8 8 ",
"8 8 8 8 8 8 8 8 8 8 8 8 8 8 8 8 8 8 8 8 8 8 8 8 8 8 8 8 8 8 8 8 8 8 8 8 8 8 8 8 8 8 8 8 8 8 8 8 8 8 8 8 8 8 8 8 8 8 8 8 8 8 8 8 8 8 8 8 8 8 8 8 8 8 8 8 8 8 8 8 8 8 8 8 8 8 8 8 8 8 8 8 8 8 8 8 8 8 8 8 8 8 8 8 8 8 8 8 8 8 8 8 8 8 8 8 8 8 8 8 8 8 8 8 8 8 8 8 8 8 8 8 8 8 8 8 8 8 8 8 8 8 8 8 8 8 8 8 8 8 8 8 8 8 8 8 8 8 8 8 8 8 8 8 8 8 8 8 8 8 8 8 8 8 8 8 8 8 8 8 8 8 8 8 8 8 8 8 8 8 8 8 8 8 8 8 8 8 8 8 8 8 8 8 8 8 8 8 8 8 8 8 8 8 8 8 8 8 8 8 8 8 8 8 8 8 8 8 8 8 8 8 8 8 8 8 8 8 8 8 8 8 8 8 8 8 8 8 8 8 8 8 8 8 8 8 8 8 8 8 8 8 8 8 8 8 8 8 8 8 8 8 8 8 8 8 8 8 8 8 8 8 8 8 8 8 8 8 8 8 8 8 8 8 8 8 8 8 8 8 8 8 8 8 8 8 8 8 8 8 8 8 8 8 8 8 8 8 8 8 ",
"8 8 8 8 8 8 8 8 8 8 8 8 8 8 8 8 8 8 8 8 8 8 8 8 8 8 8 8 8 8 8 8 8 8 8 8 8 8 8 8 8 8 8 8 8 8 8 8 8 8 8 8 8 8 8 8 8 8 8 8 8 8 8 8 8 8 8 8 8 8 8 8 8 8 8 8 8 8 8 8 8 8 8 8 8 8 8 8 8 8 8 8 8 8 8 8 8 8 8 8 8 8 8 8 8 8 8 8 8 8 8 8 8 8 8 8 8 8 8 8 8 8 8 8 8 8 8 8 8 8 8 8 8 8 8 8 8 8 8 8 8 8 8 8 8 8 8 8 8 8 8 8 8 8 8 8 8 8 8 8 8 8 8 8 8 8 8 8 8 8 8 8 8 8 8 8 8 8 8 8 8 8 8 8 8 8 8 8 8 8 8 8 8 8 8 8 8 8 8 8 8 8 8 8 8 8 8 8 8 8 8 8 8 8 8 8 8 8 8 8 8 8 8 8 8 8 8 8 8 8 8 8 8 8 8 8 8 8 8 8 8 8 8 8 8 8 8 8 8 8 8 8 8 8 8 8 8 8 8 8 8 8 8 8 8 8 8 8 8 8 8 8 8 8 8 8 8 8 8 8 8 8 8 8 8 8 8 8 8 8 8 8 8 8 8 8 8 8 8 8 8 8 8 8 8 8 8 8 8 8 8 8 8 8 8 8 8 8 8 8 ",
"8 8 8 8 8 8 8 8 8 8 8 8 8 8 8 8 8 8 8 8 8 8 8 8 8 8 8 8 8 8 8 8 8 8 8 8 8 8 8 8 8 8 8 8 8 8 8 8 8 8 8 8 8 8 8 8 8 8 8 8 8 8 8 8 8 8 8 8 8 8 8 8 8 8 8 8 8 8 8 8 8 8 8 8 8 8 8 8 8 8 8 8 8 8 8 8 8 8 8 8 8 8 8 8 8 8 8 8 8 8 8 8 8 8 8 8 8 8 8 8 8 8 8 8 8 8 8 8 8 8 8 8 8 8 8 8 8 8 8 8 8 8 8 8 8 8 8 8 8 8 8 8 8 8 8 8 8 8 8 8 8 8 8 8 8 8 8 8 8 8 8 8 8 8 8 8 8 8 8 8 8 8 8 8 8 8 8 8 8 8 8 8 8 8 8 8 8 8 8 8 8 8 8 8 8 8 8 8 8 8 8 8 8 8 8 8 8 8 8 8 8 8 8 8 8 8 8 8 8 8 8 8 8 8 8 8 8 8 8 8 8 8 8 8 8 8 8 8 8 8 8 8 8 8 8 8 8 8 8 8 8 8 8 8 8 8 8 8 8 8 8 8 8 8 8 8 8 8 8 8 8 8 8 8 8 8 8 8 8 8 8 8 8 8 8 8 8 8 8 8 8 8 8 8 8 8 8 8 8 8 8 8 8 8 8 8 8 8 8 8 ",
"8 8 8 8 8 8 8 8 8 8 8 8 8 8 8 8 8 8 8 8 8 8 8 8 8 8 8 8 8 8 8 8 8 8 8 8 8 8 8 8 8 8 8 8 8 8 8 8 8 8 8 8 8 8 8 8 8 8 8 8 8 8 8 8 8 8 8 8 8 8 8 8 8 8 8 8 8 8 8 8 8 8 8 8 8 8 8 8 8 8 8 8 8 8 8 8 8 8 8 8 8 8 8 8 8 8 8 8 8 8 8 8 8 8 8 8 8 8 8 8 8 8 8 8 8 8 8 8 8 8 8 8 8 8 8 8 8 8 8 8 8 8 8 8 8 8 8 8 8 8 8 8 8 8 8 8 8 8 8 8 8 8 8 8 8 8 8 8 8 8 8 8 8 8 8 8 8 8 8 8 8 8 8 8 8 8 8 8 8 8 8 8 8 8 8 8 8 8 8 8 8 8 8 8 8 8 8 8 8 8 8 8 8 8 8 8 8 8 8 8 8 8 8 8 8 8 8 8 8 8 8 8 8 8 8 8 8 8 8 8 8 8 8 8 8 8 8 8 8 8 8 8 8 8 8 8 8 8 8 8 8 8 8 8 8 8 8 8 8 8 8 8 8 8 8 8 8 8 8 8 8 8 8 8 8 8 8 8 8 8 8 8 8 8 8 8 8 8 8 8 8 8 8 8 8 8 8 8 8 8 8 8 8 8 8 8 8 8 8 8 ",
"8 8 8 8 8 8 8 8 8 8 8 8 8 8 8 8 8 8 8 8 8 8 8 8 8 8 8 8 8 8 8 8 8 8 8 8 8 8 8 8 8 8 8 8 8 8 8 8 8 8 8 8 8 8 8 8 8 8 8 8 8 8 8 8 8 8 8 8 8 8 8 8 8 8 8 8 8 8 8 8 8 8 8 8 8 8 8 8 8 8 8 8 8 8 8 8 8 8 8 8 8 8 8 8 8 8 8 8 8 8 8 8 8 8 8 8 8 8 8 8 8 8 8 8 8 8 8 8 8 8 8 8 8 8 8 8 8 8 8 8 8 8 8 8 8 8 8 8 8 8 8 8 8 8 8 8 8 8 8 8 8 8 8 8 8 8 8 8 8 8 8 8 8 8 8 8 8 8 8 8 8 8 8 8 8 8 8 8 8 8 8 8 8 8 8 8 8 8 8 8 8 8 8 8 8 8 8 8 8 8 8 8 8 8 8 8 8 8 8 8 8 8 8 8 8 8 8 8 8 8 8 8 8 8 8 8 8 8 8 8 8 8 8 8 8 8 8 8 8 8 8 8 8 8 8 8 8 8 8 8 8 8 8 8 8 8 8 8 8 8 8 8 8 8 8 8 8 8 8 8 8 8 8 8 8 8 8 8 8 8 8 8 8 8 8 8 8 8 8 8 8 8 8 8 8 8 8 8 8 8 8 8 8 8 8 8 8 8 8 8 ",
"8 8 8 8 8 8 8 8 8 8 8 8 8 8 8 8 8 8 8 8 8 8 8 8 8 8 8 8 8 8 8 8 8 8 8 8 8 8 8 8 8 8 8 8 8 8 8 8 8 8 8 8 8 8 8 8 8 8 8 8 8 8 8 8 8 8 8 8 8 8 8 8 8 8 8 8 8 8 8 8 8 8 8 8 8 8 8 8 8 8 8 8 8 8 8 8 8 8 8 8 8 8 8 8 8 8 8 8 8 8 8 8 8 8 8 8 8 8 8 8 8 8 8 8 8 8 8 8 8 8 8 8 8 8 8 8 8 8 8 8 8 8 8 8 8 8 8 8 8 8 8 8 8 8 8 8 8 8 8 8 8 8 8 8 8 8 8 8 8 8 8 8 8 8 8 8 8 8 8 8 8 8 8 8 8 8 8 8 8 8 8 8 8 8 8 8 8 8 8 8 8 8 8 8 8 8 8 8 8 8 8 8 8 8 8 8 8 8 8 8 8 8 8 8 8 8 8 8 8 8 8 8 8 8 8 8 8 8 8 8 8 8 8 8 8 8 8 8 8 8 8 8 8 8 8 8 8 8 8 8 8 8 8 8 8 8 8 8 8 8 8 8 8 8 8 8 8 8 8 8 8 8 8 8 8 8 8 8 8 8 8 8 8 8 8 8 8 8 8 8 8 8 8 8 8 8 8 8 8 8 8 8 8 8 8 8 8 8 8 8 ",
"8 8 8 8 8 8 8 8 8 8 8 8 8 8 8 8 8 8 8 8 8 8 8 8 8 8 8 8 8 8 8 8 8 8 8 8 8 8 8 8 8 8 8 8 8 8 8 8 8 8 8 8 8 8 8 8 8 8 8 8 8 8 8 8 8 8 8 8 8 8 8 8 8 8 8 8 8 8 8 8 8 8 8 8 8 8 8 8 8 8 8 8 8 8 8 8 8 8 8 8 8 8 8 8 8 8 8 8 8 8 8 8 8 8 8 8 8 8 8 8 8 8 8 8 8 8 8 8 8 8 8 8 8 8 8 8 8 8 8 8 8 8 8 8 8 8 8 8 8 8 8 8 8 8 8 8 8 8 8 8 8 8 8 8 8 8 8 8 8 8 8 8 8 8 8 8 8 8 8 8 8 8 8 8 8 8 8 8 8 8 8 8 8 8 8 8 8 8 8 8 8 8 8 8 8 8 8 8 8 8 8 8 8 8 8 8 8 8 8 8 8 8 8 8 8 8 8 8 8 8 8 8 8 8 8 8 8 8 8 8 8 8 8 8 8 8 8 8 8 8 8 8 8 8 8 8 8 8 8 8 8 8 8 8 8 8 8 8 8 8 8 8 8 8 8 8 8 8 8 8 8 8 8 8 8 8 8 8 8 8 8 8 8 8 8 8 8 8 8 8 8 8 8 8 8 8 8 8 8 8 8 8 8 8 8 8 8 8 8 8 ",
"8 8 8 8 8 8 8 8 8 8 8 8 8 8 8 8 8 8 8 8 8 8 8 8 8 8 8 8 8 8 8 8 8 8 8 8 8 8 8 8 8 8 8 8 8 8 8 8 8 8 8 8 8 8 8 8 8 8 8 8 8 8 8 8 8 8 8 8 8 8 8 8 8 8 8 8 8 8 8 8 8 8 8 8 8 8 8 8 8 8 8 8 8 8 8 8 8 8 8 8 8 8 8 8 8 8 8 8 8 8 8 8 8 8 8 8 8 8 8 8 8 8 8 8 8 8 8 8 8 8 8 8 8 8 8 8 8 8 8 8 8 8 8 8 8 8 8 8 8 8 8 8 8 8 8 8 8 8 8 8 8 8 8 8 8 8 8 8 8 8 8 8 8 8 8 8 8 8 8 8 8 8 8 8 8 8 8 8 8 8 8 8 8 8 8 8 8 8 8 8 8 8 8 8 8 8 8 8 8 8 8 8 8 8 8 8 8 8 8 8 8 8 8 8 8 8 8 8 8 8 8 8 8 8 8 8 8 8 8 8 8 8 8 8 8 8 8 8 8 8 8 8 8 8 8 8 8 8 8 8 8 8 8 8 8 8 8 8 8 8 8 8 8 8 8 8 8 8 8 8 8 8 8 8 8 8 8 8 8 8 8 8 8 8 8 8 8 8 8 8 8 8 8 8 8 8 8 8 8 8 8 8 8 8 8 8 8 8 8 8 ",
"8 8 8 8 8 8 8 8 8 8 8 8 8 8 8 8 8 8 8 8 8 8 8 8 8 8 8 8 8 8 8 8 8 8 8 8 8 8 8 8 8 8 8 8 8 8 8 8 8 8 8 8 8 8 8 8 8 8 8 8 8 8 8 8 8 8 8 8 8 8 8 8 8 8 8 8 8 8 8 8 8 8 8 8 8 8 8 8 8 8 8 8 8 8 8 8 8 8 8 8 8 8 8 8 8 8 8 8 8 8 8 8 8 8 8 8 8 8 8 8 8 8 8 8 8 8 8 8 8 8 8 8 8 8 8 8 8 8 8 8 8 8 8 8 8 8 8 8 8 8 8 8 8 8 8 8 8 8 8 8 8 8 8 8 8 8 8 8 8 8 8 8 8 8 8 8 8 8 8 8 8 8 8 8 8 8 8 8 8 8 8 8 8 8 8 8 8 8 8 8 8 8 8 8 8 8 8 8 8 8 8 8 8 8 8 8 8 8 8 8 8 8 8 8 8 8 8 8 8 8 8 8 8 8 8 8 8 8 8 8 8 8 8 8 8 8 8 8 8 8 8 8 8 8 8 8 8 8 8 8 8 8 8 8 8 8 8 8 8 8 8 8 8 8 8 8 8 8 8 8 8 8 8 8 8 8 8 8 8 8 8 8 8 8 8 8 8 8 8 8 8 8 8 8 8 8 8 8 8 8 8 8 8 8 8 8 8 8 8 8 ",
"8 8 8 8 8 8 8 8 8 8 8 8 8 8 8 8 8 8 8 8 8 8 8 8 8 8 8 8 8 8 8 8 8 8 8 8 8 8 8 8 8 8 8 8 8 8 8 8 8 8 8 8 8 8 8 8 8 8 8 8 8 8 8 8 8 8 8 8 8 8 8 8 8 8 8 8 8 8 8 8 8 8 8 8 8 8 8 8 8 8 8 8 8 8 8 8 8 8 8 8 8 8 8 8 8 8 8 8 8 8 8 8 8 8 8 8 8 8 8 8 8 8 8 8 8 8 8 8 8 8 8 8 8 8 8 8 8 8 8 8 8 8 8 8 8 8 8 8 8 8 8 8 8 8 8 8 8 8 8 8 8 8 8 8 8 8 8 8 8 8 8 8 8 8 8 8 8 8 8 8 8 8 8 8 8 8 8 8 8 8 8 8 8 8 8 8 8 8 8 8 8 8 8 8 8 8 8 8 8 8 8 8 8 8 8 8 8 8 8 8 8 8 8 8 8 8 8 8 8 8 8 8 8 8 8 8 8 8 8 8 8 8 8 8 8 8 8 8 8 8 8 8 8 8 8 8 8 8 8 8 8 8 8 8 8 8 8 8 8 8 8 8 8 8 8 8 8 8 8 8 8 8 8 8 8 8 8 8 8 8 8 8 8 8 8 8 8 8 8 8 8 8 8 8 8 8 8 8 8 8 8 8 8 8 8 8 8 8 8 8 ",
"8 8 8 8 8 8 8 8 8 8 8 8 8 8 8 8 8 8 8 8 8 8 8 8 8 8 8 8 8 8 8 8 8 8 8 8 8 8 8 8 8 8 8 8 8 8 8 8 8 8 8 8 8 8 8 8 8 8 8 8 8 8 8 8 8 8 8 8 8 8 8 8 8 8 8 8 8 8 8 8 8 8 8 8 8 8 8 8 8 8 8 8 8 8 8 8 8 8 8 8 8 8 8 8 8 8 8 8 8 8 8 8 8 8 8 8 8 8 8 8 8 8 8 8 8 8 8 8 8 8 8 8 8 8 8 8 8 8 8 8 8 8 8 8 8 8 8 8 8 8 8 8 8 8 8 8 8 8 8 8 8 8 8 8 8 8 8 8 8 8 8 8 8 8 8 8 8 8 8 8 8 8 8 8 8 8 8 8 8 8 8 8 8 8 8 8 8 8 8 8 8 8 8 8 8 8 8 8 8 8 8 8 8 8 8 8 8 8 8 8 8 8 8 8 8 8 8 8 8 8 8 8 8 8 8 8 8 8 8 8 8 8 8 8 8 8 8 8 8 8 8 8 8 8 8 8 8 8 8 8 8 8 8 8 8 8 8 8 8 8 8 8 8 8 8 8 8 8 8 8 8 8 8 8 8 8 8 8 8 8 8 8 8 8 8 8 8 8 8 8 8 8 8 8 8 8 8 8 8 8 8 8 8 8 8 8 8 8 8 8 ",
"8 8 8 8 8 8 8 8 8 8 8 8 8 8 8 8 8 8 8 8 8 8 8 8 8 8 8 8 8 8 8 8 8 8 8 8 8 8 8 8 8 8 8 8 8 8 8 8 8 8 8 8 8 8 8 8 8 8 8 8 8 8 8 8 8 8 8 8 8 8 8 8 8 8 8 8 8 8 8 8 8 8 8 8 8 8 8 8 8 8 8 8 8 8 8 8 8 8 8 8 8 8 8 8 8 8 8 8 8 8 8 8 8 8 8 8 8 8 8 8 8 8 8 8 8 8 8 8 8 8 8 8 8 8 8 8 8 8 8 8 8 8 8 8 8 8 8 8 8 8 8 8 8 8 8 8 8 8 8 8 8 8 8 8 8 8 8 8 8 8 8 8 8 8 8 8 8 8 8 8 8 8 8 8 8 8 8 8 8 8 8 8 8 8 8 8 8 8 8 8 8 8 8 8 8 8 8 8 8 8 8 8 8 8 8 8 8 8 8 8 8 8 8 8 8 8 8 8 8 8 8 8 8 8 8 8 8 8 8 8 8 8 8 8 8 8 8 8 8 8 8 8 8 8 8 8 8 8 8 8 8 8 8 8 8 8 8 8 8 8 8 8 8 8 8 8 8 8 8 8 8 8 8 8 8 8 8 8 8 8 8 8 8 8 8 8 8 8 8 8 8 8 8 8 8 8 8 8 8 8 8 8 8 8 8 8 8 8 8 8 ",
"8 8 8 8 8 8 8 8 8 8 8 8 8 8 8 8 8 8 8 8 8 8 8 8 8 8 8 8 8 8 8 8 8 8 8 8 8 8 8 8 8 8 8 8 8 8 8 8 8 8 8 8 8 8 8 8 8 8 8 8 8 8 8 8 8 8 8 8 8 8 8 8 8 8 8 8 8 8 8 8 8 8 8 8 8 8 8 8 8 8 8 8 8 8 8 8 8 8 8 8 8 8 8 8 8 8 8 8 8 8 8 8 8 8 8 8 8 8 8 8 8 8 8 8 8 8 8 8 8 8 8 8 8 8 8 8 8 8 8 8 8 8 8 8 8 8 8 8 8 8 8 8 8 8 8 8 8 8 8 8 8 8 8 8 8 8 8 8 8 8 8 8 8 8 8 8 8 8 8 8 8 8 8 8 8 8 8 8 8 8 8 8 8 8 8 8 8 8 8 8 8 8 8 8 8 8 8 8 8 8 8 8 8 8 8 8 8 8 8 8 8 8 8 8 8 8 8 8 8 8 8 8 8 8 8 8 8 8 8 8 8 8 8 8 8 8 8 8 8 8 8 8 8 8 8 8 8 8 8 8 8 8 8 8 8 8 8 8 8 8 8 8 8 8 8 8 8 8 8 8 8 8 8 8 8 8 8 8 8 8 8 8 8 8 8 8 8 8 8 8 8 8 8 8 8 8 8 8 8 8 8 8 8 8 8 8 8 8 8 8 ",
"8 8 8 8 8 8 8 8 8 8 8 8 8 8 8 8 8 8 8 8 8 8 8 8 8 8 8 8 8 8 8 8 8 8 8 8 8 8 8 8 8 8 8 8 8 8 8 8 8 8 8 8 8 8 8 8 8 8 8 8 8 8 8 8 8 8 8 8 8 8 8 8 8 8 8 8 8 8 8 8 8 8 8 8 8 8 8 8 8 8 8 8 8 8 8 8 8 8 8 8 8 8 8 8 8 8 8 8 8 8 8 8 8 8 8 8 8 8 8 8 8 8 8 8 8 8 8 8 8 8 8 8 8 8 8 8 8 8 8 8 8 8 8 8 8 8 8 8 8 8 8 8 8 8 8 8 8 8 8 8 8 8 8 8 8 8 8 8 8 8 8 8 8 8 8 8 8 8 8 8 8 8 8 8 8 8 8 8 8 8 8 8 8 8 8 8 8 8 8 8 8 8 8 8 8 8 8 8 8 8 8 8 8 8 8 8 8 8 8 8 8 8 8 8 8 8 8 8 8 8 8 8 8 8 8 8 8 8 8 8 8 8 8 8 8 8 8 8 8 8 8 8 8 8 8 8 8 8 8 8 8 8 8 8 8 8 8 8 8 8 8 8 8 8 8 8 8 8 8 8 8 8 8 8 8 8 8 8 8 8 8 8 8 8 8 8 8 8 8 8 8 8 8 8 8 8 8 8 8 8 8 8 8 8 8 8 8 8 8 8 ",
"8 8 8 8 8 8 8 8 8 8 8 8 8 8 8 8 8 8 8 8 8 8 8 8 8 8 8 8 8 8 8 8 8 8 8 8 8 8 8 8 8 8 8 8 8 8 8 8 8 8 8 8 8 8 8 8 8 8 8 8 8 8 8 8 8 8 8 8 8 8 8 8 8 8 8 8 8 8 8 8 8 8 8 8 8 8 8 8 8 8 8 8 8 8 8 8 8 8 8 8 8 8 8 8 8 8 8 8 8 8 8 8 8 8 8 8 8 8 8 8 8 8 8 8 8 8 8 8 8 8 8 8 8 8 8 8 8 8 8 8 8 8 8 8 8 8 8 8 8 8 8 8 8 8 8 8 8 8 8 8 8 8 8 8 8 8 8 8 8 8 8 8 8 8 8 8 8 8 8 8 8 8 8 8 8 8 8 8 8 8 8 8 8 8 8 8 8 8 8 8 8 8 8 8 8 8 8 8 8 8 8 8 8 8 8 8 8 8 8 8 8 8 8 8 8 8 8 8 8 8 8 8 8 8 8 8 8 8 8 8 8 8 8 8 8 8 8 8 8 8 8 8 8 8 8 8 8 8 8 8 8 8 8 8 8 8 8 8 8 8 8 8 8 8 8 8 8 8 8 8 8 8 8 8 8 8 8 8 8 8 8 8 8 8 8 8 8 8 8 8 8 8 8 8 8 8 8 8 8 8 8 8 8 8 8 8 8 8 8 8 ",
"8 8 8 8 8 8 8 8 8 8 8 8 8 8 8 8 8 8 8 8 8 8 8 8 8 8 8 8 8 8 8 8 8 8 8 8 8 8 8 8 8 8 8 8 8 8 8 8 8 8 8 8 8 8 8 8 8 8 8 8 8 8 8 8 8 8 8 8 8 8 8 8 8 8 8 8 8 8 8 8 8 8 8 8 8 8 8 8 8 8 8 8 8 8 8 8 8 8 8 8 8 8 8 8 8 8 8 8 8 8 8 8 8 8 8 8 8 8 8 8 8 8 8 8 8 8 8 8 8 8 8 8 8 8 8 8 8 8 8 8 8 8 8 8 8 8 8 8 8 8 8 8 8 8 8 8 8 8 8 8 8 8 8 8 8 8 8 8 8 8 8 8 8 8 8 8 8 8 8 8 8 8 8 8 8 8 8 8 8 8 8 8 8 8 8 8 8 8 8 8 8 8 8 8 8 8 8 8 8 8 8 8 8 8 8 8 8 8 8 8 8 8 8 8 8 8 8 8 8 8 8 8 8 8 8 8 8 8 8 8 8 8 8 8 8 8 8 8 8 8 8 8 8 8 8 8 8 8 8 8 8 8 8 8 8 8 8 8 8 8 8 8 8 8 8 8 8 8 8 8 8 8 8 8 8 8 8 8 8 8 8 8 8 8 8 8 8 8 8 8 8 8 8 8 8 8 8 8 8 8 8 8 8 8 8 8 8 8 8 8 ",
"8 8 8 8 8 8 8 8 8 8 8 8 8 8 8 8 8 8 8 8 8 8 8 8 8 8 8 8 8 8 8 8 8 8 8 8 8 8 8 8 8 8 8 8 8 8 8 8 8 8 8 8 8 8 8 8 8 8 8 8 8 8 8 8 8 8 8 8 8 8 8 8 8 8 8 8 8 8 8 8 8 8 8 8 8 8 8 8 8 8 8 8 8 8 8 8 8 8 8 8 8 8 8 8 8 8 8 8 8 8 8 8 8 8 8 8 8 8 8 8 8 8 8 8 8 8 8 8 8 8 8 8 8 8 8 8 8 8 8 8 8 8 8 8 8 8 8 8 8 8 8 8 8 8 8 8 8 8 8 8 8 8 8 8 8 8 8 8 8 8 8 8 8 8 8 8 8 8 8 8 8 8 8 8 8 8 8 8 8 8 8 8 8 8 8 8 8 8 8 8 8 8 8 8 8 8 8 8 8 8 8 8 8 8 8 8 8 8 8 8 8 8 8 8 8 8 8 8 8 8 8 8 8 8 8 8 8 8 8 8 8 8 8 8 8 8 8 8 8 8 8 8 8 8 8 8 8 8 8 8 8 8 8 8 8 8 8 8 8 8 8 8 8 8 8 8 8 8 8 8 8 8 8 8 8 8 8 8 8 8 8 8 8 8 8 8 8 8 8 8 8 8 8 8 8 8 8 8 8 8 8 8 8 8 8 8 8 8 8 8 ",
"8 8 8 8 8 8 8 8 8 8 8 8 8 8 8 8 8 8 8 8 8 8 8 8 8 8 8 8 8 8 8 8 8 8 8 8 8 8 8 8 8 8 8 8 8 8 8 8 8 8 8 8 8 8 8 8 8 8 8 8 8 8 8 8 8 8 8 8 8 8 8 8 8 8 8 8 8 8 8 8 8 8 8 8 8 8 8 8 8 8 8 8 8 8 8 8 8 8 8 8 8 8 8 8 8 8 8 8 8 8 8 8 8 8 8 8 8 8 8 8 8 8 8 8 8 8 8 8 8 8 8 8 8 8 8 8 8 8 8 8 8 8 8 8 8 8 8 8 8 8 8 8 8 8 8 8 8 8 8 8 8 8 8 8 8 8 8 8 8 8 8 8 8 8 8 8 8 8 8 8 8 8 8 8 8 8 8 8 8 8 8 8 8 8 8 8 8 8 8 8 8 8 8 8 8 8 8 8 8 8 8 8 8 8 8 8 8 8 8 8 8 8 8 8 8 8 8 8 8 8 8 8 8 8 8 8 8 8 8 8 8 8 8 8 8 8 8 8 8 8 8 8 8 8 8 8 8 8 8 8 8 8 8 8 8 8 8 8 8 8 8 8 8 8 8 8 8 8 8 8 8 8 8 8 8 8 8 8 8 8 8 8 8 8 8 8 8 8 8 8 8 8 8 8 8 8 8 8 8 8 8 8 8 8 8 8 8 8 8 8 ",
"8 8 8 8 8 8 8 8 8 8 8 8 8 8 8 8 8 8 8 8 8 8 8 8 8 8 8 8 8 8 8 8 8 8 8 8 8 8 8 8 8 8 8 8 8 8 8 8 8 8 8 8 8 8 8 8 8 8 8 8 8 8 8 8 8 8 8 8 8 8 8 8 8 8 8 8 8 8 8 8 8 8 8 8 8 8 8 8 8 8 8 8 8 8 8 8 8 8 8 8 8 8 8 8 8 8 8 8 8 8 8 8 8 8 8 8 8 8 8 8 8 8 8 8 8 8 8 8 8 8 8 8 8 8 8 8 8 8 8 8 8 8 8 8 8 8 8 8 8 8 8 8 8 8 8 8 8 8 8 8 8 8 8 8 8 8 8 8 8 8 8 8 8 8 8 8 8 8 8 8 8 8 8 8 8 8 8 8 8 8 8 8 8 8 8 8 8 8 8 8 8 8 8 8 8 8 8 8 8 8 8 8 8 8 8 8 8 8 8 8 8 8 8 8 8 8 8 8 8 8 8 8 8 8 8 8 8 8 8 8 8 8 8 8 8 8 8 8 8 8 8 8 8 8 8 8 8 8 8 8 8 8 8 8 8 8 8 8 8 8 8 8 8 8 8 8 8 8 8 8 8 8 8 8 8 8 8 8 8 8 8 8 8 8 8 8 8 8 8 8 8 8 8 8 8 8 8 8 8 8 8 8 8 8 8 8 8 8 8 8 ",
"8 8 8 8 8 8 8 8 8 8 8 8 8 8 8 8 8 8 8 8 8 8 8 8 8 8 8 8 8 8 8 8 8 8 8 8 8 8 8 8 8 8 8 8 8 8 8 8 8 8 8 8 8 8 8 8 8 8 8 8 8 8 8 8 8 8 8 8 8 8 8 8 8 8 8 8 8 8 8 8 8 8 8 8 8 8 8 8 8 8 8 8 8 8 8 8 8 8 8 8 8 8 8 8 8 8 8 8 8 8 8 8 8 8 8 8 8 8 8 8 8 8 8 8 8 8 8 8 8 8 8 8 8 8 8 8 8 8 8 8 8 8 8 8 8 8 8 8 8 8 8 8 8 8 8 8 8 8 8 8 8 8 8 8 8 8 8 8 8 8 8 8 8 8 8 8 8 8 8 8 8 8 8 8 8 8 8 8 8 8 8 8 8 8 8 8 8 8 8 8 8 8 8 8 8 8 8 8 8 8 8 8 8 8 8 8 8 8 8 8 8 8 8 8 8 8 8 8 8 8 8 8 8 8 8 8 8 8 8 8 8 8 8 8 8 8 8 8 8 8 8 8 8 8 8 8 8 8 8 8 8 8 8 8 8 8 8 8 8 8 8 8 8 8 8 8 8 8 8 8 8 8 8 8 8 8 8 8 8 8 8 8 8 8 8 8 8 8 8 8 8 8 8 8 8 8 8 8 8 8 8 8 8 8 8 8 8 8 8 8 ",
"8 8 8 8 8 8 8 8 8 8 8 8 8 8 8 8 8 8 8 8 8 8 8 8 8 8 8 8 8 8 8 8 8 8 8 8 8 8 8 8 8 8 8 8 8 8 8 8 8 8 8 8 8 8 8 8 8 8 8 8 8 8 8 8 8 8 8 8 8 8 8 8 8 8 8 8 8 8 8 8 8 8 8 8 8 8 8 8 8 8 8 8 8 8 8 8 8 8 8 8 8 8 8 8 8 8 8 8 8 8 8 8 8 8 8 8 8 8 8 8 8 8 8 8 8 8 8 8 8 8 8 8 8 8 8 8 8 8 8 8 8 8 8 8 8 8 8 8 8 8 8 8 8 8 8 8 8 8 8 8 8 8 8 8 8 8 8 8 8 8 8 8 8 8 8 8 8 8 8 8 8 8 8 8 8 8 8 8 8 8 8 8 8 8 8 8 8 8 8 8 8 8 8 8 8 8 8 8 8 8 8 8 8 8 8 8 8 8 8 8 8 8 8 8 8 8 8 8 8 8 8 8 8 8 8 8 8 8 8 8 8 8 8 8 8 8 8 8 8 8 8 8 8 8 8 8 8 8 8 8 8 8 8 8 8 8 8 8 8 8 8 8 8 8 8 8 8 8 8 8 8 8 8 8 8 8 8 8 8 8 8 8 8 8 8 8 8 8 8 8 8 8 8 8 8 8 8 8 8 8 8 8 8 8 8 8 8 8 8 8 ",
"8 8 8 8 8 8 8 8 8 8 8 8 8 8 8 8 8 8 8 8 8 8 8 8 8 8 8 8 8 8 8 8 8 8 8 8 8 8 8 8 8 8 8 8 8 8 8 8 8 8 8 8 8 8 8 8 8 8 8 8 8 8 8 8 8 8 8 8 8 8 8 8 8 8 8 8 8 8 8 8 8 8 8 8 8 8 8 8 8 8 8 8 8 8 8 8 8 8 8 8 8 8 8 8 8 8 8 8 8 8 8 8 8 8 8 8 8 8 8 8 8 8 8 8 8 8 8 8 8 8 8 8 8 8 8 8 8 8 8 8 8 8 8 8 8 8 8 8 8 8 8 8 8 8 8 8 8 8 8 8 8 8 8 8 8 8 8 8 8 8 8 8 8 8 8 8 8 8 8 8 8 8 8 8 8 8 8 8 8 8 8 8 8 8 8 8 8 8 8 8 8 8 8 8 8 8 8 8 8 8 8 8 8 8 8 8 8 8 8 8 8 8 8 8 8 8 8 8 8 8 8 8 8 8 8 8 8 8 8 8 8 8 8 8 8 8 8 8 8 8 8 8 8 8 8 8 8 8 8 8 8 8 8 8 8 8 8 8 8 8 8 8 8 8 8 8 8 8 8 8 8 8 8 8 8 8 8 8 8 8 8 8 8 8 8 8 8 8 8 8 8 8 8 8 8 8 8 8 8 8 8 8 8 8 8 8 8 8 8 8 ",
"8 8 8 8 8 8 8 8 8 8 8 8 8 8 8 8 8 8 8 8 8 8 8 8 8 8 8 8 8 8 8 8 8 8 8 8 8 8 8 8 8 8 8 8 8 8 8 8 8 8 8 8 8 8 8 8 8 8 8 8 8 8 8 8 8 8 8 8 8 8 8 8 8 8 8 8 8 8 8 8 8 8 8 8 8 8 8 8 8 8 8 8 8 8 8 8 8 8 8 8 8 8 8 8 8 8 8 8 8 8 8 8 8 8 8 8 8 8 8 8 8 8 8 8 8 8 8 8 8 8 8 8 8 8 8 8 8 8 8 8 8 8 8 8 8 8 8 8 8 8 8 8 8 8 8 8 8 8 8 8 8 8 8 8 8 8 8 8 8 8 8 8 8 8 8 8 8 8 8 8 8 8 8 8 8 8 8 8 8 8 8 8 8 8 8 8 8 8 8 8 8 8 8 8 8 8 8 8 8 8 8 8 8 8 8 8 8 8 8 8 8 8 8 8 8 8 8 8 8 8 8 8 8 8 8 8 8 8 8 8 8 8 8 8 8 8 8 8 8 8 8 8 8 8 8 8 8 8 8 8 8 8 8 8 8 8 8 8 8 8 8 8 8 8 8 8 8 8 8 8 8 8 8 8 8 8 8 8 8 8 8 8 8 8 8 8 8 8 8 8 8 8 8 8 8 8 8 8 8 8 8 8 8 8 8 8 8 8 8 8 ",
"8 8 8 8 8 8 8 8 8 8 8 8 8 8 8 8 8 8 8 8 8 8 8 8 8 8 8 8 8 8 8 8 8 8 8 8 8 8 8 8 8 8 8 8 8 8 8 8 8 8 8 8 8 8 8 8 8 8 8 8 8 8 8 8 8 8 8 8 8 8 8 8 8 8 8 8 8 8 8 8 8 8 8 8 8 8 8 8 8 8 8 8 8 8 8 8 8 8 8 8 8 8 8 8 8 8 8 8 8 8 8 8 8 8 8 8 8 8 8 8 8 8 8 8 8 8 8 8 8 8 8 8 8 8 8 8 8 8 8 8 8 8 8 8 8 8 8 8 8 8 8 8 8 8 8 8 8 8 8 8 8 8 8 8 8 8 8 8 8 8 8 8 8 8 8 8 8 8 8 8 8 8 8 8 8 8 8 8 8 8 8 8 8 8 8 8 8 8 8 8 8 8 8 8 8 8 8 8 8 8 8 8 8 8 8 8 8 8 8 8 8 8 8 8 8 8 8 8 8 8 8 8 8 8 8 8 8 8 8 8 8 8 8 8 8 8 8 8 8 8 8 8 8 8 8 8 8 8 8 8 8 8 8 8 8 8 8 8 8 8 8 8 8 8 8 8 8 8 8 8 8 8 8 8 8 8 8 8 8 8 8 8 8 8 8 8 8 8 8 8 8 8 8 8 8 8 8 8 8 8 8 8 8 8 8 8 8 8 8 8 ",
"8 8 8 8 8 8 8 8 8 8 8 8 8 8 8 8 8 8 8 8 8 8 8 8 8 8 8 8 8 8 8 8 8 8 8 8 8 8 8 8 8 8 8 8 8 8 8 8 8 8 8 8 8 8 8 8 8 8 8 8 8 8 8 8 8 8 8 8 8 8 8 8 8 8 8 8 8 8 8 8 8 8 8 8 8 8 8 8 8 8 8 8 8 8 8 8 8 8 8 8 8 8 8 8 8 8 8 8 8 8 8 8 8 8 8 8 8 8 8 8 8 8 8 8 8 8 8 8 8 8 8 8 8 8 8 8 8 8 8 8 8 8 8 8 8 8 8 8 8 8 8 8 8 8 8 8 8 8 8 8 8 8 8 8 8 8 8 8 8 8 8 8 8 8 8 8 8 8 8 8 8 8 8 8 8 8 8 8 8 8 8 8 8 8 8 8 8 8 8 8 8 8 8 8 8 8 8 8 8 8 8 8 8 8 8 8 8 8 8 8 8 8 8 8 8 8 8 8 8 8 8 8 8 8 8 8 8 8 8 8 8 8 8 8 8 8 8 8 8 8 8 8 8 8 8 8 8 8 8 8 8 8 8 8 8 8 8 8 8 8 8 8 8 8 8 8 8 8 8 8 8 8 8 8 8 8 8 8 8 8 8 8 8 8 8 8 8 8 8 8 8 8 8 8 8 8 8 8 8 8 8 8 8 8 8 8 8 8 8 8 ",
"8 8 8 8 8 8 8 8 8 8 8 8 8 8 8 8 8 8 8 8 8 8 8 8 8 8 8 8 8 8 8 8 8 8 8 8 8 8 8 8 8 8 8 8 8 8 8 8 8 8 8 8 8 8 8 8 8 8 8 8 8 8 8 8 8 8 8 8 8 8 8 8 8 8 8 8 8 8 8 8 8 8 8 8 8 8 8 8 8 8 8 8 8 8 8 8 8 8 8 8 8 8 8 8 8 8 8 8 8 8 8 8 8 8 8 8 8 8 8 8 8 8 8 8 8 8 8 8 8 8 8 8 8 8 8 8 8 8 8 8 8 8 8 8 8 8 8 8 8 8 8 8 8 8 8 8 8 8 8 8 8 8 8 8 8 8 8 8 8 8 8 8 8 8 8 8 8 8 8 8 8 8 8 8 8 8 8 8 8 8 8 8 8 8 8 8 8 8 8 8 8 8 8 8 8 8 8 8 8 8 8 8 8 8 8 8 8 8 8 8 8 8 8 8 8 8 8 8 8 8 8 8 8 8 8 8 8 8 8 8 8 8 8 8 8 8 8 8 8 8 8 8 8 8 8 8 8 8 8 8 8 8 8 8 8 8 8 8 8 8 8 8 8 8 8 8 8 8 8 8 8 8 8 8 8 8 8 8 8 8 8 8 8 8 8 8 8 8 8 8 8 8 8 8 8 8 8 8 8 8 8 8 8 8 8 8 8 8 8 8 ",
"8 8 8 8 8 8 8 8 8 8 8 8 8 8 8 8 8 8 8 8 8 8 8 8 8 8 8 8 8 8 8 8 8 8 8 8 8 8 8 8 8 8 8 8 8 8 8 8 8 8 8 8 8 8 8 8 8 8 8 8 8 8 8 8 8 8 8 8 8 8 8 8 8 8 8 8 8 8 8 8 8 8 8 8 8 8 8 8 8 8 8 8 8 8 8 8 8 8 8 8 8 8 8 8 8 8 8 8 8 8 8 8 8 8 8 8 8 8 8 8 8 8 8 8 8 8 8 8 8 8 8 8 8 8 8 8 8 8 8 8 8 8 8 8 8 8 8 8 8 8 8 8 8 8 8 8 8 8 8 8 8 8 8 8 8 8 8 8 8 8 8 8 8 8 8 8 8 8 8 8 8 8 8 8 8 8 8 8 8 8 8 8 8 8 8 8 8 8 8 8 8 8 8 8 8 8 8 8 8 8 8 8 8 8 8 8 8 8 8 8 8 8 8 8 8 8 8 8 8 8 8 8 8 8 8 8 8 8 8 8 8 8 8 8 8 8 8 8 8 8 8 8 8 8 8 8 8 8 8 8 8 8 8 8 8 8 8 8 8 8 8 8 8 8 8 8 8 8 8 8 8 8 8 8 8 8 8 8 8 8 8 8 8 8 8 8 8 8 8 8 8 8 8 8 8 8 8 8 8 8 8 8 8 8 8 8 8 8 8 8 "
};
