/* XPM */
static char *end_floor3_075[] = {
/* columns rows colors chars-per-pixel */
"320 200 66 1 ",
"  c #000000",
". c #0B0B0B",
"X c gray8",
"o c #1C1C1C",
"O c #00002C",
"+ c #00003C",
"@ c gray14",
"# c #2C2C2C",
"$ c #343434",
"% c #3C3C3C",
"& c #600000",
"* c #643000",
"= c #743804",
"- c #004400",
"; c #005C00",
": c #007400",
"> c #000050",
", c #000064",
"< c #244870",
"1 c #444444",
"2 c #4C4C4C",
"3 c #545454",
"4 c #5C5C5C",
"5 c #646464",
"6 c #6C6C6C",
"7 c #747474",
"8 c #7C7C7C",
"9 c #F80000",
"0 c #884404",
"q c #984C08",
"w c #AC580C",
"e c #C47024",
"r c #008C00",
"t c #00A400",
"y c #CC8038",
"u c #D09050",
"i c #040488",
"p c #0C0CAC",
"a c #2C5480",
"s c #346090",
"d c #3C6CA0",
"f c #4C78A8",
"g c #1010C0",
"h c #4040D0",
"j c #7878E0",
"k c #5884B0",
"l c #6C90BC",
"z c #848484",
"x c #8C8C8C",
"c c #939393",
"v c #989898",
"b c #A0A0A0",
"n c #A8A8A8",
"m c #B0B0B0",
"M c #BCBCBC",
"N c #ECD0B4",
"B c #80A0C4",
"V c #C4C4C4",
"C c #CCCCCC",
"Z c #D4D4D4",
"A c #DADADA",
"S c #D8D8F4",
"D c #E0E0E0",
"F c #E8E8E8",
"G c #F1F1F1",
"H c #FCFCFC",
/* pixels */
"@@@@@@@@@@@@@@@@@@@@@@@@@@@@@@@@@@@@@@@@@@@@@@@@@@@@@@@@@@@@@@@@@@@@@@@@@@@@@@@@@@@@@@@@@@@@@@@@@@@@@@@@@@@@@@@@@@@@@@@@@@@@@@@@@@@@@@@@@@@@@@@@@@@@@@@@@@@@@@@@@@@@@@@@@@@@@@@@@@@@@@@@@@@@@@@@@@@@@@@@@@@@@@@@@@@@@@@@@@@@@@@@@@@@@@@@@@@@@@@@@@@@@@@@@@@@@@@@@@@@@@@@@@@@@@@@@@@@@@@@@@@@@@@@@@@@@@@@@@@@@@@@@@@@@@@@@@@@@@@@",
"@@@@@@@@@@@@@@@@@@@@@@@@@@@@@@@@@@@@@@@@@@@@@@@@@@@@@@@@@@@@@@@@@@@@@@@@@@@@@@@@@@@@@@@@@@@@@@@@@@@@@@@@@@@@@@@@@@@@@@@@@@@@@@@@@@@@@@@@@@@@@@@@@@@@@@@@@@@@@@@@@@@@@@@@@@@@@@@@@@@@@@@@@@@@@@@@@@@@@@@@@@@@@@@@@@@@@@@@@@@@@@@@@@@@@@@@@@@@@@@@@@@@@@@@@@@@@@@@@@@@@@@@@@@@@@@@@@@@@@@@@@@@@@@@@@@@@@@@@@@@@@@@@@@@@@@@@@@@@@@@",
"@@@@@@@@@@@@@@@@@@@@@@@@@@@@@@@@@@@@@@@@@@@@@@@@@@@@@@@@@@@@@@@@@@@@@@@@@@@@@@@@@@@@@@@@@@@@@@@@@@@@@@@@@@@@@@@@@@@@@@@@@@@@@@@@@@@@@@@@@@@@@@@@@@@@@@@@@@@@@@@@@@@@@@@@@@@@@@@@@@@@@@@@@@@@@@@@@@@@@@@@@@@@@@@@@@@@@@@@@@@@@@@@@@@@@@@@@@@@@@@@@@@@@@@@@@@@@@@@@@@@@@@@@@@@@@@@@@@@@@@@@@@@@@@@@@@@@@@@@@@@@@@@@@@@@@@@@@@@@@@@",
"@@@@@@@@@@@@@@@@@@@@@@@@@@@@@@@@@@@@@@@@@@@@@@@@@@@@@@@@@@@@@@@@@@@@@@@@@@@@@@@@@@@@@@@@@@@@@@@@@@@@@@@@@@@@@@@@@@@@@@@@@@@@@@@@@@@@@@@@@@@@@@@@@@@@@@@@@@@@@@@@@@@@@@@@@@@@@@@@@@@@@@@@@@@@@@@@@@@@@@@@@@@@@@@@@@@@@@@@@@@@@@@@@@@@@@@@@@@@@@@@@@@@@@@@@@@@@@@@@@@@@@@@@@@@@@@@@@@@@@@@@@@@@@@@@@@@@@@@@@@@@@@@@@@@@@@@@@@@@@@@",
"@@@@@@@@@@@@@@@@@@@@@@@@@@@@@@@@@@@@@@@@@@@@@@@@@@@@@@@@@@@@@@@@@@@@@@@@@@@@@@@@@@@@@@@@@@@@@@@@@@@@@@@@@@@@@@@@@@@@@@@@@@@@@@@@@@@@@@@@@@@@@@@@@@@@@@@@@@@@@@@@@@@@@@@@@@@@@@@@@@@@@@@@@@@@@@@@@@@@@@@@@@@@@@@@@@@@@@@@@@@@@@@@@@@@@@@@@@@@@@@@@@@@@@@@@@@@@@@@@@@@@@@@@@@@@@@@@@@@@@@@@@@@@@@@@@@@@@@@@@@@@@@@@@@@@@@@@@@@@@@@",
"@@@@@@@@@@@@@@@@@@@@@@@@@@@@@@@@@@@@@@@@@@@@@@@@@@@@@@@@@@@@@@@@@@@@@@@@@@@@@@@@@@@@@@@@@@@@@@@@@@@@@@@@@@@@@@@@@@@@@@@@@@@@@@@@@@@@@@@@@@@@@@@@@@@@@@@@@@@@@@@@@@@@@@@@@@@@@@@@@@@@@@@@@@@@@@@@@@@@@@@@@@@@@@@@@@@@@@@@@@@@@@@@@@@@@@@@@@@@@@@@@@@@@@@@@@@@@@@@@@@@@@@@@@@@@@@@@@@@@@@@@@@@@@@@@@@@@@@@@@@@@@@@@@@@@@@@@@@@@@@@",
"@@@@@@@@@@@@@@@@@@@@@@@@@@@@@@@@@@@@@@@@@@@@@@@@@@@@@@@@@@@@@@@@@@@@@@@@@@@@@@@@@@@@@@@@@@@@@@@@@@@@@@@@@@@@@@@@@@@@@@@@@@@@@@@@@@@@@@@@@@@@@@@@@@@@@@@@@@@@@@@@@@@@@@@@@@@@@@@@@@@@@@@@@@@@@@@@@@@@@@@@@@@@@@@@@@@@@@@@@@@@@@@@@@@@@@@@@@@@@@@@@@@@@@@@@@@@@@@@@@@@@@@@@@@@@@@@@@@@@@@@@@@@@@@@@@@@@@@@@@@@@@@@@@@@@@@@@@@@@@@@",
"@@@@@@@@@@@@@@@@@@@@@@@@@@@@@@@@@@@@@@@@@@@@@@@@@@@@@@@@@@@@@@@@@@@@@@@@@@@@@@@@@@@@@@@@@@@@@@@@@@@@@@@@@@@@@@@@@@@@@@@@@@@@@@@@@@@@@@@@@@@@@@@@@@@@@@@@@@@@@@@@@@@@@@@@@@@@@@@@@@@@@@@@@@@@@@@@@@@@@@@@@@@@@@@@@@@@@@@@@@@@@@@@@@@@@@@@@@@@@@@@@@@@@@@@@@@@@@@@@@@@@@@@@@@@@@@@@@@@@@@@@@@@@@@@@@@@@@@@@@@@@@@@@@@@@@@@@@@@@@@@",
"@@@@@@@@@@@@@@@@@@@@@@@@@@@@@@@@@@@@@@@@@@@@@@@@@@@@@@@@@@@@@@@@@@@@@@@@@@@@@@@@@@@@@@@@@@@@@@@@@@@@@@@@@@@@@@@@@@@@@@@@@@@@@@@@@@@@@@@@@@@@@@@@@@@@@@@@@@@@@@@@@@@@@@@@@@@@@@@@@@@@@@@@@@@@@@@@@@@@@@@@@@@@@@@@@@@@@@@@@@@@@@@@@@@@@@@@@@@@@@@@@@@@@@@@@@@@@@@@@@@@@@@@@@@@@@@@@@@@@@@@@@@@@@@@@@@@@@@@@@@@@@@@@@@@@@@@@@@@@@@@",
"@@@@@@@@@@@@@@@@@@@@@@@@@@@@@@@@@@@@@@@@@@@@@@@@@@@@@@@@@@@@@@@@@@@@@@@@@@@@@@@@@@@@@@@@@@@@@@@@@@@@@@@@@@@@@@@@@@@@@@@@@@@@@@@@@@@@@@@@@@@@@@@@@@@@@@@@@@@@@@@@@@@@@@@@@@@@@@@@@@@@@@@@@@@@@@@@@@@@@@@@@@@@@@@@@@@@@@@@@@@@@@@@@@@@@@@@@@@@@@@@@@@@@@@@@@@@@@@@@@@@@@@@@@@@@@@@@@@@@@@@@@@@@@@@@@@@@@@@@@@@@@@@@@@@@@@@@@@@@@@@",
"@@@@@@@@@@@@@@@@@@@@@@@@@@@@@@@@@@@@@@@@@@@@@@@@@@@@@@@@@@@@@@@@@@@@@@@@@@@@@@@@@@@@@@@@@@@@@@@@@@@@@@@@@@@@@@@@@@@@@@@@@@@@@@@@@@@@@@@@@@@@@@@@@@@@@@@@@@@@@@@@@@@@@@@@@@@@@@@@@@@@@@@@@@@@@@@@@@@@@@@@@@@@@@@@@@@@@@@@@@@@@@@@@@@@@@@@@@@@@@@@@@@@@@@@@@@@@@@@@@@@@@@@@@@@@@@@@@@@@@@@@@@@@@@@@@@@@@@@@@@@@@@@@@@@@@@@@@@@@@@@",
"@@@@@@@@@@@@@@@@@@@@@@@@@@@@@@@@@@@@@@@@@@@@@@@@@@@@@@@@@@@@@@@@@@@@@@@@@@@@@@@@@@@@@@@@@@@@@@@@@@@@@@@@@@@@@@@@@@@@@@@@@@@@@@@@@@@@@@@@@@@@@@@@@@@@@@@@@@@@@@@@@@@@@@@@@@@@@@@@@@@@@@@@@@@@@@@@@@@@@@@@@@@@@@@@@@@@@@@@@@@@@@@@@@@@@@@@@@@@@@@@@@@@@@@@@@@@@@@@@@@@@@@@@@@@@@@@@@@@@@@@@@@@@@@@@@@@@@@@@@@@@@@@@@@@@@@@@@@@@@@@",
"@@@@@@@@@@@@@@@@@@@@@@@@@@@@@@@@@@@@@@@@@@@@@@@@@@@@@@@@@@@@@@@@@@@@@@@@@@@@@@@@@@@@@@@@@@@@@@@@@@@@@@@@@@@@@@@@@@@@@@@@@@@@@@@@@@@@@@@@@@@@@@@@@@@@@@@@@@@@@@@@@@@@@@@@@@@@@@@@@@@@@@@@@@@@@@@@@@@@@@@@@@@@@@@@@@@@@@@@@@@@@@@@@@@@@@@@@@@@@@@@@@@@@@@@@@@@@@@@@@@@@@@@@@@@@@@@@@@@@@@@@@@@@@@@@@@@@@@@@@@@@@@@@@@@@@@@@@@@@@@@",
"@@@@@@@@@@@@@@@@@@@@@@@@@@@@@@@@@@@@@@@@@@@@@@@@@@@@@@@@@@@@@@@@@@@@@@@@@@@@@@@@@@@@@@@@@@@@@@@@@@@@@@@@@@@@@@@@@@@@@@@@@@@@@@@@@@@@@@@@@@@@@@@@@@@@@@@@@@@@@@@@@@@@@@@@@@@@@@@@@@@@@@@@@@@@@@@@@@@@@@@@@@@@@@@@@@@@@@@@@@@@@@@@@@@@@@@@@@@@@@@@@@@@@@@@@@@@@@@@@@@@@@@@@@@@@@@@@@@@@@@@@@@@@@@@@@@@@@@@@@@@@@@@@@@@@@@@@@@@@@@@",
"@@@@@@@@@@@@@@@@@@@@@@@@@@@@@@@@@@@@@@@@@@@@@@@@@@@@@@@@@@@@@@@@@@@@@@@@@@@@@@@@@@@@@@@@@@@@@@@@@@@@@@@@@@@@@@@@@@@@@@@@@@@@@@@@@@@@@@@@@@@@@@@@@@@@@@@@@@@@@@@@@@@@@@@@@@@@@@@@@@@@@@@@@@@@@@@@@@@@@@@@@@@@@@@@@@@@@@@@@@@@@@@@@@@@@@@@@@@@@@@@@@@@@@@@@@@@@@@@@@@@@@@@@@@@@@@@@@@@@@@@@@@@@@@@@@@@@@@@@@@@@@@@@@@@@@@@@@@@@@@@",
"@@@@@@@@@@@@@@@@@@@@@@@@@@@@@@@@@@@@@@@@@@@@@@@@@@@@@@@@@@@@@@@@@@@@@@@@@@@@@@@@@@@@@@@@@@@@@@@@@@@@@@@@@@@@@@@@@@@@@@@@@@@@@@@@@@@@@@@@@@@@@@@@@@@@@@@@@@@@@@@@@@@@@@@@@@@@@@@@@@@@@@@@@@@@@@@@@@@@@@@@@@@@@@@@@@@@@@@@@@@@@@@@@@@@@@@@@@@@@@@@@@@@@@@@@@@@@@@@@@@@@@@@@@@@@@@@@@@@@@@@@@@@@@@@@@@@@@@@@@@@@@@@@@@@@@@@@@@@@@@@",
"@@@@@@@@@@@@@@@@@@@@@@@@@@@@@@@@@@@@@@@@@@@@@@@@@@@@@@@@@@@@@@@@@@@@@@@@@@@@@@@@@@@@@@@@@@@@@@@@@@@@@@@@@@@@@@@@@@@@@@@@@@@@@@@@@@@@@@@@@@@@@@@@@@@@@@@@@@@@@@@@@@@@@@@@@@@@@@@@@@@@@@@@@@@@@@@@@@@@@@@@@@@@@@@@@@@@@@@@@@@@@@@@@@@@@@@@@@@@@@@@@@@@@@@@@@@@@@@@@@@@@@@@@@@@@@@@@@@@@@@@@@@@@@@@@@@@@@@@@@@@@@@@@@@@@@@@@@@@@@@@",
"@@@@@@@@@@@@@@@@@@@@@@@@@@@@@@@@@@@@@@@@@@@@@@@@@@@@@@@@@@@@@@@@@@@@@@@@@@@@@@@@@@@@@@@@@@@@@@@@@@@@@@@@@@@@@@@@@@@@@@@@@@@@@@@@@@@@@@@@@@@@@@@@@@@@@@@@@@@@@@@@@@@@@@@@@@@@@@@@@@@@@@@@@@@@@@@@@@@@@@@@@@@@@@@@@@@@@@@@@@@@@@@@@@@@@@@@@@@@@@@@@@@@@@@@@@@@@@@@@@@@@@@@@@@@@@@@@@@@@@@@@@@@@@@@@@@@@@@@@@@@@@@@@@@@@@@@@@@@@@@@",
"@@@@@@@@@@@@@@@@@@@@@@@@@@@@@@@@@@@@@@@@@@@@@@@@@@@@@@@@@@@@@@@@@@@@@@@@@@@@@@@@@@@@@@@@@@@@@@@@@@@@@@@@@@@@@@@@@@@@@@@@@@@@@@@@@@@@@@@@@@@@@@@@@@@@@@@@@@@@@@@@@@@@@@@@@@@@@@@@@@@@@@@@@@@@@@@@@@@@@@@@@@@@@@@@@@@@@@@@@@@@@@@@@@@@@@@@@@@@@@@@@@@@@@@@@@@@@@@@@@@@@@@@@@@@@@@@@@@@@@@@@@@@@@@@@@@@@@@@@@@@@@@@@@@@@@@@@@@@@@@@",
"@@@@@@@@@@@@@@@@@@@@@@@@@@@@@@@@@@@@@@@@@@@@@@@@@@@@@@@@@@@@@@@@@@@@@@@@@@@@@@@@@@@@@@@@@@@@@@@@@@@@@@@@@@@@@@@@@@@@@@@@@@@@@@@@@@@@@@@@@@@@@@@@@@@@@@@@@@@@@@@@@@@@@@@@@@@@@@@@@@@@@@@@@@@@@@@@@@@@@@@@@@@@@@@@@@@@@@@@@@@@@@@@@@@@@@@@@@@@@@@@@@@@@@@@@@@@@@@@@@@@@@@@@@@@@@@@@@@@@@@@@@@@@@@@@@@@@@@@@@@@@@@@@@@@@@@@@@@@@@@@",
"@@@@@@@@@@@@@@@@@@@@@@@@@@@@@@@@@@@@@@@@@@@@@@@@@@@@@@@@@@@@@@@@@@@@@@@@@@@@@@@@@@@@@@@@@@@@@@@@@@@@@@@@@@@@@@@@@@@@@@@@@@@@@@@@@@@@@@@@@@@@@@@@@@@@@@@@@@@@@@@@@@@@@@@@@@@@@@@@@@@@@@@@@@@@@@@@@@@@@@@@@@@@@@@@@@@@@@@@@@@@@@@@@@@@@@@@@@@@@@@@@@@@@@@@@@@@@@@@@@@@@@@@@@@@@@@@@@@@@@@@@@@@@@@@@@@@@@@@@@@@@@@@@@@@@@@@@@@@@@@@",
"@@@@@@@@@@@@@@@@@@@@@@@@@@@@@@@@@@@@@@@@@@@@@@@@@@@@@@@@@@@@@@@@@@@@@@@@@@@@@@@@@@@@@@@@@@@@@@@@@@@@@@@@@@@@@@@@@@@@@@@@@@@@@@@@@@@@@@@@@@@@@@@@@@@@@@@@@@@@@@@@@@@@@@@@@@@@@@@@@@@@@@@@@@@@@@@@@@@@@@@@@@@@@@@@@@@@@@@@@@@@@@@@@@@@@@@@@@@@@@@@@@@@@@@@@@@@@@@@@@@@@@@@@@@@@@@@@@@@@@@@@@@@@@@@@@@@@@@@@@@@@@@@@@@@@@@@@@@@@@@@",
"@@@@@@@@@@@@@@@@@@@@@@@@@@@@@@@@@@@@@@@@@@@@@@@@@@@@@@@@@@@@@@@@@@@@@@@@@@@@@@@@@@@@@@@@@@@@@@@@@@@@@@@@@@@@@@@@@@@@@@@@@@@@@@@@@@@@@@@@@@@@@@@@@@@@@@@@@@@@@@@@@@@@@@@@@@@@@@@@@@@@@@@@@@@@@@@@@@@@@@@@@@@@@@@@@@@@@@@@@@@@@@@@@@@@@@@@@@@@@@@@@@@@@@@@@@@@@@@@@@@@@@@@@@@@@@@@@@@@@@@@@@@@@@@@@@@@@@@@@@@@@@@@@@@@@@@@@@@@@@@@",
"@@@@@@@@@@@@@@@@@@@@@@@@@@@@@@@@@@@@@@@@@@@@@@@@@@@@@@@@@@@@@@@@@@@@@@@@@@@@@@@@@@@@@@@@@@@@@@@@@@@@@@@@@@@@@@@@@@@@@@@@@@@@@@@@@@@@@@@@@@@@@@@@@@@@@@@@@@@@@@@@@@@@@@@@@@@@@@@@@@@@@@@@@@@@@@@@@@@@@@@@@@@@@@@@@@@@@@@@@@@@@@@@@@@@@@@@@@@@@@@@@@@@@@@@@@@@@@@@@@@@@@@@@@@@@@@@@@@@@@@@@@@@@@@@@@@@@@@@@@@@@@@@@@@@@@@@@@@@@@@@",
"@@@@@@@@@@@@@@@@@@@@@@@@@@@@@@@@@@@@@@@@@@@@@@@@@@@@@@@@@@@@@@@@@@@@@@@@@@@@@@@@@@@@@@@@@@@@@@@@@@@@@@@@@@@@@@@@@@@@@@@@@@@@@@@@@@@@@@@@@@@@@@@@@@@@@@@@@@@@@@@@@@@@@@@@@@@@@@@@@@@@@@@@@@@@@@@@@@@@@@@@@@@@@@@@@@@@@@@@@@@@@@@@@@@@@@@@@@@@@@@@@@@@@@@@@@@@@@@@@@@@@@@@@@@@@@@@@@@@@@@@@@@@@@@@@@@@@@@@@@@@@@@@@@@@@@@@@@@@@@@@",
"@@@@@@@@@@@@@@@@@@@@@@@@@@@@@@@@@@@@@@@@@@@@@@@@@@@@@@@@@@@@@@@@@@@@@@@@@@@@@@@@@@@@@@@@@@@@@@@@@@@@@@@@@@@@@@@@@@@@@@@@@@@@@@@@@@@@@@@@@@@@@@@@@@@@@@@@@@@@@@@@@@@@@@@@@@@@@@@@@@@@@@@@@@@@@@@@@@@@@@@@@@@@@@@@@@@@@@@@@@@@@@@@@@@@@@@@@@@@@@@@@@@@@@@@@@@@@@@@@@@@@@@@@@@@@@@@@@@@@@@@@@@@@@@@@@@@@@@@@@@@@@@@@@@@@@@@@@@@@@@@",
"@@@@@@@@@@@@@@@@@@@@@@@@@@@@@@@@@@@@@@@@@@@@@@@@@@@@@@@@@@@@@@@@@@@@@@@@@@@@@@@@@@@@@@@@@@@@@@@@@@@@@@@@@@@@@@@@@@@@@@@@@@@@@@@@@@@@@@@@@@@@@@@@@@@@@@@@@@@@@@@@@@@@@@@@@@@@@@@@@@@@@@@@@@@@@@@@@@@@@@@@@@@@@@@@@@@@@@@@@@@@@@@@@@@@@@@@@@@@@@@@@@@@@@@@@@@@@@@@@@@@@@@@@@@@@@@@@@@@@@@@@@@@@@@@@@@@@@@@@@@@@@@@@@@@@@@@@@@@@@@@",
"@@@@@@@@@@@@@@@@@@@@@@@@@@@@@@@@@@@@@@@@@@@@@@@@@@@@@@@@@@@@@@@@@@@@@@@@@@@@@@@@@@@@@@@@@@@@@@@@@@@@@@@@@@@@@@@@@@@@@@@@@@@@@@@@@@@@@@@@@@@@@@@@@@@@@@@@@@@@@@@@@@@@@@@@@@@@@@@@@@@@@@@@@@@@@@@@@@@@@@@@@@@@@@@@@@@@@@@@@@@@@@@@@@@@@@@@@@@@@@@@@@@@@@@@@@@@@@@@@@@@@@@@@@@@@@@@@@@@@@@@@@@@@@@@@@@@@@@@@@@@@@@@@@@@@@@@@@@@@@@@",
"@@@@@@@@@@@@@@@@@@@@@@@@@@@@@@@@@@@@@@@@@@@@@@@@@@@@@@@@@@@@@@@@@@@@@@@@@@@@@@@@@@@@@@@@@@@@@@@@@@@@@@@@@@@@@@@@@@@@@@@@@@@@@@@@@@@@@@@@@@@@@@@@@@@@@@@@@@@@@@@@@@@@@@@@@@@@@@@@@@@@@@@@@@@@@@@@@@@@@@@@@@@@@@@@@@@@@@@@@@@@@@@@@@@@@@@@@@@@@@@@@@@@@@@@@@@@@@@@@@@@@@@@@@@@@@@@@@@@@@@@@@@@@@@@@@@@@@@@@@@@@@@@@@@@@@@@@@@@@@@@",
"@@@@@@@@@@@@@@@@@@@@@@@@@@@@@@@@@@@@@@@@@@@@@@@@@@@@@@@@@@@@@@@@@@@@@@@@@@@@@@@@@@@@@@@@@@@@@@@@@@@@@@@@@@@@@@@@@@@@@@@@@@@@@@@@@@@@@@@@@@@@@@@@@@@@@@@@@@@@@@@@@@@@@@@@@@@@@@@@@@@@@@@@@@@@@@@@@@@@@@@@@@@@@@@@@@@@@@@@@@@@@@@@@@@@@@@@@@@@@@@@@@@@@@@@@@@@@@@@@@@@@@@@@@@@@@@@@@@@@@@@@@@@@@@@@@@@@@@@@@@@@@@@@@@@@@@@@@@@@@@@",
"@@@@@@@@@@@@@@@@@@@@@@@@@@@@@@@@@@@@@@@@@@@@@@@@@@@@@@@@@@@@@@@@@@@@@@@@@@@@@@@@@@@@@@@@@@@@@@@@@@@@@@@@@@@@@@@@@@@@@@@@@@@@@@@@@@@@@@@@@@@@@@@@@@@@@@@@@@@@@@@@@@@@@@@@@@@@@@@@@@@@@@@@@@@@@@@@@@@@@@@@@@@@@@@@@@@@@@@@@@@@@@@@@@@@@@@@@@@@@@@@@@@@@@@@@@@@@@@@@@@@@@@@@@@@@@@@@@@@@@@@@@@@@@@@@@@@@@@@@@@@@@@@@@@@@@@@@@@@@@@@",
"@@@@@@@@@@@@@@@@@@@@@@@@@@@@@@@@@@@@@@@@@@@@@@@@@@@@@@@@@@@@@@@@@@@@@@@@@@@@@@@@@@@@@@@@@@@@@@@@@@@@@@@@@@@@@@@@@@@@@@@@@@@@@@@@@@@@@@@@@@@@@@@@@@@@@@@@@@@@@@@@@@@@@@@@@@@@@@@@@@@@@@@@@@@@@@@@@@@@@@@@@@@@@@@@@@@@@@@@@@@@@@@@@@@@@@@@@@@@@@@@@@@@@@@@@@@@@@@@@@@@@@@@@@@@@@@@@@@@@@@@@@@@@@@@@@@@@@@@@@@@@@@@@@@@@@@@@@@@@@@@",
"@@@@@@@@@@@@@@@@@@@@@@@@@@@@@@@@@@@@@@@@@@@@@@@@@@@@@@@@@@@@@@@@@@@@@@@@@@@@@@@@@@@@@@@@@@@@@@@@@@@@@@@@@@@@@@@@@@@@@@@@@@@@@@@@@@@@@@@@@@@@@@@@@@@@@@@@@@@@@@@@@@@@@@@@@@@@@@@@@@@@@@@@@@@@@@@@@@@@@@@@@@@@@@@@@@@@@@@@@@@@@@@@@@@@@@@@@@@@@@@@@@@@@@@@@@@@@@@@@@@@@@@@@@@@@@@@@@@@@@@@@@@@@@@@@@@@@@@@@@@@@@@@@@@@@@@@@@@@@@@@",
"@@@@@@@@@@@@@@@@@@@@@@@@@@@@@@@@@@@@@@@@@@@@@@@@@@@@@@@@@@@@@@@@@@@@@@@@@@@@@@@@@@@@@@@@@@@@@@@@@@@@@@@@@@@@@@@@@@@@@@@@@@@@@@@@@@@@@@@@@@@@@@@@@@@@@@@@@@@@@@@@@@@@@@@@@@@@@@@@@@@@@@@@@@@@@@@@@@@@@@@@@@@@@@@@@@@@@@@@@@@@@@@@@@@@@@@@@@@@@@@@@@@@@@@@@@@@@@@@@@@@@@@@@@@@@@@@@@@@@@@@@@@@@@@@@@@@@@@@@@@@@@@@@@@@@@@@@@@@@@@@",
"@@@@@@@@@@@@@@@@@@@@@@@@@@@@@@@@@@@@@@@@@@@@@@@@@@@@@@@@@@@@@@@@@@@@@@@@@@@@@@@@@@@@@@@@@@@@@@@@@@@@@@@@@@@@@@@@@@@@@@@@@@@@@@@@@@@@@@@@@@@@@@@@@@@@@@@@@@@@@@@@@@@@@@@@@@@@@@@@@@@@@@@@@@@@@@@@@@@@@@@@@@@@@@@@@@@@@@@@@@@@@@@@@@@@@@@@@@@@@@@@@@@@@@@@@@@@@@@@@@@@@@@@@@@@@@@@@@@@@@@@@@@@@@@@@@@@@@@@@@@@@@@@@@@@@@@@@@@@@@@@",
"@@@@@@@@@@@@@@@@@@@@@@@@@@@@@@@@@@@@@@@@@@@@@@@@@@@@@@@@@@@@@@@@@@@@@@@@@@@@@@@@@@@@@@@@@@@@@@@@@@@@@@@@@@@@@@@@@@@@@@@@@@@@@@@@@@@@@@@@@@@@@@@@@@@@@@@@@@@@@@@@@@@@@@@@@@@@@@@@@@@@@@@@@@@@@@@@@@@@@@@@@@@@@@@@@@@@@@@@@@@@@@@@@@@@@@@@@@@@@@@@@@@@@@@@@@@@@@@@@@@@@@@@@@@@@@@@@@@@@@@@@@@@@@@@@@@@@@@@@@@@@@@@@@@@@@@@@@@@@@@@",
"@@@@@@@@@@@@@@@@@@@@@@@@@@@@@@@@@@@@@@@@@@@@@@@@@@@@@@@@@@@@@@@@@@@@@@@@@@@@@@@@@@@@@@@@@@@@@@@@@@@@@@@@@@@@@@@@@@@@@@@@@@@@@@@@@@@@@@@@@@@@@@@@@@@@@@@@@@@@@@@@@@@@@@@@@@@@@@@@@@@@@@@@@@@@@@@@@@@@@@@@@@@@@@@@@@@@@@@@@@@@@@@@@@@@@@@@@@@@@@@@@@@@@@@@@@@@@@@@@@@@@@@@@@@@@@@@@@@@@@@@@@@@@@@@@@@@@@@@@@@@@@@@@@@@@@@@@@@@@@@@",
"                          535345778zxvbnmMVCVMmnbvxz8767xvx4                             O     O                                                            g                                                                                                +                                          O                       ",
"                         %535345778zxvbnmMVCVMmnbvxz8767xvx4%                                                                       O                        >                                                                                                                                                              >O  ",
"                         1535345778zxvbnmMVCVMmnbvxz8767xvx41     >                                                                                                                                               >                                                                Vn      VV                                   ",
"                         2535345778zxvbnmMVCVMmnbvxz8767xvx42                                                                                                                                                                                                                     VnMV    Vnnn                                  ",
"     S                   3535345778zxvbnmMVCVMmnbvxz8767xvx43                                      O                    O                                                                   O                                                                       g            VnMV8   VnnM8           >                      ",
"                         4535345778zxvbnmMVCVMmnbvxz8767xvx44                                                                                                                                                                                                                   VnMV8   VnnM8  >                                ",
"       O    >            5535345778zxvbnmMVCVMmnbvxz8767xvx44              S                                                                                                                           O                                                                       VnMV8   VnnM8>                                   ",
"          O              5535345778zxvbnmMVCVMmnbvxz8767xvx44                S                                                                    O                                                        O                         S            +                           VnMV8   VnnM8                                     ",
"                 >       4535345778zxvvnmMVCVMmnbvxz8767xvx44  g     >                                                                      O                                   S O                                                 g                          1zzzzzzzzzzzzzzzzV8   VnnM8                                   >  ",
"                         4535345778zxvbnmMVCVMmnbvxz8767xvx44                                                O                g     >                                                                                       +                              1zzzz6666666666666666zzzzVnnM8    >                    >             ",
"                         4535345778zxvbnmMVCVMmnbvxz8767xvx44          O                           O           O                                                                                                                          >     O        1zz666666666666666666666666zzM8                                        ",
"                         4365345778zxvbnmMVCVMmnvvxz8767xvx44                                                                                                               O                                                                           1z666666444444444444444466666681                                        ",
"                         4365345778zxvbnmMVCVMmnnvxz8767xvx74                           >                                                      >                                O                                                                      1z6664444                4444666z1                      SO              w",
"        O                4365345778zxvbnmMVCVMnnvvxz8767xvx74                                                                                                                            >                                                             z6644   377777777777777773   4466z                                    wye",
"                         4365345778zxvbnmMVCVMmnbvxz8767xvx84       O                                                                               >                                                                                                  664  377777vbnmMVCVMmnbv77773  466                                 wyeeee",
"                         4365345778zxvbnmMVCVMmnbvxz87678xvx4                                                                        O                                         >                          >                                     O      64 775778zxvbnmMVCVMmnbvxz86777 46                               wyeeeeww",
"               O        O4365345778zxvbnmMVCVMmnbvxz87677xvx4         >                       >             >                               O                    O                                                                                     4 6534578zxvbnmMVCVMmnbvxz867xv7 4                             wyeeewwww0",
"                     S   4365345778zxvbnmMVCVMmnbvxz87677xvx4                                                            O                          >         O       >             O                                                          O        56534578zxvbnmMVCVMmnbvxz867xvx4                            wyeeewww0w0o",
"                        %4365345778zxvbnmMVCVMmnbvxz87677xvx4%                                            O                        O                         O             >                                                                           %56534578zxvbnmMVCVMmnvvxz867xvx4%                         wyeeewwww00ooo",
"                        14365345778zxvbnmMVCVMmnbvxz87677xvx41                                     >                                                      >                                       +                                            +       156534578zxvbnmMVCVMmnvvxz867xvx41   S                   weeeewww000Xoooo",
"        >          >    24365345778zxvbnmMVCVMmnbvxz87677xvx42                                                                                              >               g   O                            >                                     O   256534578zxvbnmMVCVMmnbvxz867xvx42                  O  wyeeeww0000X@@oooo",
"                        34365345778zxvbnmMVCVMmnbvxz87677xvx43              O                                                                                                                        O                                                 356534578zxvbnmMVCVMmnbvxz867xvx43            O       yeeewww000o@X@Xoooo",
"              g         44365345778zxvbnmMVCVMmnbvxz87677xvx44                                   >            O            S           O O                         >     O                                               O                             456534578zxvbnmMVCVMmnbvxz867xvx44                  wyeewww000@ooX@oooooo",
"         >              54365345778zxvbnmMVCVMmnbvxz87677xvx44       >        O                                                                                                                      >                                                 556534578zxvbnmMVCVMmnbvxz867xvx44                 wyeewww00@X@X@@X@Xoooo",
"                        54365345778zxvbnmMVCVMmnbvxz87677xvx44                                                O                 >      >       O                  O                                                                                  g 556534578zxvbnmMVCVMmnbvxz867xvx44                wyeewww00qqqqqqqqqqqqqq",
"            O           44365345778zxvbnmMVCVMmnbvxz87677xvx44                                                                                                                                                                                         456534578zxvbnmMVCVMmnbvxz867xvx44                yeeeww00===============",
"                        44365345778zxvbnmMVCVMmnbvxz87677xvx44                                                            O     O                         O                                                   O          >                             456534578zxvbnmMVCVMmnbvxz867xvx84               weeewww00***************",
"                        44365345778zxvbnmMVCVMmnbvxz87677xvx44                                                                                                                       >     +                                                           456534578zxvbnmMVCVMmnbvxz8678xvx4               yeeeww00oooooooooooooooo",
"                        44365345778zxvbnmMVCVMmnbvxz87677xvx44                                          OO                                                    >           +                                                                 O          456534578zxvbnmMVCVMmnbvxz8677xvx4        O      eeewww00oooooooooooooooo",
"                        44365345778zxvbnmMVCVMmnbvxz87677xvx44                 >                  >                                                        O                  +                                     >                                  456534578zxvbnmMVCVMmnbvxz8677xvx4               eeeww000qqqqqqqqqqqqqqqq",
"      >                 44365345778zxvbnmMVCVMmnbvxz87677xvx44                          O                               O                                                                                                          O                   456534578zxvbnmMVCVMmnbvxz8677xvx4               eeeww000================",
"                        44365345778zxvvnmMVCVMmnbvxz87677xvx44             g                                                           O   O                             >                                                           O                 456534578zxvbnmMVCVMmnbvxz8677xvx4               eeeww000****************",
"     O                  43564345778zxvbnmMVCVMmnbvxz87767xvx44                                                        >                                                              +                                                                 456534578zxvvnmMVCVMmnbvxz8767xvx4               eeeww000oooooooooooooooo",
"                        43653456778zxvbnmMVCVMmnbvxz87767xvx44                                                          O                                                                                                                              455345678zxvbnmMVCVMmnbvxz8767xvx4               eeeww000oooooooooooooooo",
"                        43653457778zxvbnmMVCVMmnbvxz87767xvx74                                                                                                                                          >                                              565345778zxvbnmMVCVMmnbvxz8767xvx4               eeeww000qqqqqqqqqqqqqqqq",
"                       %43653457778zxvbnmMVCVMmnbvxz87767xvx84%                                                                                        >                      +                                                                       %565345778zxvbnmMVCVMmnbvxz8767xvx4%     >        eeeww000================",
"       >               143653457778zxvbnmMVCVMmnbvxz877678xvx41             >                                                             O                                                              >              O                             1565345778zxvbnmMVCVMmnbvxz8767xvx41           >  eeeww0000***************",
"           >           243653457778zxvbnmMVCVMmnbvxz877677xvx42                                                                                                                                                         SO                            2565345778zxvbnmMVCVMmnbvxz8767xvx42              weewww000ooooooooooooooo",
"                       443653457778zxvbnmMVCVMmnbvxz877677xvx43                                                                         O                                                                                                             3565345778zxvbnmMVCVMmnbvxz8767xvx43               eeeww00000ooooooooooooo",
"                       443653457778zxvb741%#%1148vxz877677xvx44                                         h   >  O                   O                     +                                                                             O              4565345778zxvbnmMVCVMmnbvxz8767xvx44               eeewww00000000000000000",
"                       443653457778zx42@$531%@41$25z877677xvx44                                        gjg             >         >                                                                                    O                              >5565345778zxvbnmMVCVMmnvvxz8767xvx44               weeewww0000000000000000",
"                       44365345777861%#7@8%x1 81#@12777677xvx44                                       hjSjh                                                     >                           g     +                                                 > 5565345778zxvbnmMVCVMmnbvxz8767xvx44                eeewwwwwwwwwwwwwwwwwww",
"                       443653457773$$2#Cz     X1A6X$%57677xvx44                                        gjg                                                    >                                                            >                          4565345778zxvbnmMVCVMmnbvxz8767xvx44               Sweeewwwwwwwwwwwwwwwwww",
"                      %4436534577311$x7X#%5675$.6x111%6677xvx44                      >                  h                                                                                                                                             4565345778zxvbnmMVCVMmnbvxz8767xvx44                 weeeewwwwwwwwwwwwwwww",
"         >            144365345751X6n@@4MHHHHHFm$ 6n@#%677xvx44      >       VV      nV                                                                   +                                                                                           4565345778zxvb741%$$1148vxz8767xvx44       O          weeeeeeeeeeeeeeeeeee",
"                      2443653457%1 .$ bHFAAAAZAHHzo%  2%77xvx44             nnnV    VMnV                                                                                                                                    O                         4565345778zx51@$521$#41$25z8767xvx44                     weeeeeeeeeeeeeeee",
"                      34436534532    AHAZFHHZAHGHHM   o167xvx44             8MnnV   8VMnV                                                                                     >   +                     +                                             456534577861$$7@8%x1 81$@117767xvx44                                      ",
"                      444365345%$   nHCAHmx7CCx8vxV6   1%7xvx44              8MnnV   8VMnV        >                    O                                                                                                     >              >         4565345773$$2#Cz     X1A6X#1567xvx44                                      ",
"                      4443653421.  2HAZHV. $Hz 63  Z$  @17xvx44               8MnnV   8VMnV                                        O           +                                                                                     O                45653457311$c6X#15775#.6c112%47xvx84                                      ",
"   g                  444365341$   mHZHV  1HH5%H6  Av   %3xvx44                8MnnV   8VMnV                                                                S                                   +                 >                      g            456534551X6n@@4MGHHHHFm% 6n@#%78xvx4                                      ",
"                      44436534%#  XFAHV  3HFAMGH# .FA   %1xvx44                 8MnnV   8Vzzzzzzzzzzzzz1                                                                                         +                                                    4565345%% .% nHFAAAAAAHHzX%  217xvx4                         >         >  ",
"                      44436534$z. 8FHV  3HHACHH% .ZHA3 @8%xvx44                  8MnnVzzzz6666666666666zzzz1                                               28nnnnnnnnnnnnnnnnnnnnnnnn7777nn82                     O               O  >                45653411.   AHZZFHHAAHFHHM   X16xvx4                                      ",
"            >         44436434@vx7nFV  4HGADDF1 XCHDVv7cz$xvx44     >             8Mzz666666666666666666666zz1                                     28nnnnnnnnbvvvvvvvvvvbnbvvbnmMCMmnvvvvvvnnnnnnnn77              O                                 %456535%$   mHZCHMx7CCx8vxV6   11xvx4%                                     ",
"                      44356344@xMvxH@  $$@@@nn  xHvmAzmn6$xvx44                   186666664444444444444666666z1                                28nnnnxzxvvvvvbvvvvvvvvvvbnvvvbnmMCMmnvvvvvvvvvvvvvvvv7782              O                         O   14565311.  2HZZHV. #Hz 53  Z%  @%zvx41      >                              ",
"                      44356344@zbvxF@       cn  vn nA8bb6%xvx44                  1z6664444             4444666z1                >            4nnbbvbvxzxvvvvvbvvvvvvvvvvbnbvvbnmMCMmnbvvvvvvvvvvvvvvvvvvnn4                                          245653%$   nHZHV  1HH5%H6  Av   %6vx42                                     ",
"                      44356344#863zVnzzzv5  vMoo6@XAM72x41xvx44                  z6644   377777777777773   4466z                           3xvxvbbvbvxzxvvvvvbvvvvvvvvvvbnbvvbnmMCMmnbvvvvvvvvvvvvvvvvvvvxvx3                               >        345653%#  XFAHV  2HFAMGH# .FA   %3vx43             >                       ",
"                      4435634413xvccHHHHHm  6HAAVCAFxvcc$5xvx44                  664  377778vbnmMMmnbv77773  466                          7zxvxvbbvbvxzxvvvvvbvvvvvvvvvvbnbvvbnmMCMmnvvvvvvvvvvvvvvvvvvvvxvxz7              O             O  >       445653#z. 8FHV. 3HGAZHH1 .ZHA3 @z1vx44                             O       ",
"          >        g  443563445@vb77CFZZHv  7HDADAHm68nz@7xvx44                  64 775778zxvvnmMMmnbvxz86777 46                 O       47zxvxvbbvbvxzxvvvvvvvvvvcvvvvvbnbvvbnmMCMmnbvvvvvvvvvvvvvvvvvvvxvxz74                    O  O              545653@vx6nGM. 4HHADDD1 XCHAVb7cz1vx44                        >            ",
"                      443563445$782x8FFZACMmCAAAZGC7z2v137xvx441     S           4 6534578zxvbnmMMmnbvxz867xv7 4              g          47zxvxvbbvvvxzxvvvvxzzzzzzzzzzzzzzzzzzzzzzzzzzzzzzxvvvvvvvvvvvvvxvxz74                            O         545654@zMvxH@  $$@@@nn  xHcnAzmn6%vx44                                     ",
"                      4435634456@cmnx8AFAAFGDAZAGZ8cnm8o77xvx441          >       56534578zxvbnmMMmnbvxz867xvx4       O       O          47zxvxvbbxzzzzzzzzz73%%%%%%%%%%%%%%%%%%%%%%%%%%%%37zzzzzzzzzxvvvxvxz74                                      445653@zbvzG@       cb  vn nD8vb51vx44       ,                             ",
"                      443563445712bb%4xMFFFDDFFAm736bc$477xvx441                 %56534578zxvbnmMMmnbvxz867xvx4%                         47zxzzzzz73%%%%%%%%%%$$$$$$$$$$$$$$$$$$%$$$$$$$$$%%%%%%%%%%37zzzzzxz74  O                                   445653@872xVnzxxv5  vMo@7@XAV72x44vx44      >i>                            ",
"                     %44356344577#584536vMVVVMmx8513z21677xvx743                 156534578zxvbnmMMmnbvxz867xvx41                         47z72%%%%%%$$$57xbmMMMMMMMMMMMMMMMMMMMMMMMMMMMMMMMMmbx75$$$%%%%%%27z74          O     O                     445653%3xvxcHHHHHn  7HAAVCAAxvcc$8vx44     ,ipi,                           ",
"                     1443563445777@5n432%338z515$1z61%7677xvx844                 256534578zxvbnmMMmnbvxz867xvx42                         42 57xbMMMMMMMMMmbnmnbbbbbbbbbbnmnbnmMVAAFGFDAVM  bbbbmMMM  MMmbx75 24    g                               > 4456534@vv77VFZAHv  7HDDDAHm68n8@xvx44      >i>                            ",
"                     24435634457778%268224437n2717z11777677xvx44                 356534578zxvbnnMMmnbvxz867xvx43                          278zxzbnbxz8zxvbbnmnbbbbbbbbbbnmnbnmMVADFGFAAVMm bbbbtrrrrt 444x 872                    O                  4456534#782x8FFZACMmCAAZZFZ8z2v23xvx44       ,    O                        ",
"                     34435634457778z4157vzv67nzc83$68777677xvx44                 456534578zxvbnmMMmnbvxz867xvx44                         2744x bn4xz8zxvbbbnmnbbbbbbbbbbnmnbvnmMVADFGFDAVM 44bb4444rrt  44 487                                       44565345@cmnx8AFAAGFDZAAFC8cnn8@7xvx44                                     ",
"g                    44435634457778zxv6$%356643$$7xz8777677xvx44                 556534578zxvbnmMMmnbvxz867xvx44                        274444xb4 4z8zxvbbnmnvbbbbbbbbbbnmnbbnmMVADFGFD VMm##44####444   bv 4 72                                     4456534511bb%4xMDFFFDFGAm747bc$47xvx44                                     ",
" >                   44435634457778zxvv7778zz8778vxz8777677xvx44                 556534578zxvbnmMMmnbvxz867xvx44           S           2444   44   4  vbbbnmnbbbbbbbbbbbbnmnbnmMVAAFGF  VM###4####%##4   44  z 72                                    445653457#684536vmCVVMnc851381167xvx44                 >         g         ",
"                     44435634457778zxvbn778zz877nvxz8777677xvx44                 456534578zxvbnmMMnnbvxz867xvx44                      27444    4    z  bbnmnbbbbbbbbbbbbbnmnbnmMVAAFGFD VM44#######%          z872          O                        4565345677#5n4311338z615$1z62%767xvx44           O                         ",
"                     44435634457778zxvvn778zz878vvxz8777677xvx44                 456534578zxvbnmMMmnbvxz867xvx84                     24444         44vbbbnmnbbbbbbbbbbbbbnmnbvnmMVADFFF  V4########%         v z872                                  45653457778%168224437b2717z117767xvx44                                     ",
"               >     44435634457778zxvbnn78zz87nbvxz8777677xvx44             >   456534578zxvbnmMMmnbvxz8678xvx4                    244  4           4b bnmnbbbbbbbbbbbbbnmnbbnmMVAAFGFD V4#########%%      44 xz  2   S                            %45653457778z5%47vzv67nxcz2$687767xvx84%               >    O               ",
"                     44435634457778zxvbnm78zz88nbvxz8777677xvx44                 456534578zxvbnmMVmnbvxz8677xvx4               O   244                 bnmnbbbbbbbbbbbbbbnmnbbnmMVADFGFDA4############$      4 4   72                 O             145653457778zxv6$%356642$$7xz877678xvx41                                    ",
"      O              44435634457778zxvbnmM8zz8mnbvxz8777677xvx44             >   456534578zxvbnmMMnnbvxz8677xvx4                  244      7vCC2     4bbnmnbbbbbvnvbbbbbbnmnbbnmMVAAFGFDA##############         vxz 72                            > 245653457778zxvb7778zz8778vxz877677xvx42 O                           O      ",
"                     44436344567788zxvbnmM8zz8mnbvxz8777677xvx44                 456534578zxvbnmMMmnbvxz8677xvx4                 274     7nCC%%C2z4  44bnmnbbbbbbbbbbbbbbnmnbbbnmMVAAFG######n4######$          44xz872   >                         345653457778zxvbn778zz877bvxz877677xvx43                                    ",
"                     44356344577778zxvbnmMVzzMmnbvxz8777677xvx44                 456534578zxvbnmMMmnbvxz8677xvx4               O27844  7nCnnC  %C4     4mnvbbbbbbbbbbbbbbbnmnbbnmMVADF##D@VMmnb#b4###%            4xz872                            445653457778zxvbn778zz878bvxz877677xvx44                                    ",
"           >         44356344577778zxvbnmMVCVMmnbvxz8777677xvx44                 456534578zxvbnmMMmnbvxz8767xvx4               27 z447nCnnCmCb %Cx4    nmnnvbbbbbbbbbbbbbbnmnbbnmMV DF#FDA Mmn bb44##$             vx 872                           545653457778zxvbnn78zz87nbvxz877677xvx44                                    ",
"                     44356344577778zxvbnmMVCVMmnbvxz8777677xvx44                 455345678zxvbnmMMmnbvxz8767xvx4          O   27  x7nCnnCCCmvCCCvxv4  nmnbbbbbbbbbbbbbbbbbnmnbbbnmMVADFGFDAVMmnb####%%           4b    872             S       O    545653457778zxvbnm78zz88nbvxz877677xvx44                                    ",
"                     44356344577778zxvvnmMVCVMmnbvxz8777677xvx44                 565345778zxvbnmMMmnbvxz8767xvx4             278z7nCnnCCCm88n88 xvbb bnmnbbbbbbbbbbbbbbbbbnmnbbbnmMVAAFGFAAVM44bb4#%$            bvbb  z872                         445653457778zxvbnmM8zz8mnbvxz877677xvx44                                    ",
"       S             44356344577778zxvbnmMVCVMmnbvxz8777677xvx44                %565345778zxvbnmMMmnbvxz8767Nux4%           2787nCnnCCCm88n88z  xvbbb nmnbbbbbbbbbbbbbbbbbnmnbbbnmMVAAFGFD4444##b4#$           4bbbvbbvxz872                 >      445653457778zxvbnmM8zz8mnbvxz877677xvx44                   O    >           ",
"           >        %44356344577778zxvbnmMVCVMmnbvxz8777677xvx44                1565345778zxvbnmMMmnbvxz876uuuu41          277nCnnCCCm88n88 z8z vbbbbn nbbbbbbbbbbbbbbbbbbnmnbbbnmMVADFGFDA#####44###     %#    4bb    vxz872                       445653457778zxvbnmMVzzMmnbvxz877677xvx44                         O          ",
"                    144356344577778zxvbnmMV555mnbvxz8777677xvx44  g   >         2565345778zxvbnmMMm1zVVVVVVVVVVVVVVVz1    27nCnnCCCm88n88xxxz8z vbbbbnmnbbbbbbbbbbbbbbbbbbnmnbbbbnmMVAAFGF4#VM###4#%     #%#     44 4bb vxz872      O               445653457778zxvbnmMVCVMm555xz877677xvx44         >                          ",
"           O        244356344577778zxvbnmM5&&&5nbvxz8777677xvx44                3565345778zxvb1zVVVVVmmmmmmmmmmmmmmnVVVVvznCnnCCCm88n88bxxxz8zxv bbbbnmnbbbbbbbbbbbbbbbbbbnnnbbbbnmMVAAFGF AVMm4##%#     %#         4vbbbvxz872                     445653457778zxvvnmMVCVM59995z877677xvx44                                    ",
"                    344356344577778zxvbnmM5&&&5nbvxz8777677xvx44                45653457781zVVVVmmmmmnnnnnnnnnnnnnnnmmvvnCnnCCCm88n8bnbxxxxz8zxv bbbnmnbbbbbbvbbbbbbbvbbbbbnmnbbbnmMVADF FAAVM44##%#     %#          44bbbvxz872                    445653457778zxvbnmMVCVM59995z877677xvx44                                    ",
"                    444356344577778zxvbnmM55555nbvxz8777677xvx44         >      55653451zVVVmmmnnnnnnvvvvvvvvvvvvvvvvvnCnnCCCm88n8cvnbxxxxz8zxv bbbbnnnbbbbbbnvbbbbbvnbbbbbnmnbbbnmMVADFGFDAVM4##$#     %%##           vbbbvxz872                   445653457778zxvbnmMVCVM55555z877677xvx44                                    ",
"                    444356344577778zxvbnmM5&&&5nbvxz8777677xvx44         O      556531zVVmmmnnnnvvvvvvvvvvvvvvvvvvvvnCnnCCCm88n8zxxbnbxxxxz8zx bbbbnmnbbbbbbbbbbbbbbbbbbbbbnmnbbbbnnMVADFFFD#######    %#####        bb vbbbvxz872                  445653457778zxvbnmMVCVM59995z877677xvx44                                    ",
"                    444356344577778zxvbnmM5&&&5nbvxz8777677xvx44                4561zVVmmnnnvvvvvvvvvvvvvvvvvvvvvvnCnnCCCm88n8xzxxbnbxxxxz8zxvbbbbbnmnbbbbbbbbbbbbbbbbbbbbbnmnbbbbnmMVADFGFDAVM#n# bb ####b btrr rtb  bbbvbbbvxz872                 445653457778zxvbnmMVCVM59995z877777xvx44                                    ",
"                    444356344577778HHHHHHHHHHHHHHHHHHHHHHHHHHHHHHHHHHHHHHHHHHHHHHHHHHHHHHHHHHHHHHHHHHHHHHHHHHHHHHHHHHHHHHHHHHHHHHHHHHHHHHHHHHHHHHHHHHHHHHHHHHHHHHHHHHHHHHHHHHHHHHHHHHHHHHHHHHHHHHHHHHHHHHHHHHHHHHHHHHHHHHHHHHHHHHHHHHHHHHHHHHHHHHHHHHHHHHHHHHHHHHHHHHHHHHHHHHHHHHHHHHHHHvx44                                    ",
"                    444356344577778HHHHHHHHHHHHHHHHHHHHHHHHHHHHHHHHHHHHHHHHHHHHHHHHHHHHHHHHHHHHHHHHHHHHHHHHHHHHHHHHHHHHHHHHHHHHHHHHHHHHHHHHHHHHHHHHHHHHHHHHHHHHHHHHHHHHHHHHHHHHHHHHHHHHHHHHHHHHHHHHHHHHHHHHHHHHHHHHHHHHHHHHHHHHHHHHHHHHHHHHHHHHHHHHHHHHHHHHHHHHHHHHHHHHHHHHHHHHHHHHHHHHHvx44%                                   ",
"                    444356344577778FCCCCCCCCCCCCCCCCCCCCCCCCCCCCCCCCCCCCCCCCCCCCCCCCCCCCCCCCCCCCCCCCCCCCCCCCCCCCCCCCCCCCCCCCCCCCCCCCCCCCCCCCCCCCCCCCCCCCCCCCCCCCCCCCCCCCCCCCCCCCCCCCCCCCCCCCCCCCCCCCCCCCCCCCCCCCCCCCCCCCCCCCCCCCCCCCCCCCCCCCCCCCCCCCCCCCCCCCCCCCCCCCCCCCCCCCCCCCCCCCCCCFvx441                                   ",
"                    444356344577778FCCCCCCCCCCCCCCCCCCCCCCCCCCCCCCCCCCCCCCCCCCCCCCCCCCCCCCCCCCCCCCCCCCCCCCCCCCCCCCCCCCCCCCCCCCCCCCCCCCCCCCCCCCCCCCCCCCCCCCCCCCCCCCCCCCCCCCCCCCCCCCCCCCCCCCCCCCCCCCCCCCCCCCCCCCCCCCCCCCCCCCCCCCCCCCCCCCCCCCCCCCCCCCCCCCCCCCCCCCCCCCCCCCCCCCCCCCCCCCCCCCCFvx442      O                            ",
"                    444356344577778xxxxxxxxxxxxxxxxxxxxxxxxxxxxxxxxxxxxxxxxxxxxxxxxxxxxxxxxxxxxxxxxxxxxxxxxxxxxxxxxxxxxxxxxxxxxxxxxxxxxxxxxxxxxxxxxxxxxxxxxxxxxxxxxxxxxxxxxxxxxxxxxxxxxxxxxxxxxxxxxxxxxxxxxxxxxxxxxxxxxxxxxxxxxxxxxxxxxxxxxxxxxxxxxxxxxxxxxxxxxxxxxxxxxxxxxxxxxxxxxxxxxxvx443                                   ",
"                    444356344577778zxvVn44444444444bmb44444444444bmb44444444444bmb44444444444bmb44444444444vmb44444444444bmb44444444444bmb44444444444bmb44444444444bmb44444444444bmb44444444444bmb44444444444bmb44444444444bmb44444444444bmb44444444444bmb44444444444bmb44444444444nV77xvx444      g                            ",
"                    444356344577778zxvFV41111111114bVb41111111114bVb41111111114bVb41111111114bVb41111111114bVb41111111114bVb41111111114bVb41111111114bVb41111111114bVb41111111114bVb41111111114bVb41111111114bVb41111111114bVb41111111114bVb41111111114bVb41111111114bVb41111111114VF77xvx844          >                        ",
"                    444356344577778zxvFV44444444444bVb44444444444bVb44444444444bVb44444444444bVb44444444444bVb44444444444bVb44444444444bVb44444444444vVb44444444444bVb44444444444bVb44444444444bVb44444444444bVb44444444444bVb44444444444bVb44444444444vVb44444444444bVb44444444444VF778xvx44                           S       ",
"             g      444356344577778zxvFVHHHHHHHHHHHVVHHHHHHHHHHHHVVHHHHHHHHHHHHVVHHHHHHHHHHHHVVHHHHHHHHHHHHVVHHHHHHHHHHHHVVHHHHHHHHHHHHVVHHHHHHHHHHHHVVHHHHHHHHHHHHVVHHHHHHHHHHHHVVHHHHHHHHHHHHVVHHHHHHHHHHHHVVHHHHHHHHHHHHVVHHHHHHHHHHHHVVHHHHHHHHHHHHVVHHHHHHHHHHHHVVHHHHHHHHHHHHVF777xvx44                              >    ",
"                    443456344577778zxvFVVVVVVVVVVVVVVVVVVVVVVVVVVVVVVVVVVVVVVVVVVVVVVVVVVVVVVVVVVVVVVVVVVVVVVVVVVVVVVVVVVVVVVVVVVVVVVVVVVVVVVVVVVVVVVVVVVVVVVVVVVVVVVVVVVVVVVVVVVVVVVVVVVVVVVVVVVVVVVVVVVVVVVVVVVVVVVVVVVVVVVVVVVVVVVVVVVVVVVVVVVVVVVVVVVVVVVVVVVVVVVVVVVVVVVVVVVVVVF777xvx44                                   ",
"                   %443456344577778zxvFVVVVVVVVVVVVVVVVVVVVVVVVVVVVVVVVVVVVVVVVVVVVVVVVVVVVVVVVVVVVVVVVVVVVVVVVVVVVVVVVVVVVVVVVVVVVVVVVVVVVVVVVVVVVVVVVVVVVVVVVVVVVVVVVVVVVVVVVVVVVVVVVVVVVVVVVVVVVVVVVVVVVVVVVVVVVVVVVVVVVVVVVVVVVVVVVVVVVVVVVVVVVVVVVVVVVVVVVVVVVVVVVVVVVVVVVVVVVVF777xvx44                                   ",
"                   1443456344577778zxvFVVVVVVVVVVVVVVVVVVVVVVVVVVVVVVVVVVVVVVVVVVVVVVVVVVVVVVVVVVVVVVVVVVVVVVVVVVVVVVVVVVVVVVVVVVVVVVVVVVVVVVVVVVVVVVVVVVVVVVVVVVVVVVVVVVVVVVVVVVVVVVVVVVVVVVVVVVVVVVVVVVVVVVVVVVVVVVVVVVVVVVVVVVVVVVVVVVVVVVVVVVVVVVVVVVVVVVVVVVVVVVVVVVVVVVVVVVVVVF777xvx44  O                                ",
"                   2443456344577778zxvFVVVVVVVVVVVVVVVVVVVVVVVVVVVVVVVVVVVVVVVVVVVVVVVVVVVVVVVVVVVVVVVVVVVVVVVVVVVVVVVVVVVVVVVVVVVVVVVVVVVVVVVVVVVVVVVVVVVVVVVVVVVVVVVVVVVVVVVVVVVVVVVVVVVVVVVVVVVVVVVVVVVVVVVVVVVVVVVVVVVVVVVVVVVVVVVVVVVVVVVVVVVVVVVVVVVVVVVVVVVVVVVVVVVVVVVVVVVVVF777xvc44                                   ",
"%%%%%%%%%%%%%%%%%%%3443563445777778zxvFFFFFFFFFFFFFFFFFFFFFFFFFFFFFFDFFFFFFFFFFFFFFFFDFFHHHHHHHHHHHHHHHHHHHHHHHHHHHHHHHHVnFFFFFFFFFFFFFFFFFFFFFFFFFFFFFFFFFFFFFFFFFFFFFFFFFFFFFFFFFFFFFFFFFFFFFFFnVHHHHHHHHHHHHHHHHHHHHHHHHHHHHHHHHFFFFFFFFFFFFFFFFFFFFFFFFFFFFFFFFFFFFFFFFFFFFFFFFFF777xvx44%%%%%%%%%%%%%%%%%%%%%%%%%%%%%%%%%%%",
"%%%%%%%%%%%%%%%%%%%4443563445777778zxFADDDDDDDDDDDDDDDDDDDDDDDDDDDDDDDDDDDDDDDDDDDDDDDDDHHHHHHHHHHHHHHHHHHHHHHHHHHHHHHHHnmDDDDDDADDDDDDDDDDDDDDDDDDDDDDDDDDDDDDDDDDDDDDDDDDDDDDDADDDDDDDDDDDDDDDDmnHHHHHHHHHHHHHHHHHHHHHHHHHHHHHHHHDDDDDDDDDDDDDDDDDDDDDDDDDDDDDDDDDDDDDDDDDDDDDADDDDF77xvx44%%%%%%%%%%%%%%%%%%%%%%%%%%%%%%%%%%%",
"%%%%%%%%%%%%%%%%%%%4443563445777778zFDDDDDDDDDDDDDDDDDDDDDDDDDDDDDDDDDDDDDDDDDDDDDDDDDDHHHHHHHHHHHHHHHHHHHHHHHHHHHHHHHHHbmDDDDDDDDDDDDDDDDDDDDDDDDDDDDDDDDDDDDDDDDDDDDDDDDDDDDDDDDDDDDDDDDDDDDDDDmbHHHHHHHHHHHHHHHHHHHHHHHHHHHHHHHHHDDDDDDDDDDDDDDDDDDDDDDDDDDDDDDDDDDDDDDDDDDDDDDDDDDF7xvx44%%%%%1%%%%%%%%%%%%%%%%%%%%%%1%%%%%%",
"%%%%%%%1%%%%%%%1%%%4443563445777778FDDDDDDDDDDDDDDDDDDDDDDDDDDDDDDDDDDDDDDDDDDDDDDDDDDDHHHHHHHHHHHHHHHHHHHHHHHHHHHHHHHHHbmDDDDDDDDDDDDDDDDDDDDDDDDDDDDDDDDDDDDDDDDDDDDDDDDDDDDDDDDDDDDDDDDDDDDDDDmbHHHHHHHHHHHHHHHHHHHHHHHHHHHHHHHHHDDDDDDDDDDDDDDDDDDDDDDDDDDDDDDDDDDDDDDDDDDDDDDDDDDDFxvx44%%%1%%%%%%%%1%%%%%%%%%1%%1%%%%1%%1%",
"%%%%11%%111%%%%%1%%444356344577777FDDDDDDDDDDDDDDDDDDDDDDDDDDDDDDDDDDDDDDDDDDDDDDDDDDDHHHHHHHHHHHHHHHHHHHHHHHHHHHHHHHHHCbmDDDDDDDDDDDDDDDDDDDDDDDDDDDDDDDDDDDDDDDDDDDDDDDDDDDDDDDDDDDDDDDDDDDDDDDmbCHHHHHHHHHHHHHHHHHHHHHHHHHHHHHHHHHDDDDDDDDDDDDDDDDDDDDDDDDDDDDDDDDDDDDDDDDDDDDDDDDDDDFvx44%%1%1111%%1%%%%1%%%%1111%%%1%%%%11%",
"1%%%%1%1%11111%1%1%44435634457777FDDDDDDDDDDDDDDDDDDDDDDDDDDDDDDDDDDDDDDDDDDDDDDDDDDDDHHHHHHHHHHHHHHHHHHHHHHHHHHHHHHHHHnbmDDDDDDDDDDDDDDDDDDDDDDDDDDDDDDDDDDDDDDDDDDDDDDDDDDDDDDDDDDDDDDDDDDDDDDDmbnHHHHHHHHbbbbbbbnbbbbbnbbbbHHHHHHHADDDDDDDDDDDDDDDDDDDDDDDDDDDDDDDDDDDDDDDDDDDDDDDDDDDFx44%%1111111%1%%11%1%111111%1111%%1111",
"12%11111211111211124443563445777FDDDDDDDDDDDDDDDDDDDDDDDDDDDDDDDDDDDDDDDDDDDDDDDDDDDDHHHHHHHHHHHHHHHHHHHHHHHHHHHHHHHHHHnbmDDDDDDDDDDDDDDDDDDDDDDDDDDDDDDDDDDDDDDDDDDDDDDDDDDDDDDDDDDDDDDDDDDDDDDDmbnHHHHHHHH .  .    . .   11xHHHHHHHHDDDDDDDDDDDDDDDDDDDDDDDDDDDDDDDDDDDDDDADDDDDDDDDDDDDF4411111111121211222%11113121%%1212211",
"1111122212111121112444356344577FDDDDDDDDDDDDDDDDDDDDDDDDDDDDDDDDDDDDDDDDDDDDDDDDDDDDDHHHHHHHHHHHHHHHHHHHHHHHHHHHHHHHHHHbmDDDDDDDDDDDDDDDDDDDDDDDDDDDDDDDDDDDDDDDDDDADDDDDDDDDDDDDDDDDDDDDDDDDDDDDDmbHHHHHHHHH . . .  .     11xxHHHHHHHDDDDDDDDDDDDDDDDDDDDDDDDDDDDDDDDDDDDDDDDDDDDDDDDDDDDDF411211212111211121112121212211112112",
"122112222221222222144435634457FDDDDDDDDDDDDDDDADDDDDDDDDDDDDDDDDDDDDDDDDDDDDDDDDDDDDHHHHHHHHHHHHHHHHHHHHHHHHHHHHHHHHHHCbmDDDDDDDDDDDDDDDDDDDDDDDDDDDDDDDDDDDDDDDDDDDDDDDDDDDDDDDDDDDDDDDDDDDDDDDDDmbCHHHHHHHH999  999 .999.111xHHHHHHHHDDDDDDDDDDDDDDDDDDDDDDDDDDDDDDDDDDDDDDDDDDDDDDDDDDDDDF22211121112121112212221222111222211",
"21131222122222222324443563445FDDDDDDDDDDDDDDDDDDDDDDDDDDDDDDDDDDDDDDDDDDDDDDDDDDDDDDHHHHHHHHHHHHHHHHHHHHHHHHHHHHHHHHHHnbmDDDDDDDDDDDDDDDDDDDDDDDDDDDDDDDDDDDDDDDDDDDDDDDDDDDDDDDDDDDDDDDDDDDDDDDDDmbnHHHHHHHH .  . .   ..  111xxHHHHHHHDDDDDDDDDDDDDDDDDDDDDDDDDDDDDDDDDDDDDDDDDDDDDDDDDDDDDDF1222222122322222122222113112322332",
"2223233222322322222444356344FDDDDDDDDDDDDDDDDDDDDDDDDDDDDDDDDDDDDDDDDDDDDDDDDDDDDDDHHHHHHHHHHHHHHHHHHHHHHHHHHHHHHHHHHHnbnDDDDDDDDDDDDDDDDDDDDDDDDDDDDDDDDDDDDDDDDDDDDDDDDDDDDDDDDDDDDDDDDDDDDDDDDDmbnHHHHHHHHH .   . .    .1111xHHHHHHHHDDADDDDDDDDDDDDDDDDDDDDDDDDDDDDDDDDDDDDDDDDDDDDDDDDDDDF322222233222223222332341432222332",
"222232332323223232244435634FDDDDDDDDDDDDDDDDDDDDDDDDDDDDDDDDDDDDDDDDDDDDDDDDDDDDDDDHHHHHHHHHHHHHHHHHHHHHHHHHHHHHHHHHHHnbmDDDDDDDDDDDDDDDDDDDDDDDDDDDDDDDDDDDDDDDDDDDDDDDDDDDDDDDDDDDDDDDDDDDDDDDDDmbnHHHHHHHHH  ..   ..  ..1111xHHHHHHHHDDDDDDDDDDDDDDDDDDDDDDDDDDDDDDDDDDDDDDDDDDDDDDDDDDDDDDDF33333322323322223233233133332232",
"22333323243333223344443563FDDDDDDDDDDDDDDDDDDDDDDDDDDDDDDDDDDDDDDDDDDDDDDDDDDDDDDDHHHHHHHHHHHHHHHHHHHHHHHHHHHHHHHHHHHCnbmDDDDDDDDDDDDDDDDDDDDDDDDDDDDDDDDDDDDDDDDDDDDDDDDDDDDDDDDDDDDDDDDDDDDDDDDDmbnCHHHHHHHH.    .   ..  1111xxHHHHHHHHDDDDDDDDDDDDDDDDDDDDDDDDDDDDDDDDDDDDDDDDDDDDDDDDDDDDDDDF3334333433333333323332333322333",
"3343343332343434423444356FDDDDDDDDDDDDDDDDDADDDDDDDDDDDDDDDDDDDDDDDDDDDDDDDDDADDDDHHHHHHHHHHHHHHHHHHHHHHHHHHHHHHHHHHHnnbmDDDDDDDDDDDDDDDDDADDDDDDDADDDDDDDDDDDDDADDDDDDDDDDDDDDDDDDDDDDADDDDDDDDDDmbnnHHHHHHHH   .. ..   . 11111xHHHHHHHHDDDDDDDDDDDDDADDDDDDDDDDDDDDDDDDDDDDDDDDADDDDDDDDDDDDDDDF444233233434333424344234334333",
"434334344344343333444435FFFFFFFFFFFFFFFFFFFFFFFFFFFFFFFFFFFFFDFFFFFFFFFFFFFFFFFFDHHHHHHHHHHHHHHHHHHHHHHHHHHHHHHHHHHHHnnvmFFFFFFFFFFFFFFFFFFFFFFFFFFFFFFFFFFFFFFFFFFFFFFFFFFFFFFFFFFFFFFFFFFFFFFFFFmbnnHHHHHHHHH.   .   . . 11111xxHHHHHHHHFFFFFFFFFFFFFFFFFFFFFFFFFFFFFFFFFFFFFFFFFFFFFFFFFFFFFFFFF44344434434343433333443343334",
"444443433434434433444435FVVVVVVVVVVVVVVVVVVVVVVVVVVVVVVVVVVVVVVVVVVVVVVVVVVVVVVVVHHHHHHHHHHHHHHHHHHHHHHHHHHHHHHHHHHHHnnnbmVVVVVVVVVVVVVVVVVVVVVVVD<<<<<<<<<<<<<<<<<<<<<<<DVVVVVVVVVVVVVVVVVVVVVVVmbnnnHHHHHHHHH .   . . .  111111xHHHHHHHHVVVVVVVVVVVVVVVVVVVVVVVVVVVVVVVVVVVVVVVVVVVVVVVVVVVVVVVVF54344344444344544434443344335",
"453434544344534444444435FVVVVVVVVVVVVVVVVVVVVVVVVVVVVVVVVVVVVVVVVVVVVVVVVVVVVVVVHHHHHHHHHHHHHHHHHHHHHHHHHHHHHHHHHHHHCnnnbmVVVVVVVVVVVVVVVVVVVn84VD<<<<<<<<<<<<<<<<<<<<<<<DVn84VVVVVVVVVVVVVVVVVVVmvnnnCHHHHHHHH . .   .   .111111xxHHHHHHHHVVVVVVVVVVVVVVVVVVVVVVVVVVVVVVVVVVVVVVVVVVVVVVVVVVVVVVVF54434444444445435554544444554",
"455454455544454555544345FVVVVVVVVVVVVVVVVVVVVVVVVVVVVVVVVVVVVVVVVVVVVVVVVVVVVVVVHHHHHHHHHHHHHHHHHHHHHHHHHHHHHHHHHHHHnnnnbmVVVVVVVVVVVVVVVVVVVn84VD<<aaaaaaaaaaaaaaaaaaa<<DVn84VVVVVVVVVVVVVVVVVVVmbnnnnHHHHHHHHH  . .   .. 1111111xHHHHHHHHVVVVVVVVVVVVVVVVVVVVVVVVVVVVVVVVVVVVVVVVVVVVVVVVVVVVVVVF55554445554545455545554554554",
"554455555545455555444345FVVVVVVVVVVVVVVVVVVVVVVVVVVVVVVVVVVVVVVVVVVVVVVVVVVVVVVHHHHHHHHHHHHHHHHHHHHHHHHHHHHHHHHHHHHHnnnnbmVVVVVVVVVVVVVVVVVVVn84VD<<adddddddsasddddddda<<DVn84VVVVVVVVVVVVVVVVVVVmbnnnnHHHHHHHHH ..   .    1111111xHHHHHHHHHVVVVVVVVVVVVVVVVVVVVVVVVVVVVVVVVVVVVVVVVVVVVVVVVVVVVVVF55554555554554455555545555455",
"545666565565556555444345FVVVVVVVVVVVVVVVVVVVVVVVVVVVVVVVVVVVVVVVVVVVVVVVVVVVVVVHHHHHHHHHHHHHHHHHHHHHHHHHHHHHHHHHHHHHnnnnbmVVVVVVVVVVVVVVVVVVVHHHVD<<addBBBBdsasdBBBBdda<<DVHHHVVVVVVVVVVVVVVVVVVVmbnnnnHHHHHHHHHHHHHHHHHHHHHHHHHHHHHHHHHHHHHVVVVVVVVVVVVVVVVVVVVVVVVVVVVVVVVVVVVVVVVVVVVVVVVVVVVVVF55445455554555555655556545565",
"565555555666665556444345FVVVVVVVVVVVVVVVVVVVVVVVVVVVVVVVVVVVVVVVVVVVVVVVVVVVVVHHHHHHHHHHHHHHHHHHHHHHHHHHHHHHHHHHHHHCnnnnbmVVVVVVVVVVVVVVVVVVFGGGGD<<addlllldsasdlllldda<<DGGGFGVVVVVVVVVVVVVVVVVVmbnnnnCHHHHHHHHHHHHHHHHHHHHHHHHHHHHHHHHHHHHHVVVVVVVVVVVVVVVVVVVVVVVVVVVVVVVVVVVVVVVVVVVVVVVVVVVVVF55566665556555555656565565555",
"556666566666555566444345FVVVVVVVVVVVVVVVVVVVVVVVVVVVVVVVVVVVVVVVVVVVVVVVVVVVVVHHHHHHHHHHHHHHHHHHHHHHHHHHHHHHHHHHHHHnnnnnbmVVVVVVVVVVVVVVVVVGFFGFFD<<addkkkkdsasdkkkkdda<<DFFGFFGVVVVVVVVVVVVVVVVVmbnnnnnHHHHHHHHHHHHHHHHHHHHHHHHHHHHHHHHHHHHHVVVVVVVVVVVVVVVVVVVVVVVVVVVVVVVVVVVVVVVVVVVVVVVVVVVVVF65666556666666656655656566565",
"765667666666686666444345r::::::::::::::::::::::::::::::::::::::::::::::::::::HHHHHHHHHHHHHHHHHHHHHHHHHHHHHHHHHHHHHHnnnn;-;::::::::::::::::rrrrrrrDaasddffffdsasdffffddsaaDrrrrrrr::::::::::::::::;-nnnnnHHHHHHHHHHHHHHHHHHHHHHHHHHHHHHHHHHHHHH::::::::::::::::::::::::::::::::::::::::::::::::::::t67666676666566676676566767656",
"666777666676666677444345r::::::::::::::::::::::::::::::::::::::::::::::::::::HHHHHHHHHHHHHHHHHHHHHHHHHHHHHHHHHHHHHHnn;;;-;:::::::::::::::rrrrrrrrDssddddddddsasddddddddssDrrrrrrrr:::::::::::::::;-;;;nnHHHHHHHHHHHHHHHHHHHHHHHHHHHHHHHHHHHHHH::::::::::::::::::::::::::::::::::::::::::::::::::::t67776666667766667766666776667",
"676676667676676677444345r:::::::::::::::::::::::::::::::::::::::::::::::::::rrrrrrrrrrrrrrrrrrrrrrrrrrrrrrrrrrrrrrt;;;;;-;::::::::::::::rrrrrrrrrDddddddddddsasddddddddddDrrrrrrrrr::::::::::::::;-;;;;;trrrrrrrrrrrrrrrrrrrrrrrrrrrrrrrrrrrrrt:::::::::::::::::::::::::::::::::::::::::::::::::::t66666766667667776777776677766",
"677666677676677767444345FVVVVVVVVVVVVVVVVVVVVVVVVVVVVVVVVVVVVVVVVVVVVVVVVVVVrrrrrrrrrrrrrrrrrrrrrrrrrrrrrrrrrrrrrt;;;;;nbmVVVVVVVVVVVVVVVVVVVVVVVDddddddddddsasddddddddddDVVVVVVVVVVVVVVVVVVVVVVVmb;;;;;;trrrrrrrrrrrrrrrrrrrrrrrrrrrrrrrrrrrrtVVVVVVVVVVVVVVVVVVVVVVVVVVVVVVVVVVVVVVVVVVVVVVVVVVVF77677767677667766777777677777",
"777777777777767777444345FVVVVVVVVVVVVVVVVVVVVVVVVVVVVVVVVVVVVVVVVVVVVVVVVVVrrrrrrrrrrrrrrrrrrrrrrrrrrrrrrrrrrrrrrt;;nnnnbmVVVVVVVVVVVVVVVVVVVVVVVDddddddddddsasddddddddddDVVVVVVVVVVVVVVVVVVVVVVVmbnnnn;;trrrrrrrrrrrrrrrrrrrrrrrrrrrrrrrrrrrrrtVVVVVVVVVVVVVVVVVVVVVVVVVVVVVVVVVVVVVVVVVVVVVVVVVVF77777777777776777777777777777",
"777777777777777777444345FVVVVVVVVVVVVVVVVVVVVVVVVVVVVVVVVVVVVVVVVVVVVVVVVVVHHHHHHHHHHHHHHHHHHHHHHHHHHHHHHHHHHHHHHHnnnnnnbmVVVVVVVVVVVVVVVVVVVVVVVDddddddddddsasddddddddddDVVVVVVVVVVVVVVVVVVVVVVVnbnnnnnnHHHHHHHHHHHHHHHHHHHHHHHHHHHHHHHHHHHHHHHVVVVVVVVVVVVVVVVVVVVVVVVVVVVVVVVVVVVVVVVVVVVVVVVVVF77777777777777777777777777777",
"@@@@@@@@@@@@@@@@@@@@@@@@@@@@@@@@@@@@@@@@@@@@@@@@@@@@@@@@@@@@@@@@@@@@@@@@@@@@@@@@@@@@@@@@@@@@@@@@@@@@@@@@@@@@@@@@@@@@@@@@@@@@@@@@@@@@@@@@@@@@@@@@@@@@@@@@@@@@@@@@@@@@@@@@@@@@@@@@@@@@@@@@@@@@@@@@@@@@@@@@@@@@@@@@@@@@@@@@@@@@@@@@@@@@@@@@@@@@@@@@@@@@@@@@@@@@@@@@@@@@@@@@@@@@@@@@@@@@@@@@@@@@@@@@@@@@@@@@@@@@@@@@@@@@@@@@@@@@@@@@",
"@@@@@@@@@@@@@@@@@@@@@@@@@@@@@@@@@@@@@@@@@@@@@@@@@@@@@@@@@@@@@@@@@@@@@@@@@@@@@@@@@@@@@@@@@@@@@@@@@@@@@@@@@@@@@@@@@@@@@@@@@@@@@@@@@@@@@@@@@@@@@@@@@@@@@@@@@@@@@@@@@@@@@@@@@@@@@@@@@@@@@@@@@@@@@@@@@@@@@@@@@@@@@@@@@@@@@@@@@@@@@@@@@@@@@@@@@@@@@@@@@@@@@@@@@@@@@@@@@@@@@@@@@@@@@@@@@@@@@@@@@@@@@@@@@@@@@@@@@@@@@@@@@@@@@@@@@@@@@@@@",
"@@@@@@@@@@@@@@@@@@@@@@@@@@@@@@@@@@@@@@@@@@@@@@@@@@@@@@@@@@@@@@@@@@@@@@@@@@@@@@@@@@@@@@@@@@@@@@@@@@@@@@@@@@@@@@@@@@@@@@@@@@@@@@@@@@@@@@@@@@@@@@@@@@@@@@@@@@@@@@@@@@@@@@@@@@@@@@@@@@@@@@@@@@@@@@@@@@@@@@@@@@@@@@@@@@@@@@@@@@@@@@@@@@@@@@@@@@@@@@@@@@@@@@@@@@@@@@@@@@@@@@@@@@@@@@@@@@@@@@@@@@@@@@@@@@@@@@@@@@@@@@@@@@@@@@@@@@@@@@@@",
"@@@@@@@@@@@@@@@@@@@@@@@@@@@@@@@@@@@@@@@@@@@@@@@@@@@@@@@@@@@@@@@@@@@@@@@@@@@@@@@@@@@@@@@@@@@@@@@@@@@@@@@@@@@@@@@@@@@@@@@@@@@@@@@@@@@@@@@@@@@@@@@@@@@@@@@@@@@@@@@@@@@@@@@@@@@@@@@@@@@@@@@@@@@@@@@@@@@@@@@@@@@@@@@@@@@@@@@@@@@@@@@@@@@@@@@@@@@@@@@@@@@@@@@@@@@@@@@@@@@@@@@@@@@@@@@@@@@@@@@@@@@@@@@@@@@@@@@@@@@@@@@@@@@@@@@@@@@@@@@@",
"@@@@@@@@@@@@@@@@@@@@@@@@@@@@@@@@@@@@@@@@@@@@@@@@@@@@@@@@@@@@@@@@@@@@@@@@@@@@@@@@@@@@@@@@@@@@@@@@@@@@@@@@@@@@@@@@@@@@@@@@@@@@@@@@@@@@@@@@@@@@@@@@@@@@@@@@@@@@@@@@@@@@@@@@@@@@@@@@@@@@@@@@@@@@@@@@@@@@@@@@@@@@@@@@@@@@@@@@@@@@@@@@@@@@@@@@@@@@@@@@@@@@@@@@@@@@@@@@@@@@@@@@@@@@@@@@@@@@@@@@@@@@@@@@@@@@@@@@@@@@@@@@@@@@@@@@@@@@@@@@",
"@@@@@@@@@@@@@@@@@@@@@@@@@@@@@@@@@@@@@@@@@@@@@@@@@@@@@@@@@@@@@@@@@@@@@@@@@@@@@@@@@@@@@@@@@@@@@@@@@@@@@@@@@@@@@@@@@@@@@@@@@@@@@@@@@@@@@@@@@@@@@@@@@@@@@@@@@@@@@@@@@@@@@@@@@@@@@@@@@@@@@@@@@@@@@@@@@@@@@@@@@@@@@@@@@@@@@@@@@@@@@@@@@@@@@@@@@@@@@@@@@@@@@@@@@@@@@@@@@@@@@@@@@@@@@@@@@@@@@@@@@@@@@@@@@@@@@@@@@@@@@@@@@@@@@@@@@@@@@@@@",
"@@@@@@@@@@@@@@@@@@@@@@@@@@@@@@@@@@@@@@@@@@@@@@@@@@@@@@@@@@@@@@@@@@@@@@@@@@@@@@@@@@@@@@@@@@@@@@@@@@@@@@@@@@@@@@@@@@@@@@@@@@@@@@@@@@@@@@@@@@@@@@@@@@@@@@@@@@@@@@@@@@@@@@@@@@@@@@@@@@@@@@@@@@@@@@@@@@@@@@@@@@@@@@@@@@@@@@@@@@@@@@@@@@@@@@@@@@@@@@@@@@@@@@@@@@@@@@@@@@@@@@@@@@@@@@@@@@@@@@@@@@@@@@@@@@@@@@@@@@@@@@@@@@@@@@@@@@@@@@@@",
"@@@@@@@@@@@@@@@@@@@@@@@@@@@@@@@@@@@@@@@@@@@@@@@@@@@@@@@@@@@@@@@@@@@@@@@@@@@@@@@@@@@@@@@@@@@@@@@@@@@@@@@@@@@@@@@@@@@@@@@@@@@@@@@@@@@@@@@@@@@@@@@@@@@@@@@@@@@@@@@@@@@@@@@@@@@@@@@@@@@@@@@@@@@@@@@@@@@@@@@@@@@@@@@@@@@@@@@@@@@@@@@@@@@@@@@@@@@@@@@@@@@@@@@@@@@@@@@@@@@@@@@@@@@@@@@@@@@@@@@@@@@@@@@@@@@@@@@@@@@@@@@@@@@@@@@@@@@@@@@@",
"@@@@@@@@@@@@@@@@@@@@@@@@@@@@@@@@@@@@@@@@@@@@@@@@@@@@@@@@@@@@@@@@@@@@@@@@@@@@@@@@@@@@@@@@@@@@@@@@@@@@@@@@@@@@@@@@@@@@@@@@@@@@@@@@@@@@@@@@@@@@@@@@@@@@@@@@@@@@@@@@@@@@@@@@@@@@@@@@@@@@@@@@@@@@@@@@@@@@@@@@@@@@@@@@@@@@@@@@@@@@@@@@@@@@@@@@@@@@@@@@@@@@@@@@@@@@@@@@@@@@@@@@@@@@@@@@@@@@@@@@@@@@@@@@@@@@@@@@@@@@@@@@@@@@@@@@@@@@@@@@",
"@@@@@@@@@@@@@@@@@@@@@@@@@@@@@@@@@@@@@@@@@@@@@@@@@@@@@@@@@@@@@@@@@@@@@@@@@@@@@@@@@@@@@@@@@@@@@@@@@@@@@@@@@@@@@@@@@@@@@@@@@@@@@@@@@@@@@@@@@@@@@@@@@@@@@@@@@@@@@@@@@@@@@@@@@@@@@@@@@@@@@@@@@@@@@@@@@@@@@@@@@@@@@@@@@@@@@@@@@@@@@@@@@@@@@@@@@@@@@@@@@@@@@@@@@@@@@@@@@@@@@@@@@@@@@@@@@@@@@@@@@@@@@@@@@@@@@@@@@@@@@@@@@@@@@@@@@@@@@@@@",
"@@@@@@@@@@@@@@@@@@@@@@@@@@@@@@@@@@@@@@@@@@@@@@@@@@@@@@@@@@@@@@@@@@@@@@@@@@@@@@@@@@@@@@@@@@@@@@@@@@@@@@@@@@@@@@@@@@@@@@@@@@@@@@@@@@@@@@@@@@@@@@@@@@@@@@@@@@@@@@@@@@@@@@@@@@@@@@@@@@@@@@@@@@@@@@@@@@@@@@@@@@@@@@@@@@@@@@@@@@@@@@@@@@@@@@@@@@@@@@@@@@@@@@@@@@@@@@@@@@@@@@@@@@@@@@@@@@@@@@@@@@@@@@@@@@@@@@@@@@@@@@@@@@@@@@@@@@@@@@@@",
"@@@@@@@@@@@@@@@@@@@@@@@@@@@@@@@@@@@@@@@@@@@@@@@@@@@@@@@@@@@@@@@@@@@@@@@@@@@@@@@@@@@@@@@@@@@@@@@@@@@@@@@@@@@@@@@@@@@@@@@@@@@@@@@@@@@@@@@@@@@@@@@@@@@@@@@@@@@@@@@@@@@@@@@@@@@@@@@@@@@@@@@@@@@@@@@@@@@@@@@@@@@@@@@@@@@@@@@@@@@@@@@@@@@@@@@@@@@@@@@@@@@@@@@@@@@@@@@@@@@@@@@@@@@@@@@@@@@@@@@@@@@@@@@@@@@@@@@@@@@@@@@@@@@@@@@@@@@@@@@@",
"@@@@@@@@@@@@@@@@@@@@@@@@@@@@@@@@@@@@@@@@@@@@@@@@@@@@@@@@@@@@@@@@@@@@@@@@@@@@@@@@@@@@@@@@@@@@@@@@@@@@@@@@@@@@@@@@@@@@@@@@@@@@@@@@@@@@@@@@@@@@@@@@@@@@@@@@@@@@@@@@@@@@@@@@@@@@@@@@@@@@@@@@@@@@@@@@@@@@@@@@@@@@@@@@@@@@@@@@@@@@@@@@@@@@@@@@@@@@@@@@@@@@@@@@@@@@@@@@@@@@@@@@@@@@@@@@@@@@@@@@@@@@@@@@@@@@@@@@@@@@@@@@@@@@@@@@@@@@@@@@",
"@@@@@@@@@@@@@@@@@@@@@@@@@@@@@@@@@@@@@@@@@@@@@@@@@@@@@@@@@@@@@@@@@@@@@@@@@@@@@@@@@@@@@@@@@@@@@@@@@@@@@@@@@@@@@@@@@@@@@@@@@@@@@@@@@@@@@@@@@@@@@@@@@@@@@@@@@@@@@@@@@@@@@@@@@@@@@@@@@@@@@@@@@@@@@@@@@@@@@@@@@@@@@@@@@@@@@@@@@@@@@@@@@@@@@@@@@@@@@@@@@@@@@@@@@@@@@@@@@@@@@@@@@@@@@@@@@@@@@@@@@@@@@@@@@@@@@@@@@@@@@@@@@@@@@@@@@@@@@@@@",
"@@@@@@@@@@@@@@@@@@@@@@@@@@@@@@@@@@@@@@@@@@@@@@@@@@@@@@@@@@@@@@@@@@@@@@@@@@@@@@@@@@@@@@@@@@@@@@@@@@@@@@@@@@@@@@@@@@@@@@@@@@@@@@@@@@@@@@@@@@@@@@@@@@@@@@@@@@@@@@@@@@@@@@@@@@@@@@@@@@@@@@@@@@@@@@@@@@@@@@@@@@@@@@@@@@@@@@@@@@@@@@@@@@@@@@@@@@@@@@@@@@@@@@@@@@@@@@@@@@@@@@@@@@@@@@@@@@@@@@@@@@@@@@@@@@@@@@@@@@@@@@@@@@@@@@@@@@@@@@@@",
"@@@@@@@@@@@@@@@@@@@@@@@@@@@@@@@@@@@@@@@@@@@@@@@@@@@@@@@@@@@@@@@@@@@@@@@@@@@@@@@@@@@@@@@@@@@@@@@@@@@@@@@@@@@@@@@@@@@@@@@@@@@@@@@@@@@@@@@@@@@@@@@@@@@@@@@@@@@@@@@@@@@@@@@@@@@@@@@@@@@@@@@@@@@@@@@@@@@@@@@@@@@@@@@@@@@@@@@@@@@@@@@@@@@@@@@@@@@@@@@@@@@@@@@@@@@@@@@@@@@@@@@@@@@@@@@@@@@@@@@@@@@@@@@@@@@@@@@@@@@@@@@@@@@@@@@@@@@@@@@@",
"@@@@@@@@@@@@@@@@@@@@@@@@@@@@@@@@@@@@@@@@@@@@@@@@@@@@@@@@@@@@@@@@@@@@@@@@@@@@@@@@@@@@@@@@@@@@@@@@@@@@@@@@@@@@@@@@@@@@@@@@@@@@@@@@@@@@@@@@@@@@@@@@@@@@@@@@@@@@@@@@@@@@@@@@@@@@@@@@@@@@@@@@@@@@@@@@@@@@@@@@@@@@@@@@@@@@@@@@@@@@@@@@@@@@@@@@@@@@@@@@@@@@@@@@@@@@@@@@@@@@@@@@@@@@@@@@@@@@@@@@@@@@@@@@@@@@@@@@@@@@@@@@@@@@@@@@@@@@@@@@",
"@@@@@@@@@@@@@@@@@@@@@@@@@@@@@@@@@@@@@@@@@@@@@@@@@@@@@@@@@@@@@@@@@@@@@@@@@@@@@@@@@@@@@@@@@@@@@@@@@@@@@@@@@@@@@@@@@@@@@@@@@@@@@@@@@@@@@@@@@@@@@@@@@@@@@@@@@@@@@@@@@@@@@@@@@@@@@@@@@@@@@@@@@@@@@@@@@@@@@@@@@@@@@@@@@@@@@@@@@@@@@@@@@@@@@@@@@@@@@@@@@@@@@@@@@@@@@@@@@@@@@@@@@@@@@@@@@@@@@@@@@@@@@@@@@@@@@@@@@@@@@@@@@@@@@@@@@@@@@@@@",
"@@@@@@@@@@@@@@@@@@@@@@@@@@@@@@@@@@@@@@@@@@@@@@@@@@@@@@@@@@@@@@@@@@@@@@@@@@@@@@@@@@@@@@@@@@@@@@@@@@@@@@@@@@@@@@@@@@@@@@@@@@@@@@@@@@@@@@@@@@@@@@@@@@@@@@@@@@@@@@@@@@@@@@@@@@@@@@@@@@@@@@@@@@@@@@@@@@@@@@@@@@@@@@@@@@@@@@@@@@@@@@@@@@@@@@@@@@@@@@@@@@@@@@@@@@@@@@@@@@@@@@@@@@@@@@@@@@@@@@@@@@@@@@@@@@@@@@@@@@@@@@@@@@@@@@@@@@@@@@@@",
"@@@@@@@@@@@@@@@@@@@@@@@@@@@@@@@@@@@@@@@@@@@@@@@@@@@@@@@@@@@@@@@@@@@@@@@@@@@@@@@@@@@@@@@@@@@@@@@@@@@@@@@@@@@@@@@@@@@@@@@@@@@@@@@@@@@@@@@@@@@@@@@@@@@@@@@@@@@@@@@@@@@@@@@@@@@@@@@@@@@@@@@@@@@@@@@@@@@@@@@@@@@@@@@@@@@@@@@@@@@@@@@@@@@@@@@@@@@@@@@@@@@@@@@@@@@@@@@@@@@@@@@@@@@@@@@@@@@@@@@@@@@@@@@@@@@@@@@@@@@@@@@@@@@@@@@@@@@@@@@@",
"@@@@@@@@@@@@@@@@@@@@@@@@@@@@@@@@@@@@@@@@@@@@@@@@@@@@@@@@@@@@@@@@@@@@@@@@@@@@@@@@@@@@@@@@@@@@@@@@@@@@@@@@@@@@@@@@@@@@@@@@@@@@@@@@@@@@@@@@@@@@@@@@@@@@@@@@@@@@@@@@@@@@@@@@@@@@@@@@@@@@@@@@@@@@@@@@@@@@@@@@@@@@@@@@@@@@@@@@@@@@@@@@@@@@@@@@@@@@@@@@@@@@@@@@@@@@@@@@@@@@@@@@@@@@@@@@@@@@@@@@@@@@@@@@@@@@@@@@@@@@@@@@@@@@@@@@@@@@@@@@",
"@@@@@@@@@@@@@@@@@@@@@@@@@@@@@@@@@@@@@@@@@@@@@@@@@@@@@@@@@@@@@@@@@@@@@@@@@@@@@@@@@@@@@@@@@@@@@@@@@@@@@@@@@@@@@@@@@@@@@@@@@@@@@@@@@@@@@@@@@@@@@@@@@@@@@@@@@@@@@@@@@@@@@@@@@@@@@@@@@@@@@@@@@@@@@@@@@@@@@@@@@@@@@@@@@@@@@@@@@@@@@@@@@@@@@@@@@@@@@@@@@@@@@@@@@@@@@@@@@@@@@@@@@@@@@@@@@@@@@@@@@@@@@@@@@@@@@@@@@@@@@@@@@@@@@@@@@@@@@@@@",
"@@@@@@@@@@@@@@@@@@@@@@@@@@@@@@@@@@@@@@@@@@@@@@@@@@@@@@@@@@@@@@@@@@@@@@@@@@@@@@@@@@@@@@@@@@@@@@@@@@@@@@@@@@@@@@@@@@@@@@@@@@@@@@@@@@@@@@@@@@@@@@@@@@@@@@@@@@@@@@@@@@@@@@@@@@@@@@@@@@@@@@@@@@@@@@@@@@@@@@@@@@@@@@@@@@@@@@@@@@@@@@@@@@@@@@@@@@@@@@@@@@@@@@@@@@@@@@@@@@@@@@@@@@@@@@@@@@@@@@@@@@@@@@@@@@@@@@@@@@@@@@@@@@@@@@@@@@@@@@@@",
"@@@@@@@@@@@@@@@@@@@@@@@@@@@@@@@@@@@@@@@@@@@@@@@@@@@@@@@@@@@@@@@@@@@@@@@@@@@@@@@@@@@@@@@@@@@@@@@@@@@@@@@@@@@@@@@@@@@@@@@@@@@@@@@@@@@@@@@@@@@@@@@@@@@@@@@@@@@@@@@@@@@@@@@@@@@@@@@@@@@@@@@@@@@@@@@@@@@@@@@@@@@@@@@@@@@@@@@@@@@@@@@@@@@@@@@@@@@@@@@@@@@@@@@@@@@@@@@@@@@@@@@@@@@@@@@@@@@@@@@@@@@@@@@@@@@@@@@@@@@@@@@@@@@@@@@@@@@@@@@@",
"@@@@@@@@@@@@@@@@@@@@@@@@@@@@@@@@@@@@@@@@@@@@@@@@@@@@@@@@@@@@@@@@@@@@@@@@@@@@@@@@@@@@@@@@@@@@@@@@@@@@@@@@@@@@@@@@@@@@@@@@@@@@@@@@@@@@@@@@@@@@@@@@@@@@@@@@@@@@@@@@@@@@@@@@@@@@@@@@@@@@@@@@@@@@@@@@@@@@@@@@@@@@@@@@@@@@@@@@@@@@@@@@@@@@@@@@@@@@@@@@@@@@@@@@@@@@@@@@@@@@@@@@@@@@@@@@@@@@@@@@@@@@@@@@@@@@@@@@@@@@@@@@@@@@@@@@@@@@@@@@",
"@@@@@@@@@@@@@@@@@@@@@@@@@@@@@@@@@@@@@@@@@@@@@@@@@@@@@@@@@@@@@@@@@@@@@@@@@@@@@@@@@@@@@@@@@@@@@@@@@@@@@@@@@@@@@@@@@@@@@@@@@@@@@@@@@@@@@@@@@@@@@@@@@@@@@@@@@@@@@@@@@@@@@@@@@@@@@@@@@@@@@@@@@@@@@@@@@@@@@@@@@@@@@@@@@@@@@@@@@@@@@@@@@@@@@@@@@@@@@@@@@@@@@@@@@@@@@@@@@@@@@@@@@@@@@@@@@@@@@@@@@@@@@@@@@@@@@@@@@@@@@@@@@@@@@@@@@@@@@@@@",
"@@@@@@@@@@@@@@@@@@@@@@@@@@@@@@@@@@@@@@@@@@@@@@@@@@@@@@@@@@@@@@@@@@@@@@@@@@@@@@@@@@@@@@@@@@@@@@@@@@@@@@@@@@@@@@@@@@@@@@@@@@@@@@@@@@@@@@@@@@@@@@@@@@@@@@@@@@@@@@@@@@@@@@@@@@@@@@@@@@@@@@@@@@@@@@@@@@@@@@@@@@@@@@@@@@@@@@@@@@@@@@@@@@@@@@@@@@@@@@@@@@@@@@@@@@@@@@@@@@@@@@@@@@@@@@@@@@@@@@@@@@@@@@@@@@@@@@@@@@@@@@@@@@@@@@@@@@@@@@@@",
"@@@@@@@@@@@@@@@@@@@@@@@@@@@@@@@@@@@@@@@@@@@@@@@@@@@@@@@@@@@@@@@@@@@@@@@@@@@@@@@@@@@@@@@@@@@@@@@@@@@@@@@@@@@@@@@@@@@@@@@@@@@@@@@@@@@@@@@@@@@@@@@@@@@@@@@@@@@@@@@@@@@@@@@@@@@@@@@@@@@@@@@@@@@@@@@@@@@@@@@@@@@@@@@@@@@@@@@@@@@@@@@@@@@@@@@@@@@@@@@@@@@@@@@@@@@@@@@@@@@@@@@@@@@@@@@@@@@@@@@@@@@@@@@@@@@@@@@@@@@@@@@@@@@@@@@@@@@@@@@@",
"@@@@@@@@@@@@@@@@@@@@@@@@@@@@@@@@@@@@@@@@@@@@@@@@@@@@@@@@@@@@@@@@@@@@@@@@@@@@@@@@@@@@@@@@@@@@@@@@@@@@@@@@@@@@@@@@@@@@@@@@@@@@@@@@@@@@@@@@@@@@@@@@@@@@@@@@@@@@@@@@@@@@@@@@@@@@@@@@@@@@@@@@@@@@@@@@@@@@@@@@@@@@@@@@@@@@@@@@@@@@@@@@@@@@@@@@@@@@@@@@@@@@@@@@@@@@@@@@@@@@@@@@@@@@@@@@@@@@@@@@@@@@@@@@@@@@@@@@@@@@@@@@@@@@@@@@@@@@@@@@",
"@@@@@@@@@@@@@@@@@@@@@@@@@@@@@@@@@@@@@@@@@@@@@@@@@@@@@@@@@@@@@@@@@@@@@@@@@@@@@@@@@@@@@@@@@@@@@@@@@@@@@@@@@@@@@@@@@@@@@@@@@@@@@@@@@@@@@@@@@@@@@@@@@@@@@@@@@@@@@@@@@@@@@@@@@@@@@@@@@@@@@@@@@@@@@@@@@@@@@@@@@@@@@@@@@@@@@@@@@@@@@@@@@@@@@@@@@@@@@@@@@@@@@@@@@@@@@@@@@@@@@@@@@@@@@@@@@@@@@@@@@@@@@@@@@@@@@@@@@@@@@@@@@@@@@@@@@@@@@@@@",
"@@@@@@@@@@@@@@@@@@@@@@@@@@@@@@@@@@@@@@@@@@@@@@@@@@@@@@@@@@@@@@@@@@@@@@@@@@@@@@@@@@@@@@@@@@@@@@@@@@@@@@@@@@@@@@@@@@@@@@@@@@@@@@@@@@@@@@@@@@@@@@@@@@@@@@@@@@@@@@@@@@@@@@@@@@@@@@@@@@@@@@@@@@@@@@@@@@@@@@@@@@@@@@@@@@@@@@@@@@@@@@@@@@@@@@@@@@@@@@@@@@@@@@@@@@@@@@@@@@@@@@@@@@@@@@@@@@@@@@@@@@@@@@@@@@@@@@@@@@@@@@@@@@@@@@@@@@@@@@@@",
"@@@@@@@@@@@@@@@@@@@@@@@@@@@@@@@@@@@@@@@@@@@@@@@@@@@@@@@@@@@@@@@@@@@@@@@@@@@@@@@@@@@@@@@@@@@@@@@@@@@@@@@@@@@@@@@@@@@@@@@@@@@@@@@@@@@@@@@@@@@@@@@@@@@@@@@@@@@@@@@@@@@@@@@@@@@@@@@@@@@@@@@@@@@@@@@@@@@@@@@@@@@@@@@@@@@@@@@@@@@@@@@@@@@@@@@@@@@@@@@@@@@@@@@@@@@@@@@@@@@@@@@@@@@@@@@@@@@@@@@@@@@@@@@@@@@@@@@@@@@@@@@@@@@@@@@@@@@@@@@@",
"@@@@@@@@@@@@@@@@@@@@@@@@@@@@@@@@@@@@@@@@@@@@@@@@@@@@@@@@@@@@@@@@@@@@@@@@@@@@@@@@@@@@@@@@@@@@@@@@@@@@@@@@@@@@@@@@@@@@@@@@@@@@@@@@@@@@@@@@@@@@@@@@@@@@@@@@@@@@@@@@@@@@@@@@@@@@@@@@@@@@@@@@@@@@@@@@@@@@@@@@@@@@@@@@@@@@@@@@@@@@@@@@@@@@@@@@@@@@@@@@@@@@@@@@@@@@@@@@@@@@@@@@@@@@@@@@@@@@@@@@@@@@@@@@@@@@@@@@@@@@@@@@@@@@@@@@@@@@@@@@",
"@@@@@@@@@@@@@@@@@@@@@@@@@@@@@@@@@@@@@@@@@@@@@@@@@@@@@@@@@@@@@@@@@@@@@@@@@@@@@@@@@@@@@@@@@@@@@@@@@@@@@@@@@@@@@@@@@@@@@@@@@@@@@@@@@@@@@@@@@@@@@@@@@@@@@@@@@@@@@@@@@@@@@@@@@@@@@@@@@@@@@@@@@@@@@@@@@@@@@@@@@@@@@@@@@@@@@@@@@@@@@@@@@@@@@@@@@@@@@@@@@@@@@@@@@@@@@@@@@@@@@@@@@@@@@@@@@@@@@@@@@@@@@@@@@@@@@@@@@@@@@@@@@@@@@@@@@@@@@@@@",
"@@@@@@@@@@@@@@@@@@@@@@@@@@@@@@@@@@@@@@@@@@@@@@@@@@@@@@@@@@@@@@@@@@@@@@@@@@@@@@@@@@@@@@@@@@@@@@@@@@@@@@@@@@@@@@@@@@@@@@@@@@@@@@@@@@@@@@@@@@@@@@@@@@@@@@@@@@@@@@@@@@@@@@@@@@@@@@@@@@@@@@@@@@@@@@@@@@@@@@@@@@@@@@@@@@@@@@@@@@@@@@@@@@@@@@@@@@@@@@@@@@@@@@@@@@@@@@@@@@@@@@@@@@@@@@@@@@@@@@@@@@@@@@@@@@@@@@@@@@@@@@@@@@@@@@@@@@@@@@@@",
"@@@@@@@@@@@@@@@@@@@@@@@@@@@@@@@@@@@@@@@@@@@@@@@@@@@@@@@@@@@@@@@@@@@@@@@@@@@@@@@@@@@@@@@@@@@@@@@@@@@@@@@@@@@@@@@@@@@@@@@@@@@@@@@@@@@@@@@@@@@@@@@@@@@@@@@@@@@@@@@@@@@@@@@@@@@@@@@@@@@@@@@@@@@@@@@@@@@@@@@@@@@@@@@@@@@@@@@@@@@@@@@@@@@@@@@@@@@@@@@@@@@@@@@@@@@@@@@@@@@@@@@@@@@@@@@@@@@@@@@@@@@@@@@@@@@@@@@@@@@@@@@@@@@@@@@@@@@@@@@@",
"@@@@@@@@@@@@@@@@@@@@@@@@@@@@@@@@@@@@@@@@@@@@@@@@@@@@@@@@@@@@@@@@@@@@@@@@@@@@@@@@@@@@@@@@@@@@@@@@@@@@@@@@@@@@@@@@@@@@@@@@@@@@@@@@@@@@@@@@@@@@@@@@@@@@@@@@@@@@@@@@@@@@@@@@@@@@@@@@@@@@@@@@@@@@@@@@@@@@@@@@@@@@@@@@@@@@@@@@@@@@@@@@@@@@@@@@@@@@@@@@@@@@@@@@@@@@@@@@@@@@@@@@@@@@@@@@@@@@@@@@@@@@@@@@@@@@@@@@@@@@@@@@@@@@@@@@@@@@@@@@"
};
