/* XPM */
static char *end_floor3_068[] = {
/* columns rows colors chars-per-pixel */
"320 200 68 1 ",
"  c #000000",
". c #0B0B0B",
"X c gray8",
"o c #1C1C1C",
"O c #00002C",
"+ c #00003C",
"@ c gray14",
"# c #2C2C2C",
"$ c #343434",
"% c #3C3C3C",
"& c #600000",
"* c #502400",
"= c #643000",
"- c #743804",
"; c #004400",
": c #005C00",
"> c #007400",
", c #000050",
"< c #000064",
"1 c #244870",
"2 c #444444",
"3 c #4C4C4C",
"4 c #545454",
"5 c #5C5C5C",
"6 c #646464",
"7 c #6C6C6C",
"8 c #747474",
"9 c #7C7C7C",
"0 c #F80000",
"q c #884404",
"w c #984C08",
"e c #AC580C",
"r c #C47024",
"t c #008C00",
"y c #00A400",
"u c #CC8038",
"i c #D09050",
"p c #D89C64",
"a c #DCAC7C",
"s c #2C5480",
"d c #346090",
"f c #3C6CA0",
"g c #4C78A8",
"h c #1010C0",
"j c #4040D0",
"k c #7878E0",
"l c #5884B0",
"z c #6C90BC",
"x c #848484",
"c c #8C8C8C",
"v c #939393",
"b c #989898",
"n c #A0A0A0",
"m c #A8A8A8",
"M c #B0B0B0",
"N c #BCBCBC",
"B c #E4C098",
"V c #ECD0B4",
"C c #80A0C4",
"Z c #C4C4C4",
"A c #CCCCCC",
"S c #D4D4D4",
"D c #DADADA",
"F c #D8D8F4",
"G c #E0E0E0",
"H c #E8E8E8",
"J c #F1F1F1",
"K c #FCFCFC",
/* pixels */
"@@@@@@@@@@@@@@@@@@@@@@@@@@@@@@@@@@@@@@@@@@@@@@@@@@@@@@@@@@@@@@@@@@@@@@@@@@@@@@@@@@@@@@@@@@@@@@@@@@@@@@@@@@@@@@@@@@@@@@@@@@@@@@@@@@@@@@@@@@@@@@@@@@@@@@@@@@@@@@@@@@@@@@@@@@@@@@@@@@@@@@@@@@@@@@@@@@@@@@@@@@@@@@@@@@@@@@@@@@@@@@@@@@@@@@@@@@@@@@@@@@@@@@@@@@@@@@@@@@@@@@@@@@@@@@@@@@@@@@@@@@@@@@@@@@@@@@@@@@@@@@@@@@@@@@@@@@@@@@@@",
"@@@@@@@@@@@@@@@@@@@@@@@@@@@@@@@@@@@@@@@@@@@@@@@@@@@@@@@@@@@@@@@@@@@@@@@@@@@@@@@@@@@@@@@@@@@@@@@@@@@@@@@@@@@@@@@@@@@@@@@@@@@@@@@@@@@@@@@@@@@@@@@@@@@@@@@@@@@@@@@@@@@@@@@@@@@@@@@@@@@@@@@@@@@@@@@@@@@@@@@@@@@@@@@@@@@@@@@@@@@@@@@@@@@@@@@@@@@@@@@@@@@@@@@@@@@@@@@@@@@@@@@@@@@@@@@@@@@@@@@@@@@@@@@@@@@@@@@@@@@@@@@@@@@@@@@@@@@@@@@@",
"@@@@@@@@@@@@@@@@@@@@@@@@@@@@@@@@@@@@@@@@@@@@@@@@@@@@@@@@@@@@@@@@@@@@@@@@@@@@@@@@@@@@@@@@@@@@@@@@@@@@@@@@@@@@@@@@@@@@@@@@@@@@@@@@@@@@@@@@@@@@@@@@@@@@@@@@@@@@@@@@@@@@@@@@@@@@@@@@@@@@@@@@@@@@@@@@@@@@@@@@@@@@@@@@@@@@@@@@@@@@@@@@@@@@@@@@@@@@@@@@@@@@@@@@@@@@@@@@@@@@@@@@@@@@@@@@@@@@@@@@@@@@@@@@@@@@@@@@@@@@@@@@@@@@@@@@@@@@@@@@",
"@@@@@@@@@@@@@@@@@@@@@@@@@@@@@@@@@@@@@@@@@@@@@@@@@@@@@@@@@@@@@@@@@@@@@@@@@@@@@@@@@@@@@@@@@@@@@@@@@@@@@@@@@@@@@@@@@@@@@@@@@@@@@@@@@@@@@@@@@@@@@@@@@@@@@@@@@@@@@@@@@@@@@@@@@@@@@@@@@@@@@@@@@@@@@@@@@@@@@@@@@@@@@@@@@@@@@@@@@@@@@@@@@@@@@@@@@@@@@@@@@@@@@@@@@@@@@@@@@@@@@@@@@@@@@@@@@@@@@@@@@@@@@@@@@@@@@@@@@@@@@@@@@@@@@@@@@@@@@@@@",
"@@@@@@@@@@@@@@@@@@@@@@@@@@@@@@@@@@@@@@@@@@@@@@@@@@@@@@@@@@@@@@@@@@@@@@@@@@@@@@@@@@@@@@@@@@@@@@@@@@@@@@@@@@@@@@@@@@@@@@@@@@@@@@@@@@@@@@@@@@@@@@@@@@@@@@@@@@@@@@@@@@@@@@@@@@@@@@@@@@@@@@@@@@@@@@@@@@@@@@@@@@@@@@@@@@@@@@@@@@@@@@@@@@@@@@@@@@@@@@@@@@@@@@@@@@@@@@@@@@@@@@@@@@@@@@@@@@@@@@@@@@@@@@@@@@@@@@@@@@@@@@@@@@@@@@@@@@@@@@@@",
"@@@@@@@@@@@@@@@@@@@@@@@@@@@@@@@@@@@@@@@@@@@@@@@@@@@@@@@@@@@@@@@@@@@@@@@@@@@@@@@@@@@@@@@@@@@@@@@@@@@@@@@@@@@@@@@@@@@@@@@@@@@@@@@@@@@@@@@@@@@@@@@@@@@@@@@@@@@@@@@@@@@@@@@@@@@@@@@@@@@@@@@@@@@@@@@@@@@@@@@@@@@@@@@@@@@@@@@@@@@@@@@@@@@@@@@@@@@@@@@@@@@@@@@@@@@@@@@@@@@@@@@@@@@@@@@@@@@@@@@@@@@@@@@@@@@@@@@@@@@@@@@@@@@@@@@@@@@@@@@@",
"@@@@@@@@@@@@@@@@@@@@@@@@@@@@@@@@@@@@@@@@@@@@@@@@@@@@@@@@@@@@@@@@@@@@@@@@@@@@@@@@@@@@@@@@@@@@@@@@@@@@@@@@@@@@@@@@@@@@@@@@@@@@@@@@@@@@@@@@@@@@@@@@@@@@@@@@@@@@@@@@@@@@@@@@@@@@@@@@@@@@@@@@@@@@@@@@@@@@@@@@@@@@@@@@@@@@@@@@@@@@@@@@@@@@@@@@@@@@@@@@@@@@@@@@@@@@@@@@@@@@@@@@@@@@@@@@@@@@@@@@@@@@@@@@@@@@@@@@@@@@@@@@@@@@@@@@@@@@@@@@",
"@@@@@@@@@@@@@@@@@@@@@@@@@@@@@@@@@@@@@@@@@@@@@@@@@@@@@@@@@@@@@@@@@@@@@@@@@@@@@@@@@@@@@@@@@@@@@@@@@@@@@@@@@@@@@@@@@@@@@@@@@@@@@@@@@@@@@@@@@@@@@@@@@@@@@@@@@@@@@@@@@@@@@@@@@@@@@@@@@@@@@@@@@@@@@@@@@@@@@@@@@@@@@@@@@@@@@@@@@@@@@@@@@@@@@@@@@@@@@@@@@@@@@@@@@@@@@@@@@@@@@@@@@@@@@@@@@@@@@@@@@@@@@@@@@@@@@@@@@@@@@@@@@@@@@@@@@@@@@@@@",
"@@@@@@@@@@@@@@@@@@@@@@@@@@@@@@@@@@@@@@@@@@@@@@@@@@@@@@@@@@@@@@@@@@@@@@@@@@@@@@@@@@@@@@@@@@@@@@@@@@@@@@@@@@@@@@@@@@@@@@@@@@@@@@@@@@@@@@@@@@@@@@@@@@@@@@@@@@@@@@@@@@@@@@@@@@@@@@@@@@@@@@@@@@@@@@@@@@@@@@@@@@@@@@@@@@@@@@@@@@@@@@@@@@@@@@@@@@@@@@@@@@@@@@@@@@@@@@@@@@@@@@@@@@@@@@@@@@@@@@@@@@@@@@@@@@@@@@@@@@@@@@@@@@@@@@@@@@@@@@@@",
"@@@@@@@@@@@@@@@@@@@@@@@@@@@@@@@@@@@@@@@@@@@@@@@@@@@@@@@@@@@@@@@@@@@@@@@@@@@@@@@@@@@@@@@@@@@@@@@@@@@@@@@@@@@@@@@@@@@@@@@@@@@@@@@@@@@@@@@@@@@@@@@@@@@@@@@@@@@@@@@@@@@@@@@@@@@@@@@@@@@@@@@@@@@@@@@@@@@@@@@@@@@@@@@@@@@@@@@@@@@@@@@@@@@@@@@@@@@@@@@@@@@@@@@@@@@@@@@@@@@@@@@@@@@@@@@@@@@@@@@@@@@@@@@@@@@@@@@@@@@@@@@@@@@@@@@@@@@@@@@@",
"@@@@@@@@@@@@@@@@@@@@@@@@@@@@@@@@@@@@@@@@@@@@@@@@@@@@@@@@@@@@@@@@@@@@@@@@@@@@@@@@@@@@@@@@@@@@@@@@@@@@@@@@@@@@@@@@@@@@@@@@@@@@@@@@@@@@@@@@@@@@@@@@@@@@@@@@@@@@@@@@@@@@@@@@@@@@@@@@@@@@@@@@@@@@@@@@@@@@@@@@@@@@@@@@@@@@@@@@@@@@@@@@@@@@@@@@@@@@@@@@@@@@@@@@@@@@@@@@@@@@@@@@@@@@@@@@@@@@@@@@@@@@@@@@@@@@@@@@@@@@@@@@@@@@@@@@@@@@@@@@",
"@@@@@@@@@@@@@@@@@@@@@@@@@@@@@@@@@@@@@@@@@@@@@@@@@@@@@@@@@@@@@@@@@@@@@@@@@@@@@@@@@@@@@@@@@@@@@@@@@@@@@@@@@@@@@@@@@@@@@@@@@@@@@@@@@@@@@@@@@@@@@@@@@@@@@@@@@@@@@@@@@@@@@@@@@@@@@@@@@@@@@@@@@@@@@@@@@@@@@@@@@@@@@@@@@@@@@@@@@@@@@@@@@@@@@@@@@@@@@@@@@@@@@@@@@@@@@@@@@@@@@@@@@@@@@@@@@@@@@@@@@@@@@@@@@@@@@@@@@@@@@@@@@@@@@@@@@@@@@@@@",
"@@@@@@@@@@@@@@@@@@@@@@@@@@@@@@@@@@@@@@@@@@@@@@@@@@@@@@@@@@@@@@@@@@@@@@@@@@@@@@@@@@@@@@@@@@@@@@@@@@@@@@@@@@@@@@@@@@@@@@@@@@@@@@@@@@@@@@@@@@@@@@@@@@@@@@@@@@@@@@@@@@@@@@@@@@@@@@@@@@@@@@@@@@@@@@@@@@@@@@@@@@@@@@@@@@@@@@@@@@@@@@@@@@@@@@@@@@@@@@@@@@@@@@@@@@@@@@@@@@@@@@@@@@@@@@@@@@@@@@@@@@@@@@@@@@@@@@@@@@@@@@@@@@@@@@@@@@@@@@@@",
"@@@@@@@@@@@@@@@@@@@@@@@@@@@@@@@@@@@@@@@@@@@@@@@@@@@@@@@@@@@@@@@@@@@@@@@@@@@@@@@@@@@@@@@@@@@@@@@@@@@@@@@@@@@@@@@@@@@@@@@@@@@@@@@@@@@@@@@@@@@@@@@@@@@@@@@@@@@@@@@@@@@@@@@@@@@@@@@@@@@@@@@@@@@@@@@@@@@@@@@@@@@@@@@@@@@@@@@@@@@@@@@@@@@@@@@@@@@@@@@@@@@@@@@@@@@@@@@@@@@@@@@@@@@@@@@@@@@@@@@@@@@@@@@@@@@@@@@@@@@@@@@@@@@@@@@@@@@@@@@@",
"@@@@@@@@@@@@@@@@@@@@@@@@@@@@@@@@@@@@@@@@@@@@@@@@@@@@@@@@@@@@@@@@@@@@@@@@@@@@@@@@@@@@@@@@@@@@@@@@@@@@@@@@@@@@@@@@@@@@@@@@@@@@@@@@@@@@@@@@@@@@@@@@@@@@@@@@@@@@@@@@@@@@@@@@@@@@@@@@@@@@@@@@@@@@@@@@@@@@@@@@@@@@@@@@@@@@@@@@@@@@@@@@@@@@@@@@@@@@@@@@@@@@@@@@@@@@@@@@@@@@@@@@@@@@@@@@@@@@@@@@@@@@@@@@@@@@@@@@@@@@@@@@@@@@@@@@@@@@@@@@",
"@@@@@@@@@@@@@@@@@@@@@@@@@@@@@@@@@@@@@@@@@@@@@@@@@@@@@@@@@@@@@@@@@@@@@@@@@@@@@@@@@@@@@@@@@@@@@@@@@@@@@@@@@@@@@@@@@@@@@@@@@@@@@@@@@@@@@@@@@@@@@@@@@@@@@@@@@@@@@@@@@@@@@@@@@@@@@@@@@@@@@@@@@@@@@@@@@@@@@@@@@@@@@@@@@@@@@@@@@@@@@@@@@@@@@@@@@@@@@@@@@@@@@@@@@@@@@@@@@@@@@@@@@@@@@@@@@@@@@@@@@@@@@@@@@@@@@@@@@@@@@@@@@@@@@@@@@@@@@@@@",
"@@@@@@@@@@@@@@@@@@@@@@@@@@@@@@@@@@@@@@@@@@@@@@@@@@@@@@@@@@@@@@@@@@@@@@@@@@@@@@@@@@@@@@@@@@@@@@@@@@@@@@@@@@@@@@@@@@@@@@@@@@@@@@@@@@@@@@@@@@@@@@@@@@@@@@@@@@@@@@@@@@@@@@@@@@@@@@@@@@@@@@@@@@@@@@@@@@@@@@@@@@@@@@@@@@@@@@@@@@@@@@@@@@@@@@@@@@@@@@@@@@@@@@@@@@@@@@@@@@@@@@@@@@@@@@@@@@@@@@@@@@@@@@@@@@@@@@@@@@@@@@@@@@@@@@@@@@@@@@@@",
"@@@@@@@@@@@@@@@@@@@@@@@@@@@@@@@@@@@@@@@@@@@@@@@@@@@@@@@@@@@@@@@@@@@@@@@@@@@@@@@@@@@@@@@@@@@@@@@@@@@@@@@@@@@@@@@@@@@@@@@@@@@@@@@@@@@@@@@@@@@@@@@@@@@@@@@@@@@@@@@@@@@@@@@@@@@@@@@@@@@@@@@@@@@@@@@@@@@@@@@@@@@@@@@@@@@@@@@@@@@@@@@@@@@@@@@@@@@@@@@@@@@@@@@@@@@@@@@@@@@@@@@@@@@@@@@@@@@@@@@@@@@@@@@@@@@@@@@@@@@@@@@@@@@@@@@@@@@@@@@@",
"@@@@@@@@@@@@@@@@@@@@@@@@@@@@@@@@@@@@@@@@@@@@@@@@@@@@@@@@@@@@@@@@@@@@@@@@@@@@@@@@@@@@@@@@@@@@@@@@@@@@@@@@@@@@@@@@@@@@@@@@@@@@@@@@@@@@@@@@@@@@@@@@@@@@@@@@@@@@@@@@@@@@@@@@@@@@@@@@@@@@@@@@@@@@@@@@@@@@@@@@@@@@@@@@@@@@@@@@@@@@@@@@@@@@@@@@@@@@@@@@@@@@@@@@@@@@@@@@@@@@@@@@@@@@@@@@@@@@@@@@@@@@@@@@@@@@@@@@@@@@@@@@@@@@@@@@@@@@@@@@",
"@@@@@@@@@@@@@@@@@@@@@@@@@@@@@@@@@@@@@@@@@@@@@@@@@@@@@@@@@@@@@@@@@@@@@@@@@@@@@@@@@@@@@@@@@@@@@@@@@@@@@@@@@@@@@@@@@@@@@@@@@@@@@@@@@@@@@@@@@@@@@@@@@@@@@@@@@@@@@@@@@@@@@@@@@@@@@@@@@@@@@@@@@@@@@@@@@@@@@@@@@@@@@@@@@@@@@@@@@@@@@@@@@@@@@@@@@@@@@@@@@@@@@@@@@@@@@@@@@@@@@@@@@@@@@@@@@@@@@@@@@@@@@@@@@@@@@@@@@@@@@@@@@@@@@@@@@@@@@@@@",
"@@@@@@@@@@@@@@@@@@@@@@@@@@@@@@@@@@@@@@@@@@@@@@@@@@@@@@@@@@@@@@@@@@@@@@@@@@@@@@@@@@@@@@@@@@@@@@@@@@@@@@@@@@@@@@@@@@@@@@@@@@@@@@@@@@@@@@@@@@@@@@@@@@@@@@@@@@@@@@@@@@@@@@@@@@@@@@@@@@@@@@@@@@@@@@@@@@@@@@@@@@@@@@@@@@@@@@@@@@@@@@@@@@@@@@@@@@@@@@@@@@@@@@@@@@@@@@@@@@@@@@@@@@@@@@@@@@@@@@@@@@@@@@@@@@@@@@@@@@@@@@@@@@@@@@@@@@@@@@@@",
"@@@@@@@@@@@@@@@@@@@@@@@@@@@@@@@@@@@@@@@@@@@@@@@@@@@@@@@@@@@@@@@@@@@@@@@@@@@@@@@@@@@@@@@@@@@@@@@@@@@@@@@@@@@@@@@@@@@@@@@@@@@@@@@@@@@@@@@@@@@@@@@@@@@@@@@@@@@@@@@@@@@@@@@@@@@@@@@@@@@@@@@@@@@@@@@@@@@@@@@@@@@@@@@@@@@@@@@@@@@@@@@@@@@@@@@@@@@@@@@@@@@@@@@@@@@@@@@@@@@@@@@@@@@@@@@@@@@@@@@@@@@@@@@@@@@@@@@@@@@@@@@@@@@@@@@@@@@@@@@@",
"@@@@@@@@@@@@@@@@@@@@@@@@@@@@@@@@@@@@@@@@@@@@@@@@@@@@@@@@@@@@@@@@@@@@@@@@@@@@@@@@@@@@@@@@@@@@@@@@@@@@@@@@@@@@@@@@@@@@@@@@@@@@@@@@@@@@@@@@@@@@@@@@@@@@@@@@@@@@@@@@@@@@@@@@@@@@@@@@@@@@@@@@@@@@@@@@@@@@@@@@@@@@@@@@@@@@@@@@@@@@@@@@@@@@@@@@@@@@@@@@@@@@@@@@@@@@@@@@@@@@@@@@@@@@@@@@@@@@@@@@@@@@@@@@@@@@@@@@@@@@@@@@@@@@@@@@@@@@@@@@",
"@@@@@@@@@@@@@@@@@@@@@@@@@@@@@@@@@@@@@@@@@@@@@@@@@@@@@@@@@@@@@@@@@@@@@@@@@@@@@@@@@@@@@@@@@@@@@@@@@@@@@@@@@@@@@@@@@@@@@@@@@@@@@@@@@@@@@@@@@@@@@@@@@@@@@@@@@@@@@@@@@@@@@@@@@@@@@@@@@@@@@@@@@@@@@@@@@@@@@@@@@@@@@@@@@@@@@@@@@@@@@@@@@@@@@@@@@@@@@@@@@@@@@@@@@@@@@@@@@@@@@@@@@@@@@@@@@@@@@@@@@@@@@@@@@@@@@@@@@@@@@@@@@@@@@@@@@@@@@@@@",
"@@@@@@@@@@@@@@@@@@@@@@@@@@@@@@@@@@@@@@@@@@@@@@@@@@@@@@@@@@@@@@@@@@@@@@@@@@@@@@@@@@@@@@@@@@@@@@@@@@@@@@@@@@@@@@@@@@@@@@@@@@@@@@@@@@@@@@@@@@@@@@@@@@@@@@@@@@@@@@@@@@@@@@@@@@@@@@@@@@@@@@@@@@@@@@@@@@@@@@@@@@@@@@@@@@@@@@@@@@@@@@@@@@@@@@@@@@@@@@@@@@@@@@@@@@@@@@@@@@@@@@@@@@@@@@@@@@@@@@@@@@@@@@@@@@@@@@@@@@@@@@@@@@@@@@@@@@@@@@@@",
"@@@@@@@@@@@@@@@@@@@@@@@@@@@@@@@@@@@@@@@@@@@@@@@@@@@@@@@@@@@@@@@@@@@@@@@@@@@@@@@@@@@@@@@@@@@@@@@@@@@@@@@@@@@@@@@@@@@@@@@@@@@@@@@@@@@@@@@@@@@@@@@@@@@@@@@@@@@@@@@@@@@@@@@@@@@@@@@@@@@@@@@@@@@@@@@@@@@@@@@@@@@@@@@@@@@@@@@@@@@@@@@@@@@@@@@@@@@@@@@@@@@@@@@@@@@@@@@@@@@@@@@@@@@@@@@@@@@@@@@@@@@@@@@@@@@@@@@@@@@@@@@@@@@@@@@@@@@@@@@@",
"@@@@@@@@@@@@@@@@@@@@@@@@@@@@@@@@@@@@@@@@@@@@@@@@@@@@@@@@@@@@@@@@@@@@@@@@@@@@@@@@@@@@@@@@@@@@@@@@@@@@@@@@@@@@@@@@@@@@@@@@@@@@@@@@@@@@@@@@@@@@@@@@@@@@@@@@@@@@@@@@@@@@@@@@@@@@@@@@@@@@@@@@@@@@@@@@@@@@@@@@@@@@@@@@@@@@@@@@@@@@@@@@@@@@@@@@@@@@@@@@@@@@@@@@@@@@@@@@@@@@@@@@@@@@@@@@@@@@@@@@@@@@@@@@@@@@@@@@@@@@@@@@@@@@@@@@@@@@@@@@",
"@@@@@@@@@@@@@@@@@@@@@@@@@@@@@@@@@@@@@@@@@@@@@@@@@@@@@@@@@@@@@@@@@@@@@@@@@@@@@@@@@@@@@@@@@@@@@@@@@@@@@@@@@@@@@@@@@@@@@@@@@@@@@@@@@@@@@@@@@@@@@@@@@@@@@@@@@@@@@@@@@@@@@@@@@@@@@@@@@@@@@@@@@@@@@@@@@@@@@@@@@@@@@@@@@@@@@@@@@@@@@@@@@@@@@@@@@@@@@@@@@@@@@@@@@@@@@@@@@@@@@@@@@@@@@@@@@@@@@@@@@@@@@@@@@@@@@@@@@@@@@@@@@@@@@@@@@@@@@@@@",
"@@@@@@@@@@@@@@@@@@@@@@@@@@@@@@@@@@@@@@@@@@@@@@@@@@@@@@@@@@@@@@@@@@@@@@@@@@@@@@@@@@@@@@@@@@@@@@@@@@@@@@@@@@@@@@@@@@@@@@@@@@@@@@@@@@@@@@@@@@@@@@@@@@@@@@@@@@@@@@@@@@@@@@@@@@@@@@@@@@@@@@@@@@@@@@@@@@@@@@@@@@@@@@@@@@@@@@@@@@@@@@@@@@@@@@@@@@@@@@@@@@@@@@@@@@@@@@@@@@@@@@@@@@@@@@@@@@@@@@@@@@@@@@@@@@@@@@@@@@@@@@@@@@@@@@@@@@@@@@@@",
"@@@@@@@@@@@@@@@@@@@@@@@@@@@@@@@@@@@@@@@@@@@@@@@@@@@@@@@@@@@@@@@@@@@@@@@@@@@@@@@@@@@@@@@@@@@@@@@@@@@@@@@@@@@@@@@@@@@@@@@@@@@@@@@@@@@@@@@@@@@@@@@@@@@@@@@@@@@@@@@@@@@@@@@@@@@@@@@@@@@@@@@@@@@@@@@@@@@@@@@@@@@@@@@@@@@@@@@@@@@@@@@@@@@@@@@@@@@@@@@@@@@@@@@@@@@@@@@@@@@@@@@@@@@@@@@@@@@@@@@@@@@@@@@@@@@@@@@@@@@@@@@@@@@@@@@@@@@@@@@@",
"@@@@@@@@@@@@@@@@@@@@@@@@@@@@@@@@@@@@@@@@@@@@@@@@@@@@@@@@@@@@@@@@@@@@@@@@@@@@@@@@@@@@@@@@@@@@@@@@@@@@@@@@@@@@@@@@@@@@@@@@@@@@@@@@@@@@@@@@@@@@@@@@@@@@@@@@@@@@@@@@@@@@@@@@@@@@@@@@@@@@@@@@@@@@@@@@@@@@@@@@@@@@@@@@@@@@@@@@@@@@@@@@@@@@@@@@@@@@@@@@@@@@@@@@@@@@@@@@@@@@@@@@@@@@@@@@@@@@@@@@@@@@@@@@@@@@@@@@@@@@@@@@@@@@@@@@@@@@@@@@",
"@@@@@@@@@@@@@@@@@@@@@@@@@@@@@@@@@@@@@@@@@@@@@@@@@@@@@@@@@@@@@@@@@@@@@@@@@@@@@@@@@@@@@@@@@@@@@@@@@@@@@@@@@@@@@@@@@@@@@@@@@@@@@@@@@@@@@@@@@@@@@@@@@@@@@@@@@@@@@@@@@@@@@@@@@@@@@@@@@@@@@@@@@@@@@@@@@@@@@@@@@@@@@@@@@@@@@@@@@@@@@@@@@@@@@@@@@@@@@@@@@@@@@@@@@@@@@@@@@@@@@@@@@@@@@@@@@@@@@@@@@@@@@@@@@@@@@@@@@@@@@@@@@@@@@@@@@@@@@@@@",
"@@@@@@@@@@@@@@@@@@@@@@@@@@@@@@@@@@@@@@@@@@@@@@@@@@@@@@@@@@@@@@@@@@@@@@@@@@@@@@@@@@@@@@@@@@@@@@@@@@@@@@@@@@@@@@@@@@@@@@@@@@@@@@@@@@@@@@@@@@@@@@@@@@@@@@@@@@@@@@@@@@@@@@@@@@@@@@@@@@@@@@@@@@@@@@@@@@@@@@@@@@@@@@@@@@@@@@@@@@@@@@@@@@@@@@@@@@@@@@@@@@@@@@@@@@@@@@@@@@@@@@@@@@@@@@@@@@@@@@@@@@@@@@@@@@@@@@@@@@@@@@@@@@@@@@@@@@@@@@@@",
"@@@@@@@@@@@@@@@@@@@@@@@@@@@@@@@@@@@@@@@@@@@@@@@@@@@@@@@@@@@@@@@@@@@@@@@@@@@@@@@@@@@@@@@@@@@@@@@@@@@@@@@@@@@@@@@@@@@@@@@@@@@@@@@@@@@@@@@@@@@@@@@@@@@@@@@@@@@@@@@@@@@@@@@@@@@@@@@@@@@@@@@@@@@@@@@@@@@@@@@@@@@@@@@@@@@@@@@@@@@@@@@@@@@@@@@@@@@@@@@@@@@@@@@@@@@@@@@@@@@@@@@@@@@@@@@@@@@@@@@@@@@@@@@@@@@@@@@@@@@@@@@@@@@@@@@@@@@@@@@@",
"@@@@@@@@@@@@@@@@@@@@@@@@@@@@@@@@@@@@@@@@@@@@@@@@@@@@@@@@@@@@@@@@@@@@@@@@@@@@@@@@@@@@@@@@@@@@@@@@@@@@@@@@@@@@@@@@@@@@@@@@@@@@@@@@@@@@@@@@@@@@@@@@@@@@@@@@@@@@@@@@@@@@@@@@@@@@@@@@@@@@@@@@@@@@@@@@@@@@@@@@@@@@@@@@@@@@@@@@@@@@@@@@@@@@@@@@@@@@@@@@@@@@@@@@@@@@@@@@@@@@@@@@@@@@@@@@@@@@@@@@@@@@@@@@@@@@@@@@@@@@@@@@@@@@@@@@@@@@@@@@",
"@@@@@@@@@@@@@@@@@@@@@@@@@@@@@@@@@@@@@@@@@@@@@@@@@@@@@@@@@@@@@@@@@@@@@@@@@@@@@@@@@@@@@@@@@@@@@@@@@@@@@@@@@@@@@@@@@@@@@@@@@@@@@@@@@@@@@@@@@@@@@@@@@@@@@@@@@@@@@@@@@@@@@@@@@@@@@@@@@@@@@@@@@@@@@@@@@@@@@@@@@@@@@@@@@@@@@@@@@@@@@@@@@@@@@@@@@@@@@@@@@@@@@@@@@@@@@@@@@@@@@@@@@@@@@@@@@@@@@@@@@@@@@@@@@@@@@@@@@@@@@@@@@@@@@@@@@@@@@@@@",
"@@@@@@@@@@@@@@@@@@@@@@@@@@@@@@@@@@@@@@@@@@@@@@@@@@@@@@@@@@@@@@@@@@@@@@@@@@@@@@@@@@@@@@@@@@@@@@@@@@@@@@@@@@@@@@@@@@@@@@@@@@@@@@@@@@@@@@@@@@@@@@@@@@@@@@@@@@@@@@@@@@@@@@@@@@@@@@@@@@@@@@@@@@@@@@@@@@@@@@@@@@@@@@@@@@@@@@@@@@@@@@@@@@@@@@@@@@@@@@@@@@@@@@@@@@@@@@@@@@@@@@@@@@@@@@@@@@@@@@@@@@@@@@@@@@@@@@@@@@@@@@@@@@@@@@@@@@@@@@@@",
"                          646456889xcbnmMNZAZNMmnbcx9878cbc5                             O     O                                                            h                                                                                                +                                          O                       ",
"                         %646456889xcbnmMNZAZNMmnbcx9878cbc5%                                                                       O                        ,                                                                                                                                                              ,O  ",
"                         2646456889xcbnmMNZAZNMmnbcx9878cbc52     ,                                                                                                                                               ,                                                                Zm      ZZ                                   ",
"                         3646456889xcbnmMNZAZNMmnbcx9878cbc53                                                                                                                                                                                                                     ZmNZ    Zmmm                                  ",
"     F                   4646456889xcbnmMNZAZNMmnbcx9878cbc54                                      O                    O                                                                   O                                                                       h            ZmNZ9   ZmmN9           ,                      ",
"                         5646456889xcbnmMNZAZNMmnbcx9878cbc55                                                                                                                                                                                                                   ZmNZ9   ZmmN9  ,                                ",
"       O    ,            6646456889xcbnmMNZAZNMmnbcx9878cbc55              F                                                                                                                           O                                                                       ZmNZ9   ZmmN9,                                   ",
"          O              6646456889xcbnmMNZAZNMmnbcx9878cbc55                F                                                                    O                                                        O                         F            +                           ZmNZ9   ZmmN9                                     ",
"                 ,       5646456889xcbbmMNZAZNMmnbcx9878cbc55  h     ,                                                                      O                                   F O                                                 h                          2xxxxxxxxxxxxxxxxZ9   ZmmN9                                   ,  ",
"                         5646456889xcbnmMNZAZNMmnbcx9878cbc55                                                O                h     ,                                                                                       +                              2xxxx7777777777777777xxxxZmmN9    ,                    ,             ",
"                         5646456889xcbnmMNZAZNMmbbcx9878cbc55          O                           O           O                                                                                                                          ,     O        2xx777777777777777777777777xxN9                                        ",
"                         5476456889xcbnmMNZAZNMmmbcx9878cbc55                                                                                                               O                                                                           2x777777555555555555555577777792                                        ",
"                         5476456889xcbnmMNZAZNMmbbcx9878cbc85                           ,                                                      ,                                O                                                                      2x7775555                5555777x2                      FO              O",
"        O                5476456889xcbnmMNZAZNMmnbcx9878cbc85                                                                                                                            ,                                                             x7755   488888888888888884   5577x                                       ",
"                         5476456889xcbnmMNZAZNmmnbcx9878cbc95       O                                                                               ,                                                                                                  775  488888bnmMNZAZNMmnb88884  577                                       ",
"                         5476456889xcbnmMNZAZNMmnbcx98789cbc5                                                                        O                                         ,                          ,                                     O      75 886889xcbnmMNZAZNMmnbcx97888 57                                   O   ",
"               O        O5476456889xcbnmMNZAZNMmnbcx98788cbc5         ,                       ,             ,                               O                    O                                                                                     5 7645689xcbnmMNZAZNMmnbcx978cb8 5                                       ",
"                     F   5476456889xcbnmMNZAZNMmnbcx98788cbc5                                                            O                          ,         O       ,             O                                                          O        67645689xcbnmMNZAZNMmnbcx978cbc5                                        ",
"                        %5476456889xcbnmMNZAZNMmnbcx98788cbc5%                                            O                        O                         O             ,                                                                           %67645689xcbnmMNZAZNMmbbcx978cbc5%                                       ",
"                        25476456889xcbnmMNZAZNMmnbcx98788cbc52                                     ,                                                      ,                                       +                                            +       267645689xcbnmMNZAZNMmmbcx978cbc52   F                                   ",
"        ,          ,    35476456889xcbnmMNZAZNMmnbcx98788cbc53                                                                                              ,               h   O                            ,                                     O   367645689xcbnmMNZAZNMmbbcx978cbc53                  O     ,              ",
"                        45476456889xcbnmMNZAZNMmnbcx98788cbc54              O                                                                                                                        O                                                 467645689xcbnmMNZAZNMmbbcx978cbc54            O       ,       Oh         ",
"              h         55476456889xcbnmMNZAZNMmnbcx98788cbc55                                   ,            O            F           O O                         ,     O                                               O                             567645689xcbnmMNZAZNMmnbcx978cbc55                                       ",
"         ,              65476456889xcbnmMNZAZNMmnbcx98788cbc55       ,        O                                                                                                                      ,                                                 667645689xcbnmMNZAZNMmnbcx978cbc55                                       ",
"                        65476456889xcbnmMNZAZNMmnbcx98788cbc55                                                O                 ,      ,       O                  O                                                                                  h 667645689xcbnmMNZAZNMmnbcx978cbc55                                       ",
"            O           55476456889xcbnmMNZAZNMmnbcx98788cbc55                                                                                                                                                                                         567645689xcbnmMNZAZNMmnbcx978cbc55                                       ",
"                        55476456889xcbnmMNZAZNMmnbcx98788cbc55                                                            O     O                         O                                                   O          ,                             567645689xcbnmMNZAZNMmnbcx978cbc95                                       ",
"                        55476456889xcbnmMNZAZNMmnbcx98788cbc55                                                                                                                       ,     +                                                           567645689xcbnmMNZAZNMmnbcx9789cbc5                                       ",
"                        55476456889xcbnmMNZAZNMmnbcx98788cbc55                                          OO                                                    ,           +                                                                 O          567645689xcbbmMNZAZNMmnbcx9788cbc5        O                              ",
"                        55476456889xcbnmMNZAZNMmnbcx98788cbc55                 ,                  ,                                                        O                  +                                     ,                                  567645689xcbmmMNZAZNMmnbcx9788cbc5                                       ",
"      ,                 55476456889xcbnmMNZAZNMmnbcx98788cbc55                          O                               O                                                                                                          O                   567645689xcbbmMNZAZNMmnbcx9788cbc5                                       ",
"                        55476456889xcbnmMNZAZNMmnbcx98788cbc55             h                                                           O   O                             ,                                                           O                 567645689xcbnmMNZAZNMmnbcx9788cbc5               , O                     ",
"     O                  54675456889xcbnmMNZAZNMmnbcx98878cbc55                                                        ,                                                              +                                                                 567645689xcbnmMNZAZNMmnbcx9878cbc5                                       ",
"                        54764567889xcbnmMNZAZNMmnbcx98878cbc55                                                          O                                                                                                                              566456789xcbnmMNZAZNMmnbcx9878cbc5                                       ",
"                        54764568889xcbbmMNZAZNMmnbcx98878cbc85                                                                                                                                          ,                                              676456889xcbnmMNZAZNMmnbcx9878cbc5                                       ",
"                       %54764568889xcbnmMNZAZNMmnbcx98878cbc95%                                                                                        ,                      +                                                                       %676456889xcbnmMNZAZNMmnbcx9878cbc5%     ,                       ,        ",
"       ,               254764568889xcbnmMNZAZNMmnbcx988789cbc52             ,                                                             O                                                              ,              O                             2676456889xcbnmMNZAZNMmnbcx9878cbc52           ,                          ",
"           ,           354764568889xcbnmMNZAZNMmnbcx988788cbc53                                                                                                                                                         FO                            3676456889xcbnmMNZAZNMmnbcx9878cbc53                                      ",
"                       554764568889xcbnmMNZAZNMmnbcx988788cbc54                                                                         O                                                                                                             4676456889xcbnmMNZAZNMmnbcx9878cbc54                                     h",
"                       554764568889xcbn852%#%3259bcx988788cbc55                                         j   ,  O                   O                     +                                                                             O              5676456889xcbnmMNZAZNMmbbcx9878cbc55                                      ",
"                       554764568889xc53@$633$@42$36x988788cbc55                                        hkh             ,         ,                                                                                    O                              ,6676456889xcbnmMNZAZNMmnbcx9878cbc55                           O          ",
"                       55476456888972%#8@9%c2 93#@33888788cbc55                                       jkFkj                                                     ,                           h     +                                                 , 6676456889xcbnmMNZAZNMmnbcx9878cbc55                                      ",
"                       554764568884$$3#Ax     o%D7X#%68788cbc55                                        hkh                                                    ,                                                            ,                          5676456889xcbnmMNZAZNMmnbcx9878cbc55               F                      ",
"                      %5547645688423$c8o#%6876$X7c223%7788cbc55                      ,                  j                                                                                                                                             5676456889xcbnmMNZAZNMmnbcx9878cbc55                  O                   ",
"         ,            255476456863X6m@@5NJKKKKHM$ 7n@#%788cbc55      ,       ZZ      mZ                                                                   +                                                                                           5676456889xcbb862%#$3359bcx9878cbc55       O                              ",
"                      3554764568$% .$ mKHSDDDDDKKxo%  3%88cbc55             mmmZ    ZNmZ                                                                                                                                    O                         5676456889xc53@$633$@4%$35x9878cbc55                                      ",
"                      45547645643.   SKSSHKKDDKHKKN   o268cbc55             9NmmZ   9ZNmZ                                                                                     ,   +                     +                                             567645688972%#8@9%c2 93$@338878cbc55                                      ",
"                      555476456%$   mKSSKNc8AAc9bvZ7   228cbc55              9NmmZ   9ZNmZ        ,                    O                                                                                                     ,              ,         5676456884$$3$Ax.    X2D7X@%678cbc55                                      ",
"                      5554764532.  3KDAKN. #Kx 63  S$  @%8cbc55               9NmmZ   9ZNmZ                                        O           +                                                                                     O                56764568423$c7X#%6786$.7c233%58cbc95                                      ",
"   h                  555476452$   MKSKZ  3KK6%K7  Db   %4cbc55                9NmmZ   9ZNmZ                                                                F                                   +                 ,                      h            567645662X7n@@5NHKKKKHM$ 7m@#%89cbc5                                      ",
"                      55547645%#  XHDKZ  4KHDNKK# .HD   %3cbc55                 9NmmZ   9Zxxxxxxxxxxxxx2                                                                                         +                                                    5676456%% .$.mKHDDDDDDKKxo%  328cbc5                         ,         ,  ",
"                      55547645$x. 9HKZ. 4KKDAKK% .SKD4 @x%cbc55                  9NmmZxxxx7777777777777xxxx2                                               39mmmmmmmmmmmmmmmmmmmmmmmm8888mm93                     O               O  ,                56764523.   DKDAHKKDDKHKKN   o26cbc5                                      ",
"            ,         55547545@bc8mHN. 5KJDGGH2 oAKGZb8vx$cbc55     ,             9Nxx777777777777777777777xx2                                     39mmmmmmmmnbbbbbbbbbbnmnbbnmMNANMmbbbbbbmmmmmmmm88              O                                 %567645%$   MKSAKNc8AAc9bcZ7   22cbc5%                                     ",
"                      55467455@cNbcK@  $$@@@mm  xKbMDxMm7$cbc55                   297777775555555555555777777x2                                39mmmmcxcbbbbbnbbbbbbbbbbnmbbbnmMNANMmbbbbbbbbbbbbbbbb8893              O                         O   25676432.  3KSDKN. #Kx 64  S%  @%xbc52      ,                              ",
"                      55467455@xnbcHo       vm  bm mD9nn6%cbc55                  2x7775555             5555777x2                ,            5mmnnbnbcxcbbbbbnbbbbbbbbbbnmnbbnmMNANMmbbbbbbbbbbbbbbbbbbbmm5                                          356764%$   mKSKZ. 3KK6%K7  Db   %7bc53                                     ",
"                      55467455#974xZmxxxb6  bNoo8@XDN83c43cbc55                  x7755   488888888888884   5577x                           4cbcbnnbnbcxcbbbbbnbbbbbbbbbbnmnbbnmMNANMmnbbbbbbbbbbbbbbbbbbbcbc4                               ,        456764%#  XHDKN. 3KHDNJK$ .HD   %4bc54             ,                       ",
"                      5546745524cbvvKKKKKM  7KDDZADGcbvv$7cbc55                  775  488889bnmMNNMmnb88884  577                          8xcbcbnnbnbcxcbbbbbnbbbbvbbbbbnmnbbnmMNANMmbbbbbbbbbbbbbbbbbbbbcbcx8              O             O  ,       556764#x. 9HKZ. 4KJDSKK% .AKD4 @x2bc55                 ie------------------",
"          ,        h  554674556@bn88AHSSKb  8KGDDGKM78mx@8cbc55                  75 886889xcbbmMNNMmnbcx97888 57                 O       58xcbcbnnbnbcxcbbbbbbbbbbbbbbbbnmnbbnmMNANMmnbbbbbbbbbbbbbbbbbbbcbcx85                    O  O              656764@bc7mJN. 5KKDGGG2 oAKDZn8vx2bc55                ireeeeeeeeeeeeeeeeeee",
"                      554674556$893c9HHSDANMADDDDHA9x3v348cbc55%     F           5 7645689xcbnmMNNMmnbcx978cb8 5              h          58xcbcbnnbbbcxcbbbbcxxxxxxxxxxxxxxxxxxxxxxxxxxxxxxcbbbbbbbbbbbbbcbcx85                            O         656765@xNbcK@  $$@@@mm  cKvmDxMm7%bc55               ire877655432%2$$$$$$$$",
"                      5546745567@vMmc9DHDDHJGDSDJA9vmm9o88cbc552          ,       67645689xcbnmMNNMmnbcx978cbc5       O       O          58xcbcbnncxxxxxxxxx84%%%%%%%%%%%%%%%%%%%%%%%%%%%%48xxxxxxxxxcbbbcbcx85                                      556764@xnbxJ@       vn  bm mG9bn62bc55       <      ire776544432%$$$$$$$$$$",
"                      554674556823bn%5cNHHHGGHHDM857mv#588cbc553                 %67645689xcbnmMNNMmnbcx978cbc5%                         58xcxxxxx84%%%%%%%%%%$$$$$$$$$$$$$$$$$$$$$$$$$$$$%%%%%%%%%%48xxxxxcx85  O                                   556764@983cZmxccb6  bNo@8@XDZ83c55qeeeeeeeeeeeeeeeeire46654322%$$$$$$$$$$$$",
"                     %55467455688#795647bNZZZNMc9634932788cbc854                 267645689xcbnmMNNMmnbcx978cbc52                         58x83%%%%%%$$$68cnMNNNNNNNNNNNNNNNNNNNNNNNNNNNNNNNNMnc86$$$%%%%%%38x85          O     O                     556764%4cbccKKKKKm  8KDDZADDcbvv$9bcqqwwwwwwwwwwwwire465432%$$$$$$$$$$$$$$$",
"                     2554674556888@6m543%449x626$2x63%8788cbc955                 367645689xcbnmMNNMmnbcx978cbc53                         53 68cnNNNNNNNNNMnmMmnnnnnnnnnnmMmnmMNZDGHJHGDZN  nnnnMNNN  NNMnc86 35    h                               , 5567645@bb88ZHSDKb  8KGGGDKM79m9@cbc55 qqqqqqqqqqire4543%$$$$$$$$$$$$$$$$$$",
"                     35546745568889%37x335548m3828x23888788cbc55                 467645689xcbnmmNNMmnbcx978cbc54                          389xcxnmncx9xcbnnmMmnbnnnnnnnnmMmnmMNZDGHJHDDZNM nnnnytttty 555c 983                    O                  5567645#893c9HHSDANMADDSSHS9x3b34cbc55   qqqqqqqire2$32%$$$$$$$$$$$%$$$$$$$",
"                     45546745568889x6%58bxb78mxvx3$79888788cbc55                 567645689xcbnmMNNMmnbcx978cbc55                         3855c nm5cx9xcbnnnmMmbmnnnnnnnnmMmnnmMNZDGHJHGDZN 55nn5555tty  55 598                                       55676456@vMmc9DHDDHHGSDDHA9vmm9@8cbc55     qqqqire2$3%$$$$$$$$$$$$$$$$$$$$$",
"h                    55546745568889xcb7$%467754$$8cx9888788cbc55                 667645689xcbnmMNNMmnbcx978cbc55                        385555cn5 5x9xcbnnmMmnnnnnnnnnnnmmmnnmMNZDGHJHG ZNM##55####555   nb 5 83                                     5567645623bb24cZGJHHGHJDM848nc$58cbc55       qqire2$2%$$$$$$$$$$$$$$$$$$$$$",
" ,                   55546745568889xcbb8889xx9889bcx9888788cbc55                 667645689xcbnmMNNMmnbcx978cbc55           F           3555   55   5  bnnnmMmnnnnnnnnnnnnmMmnmMNZDGHHH  ZN###5####%##5   55  x 83                                    556764568#7x5647bMZZZNmv963493278cbc55        ire2$%$$$$$$$$$$$$$$$$$$$$$$$",
"                     55546745568889xcbbm889xx988nbcx9888788cbc55                 567645689xcbnmMNNmmnbcx978cbc55                      38555    5    x  nnmMmnnnnnnnnnnnnnmMmnmMNZDDHHHG ZN55#######%          x983          O                        5676456788#5m543%449x626$3x73%878cbc55       ire2$$$$$$$$$$$$$$$$$$$$$$$$$$",
"                     55546745568889xcbnm889xx989nbcx9888788cbc55                 567645689xcbnmMNNMmnbcx978cbc95                     35555         55bnnnmMmnnnnnnnnnnnnnmMmnbmMNZDGHJH  Z5########%         b x983                                  56764568889%379335548n38%8x228878cbc55      eeeeeeeeeeeeeeeeeeeeeeeeeeeeeee",
"               ,     55546745568889xcbnmm89xx98mnbcx9888788cbc55             ,   567645689xcbnmMNNMmnbcx9789cbc5                    355  5           5n nmMmnnnnnnnnnnnnnmMmnnmMNZDDHJHG Z5#########%%      55 cx  3   F                            %56764568889x6%68bxb78mcv93$798878cbc95%    eBBBBBBBBBBBBBBBBBBBBBBBBBBBBBBB",
"                     55546745568889xcbnmM89xx99mnbcx9888788cbc55                 567645689xcbnmMNNMmnbcx9788cbc5               O   355                 nmMmnnnnnnnnnnnnnnmMmnnmMNZDGHJHGD5############$      5 5   83                 O             256764568889xcb6$%467754$$8cx988789cbc52  rraaaaaaaaaaaaaaaaaaaaaaaaaaaaaaaa",
"      O              55546745568889xcbnmMN9xx9Mmnbcx9888788cbc55             ,   567645689xcbnmMNNmmnbcx9788cbc5                  355      8bAA3     5nnmMmnnnnnbmbnnnnnnmMmnnmMNZDDHJHDD##############         bcx 83                            , 356764568889xcbn8889xx9889bcx988788cbc53rreppppppppppppppppppppppppppppppppp",
"                     55547455678889xcbnmMN9xx9Mmnbcx9888788cbc55                 567645689xcbnmMNZMmnbcx9788cbc5                 385     8mAA%%A3x5  55nmMmnnnbnnnnnnnnnnmMmnnnmMNZDGHJ######m5######$          55cx983   ,                         456764568889xvbnm889xx988mbcx988788cbrrreeuiiiiiiiiiiiiiiiiiiiiiiiiiiiiiiiii",
"                     55467455688889xcbnmMNZxxNMmnbcx9888788cbc55                 567645689xcbnmMNNMmnbcx9788cbc5               O38955  8mAmmA  %A5     5MmnnnnmbnnnnnnnnnnmMmnnmMNZDGH##G#ZNMmn#n5###%            5cx983                            556764568889xcbbm889xx989bbcx988788rreeqeuuuuuuuuuuuuuuuuuuuuuuuuuuuuuuuuuuu",
"           ,         55467455688889xcbnmMNZAZNMmnbcx9888788cbc55                 567645689xcbnmMNNMmnbcx9878cbc5               38 x558mAmmAMAn %Ac5    mMmnnnnnnnnnnnnnnnnmMmnnmMNZ GH#HGD NMm nn55##$             bc 983                           656764568889xcbnmM89xx98mnbcx9887rreq@@eiiiiiiiiiiiiiiiiiiiiiiiiiiiiiiiiiiii",
"                     55467455688889xcbbmMNZAZNMmnbcx9888788cbc55                 566456789xcbnmMNNMmnbcx9878cbc5          O   38  c8mAmmAAAMbAAAbcb5  mMmnnnnnnnnnnnnnnnnnmMmnnnmMNZDGHJHGDZNMmn####%%           5n    983             F       O    656764568889xcbnmM89xx99mnbcx98rreqooeeuuuu@@@@@@@uuuuuuuuuuuuuuuuuuuuuuuuuu",
"                     55467455688889xcbnmMNZAZNMmnbcc9888788cbc55                 676456889xcbnmMNNMmnbcx9878cbc5             389x8mAmmAAAM99m99 cbnn nmMmnnnnnnnnnnnnnnnnnmMmnnnmMNZDDHJHDDZN55nn5#%$            nbnn  x983                         556764568889xcbnmMN9xx9Mmnbcxrreqoooeuuuuuuuuuuuuuuuuuuuuuuuuuuuuuuuuuuuuuuu",
"       F             55467455688889ccbnmMNZAZNMmnbcx9888788cbc55                %676456889xcbnmMNNMmnbcx9878Vic5%           3898mAmmAAAM99m99x  cbnnn mMmnnnnnnnnnnnnnnnnnmMmnnnmMNZDDHJHG5555##n5#$           5nnnbnnbcx983                 ,      556764568889xcbnmMN9xx9Mmnbrreqooooerrrrrrrrrrrrrrrrrrrrrrrrrrrrrrrrrrrrrrrr",
"           ,        %55467455688889xcbnmMNZAZNMmbbcx9888788cbc55                2676456889xcbnmMNNMmnbcx987iiii52          388mAmmAAAm99m99 x9x bnnnnm mnnnnnnnnnnnnnnnnnnmMmnnnmMNZDGHJHGD#####55###     %#    5nn    bcx983                       556764568889xcbnmMNZxxNMmnreqoooooooewwwwwwwwwwwwwwwwwwwwwwwwwwwwwwwwwwwwwww",
"                    255467455688889xcbnmMNZ666Mmnbcx9888788cbc55  h   ,         3676456889xcbnmMNNM2xZZZZZZZZZZZZZZZx2    38mAmmAAAM99m99cccx9x bnnbmmMmnnnnnmbnnnnnnnnnnnmMmnnnnmMNZDDHJH5#ZN###5#%     #%#     55 5nn bcx983      O               556764568889xcbnmMNZAZNM6rreq--------eqqqqqqqqqqqqqqqqqqqqqqqqqqqqqqqqqqqqqq",
"           O        355467455688889xcbnmMN6&&&6mnbcx9888788cbc55                4676456889xcbn2xZZZZZMMMMMMMMMMMMMMmZZZZbxmAmmAAAM99m99ncccx9xcb nnnbmMmnnnnnbnnnnnnnnnnnnmmmnnnnmMNZDDHJH DZNM5##%#     %#         5bnnnbcx983                     556764568889xcbnmMNZAZN60rreq---------eqqqqqqqqqqqqqqqqqqqqqqqqqqqqqqqqqqqqq",
"                    455467455688889xcbnmMN6&&&6mnbcx9888788cbc55                56764568892xZZZZMMMMMmmmmmmmmmmmmmmmMMbbmAmmAAAM99m9nmnccccx9xcb nnnmMmnnnnnnnnnnnnnnbnnnnnmMmnnnmMNZDGH HDDZN55##%#     %#          55nnnbcx983                    556764568889xcbnmMNZAZN60reqoooooooooooe------------------------------------",
"                    555467455688889xcbnmMN66666mbbcx9888788cbc55         ,      66764562xZZZMMMmmmmmmbbbbbbbbbbbbbbbbbmAmmAAAM99m9cnmnccccx9xcb nnnnmMmnnnnnnnnnnnnnbmnnnnnmMmnnnmMNZDGHJHGDZN5##$#     %%##           bnnnbcx983                   556764568889xcbnmMNZAZN66req------------e===================================",
"                    555467455688889xcbnmMN6&&&6mnbcx9888788cbc55         O      667642xZZMMMmmmmbbbbbbbbbbbbbbbbbbbbmAmmAAAM99m9xccnmnccccx9xc nnnnmMmnnnnnnnnnnnnnnnnnnnnnmMmnnnnmmNZDGHHHG#######    %#####        nn bnnnbcx983                  556764568889xcbnmMNZAZN60reqoooooooooooooe**********************************",
"                    555467455688889xcbnmMN6&&&6mnbcx9888788cbc55                5672xZZMMmmmbbbbbbbbbbbbbbbbbbbbbbmAmmAAAM99m9cxccnmnccccx9xcbnnnnnmMmnnnnnnnnnnnnnnnnnnnnnmMmnnnnmMNZDGHJHGDZN#m# nn ####n nytt tyn  nnnbnnnbcx983                 556764568889xcbnmMNZAZN60req--------------eeeeeeeeeeeeeeeeeeeeeeeeeeeeeeeeee",
"                    555467455688889KKKKKKKKKKKKKKKKKKKKKKKKKKKKKKKKKKKKKKKKKKKKKKKKKKKKKKKKKKKKKKKKKKKKKKKKKKKKKKKKKKKKKKKKKKKKKKKKKKKKKKKKKKKKKKKKKKKKKKKKKKKKKKKKKKKKKKKKKKKKKKKKKKKKKKKKKKKKKKKKKKKKKKKKKKKKKKKKKKKKKKKKKKKKKKKKKKKKKKKKKKKKKKKKKKKKKKKKKKKKKKKKKKKKKKKKKKreqqooooooooooooooooooooooooooooooooooooooooooooooo",
"                    555467455688889KKKKKKKKKKKKKKKKKKKKKKKKKKKKKKKKKKKKKKKKKKKKKKKKKKKKKKKKKKKKKKKKKKKKKKKKKKKKKKKKKKKKKKKKKKKKKKKKKKKKKKKKKKKKKKKKKKKKKKKKKKKKKKKKKKKKKKKKKKKKKKKKKKKKKKKKKKKKKKKKKKKKKKKKKKKKKKKKKKKKKKKKKKKKKKKKKKKKKKKKKKKKKKKKKKKKKKKKKKKKKKKKKKKKKKKKKKrreqqqqqqqqqqqqqqqqqqqqqqqqqqqqqqqqqqqqqqqqqqqqqqqq",
"                    555467455688889HAAAAAAAAAAAAAAAAAAAAAAAAAAAAAAAAAAAAAAAAAAAAAAAAAAAAAAAAAAAAAAAAAAAAAAAAAAAAAAAAAAAAAAAAAAAAAAAAAAAAAAAAAAAAAAAAAAAAAAAAAAAAAAAAAAAAAAAAAAAAAAAAAAAAAAAAAAAAAAAAAAAAAAAAAAAAAAAAAAAAAAAAAAAAAAAAAAAAAAAAAAAAAAAAAAAAAAAAAAAAAAAAAAAAAAAAAAreeeeeeeeeeeeeeeeeeeeeeeeeeeeeeeeeeeeeeeeeeeeeeeee",
"                    555467455688889HAAAAAAAAAAAAAAAAAAAAAAAAAAAAAAAAAAAAAAAAAAAAAAAAAAAAAAAAAAAAAAAAAAAAAAAAAAAAAAAAAAAAAAAAAAAAAAAAAAAAAAAAAAAAAAAAAAAAAAAAAAAAAAAAAAAAAAAAAAAAAAAAAAAAAAAAAAAAAAAAAAAAAAAAAAAAAAAAAAAAAAAAAAAAAAAAAAAAAAAAAAAAAAAAAAAAAAAAAAAAAAAAAAAAAAAAAAArrrrrrrrrrrrrrrrrrrrrrrrrrrrrrrrrrrrrrrrrrrrrrrrr",
"                    555467455688889cccccccccccccccccccccccccccccccccccccccccccccccccccccccccccccccccccccccccccccccccccccccccccccccccccccccccccccccccccccccccccccccccccccccccccccccccccccccccccccccccccccccccccccccccccccccccccccccccccccccccccccccccccccccccccccccccccccccccccccccccccccbc554    wrooooooooooooooooooooooooooooo",
"                    555467455688889xcbZm55555555555nMn55555555555nMn55555555555nMn55555555555nMn55555555555bMn55555555555nMn55555555555nMn55555555555nMn55555555555nMn55555555555nMn55555555555nMn55555555555nMn55555555555nMn55555555555nMn55555555555nMn55555555555nMn55555555555mZ88cbc555     wroooooooooooooooooooooooooooo",
"                    555467455688889xcbHZ52222222225nZn52222222225nZn52222222225nZn52222222225nZn52222222225nZn52222222225nZn52222222225nZn52222222225nZn52222222225nZn52222222225nZn52222222225nZn52222222225nZn52222222225nZn52222222225nZn52222222225nZn52222222225nZn52222222225ZH88cbc955      wrrrrrrrrrrrrrrrrrrrrrrrrrrrr",
"                    555467455688889xcbHZ55555555555nZn55555555555nZn55555555555nZn55555555555nZn55555555555nZn55555555555nZn55555555555nZb55555555555nZn55555555555nZn55555555555nZn55555555555bZn55555555555nZn55555555555nZn55555555555nZn55555555555nZn55555555555nZn55555555555ZH889cbc55                           F       ",
"             h      555467455688889xcbHZKKKKKKKKKKKZZKKKKKKKKKKKKZZKKKKKKKKKKKKZZKKKKKKKKKKKKZZKKKKKKKKKKKKZZKKKKKKKKKKKKZZKKKKKKKKKKKKZZKKKKKKKKKKKKZZKKKKKKKKKKKKZZKKKKKKKKKKKKZZKKKKKKKKKKKKZZKKKKKKKKKKKKZZKKKKKKKKKKKKZZKKKKKKKKKKKKZZKKKKKKKKKKKKZZKKKKKKKKKKKKZZKKKKKKKKKKKKZH888cbc55                              ,    ",
"                    554567455688889xcbHZZZZZZZZZZZZZZZZZZZZZZZZZZZZZZZZZZZZZZZZZZZZZZZZZZZZZZZZZZZZZZZZZZZZZZZZZZZZZZZZZZZZZZZZZZZZZZZZZZZZZZZZZZZZZZZZZZZZZZZZZZZZZZZZZZZZZZZZZZZZZZZZZZZZZZZZZZZZZZZZZZZZZZZZZZZZZZZZZZZZZZZZZZZZZZZZZZZZZZZZZZZZZZZZZZZZZZZZZZZZZZZZZZZZZZZZZZZZZH888cbc55                                   ",
"                   %554567455688889xcbHZZZZZZZZZZZZZZZZZZZZZZZZZZZZZZZZZZZZZZZZZZZZZZZZZZZZZZZZZZZZZZZZZZZZZZZZZZZZZZZZZZZZZZZZZZZZZZZZZZZZZZZZZZZZZZZZZZZZZZZZZZZZZZZZZZZZZZZZZZZZZZZZZZZZZZZZZZZZZZZZZZZZZZZZZZZZZZZZZZZZZZZZZZZZZZZZZZZZZZZZZZZZZZZZZZZZZZZZZZZZZZZZZZZZZZZZZZZZZH888cbc55                                   ",
"                   2554567455688889xcbHZZZZZZZZZZZZZZZZZZZZZZZZZZZZZZZZZZZZZZZZZZZZZZZZZZZZZZZZZZZZZZZZZZZZZZZZZZZZZZZZZZZZZZZZZZZZZZZZZZZZZZZZZZZZZZZZZZZZZZZZZZZZZZZZZZZZZZZZZZZZZZZZZZZZZZZZZZZZZZZZZZZZZZZZZZZZZZZZZZZZZZZZZZZZZZZZZZZZZZZZZZZZZZZZZZZZZZZZZZZZZZZZZZZZZZZZZZZZZH888cbc55  O                                ",
"                   3554567455688889xcbHZZZZZZZZZZZZZZZZZZZZZZZZZZZZZZZZZZZZZZZZZZZZZZZZZZZZZZZZZZZZZZZZZZZZZZZZZZZZZZZZZZZZZZZZZZZZZZZZZZZZZZZZZZZZZZZZZZZZZZZZZZZZZZZZZZZZZZZZZZZZZZZZZZZZZZZZZZZZZZZZZZZZZZZZZZZZZZZZZZZZZZZZZZZZZZZZZZZZZZZZZZZZZZZZZZZZZZZZZZZZZZZZZZZZZZZZZZZZZH888cbc55                                   ",
"%%%%%%%%%%%%%%%%%%%4554674556888889xcbHHHHHHHHHHHHHHHHHHHHHHHHHHHHHHGHHHHHHHHHHHHHHHHGHHKKKKKKKKKKKKKKKKKKKKKKKKKKKKKKKKZmHHHHHHHHHHHHHHHHHHHHHHHHHHHHHHHHHHHHHHHHHHHHHHHHHHHHHHHHHHHHHHHHHHHHHHHMZKKKKKKKKKKKKKKKKKKKKKKKKKKKKKKKKHHHHHHHHHHHHHHHHHHHHHHHHHHHHHHHHHHHHHHHHHHHHHHHHHH888cbc55%%%%%%%%%%%%%%%%%%%%%%%%%%%%%%%%%%%",
"%%%%%%%%%%%%%%%%%%%5554674556888889xcHDGGGGGGGGGGGGGGGGGGGGGGGGGGGGGGGGGGGGGGGGGGGGGGGGGKKKKKKKKKKKKKKKKKKKKKKKKKKKKKKKKmMGGGGGGGGGGGGGGGGGGGGGGGGGGGGGGGGGGGGGGGGGGGGGGGGGGGGGGDGGGGGGGGGGGGGGGGMmKKKKKKKKKKKKKKKKKKKKKKKKKKKKKKKKGGGGGGGGGGGGGGGGGGGGGDGGGGGGGGGGGGGGGGGGGGGGGDGGGGH88cbc55%%%%%%%%%%%%%%%%%%%%%%%%%%%%%%%%%%%",
"%%%%%%%%%%%%%%%%%%%5554674556888889xHGGGGGGGGGGGGGGGGGGGGGGGGGGGGGGGGGGGGGGGGGGGGGGGGGGKKKKKKKKKKKKKKKKKKKKKKKKKKKKKKKKKnMGGGGGGGGGGGGGGGGGGGGGGGGGGGGGGGGGGGGGGGGGGGGGGGGGGGGGGGGGGGGGGGGGGGGGGGMnKKKKKKKKKKKKKKKKKKKKKKKKKKKKKKKKKGGGGGGGGGGGGGGGGGGGGGGGGGGGGGGGGGGGGGGGGGGGGGGGGGGH8cbc55%%%%%2%%%%%%%%%%%%%%%%%%%%%%2%%%%%%",
"%%%%%%%2%%%%%%%2%%%5554674556888889HGGGGGGGGGGGGGGGGGGGGGGGGGGGGGGGGGGGGGGGGGGGGGGGGGGGKKKKKKKKKKKKKKKKKKKKKKKKKKKKKKKKKnMGGGGGGGGGGGGGGGGGGGGGGGGGGGGGGGGGGGGGGGGGGGGGGGGGGGGGGGGGGGGGGGGGGGGGGGMnKKKKKKKKKKKKKKKKKKKKKKKKKKKKKKKKKGGGGGGGGGGGGGGGGGGGGGGGGGGGGGGGGGGGGGGGGGGGGGGGGGGGHcbc55%%%2%%%%%%%%2%%%%%%%%%2%%2%%%%2%%2%",
"%%%%22%%222%%%%%2%%555467455688888HGGGGGGGGGGGGGGGGGGGGGGGGGGGGGGGGGGGGGGGGGGGGGGGGGGGKKKKKKKKKKKKKKKKKKKKKKKKKKKKKKKKKAnMGGGGGGGGGGGGGGGGGGGGGGGGGGGGGGGGGGGGGGGGGGGGGGGGGGGGGGGGGGGGGGGGGGGGGGGMnAKKKKKKKKKKKKKKKKKKKKKKKKKKKKKKKKKGGGGGGGGGGGGGGGGGGGGGGGGGGGGGGGGGGGGGGGGGGGGGGGGGGGHbc55%%2%2222%%2%%%%2%%%22222%%%2%%%%22%",
"2%%%%2%2%22222%2%2%55546745568888HGGGGGGGGGGGGGGGGGGGGGGGGGGGGGGGGGGGGGGGGGGGGGGGGGGGGKKKKKKKKKKKKKKKKKKKKKKKKKKKKKKKKKmnMGGGGGGGGGGGGGGGGGGGGGGGDGGGGGGGGGGGGGGGGGGGGGGGGGGGGGGGGGGGGGGGGGGGGGGGMnmKKKKKKKKnnnnnnnbnbnbnnnnnnKKKKKKKGGGGGGGGGGGGGGGGGGGGGGGGGGGGGGGGGGGGGGGGGGGGGGGGGGGGHc55%%2222222%2%%22%2%2%2222%2222%%2222",
"23%22222322222322235554674556888HGGGGGGGGGGGGGGGGGGGGGGGGGGGGGGGGGGGGGGGGGGGGGGGGGGGGKKKKKKKKKKKKKKKKKKKKKKKKKKKKKKKKKKmnMGGGGGGGGGGGGGGGGGGGGGGGGGGGGGGGGGGGGGGGGGGGGGGGDGGGGGGGGGGGGGGGGGGGGGGGMnmKKKKKKKK.  . . .. .. . 22cKKKKKKKKGGGGGGGGGGGGGGGGGGGGGGGGGGGGGGGGGGGGGGGGGGGGGGGGGGGGH5532222222232322333%22233232%%2323322",
"2222233323222232223555467455688HGGGGGGGGGGGGGGGGGGGGGGGGGGGGGGGGGGGGGGGGGGGGGGGGGGGGGKKKKKKKKKKKKKKKKKKKKKKKKKKKKKKKKKKnMGGGGGGGGGGGGGGGGGGGGGGGGGGGGGGGGGGGGGGGGGGGGGGGGGGGGGGGGGGGGGGGGGGGGGGGGGMnKKKKKKKKK  .  .  .. . .22ccKKKKKKKGGGGGGGGGGGGGGGGGGGGGGGGGGGGGGGGGGGGGGGGGGGGGGGGGGGGGH522322323222322232223232323322223223",
"233223333332333333255546745568HGGGGGGGGGGGGGGGGDGGGGGGGGGGGGGGGGGGGGGGGGGGGGGGGGGGGGKKKKKKKKKKKKKKKKKKKKKKKKKKKKKKKKKKAnMGGGGGGGGGGGGGGGGGGGGGGGGGGGGGGGGGGGGGGGGGGGGGGGGGGGGGGGGGGGGGGGGGGGGGGGDGMnAKKKKKKKK000. 000  000 222cKKKKKKKKGGGGDGGGGGGGGGGGGGGGGGGGGGGGGGGGGGGGGGGGGGGGGGGGGGDGGH33322232223232223323332333222333322",
"32242333233333333435554674556HGGGGGGGGGGGGGGGGGGGGGGGGGGGGGGGGGGGGGGGGGGGGGGGGGGGGGGKKKKKKKKKKKKKKKKKKKKKKKKKKKKKKKKKKmnMGGGGGGGGGGGGGGGGGGGGGGGGGGGGGGGGGGGGGGGGGGGGGGGGGGGGGGGGGGGGGGGGGGGGGGGGGMnmKKKKKKKK .  . .   .  .222ccKKKKKKKDGGGGGGGGGGGGGGGGGGGGGGGGGGGGGGGGGGGGGGGGGGDGGGGGGGGGGH2333333233433333233333233323433443",
"3334344333433433333555467455HGGGGGGGGGGGGGGGGGGGGGGGGGGGGGGGGGGGGGGGGGGGGGGGGGGGGGGKKKKKKKKKKKKKKKKKKKKKKKKKKKKKKKKKKKmnmGGGGGGGGGGGGGGGGGGGGGGGGGGGGGGGGGGGGGGGGGGGGGGGGGGGGGGGGGGGGGGGGGGGGGGGGGMnmKKKKKKKKK     . .. .  2222cKKKKKKKKGGGGGGGGGGGGGGGGGGGGGGGGGGGGGGGGGGGGGGGGGGGGGGGGGGGGGGH433333344333334333443443443333443",
"333343443434334343355546745HGGGGGGGGGGGGGGGGGGGGGGGGGGGGGGGGGGGGGGGGGGGGGGGGGGGGGGGKKKKKKKKKKKKKKKKKKKKKKKKKKKKKKKKKKKmnMGGGGGGGGGGGGGGGGGGGGGGGGGGGGGGGGGGGGGGGGGGGGGGGGGGGGGGGGGGGGGGGGGGGGGGGGGMnmKKKKKKKKK ...   .  .  2222cKKKKKKKKGGGGGGGGGGGGGGGGGGGGGGGGGGGGGGGGGGGGGGDGGGGGGGGGGGGGGGGH44444433434433334344344344443343",
"33444434354444334455554674HGGGGGGGGGGGGGGGGGGGGGGGGGGGGGGGGGGGGGGGGGGGGGGGGGGGGGGGKKKKKKKKKKKKKKKKKKKKKKKKKKKKKKKKKKKAmnMGGGGGGGGGGGGGGGGGGGGGGGGGGGGGGGGGGGGGGGGGGGGGGGGGGGGGGGGGGGGGGGGGGDGGGGGGMnmAKKKKKKKK.   .    .  .2222ccKKKKKKKKGGGGGGGGGGGGGDGGGGGGGGGGGGGGGGGGGGGGGGGGGGGGGGGGGGGGGGGH4445444544444444434443344433444",
"4454454443454545534555467HGGGGGGGGGGGGGGGGGDGGGGGGGGGGGGGGGGGGGGGGGGGGGGGGGGGDGGGGKKKKKKKKKKKKKKKKKKKKKKKKKKKKKKKKKKKmmnMGGGGGGGGGGGGGGGGGGGGGGGGGGGGGGGGGGGGGGGDGGGGGGGGGGGGGGGGGGGGGGGGGGGGGGGGGMnmmKKKKKKKK . .. .. .. .22222cKKKKKKKKGGGGGGGGGGGGGGGGGGGGGGGGGGGGGGGGGGGGGGGGGGGGGGGGGGGGGGGGH555344344545444535455345445444",
"545445455455454444555546HHHHHHHHHHHHHHHHHHHHHHHHHHHHHHHHHHHHHGHHHHHHHHHHHHHHHHHHGKKKKKKKKKKKKKKKKKKKKKKKKKKKKKKKKKKKKmmbMHHHHHHHHHHHHHHHHHHHHHHHHHHHHHHHHHHHHHHHHHHHHHHHHHHHHHHHHHHHHHHHHHHHHHHHHHMnmmKKKKKKKKK            22222ccKKKKKKKKHHHHHHHHHHHHHHHHHHHHHHHHHHHHHHHHHHHHHHHHHHHHHHHHHHHHHHHHH55455545545454544444554454445",
"555554544545545544555546HZZZZZZZZZZZZZZZZZZZZZZZZZZZZZZZZZZZZZZZZZZZZZZZZZZZZZZZZKKKKKKKKKKKKKKKKKKKKKKKKKKKKKKKKKKKKmmmnMZZZZZZZZZZZZZZZZZZZZZZZG11111111111111111111111GZZZZZZZZZZZZZZZZZZZZZZZMnmmmKKKKKKKKK..  .. .  . 222222cKKKKKKKKZZZZZZZZZZZZZZZZZZZZZZZZZZZZZZZZZZZZZZZZZZZZZZZZZZZZZZZZH65455455555455655545554455446",
"564545655455645555555546HZZZZZZZZZZZZZZZZZZZZZZZZZZZZZZZZZZZZZZZZZZZZZZZZZZZZZZZKKKKKKKKKKKKKKKKKKKKKKKKKKKKKKKKKKKKAmmmnMZZZZZZZZZZZZZZZZZZZm95ZG11111111111111111111111GZm95ZZZZZZZZZZZZZZZZZZZMnmmmAKKKKKKKK . .   .  . 222222ccKKKKKKKKZZZZZZZZZZZZZZZZZZZZZZZZZZZZZZZZZZZZZZZZZZZZZZZZZZZZZZZH65545555555556546665655555665",
"566565566655565666655456HZZZZZZZZZZZZZZZZZZZZZZZZZZZZZZZZZZZZZZZZZZZZZZZZZZZZZZZKKKKKKKKKKKKKKKKKKKKKKKKKKKKKKKKKKKKmmmmnMZZZZZZZZZZZZZZZZZZZm95ZG11sssssssssssssssssss11GZm95ZZZZZZZZZZZZZZZZZZZMnmmmmKKKKKKKKK  . .   .. 2222222cKKKKKKKKZZZZZZZZZZZZZZZZZZZZZZZZZZZZZZZZZZZZZZZZZZZZZZZZZZZZZZZH66665556665656566656665665665",
"665566666656566666555456HZZZZZZZZZZZZZZZZZZZZZZZZZZZZZZZZZZZZZZZZZZZZZZZZZZZZZZKKKKKKKKKKKKKKKKKKKKKKKKKKKKKKKKKKKKKmmmmnMZZZZZZZZZZZZZZZZZZZm95ZG11sfffffffdsdfffffffs11GZm95ZZZZZZZZZZZZZZZZZZZMbmmmmKKKKKKKKK. .   .   .2222222cKKKKKKKKKZZZZZZZZZZZZZZZZZZZZZZZZZZZZZZZZZZZZZZZZZZZZZZZZZZZZZZH66665666665665566666656666566",
"656777676676667666555456HZZZZZZZZZZZZZZZZZZZZZZZZZZZZZZZZZZZZZZZZZZZZZZZZZZZZZZKKKKKKKKKKKKKKKKKKKKKKKKKKKKKKKKKKKKKmmmmnMZZZZZZZZZZZZZZZZZZZKKKZG11sffCCCCfdsdfCCCCffs11GZKKKZZZZZZZZZZZZZZZZZZZMnmmmmKKKKKKKKKKKKKKKKKKKKKKKKKKKKKKKKKKKKKZZZZZZZZZZZZZZZZZZZZZZZZZZZZZZZZZZZZZZZZZZZZZZZZZZZZZZH66556566665666666766667656676",
"676666666877776667555456HZZZZZZZZZZZZZZZZZZZZZZZZZZZZZZZZZZZZZZZZZZZZZZZZZZZZZKKKKKKKKKKKKKKKKKKKKKKKKKKKKKKKKKKKKKAmmmmnMZZZZZZZZZZZZZZZZZZJJJHHG11sffzzzzfdsdfzzzzffs11GJJJJHZZZZZZZZZZZZZZZZZZMnmmmmAKKKKKKKKKKKKKKKKKKKKKKKKKKKKKKKKKKKKKZZZZZZZZZZZZZZZZZZZZZZZZZZZZZZZZZZZZZZZZZZZZZZZZZZZZZH66677776667666666767676676666",
"667777677777666677555456HZZZZZZZZZZZZZZZZZZZZZZZZZZZZZZZZZZZZZZZZZZZZZZZZZZZZZKKKKKKKKKKKKKKKKKKKKKKKKKKKKKKKKKKKKKmmmmmnMZZZZZZZZZZZZZZZZZJHHJHHG11sffllllfdsdfllllffs11GHHJHHJZZZZZZZZZZZZZZZZZMnmmmmmKKKKKKKKKKKKKKKKKKKKKKKKKKKKKKKKKKKKKZZZZZZZZZZZZZZZZZZZZZZZZZZZZZZZZZZZZZZZZZZZZZZZZZZZZZH76777667777777767766767677676",
"876778777777787777555456t>>>>>>>>>>>>>>>>>>>>>>>>>>>>>>>>>>>>>>>>>>>>>>>>>>>>KKKKKKKKKKKKKKKKKKKKKKKKKKKKKKKKKKKKKKmmmm:;:>>>>>>>>>>>>>>>>tttttttGssdffggggfdsdfggggffdssGttttttt>>>>>>>>>>>>>>>>:;mmmmmKKKKKKKKKKKKKKKKKKKKKKKKKKKKKKKKKKKKKK>>>>>>>>>>>>>>>>>>>>>>>>>>>>>>>>>>>>>>>>>>>>>>>>>>>>y78777787777677787787677878767",
"777888777787777788555456t>>>>>>>>>>>>>>>>>>>>>>>>>>>>>>>>>>>>>>>>>>>>>>>>>>>>KKKKKKKKKKKKKKKKKKKKKKKKKKKKKKKKKKKKKKmm:::;:>>>>>>>>>>>>>>>ttttttttGddffffffffdsdffffffffddGtttttttt>>>>>>>>>>>>>>>:;:::mmKKKKKKKKKKKKKKKKKKKKKKKKKKKKKKKKKKKKKK>>>>>>>>>>>>>>>>>>>>>>>>>>>>>>>>>>>>>>>>>>>>>>>>>>>>y78887777778877778877777887778",
"787787778787787788555456t>>>>>>>>>>>>>>>>>>>>>>>>>>>>>>>>>>>>>>>>>>>>>>>>>>>tttttttttttttttttttttttttttttttttttttty:::::;:>>>>>>>>>>>>>>tttttttttGffffffffffdsdffffffffffGttttttttt>>>>>>>>>>>>>>:;:::::yttttttttttttttttttttttttttttttttttttty>>>>>>>>>>>>>>>>>>>>>>>>>>>>>>>>>>>>>>>>>>>>>>>>>>>y77777877778778887888887788877",
"788777788787788878555456HZZZZZZZZZZZZZZZZZZZZZZZZZZZZZZZZZZZZZZZZZZZZZZZZZZZttttttttttttttttttttttttttttttttttttty:::::mnMZZZZZZZZZZZZZZZZZZZZZZZGffffffffffdsdffffffffffGZZZZZZZZZZZZZZZZZZZZZZZMn::::::yttttttttttttttttttttttttttttttttttttyZZZZZZZZZZZZZZZZZZZZZZZZZZZZZZZZZZZZZZZZZZZZZZZZZZZH88788878788778877888888788888",
"888888888888878888555456HZZZZZZZZZZZZZZZZZZZZZZZZZZZZZZZZZZZZZZZZZZZZZZZZZZtttttttttttttttttttttttttttttttttttttty::mmmmnMZZZZZZZZZZZZZZZZZZZZZZZGffffffffffdsdffffffffffGZZZZZZZZZZZZZZZZZZZZZZZMnmmmm::ytttttttttttttttttttttttttttttttttttttyZZZZZZZZZZZZZZZZZZZZZZZZZZZZZZZZZZZZZZZZZZZZZZZZZZH88888888888887888888888888888",
"888888888888888888555456HZZZZZZZZZZZZZZZZZZZZZZZZZZZZZZZZZZZZZZZZZZZZZZZZZZKKKKKKKKKKKKKKKKKKKKKKKKKKKKKKKKKKKKKKKmmmmmmnMZZZZZZZZZZZZZZZZZZZZZZZGffffffffffdsdffffffffffGZZZZZZZZZZZZZZZZZZZZZZZmnmmmmmmKKKKKKKKKKKKKKKKKKKKKKKKKKKKKKKKKKKKKKKZZZZZZZZZZZZZZZZZZZZZZZZZZZZZZZZZZZZZZZZZZZZZZZZZZH88888888888888888888888888888",
"@@@@@@@@@@@@@@@@@@@@@@@@@@@@@@@@@@@@@@@@@@@@@@@@@@@@@@@@@@@@@@@@@@@@@@@@@@@@@@@@@@@@@@@@@@@@@@@@@@@@@@@@@@@@@@@@@@@@@@@@@@@@@@@@@@@@@@@@@@@@@@@@@@@@@@@@@@@@@@@@@@@@@@@@@@@@@@@@@@@@@@@@@@@@@@@@@@@@@@@@@@@@@@@@@@@@@@@@@@@@@@@@@@@@@@@@@@@@@@@@@@@@@@@@@@@@@@@@@@@@@@@@@@@@@@@@@@@@@@@@@@@@@@@@@@@@@@@@@@@@@@@@@@@@@@@@@@@@@@@@",
"@@@@@@@@@@@@@@@@@@@@@@@@@@@@@@@@@@@@@@@@@@@@@@@@@@@@@@@@@@@@@@@@@@@@@@@@@@@@@@@@@@@@@@@@@@@@@@@@@@@@@@@@@@@@@@@@@@@@@@@@@@@@@@@@@@@@@@@@@@@@@@@@@@@@@@@@@@@@@@@@@@@@@@@@@@@@@@@@@@@@@@@@@@@@@@@@@@@@@@@@@@@@@@@@@@@@@@@@@@@@@@@@@@@@@@@@@@@@@@@@@@@@@@@@@@@@@@@@@@@@@@@@@@@@@@@@@@@@@@@@@@@@@@@@@@@@@@@@@@@@@@@@@@@@@@@@@@@@@@@@",
"@@@@@@@@@@@@@@@@@@@@@@@@@@@@@@@@@@@@@@@@@@@@@@@@@@@@@@@@@@@@@@@@@@@@@@@@@@@@@@@@@@@@@@@@@@@@@@@@@@@@@@@@@@@@@@@@@@@@@@@@@@@@@@@@@@@@@@@@@@@@@@@@@@@@@@@@@@@@@@@@@@@@@@@@@@@@@@@@@@@@@@@@@@@@@@@@@@@@@@@@@@@@@@@@@@@@@@@@@@@@@@@@@@@@@@@@@@@@@@@@@@@@@@@@@@@@@@@@@@@@@@@@@@@@@@@@@@@@@@@@@@@@@@@@@@@@@@@@@@@@@@@@@@@@@@@@@@@@@@@@",
"@@@@@@@@@@@@@@@@@@@@@@@@@@@@@@@@@@@@@@@@@@@@@@@@@@@@@@@@@@@@@@@@@@@@@@@@@@@@@@@@@@@@@@@@@@@@@@@@@@@@@@@@@@@@@@@@@@@@@@@@@@@@@@@@@@@@@@@@@@@@@@@@@@@@@@@@@@@@@@@@@@@@@@@@@@@@@@@@@@@@@@@@@@@@@@@@@@@@@@@@@@@@@@@@@@@@@@@@@@@@@@@@@@@@@@@@@@@@@@@@@@@@@@@@@@@@@@@@@@@@@@@@@@@@@@@@@@@@@@@@@@@@@@@@@@@@@@@@@@@@@@@@@@@@@@@@@@@@@@@@",
"@@@@@@@@@@@@@@@@@@@@@@@@@@@@@@@@@@@@@@@@@@@@@@@@@@@@@@@@@@@@@@@@@@@@@@@@@@@@@@@@@@@@@@@@@@@@@@@@@@@@@@@@@@@@@@@@@@@@@@@@@@@@@@@@@@@@@@@@@@@@@@@@@@@@@@@@@@@@@@@@@@@@@@@@@@@@@@@@@@@@@@@@@@@@@@@@@@@@@@@@@@@@@@@@@@@@@@@@@@@@@@@@@@@@@@@@@@@@@@@@@@@@@@@@@@@@@@@@@@@@@@@@@@@@@@@@@@@@@@@@@@@@@@@@@@@@@@@@@@@@@@@@@@@@@@@@@@@@@@@@",
"@@@@@@@@@@@@@@@@@@@@@@@@@@@@@@@@@@@@@@@@@@@@@@@@@@@@@@@@@@@@@@@@@@@@@@@@@@@@@@@@@@@@@@@@@@@@@@@@@@@@@@@@@@@@@@@@@@@@@@@@@@@@@@@@@@@@@@@@@@@@@@@@@@@@@@@@@@@@@@@@@@@@@@@@@@@@@@@@@@@@@@@@@@@@@@@@@@@@@@@@@@@@@@@@@@@@@@@@@@@@@@@@@@@@@@@@@@@@@@@@@@@@@@@@@@@@@@@@@@@@@@@@@@@@@@@@@@@@@@@@@@@@@@@@@@@@@@@@@@@@@@@@@@@@@@@@@@@@@@@@",
"@@@@@@@@@@@@@@@@@@@@@@@@@@@@@@@@@@@@@@@@@@@@@@@@@@@@@@@@@@@@@@@@@@@@@@@@@@@@@@@@@@@@@@@@@@@@@@@@@@@@@@@@@@@@@@@@@@@@@@@@@@@@@@@@@@@@@@@@@@@@@@@@@@@@@@@@@@@@@@@@@@@@@@@@@@@@@@@@@@@@@@@@@@@@@@@@@@@@@@@@@@@@@@@@@@@@@@@@@@@@@@@@@@@@@@@@@@@@@@@@@@@@@@@@@@@@@@@@@@@@@@@@@@@@@@@@@@@@@@@@@@@@@@@@@@@@@@@@@@@@@@@@@@@@@@@@@@@@@@@@",
"@@@@@@@@@@@@@@@@@@@@@@@@@@@@@@@@@@@@@@@@@@@@@@@@@@@@@@@@@@@@@@@@@@@@@@@@@@@@@@@@@@@@@@@@@@@@@@@@@@@@@@@@@@@@@@@@@@@@@@@@@@@@@@@@@@@@@@@@@@@@@@@@@@@@@@@@@@@@@@@@@@@@@@@@@@@@@@@@@@@@@@@@@@@@@@@@@@@@@@@@@@@@@@@@@@@@@@@@@@@@@@@@@@@@@@@@@@@@@@@@@@@@@@@@@@@@@@@@@@@@@@@@@@@@@@@@@@@@@@@@@@@@@@@@@@@@@@@@@@@@@@@@@@@@@@@@@@@@@@@@",
"@@@@@@@@@@@@@@@@@@@@@@@@@@@@@@@@@@@@@@@@@@@@@@@@@@@@@@@@@@@@@@@@@@@@@@@@@@@@@@@@@@@@@@@@@@@@@@@@@@@@@@@@@@@@@@@@@@@@@@@@@@@@@@@@@@@@@@@@@@@@@@@@@@@@@@@@@@@@@@@@@@@@@@@@@@@@@@@@@@@@@@@@@@@@@@@@@@@@@@@@@@@@@@@@@@@@@@@@@@@@@@@@@@@@@@@@@@@@@@@@@@@@@@@@@@@@@@@@@@@@@@@@@@@@@@@@@@@@@@@@@@@@@@@@@@@@@@@@@@@@@@@@@@@@@@@@@@@@@@@@",
"@@@@@@@@@@@@@@@@@@@@@@@@@@@@@@@@@@@@@@@@@@@@@@@@@@@@@@@@@@@@@@@@@@@@@@@@@@@@@@@@@@@@@@@@@@@@@@@@@@@@@@@@@@@@@@@@@@@@@@@@@@@@@@@@@@@@@@@@@@@@@@@@@@@@@@@@@@@@@@@@@@@@@@@@@@@@@@@@@@@@@@@@@@@@@@@@@@@@@@@@@@@@@@@@@@@@@@@@@@@@@@@@@@@@@@@@@@@@@@@@@@@@@@@@@@@@@@@@@@@@@@@@@@@@@@@@@@@@@@@@@@@@@@@@@@@@@@@@@@@@@@@@@@@@@@@@@@@@@@@@",
"@@@@@@@@@@@@@@@@@@@@@@@@@@@@@@@@@@@@@@@@@@@@@@@@@@@@@@@@@@@@@@@@@@@@@@@@@@@@@@@@@@@@@@@@@@@@@@@@@@@@@@@@@@@@@@@@@@@@@@@@@@@@@@@@@@@@@@@@@@@@@@@@@@@@@@@@@@@@@@@@@@@@@@@@@@@@@@@@@@@@@@@@@@@@@@@@@@@@@@@@@@@@@@@@@@@@@@@@@@@@@@@@@@@@@@@@@@@@@@@@@@@@@@@@@@@@@@@@@@@@@@@@@@@@@@@@@@@@@@@@@@@@@@@@@@@@@@@@@@@@@@@@@@@@@@@@@@@@@@@@",
"@@@@@@@@@@@@@@@@@@@@@@@@@@@@@@@@@@@@@@@@@@@@@@@@@@@@@@@@@@@@@@@@@@@@@@@@@@@@@@@@@@@@@@@@@@@@@@@@@@@@@@@@@@@@@@@@@@@@@@@@@@@@@@@@@@@@@@@@@@@@@@@@@@@@@@@@@@@@@@@@@@@@@@@@@@@@@@@@@@@@@@@@@@@@@@@@@@@@@@@@@@@@@@@@@@@@@@@@@@@@@@@@@@@@@@@@@@@@@@@@@@@@@@@@@@@@@@@@@@@@@@@@@@@@@@@@@@@@@@@@@@@@@@@@@@@@@@@@@@@@@@@@@@@@@@@@@@@@@@@@",
"@@@@@@@@@@@@@@@@@@@@@@@@@@@@@@@@@@@@@@@@@@@@@@@@@@@@@@@@@@@@@@@@@@@@@@@@@@@@@@@@@@@@@@@@@@@@@@@@@@@@@@@@@@@@@@@@@@@@@@@@@@@@@@@@@@@@@@@@@@@@@@@@@@@@@@@@@@@@@@@@@@@@@@@@@@@@@@@@@@@@@@@@@@@@@@@@@@@@@@@@@@@@@@@@@@@@@@@@@@@@@@@@@@@@@@@@@@@@@@@@@@@@@@@@@@@@@@@@@@@@@@@@@@@@@@@@@@@@@@@@@@@@@@@@@@@@@@@@@@@@@@@@@@@@@@@@@@@@@@@@",
"@@@@@@@@@@@@@@@@@@@@@@@@@@@@@@@@@@@@@@@@@@@@@@@@@@@@@@@@@@@@@@@@@@@@@@@@@@@@@@@@@@@@@@@@@@@@@@@@@@@@@@@@@@@@@@@@@@@@@@@@@@@@@@@@@@@@@@@@@@@@@@@@@@@@@@@@@@@@@@@@@@@@@@@@@@@@@@@@@@@@@@@@@@@@@@@@@@@@@@@@@@@@@@@@@@@@@@@@@@@@@@@@@@@@@@@@@@@@@@@@@@@@@@@@@@@@@@@@@@@@@@@@@@@@@@@@@@@@@@@@@@@@@@@@@@@@@@@@@@@@@@@@@@@@@@@@@@@@@@@@",
"@@@@@@@@@@@@@@@@@@@@@@@@@@@@@@@@@@@@@@@@@@@@@@@@@@@@@@@@@@@@@@@@@@@@@@@@@@@@@@@@@@@@@@@@@@@@@@@@@@@@@@@@@@@@@@@@@@@@@@@@@@@@@@@@@@@@@@@@@@@@@@@@@@@@@@@@@@@@@@@@@@@@@@@@@@@@@@@@@@@@@@@@@@@@@@@@@@@@@@@@@@@@@@@@@@@@@@@@@@@@@@@@@@@@@@@@@@@@@@@@@@@@@@@@@@@@@@@@@@@@@@@@@@@@@@@@@@@@@@@@@@@@@@@@@@@@@@@@@@@@@@@@@@@@@@@@@@@@@@@@",
"@@@@@@@@@@@@@@@@@@@@@@@@@@@@@@@@@@@@@@@@@@@@@@@@@@@@@@@@@@@@@@@@@@@@@@@@@@@@@@@@@@@@@@@@@@@@@@@@@@@@@@@@@@@@@@@@@@@@@@@@@@@@@@@@@@@@@@@@@@@@@@@@@@@@@@@@@@@@@@@@@@@@@@@@@@@@@@@@@@@@@@@@@@@@@@@@@@@@@@@@@@@@@@@@@@@@@@@@@@@@@@@@@@@@@@@@@@@@@@@@@@@@@@@@@@@@@@@@@@@@@@@@@@@@@@@@@@@@@@@@@@@@@@@@@@@@@@@@@@@@@@@@@@@@@@@@@@@@@@@@",
"@@@@@@@@@@@@@@@@@@@@@@@@@@@@@@@@@@@@@@@@@@@@@@@@@@@@@@@@@@@@@@@@@@@@@@@@@@@@@@@@@@@@@@@@@@@@@@@@@@@@@@@@@@@@@@@@@@@@@@@@@@@@@@@@@@@@@@@@@@@@@@@@@@@@@@@@@@@@@@@@@@@@@@@@@@@@@@@@@@@@@@@@@@@@@@@@@@@@@@@@@@@@@@@@@@@@@@@@@@@@@@@@@@@@@@@@@@@@@@@@@@@@@@@@@@@@@@@@@@@@@@@@@@@@@@@@@@@@@@@@@@@@@@@@@@@@@@@@@@@@@@@@@@@@@@@@@@@@@@@@",
"@@@@@@@@@@@@@@@@@@@@@@@@@@@@@@@@@@@@@@@@@@@@@@@@@@@@@@@@@@@@@@@@@@@@@@@@@@@@@@@@@@@@@@@@@@@@@@@@@@@@@@@@@@@@@@@@@@@@@@@@@@@@@@@@@@@@@@@@@@@@@@@@@@@@@@@@@@@@@@@@@@@@@@@@@@@@@@@@@@@@@@@@@@@@@@@@@@@@@@@@@@@@@@@@@@@@@@@@@@@@@@@@@@@@@@@@@@@@@@@@@@@@@@@@@@@@@@@@@@@@@@@@@@@@@@@@@@@@@@@@@@@@@@@@@@@@@@@@@@@@@@@@@@@@@@@@@@@@@@@@",
"@@@@@@@@@@@@@@@@@@@@@@@@@@@@@@@@@@@@@@@@@@@@@@@@@@@@@@@@@@@@@@@@@@@@@@@@@@@@@@@@@@@@@@@@@@@@@@@@@@@@@@@@@@@@@@@@@@@@@@@@@@@@@@@@@@@@@@@@@@@@@@@@@@@@@@@@@@@@@@@@@@@@@@@@@@@@@@@@@@@@@@@@@@@@@@@@@@@@@@@@@@@@@@@@@@@@@@@@@@@@@@@@@@@@@@@@@@@@@@@@@@@@@@@@@@@@@@@@@@@@@@@@@@@@@@@@@@@@@@@@@@@@@@@@@@@@@@@@@@@@@@@@@@@@@@@@@@@@@@@@",
"@@@@@@@@@@@@@@@@@@@@@@@@@@@@@@@@@@@@@@@@@@@@@@@@@@@@@@@@@@@@@@@@@@@@@@@@@@@@@@@@@@@@@@@@@@@@@@@@@@@@@@@@@@@@@@@@@@@@@@@@@@@@@@@@@@@@@@@@@@@@@@@@@@@@@@@@@@@@@@@@@@@@@@@@@@@@@@@@@@@@@@@@@@@@@@@@@@@@@@@@@@@@@@@@@@@@@@@@@@@@@@@@@@@@@@@@@@@@@@@@@@@@@@@@@@@@@@@@@@@@@@@@@@@@@@@@@@@@@@@@@@@@@@@@@@@@@@@@@@@@@@@@@@@@@@@@@@@@@@@@",
"@@@@@@@@@@@@@@@@@@@@@@@@@@@@@@@@@@@@@@@@@@@@@@@@@@@@@@@@@@@@@@@@@@@@@@@@@@@@@@@@@@@@@@@@@@@@@@@@@@@@@@@@@@@@@@@@@@@@@@@@@@@@@@@@@@@@@@@@@@@@@@@@@@@@@@@@@@@@@@@@@@@@@@@@@@@@@@@@@@@@@@@@@@@@@@@@@@@@@@@@@@@@@@@@@@@@@@@@@@@@@@@@@@@@@@@@@@@@@@@@@@@@@@@@@@@@@@@@@@@@@@@@@@@@@@@@@@@@@@@@@@@@@@@@@@@@@@@@@@@@@@@@@@@@@@@@@@@@@@@@",
"@@@@@@@@@@@@@@@@@@@@@@@@@@@@@@@@@@@@@@@@@@@@@@@@@@@@@@@@@@@@@@@@@@@@@@@@@@@@@@@@@@@@@@@@@@@@@@@@@@@@@@@@@@@@@@@@@@@@@@@@@@@@@@@@@@@@@@@@@@@@@@@@@@@@@@@@@@@@@@@@@@@@@@@@@@@@@@@@@@@@@@@@@@@@@@@@@@@@@@@@@@@@@@@@@@@@@@@@@@@@@@@@@@@@@@@@@@@@@@@@@@@@@@@@@@@@@@@@@@@@@@@@@@@@@@@@@@@@@@@@@@@@@@@@@@@@@@@@@@@@@@@@@@@@@@@@@@@@@@@@",
"@@@@@@@@@@@@@@@@@@@@@@@@@@@@@@@@@@@@@@@@@@@@@@@@@@@@@@@@@@@@@@@@@@@@@@@@@@@@@@@@@@@@@@@@@@@@@@@@@@@@@@@@@@@@@@@@@@@@@@@@@@@@@@@@@@@@@@@@@@@@@@@@@@@@@@@@@@@@@@@@@@@@@@@@@@@@@@@@@@@@@@@@@@@@@@@@@@@@@@@@@@@@@@@@@@@@@@@@@@@@@@@@@@@@@@@@@@@@@@@@@@@@@@@@@@@@@@@@@@@@@@@@@@@@@@@@@@@@@@@@@@@@@@@@@@@@@@@@@@@@@@@@@@@@@@@@@@@@@@@@",
"@@@@@@@@@@@@@@@@@@@@@@@@@@@@@@@@@@@@@@@@@@@@@@@@@@@@@@@@@@@@@@@@@@@@@@@@@@@@@@@@@@@@@@@@@@@@@@@@@@@@@@@@@@@@@@@@@@@@@@@@@@@@@@@@@@@@@@@@@@@@@@@@@@@@@@@@@@@@@@@@@@@@@@@@@@@@@@@@@@@@@@@@@@@@@@@@@@@@@@@@@@@@@@@@@@@@@@@@@@@@@@@@@@@@@@@@@@@@@@@@@@@@@@@@@@@@@@@@@@@@@@@@@@@@@@@@@@@@@@@@@@@@@@@@@@@@@@@@@@@@@@@@@@@@@@@@@@@@@@@@",
"@@@@@@@@@@@@@@@@@@@@@@@@@@@@@@@@@@@@@@@@@@@@@@@@@@@@@@@@@@@@@@@@@@@@@@@@@@@@@@@@@@@@@@@@@@@@@@@@@@@@@@@@@@@@@@@@@@@@@@@@@@@@@@@@@@@@@@@@@@@@@@@@@@@@@@@@@@@@@@@@@@@@@@@@@@@@@@@@@@@@@@@@@@@@@@@@@@@@@@@@@@@@@@@@@@@@@@@@@@@@@@@@@@@@@@@@@@@@@@@@@@@@@@@@@@@@@@@@@@@@@@@@@@@@@@@@@@@@@@@@@@@@@@@@@@@@@@@@@@@@@@@@@@@@@@@@@@@@@@@@",
"@@@@@@@@@@@@@@@@@@@@@@@@@@@@@@@@@@@@@@@@@@@@@@@@@@@@@@@@@@@@@@@@@@@@@@@@@@@@@@@@@@@@@@@@@@@@@@@@@@@@@@@@@@@@@@@@@@@@@@@@@@@@@@@@@@@@@@@@@@@@@@@@@@@@@@@@@@@@@@@@@@@@@@@@@@@@@@@@@@@@@@@@@@@@@@@@@@@@@@@@@@@@@@@@@@@@@@@@@@@@@@@@@@@@@@@@@@@@@@@@@@@@@@@@@@@@@@@@@@@@@@@@@@@@@@@@@@@@@@@@@@@@@@@@@@@@@@@@@@@@@@@@@@@@@@@@@@@@@@@@",
"@@@@@@@@@@@@@@@@@@@@@@@@@@@@@@@@@@@@@@@@@@@@@@@@@@@@@@@@@@@@@@@@@@@@@@@@@@@@@@@@@@@@@@@@@@@@@@@@@@@@@@@@@@@@@@@@@@@@@@@@@@@@@@@@@@@@@@@@@@@@@@@@@@@@@@@@@@@@@@@@@@@@@@@@@@@@@@@@@@@@@@@@@@@@@@@@@@@@@@@@@@@@@@@@@@@@@@@@@@@@@@@@@@@@@@@@@@@@@@@@@@@@@@@@@@@@@@@@@@@@@@@@@@@@@@@@@@@@@@@@@@@@@@@@@@@@@@@@@@@@@@@@@@@@@@@@@@@@@@@@",
"@@@@@@@@@@@@@@@@@@@@@@@@@@@@@@@@@@@@@@@@@@@@@@@@@@@@@@@@@@@@@@@@@@@@@@@@@@@@@@@@@@@@@@@@@@@@@@@@@@@@@@@@@@@@@@@@@@@@@@@@@@@@@@@@@@@@@@@@@@@@@@@@@@@@@@@@@@@@@@@@@@@@@@@@@@@@@@@@@@@@@@@@@@@@@@@@@@@@@@@@@@@@@@@@@@@@@@@@@@@@@@@@@@@@@@@@@@@@@@@@@@@@@@@@@@@@@@@@@@@@@@@@@@@@@@@@@@@@@@@@@@@@@@@@@@@@@@@@@@@@@@@@@@@@@@@@@@@@@@@@",
"@@@@@@@@@@@@@@@@@@@@@@@@@@@@@@@@@@@@@@@@@@@@@@@@@@@@@@@@@@@@@@@@@@@@@@@@@@@@@@@@@@@@@@@@@@@@@@@@@@@@@@@@@@@@@@@@@@@@@@@@@@@@@@@@@@@@@@@@@@@@@@@@@@@@@@@@@@@@@@@@@@@@@@@@@@@@@@@@@@@@@@@@@@@@@@@@@@@@@@@@@@@@@@@@@@@@@@@@@@@@@@@@@@@@@@@@@@@@@@@@@@@@@@@@@@@@@@@@@@@@@@@@@@@@@@@@@@@@@@@@@@@@@@@@@@@@@@@@@@@@@@@@@@@@@@@@@@@@@@@@",
"@@@@@@@@@@@@@@@@@@@@@@@@@@@@@@@@@@@@@@@@@@@@@@@@@@@@@@@@@@@@@@@@@@@@@@@@@@@@@@@@@@@@@@@@@@@@@@@@@@@@@@@@@@@@@@@@@@@@@@@@@@@@@@@@@@@@@@@@@@@@@@@@@@@@@@@@@@@@@@@@@@@@@@@@@@@@@@@@@@@@@@@@@@@@@@@@@@@@@@@@@@@@@@@@@@@@@@@@@@@@@@@@@@@@@@@@@@@@@@@@@@@@@@@@@@@@@@@@@@@@@@@@@@@@@@@@@@@@@@@@@@@@@@@@@@@@@@@@@@@@@@@@@@@@@@@@@@@@@@@@",
"@@@@@@@@@@@@@@@@@@@@@@@@@@@@@@@@@@@@@@@@@@@@@@@@@@@@@@@@@@@@@@@@@@@@@@@@@@@@@@@@@@@@@@@@@@@@@@@@@@@@@@@@@@@@@@@@@@@@@@@@@@@@@@@@@@@@@@@@@@@@@@@@@@@@@@@@@@@@@@@@@@@@@@@@@@@@@@@@@@@@@@@@@@@@@@@@@@@@@@@@@@@@@@@@@@@@@@@@@@@@@@@@@@@@@@@@@@@@@@@@@@@@@@@@@@@@@@@@@@@@@@@@@@@@@@@@@@@@@@@@@@@@@@@@@@@@@@@@@@@@@@@@@@@@@@@@@@@@@@@@",
"@@@@@@@@@@@@@@@@@@@@@@@@@@@@@@@@@@@@@@@@@@@@@@@@@@@@@@@@@@@@@@@@@@@@@@@@@@@@@@@@@@@@@@@@@@@@@@@@@@@@@@@@@@@@@@@@@@@@@@@@@@@@@@@@@@@@@@@@@@@@@@@@@@@@@@@@@@@@@@@@@@@@@@@@@@@@@@@@@@@@@@@@@@@@@@@@@@@@@@@@@@@@@@@@@@@@@@@@@@@@@@@@@@@@@@@@@@@@@@@@@@@@@@@@@@@@@@@@@@@@@@@@@@@@@@@@@@@@@@@@@@@@@@@@@@@@@@@@@@@@@@@@@@@@@@@@@@@@@@@@",
"@@@@@@@@@@@@@@@@@@@@@@@@@@@@@@@@@@@@@@@@@@@@@@@@@@@@@@@@@@@@@@@@@@@@@@@@@@@@@@@@@@@@@@@@@@@@@@@@@@@@@@@@@@@@@@@@@@@@@@@@@@@@@@@@@@@@@@@@@@@@@@@@@@@@@@@@@@@@@@@@@@@@@@@@@@@@@@@@@@@@@@@@@@@@@@@@@@@@@@@@@@@@@@@@@@@@@@@@@@@@@@@@@@@@@@@@@@@@@@@@@@@@@@@@@@@@@@@@@@@@@@@@@@@@@@@@@@@@@@@@@@@@@@@@@@@@@@@@@@@@@@@@@@@@@@@@@@@@@@@@",
"@@@@@@@@@@@@@@@@@@@@@@@@@@@@@@@@@@@@@@@@@@@@@@@@@@@@@@@@@@@@@@@@@@@@@@@@@@@@@@@@@@@@@@@@@@@@@@@@@@@@@@@@@@@@@@@@@@@@@@@@@@@@@@@@@@@@@@@@@@@@@@@@@@@@@@@@@@@@@@@@@@@@@@@@@@@@@@@@@@@@@@@@@@@@@@@@@@@@@@@@@@@@@@@@@@@@@@@@@@@@@@@@@@@@@@@@@@@@@@@@@@@@@@@@@@@@@@@@@@@@@@@@@@@@@@@@@@@@@@@@@@@@@@@@@@@@@@@@@@@@@@@@@@@@@@@@@@@@@@@@",
"@@@@@@@@@@@@@@@@@@@@@@@@@@@@@@@@@@@@@@@@@@@@@@@@@@@@@@@@@@@@@@@@@@@@@@@@@@@@@@@@@@@@@@@@@@@@@@@@@@@@@@@@@@@@@@@@@@@@@@@@@@@@@@@@@@@@@@@@@@@@@@@@@@@@@@@@@@@@@@@@@@@@@@@@@@@@@@@@@@@@@@@@@@@@@@@@@@@@@@@@@@@@@@@@@@@@@@@@@@@@@@@@@@@@@@@@@@@@@@@@@@@@@@@@@@@@@@@@@@@@@@@@@@@@@@@@@@@@@@@@@@@@@@@@@@@@@@@@@@@@@@@@@@@@@@@@@@@@@@@@",
"@@@@@@@@@@@@@@@@@@@@@@@@@@@@@@@@@@@@@@@@@@@@@@@@@@@@@@@@@@@@@@@@@@@@@@@@@@@@@@@@@@@@@@@@@@@@@@@@@@@@@@@@@@@@@@@@@@@@@@@@@@@@@@@@@@@@@@@@@@@@@@@@@@@@@@@@@@@@@@@@@@@@@@@@@@@@@@@@@@@@@@@@@@@@@@@@@@@@@@@@@@@@@@@@@@@@@@@@@@@@@@@@@@@@@@@@@@@@@@@@@@@@@@@@@@@@@@@@@@@@@@@@@@@@@@@@@@@@@@@@@@@@@@@@@@@@@@@@@@@@@@@@@@@@@@@@@@@@@@@@",
"@@@@@@@@@@@@@@@@@@@@@@@@@@@@@@@@@@@@@@@@@@@@@@@@@@@@@@@@@@@@@@@@@@@@@@@@@@@@@@@@@@@@@@@@@@@@@@@@@@@@@@@@@@@@@@@@@@@@@@@@@@@@@@@@@@@@@@@@@@@@@@@@@@@@@@@@@@@@@@@@@@@@@@@@@@@@@@@@@@@@@@@@@@@@@@@@@@@@@@@@@@@@@@@@@@@@@@@@@@@@@@@@@@@@@@@@@@@@@@@@@@@@@@@@@@@@@@@@@@@@@@@@@@@@@@@@@@@@@@@@@@@@@@@@@@@@@@@@@@@@@@@@@@@@@@@@@@@@@@@@"
};
