/* XPM */
static char *end_floor3_073[] = {
/* columns rows colors chars-per-pixel */
"320 200 67 1 ",
"  c #000000",
". c #0B0B0B",
"X c gray8",
"o c #1C1C1C",
"O c #00002C",
"+ c #00003C",
"@ c gray14",
"# c #2C2C2C",
"$ c #343434",
"% c #3C3C3C",
"& c #600000",
"* c #502400",
"= c #643000",
"- c #743804",
"; c #004400",
": c #005C00",
"> c #007400",
", c #000050",
"< c #000064",
"1 c #244870",
"2 c #444444",
"3 c #4C4C4C",
"4 c #545454",
"5 c #5C5C5C",
"6 c #646464",
"7 c #6C6C6C",
"8 c #747474",
"9 c #7C7C7C",
"0 c #F80000",
"q c #884404",
"w c #984C08",
"e c #AC580C",
"r c #C47024",
"t c #008C00",
"y c #00A400",
"u c #CC8038",
"i c #D09050",
"p c #D89C64",
"a c #040488",
"s c #2C5480",
"d c #346090",
"f c #3C6CA0",
"g c #4C78A8",
"h c #1010C0",
"j c #4040D0",
"k c #7878E0",
"l c #5884B0",
"z c #6C90BC",
"x c #848484",
"c c #8C8C8C",
"v c #939393",
"b c #989898",
"n c #A0A0A0",
"m c #A8A8A8",
"M c #B0B0B0",
"N c #BCBCBC",
"B c #ECD0B4",
"V c #80A0C4",
"C c #C4C4C4",
"Z c #CCCCCC",
"A c #D4D4D4",
"S c #DADADA",
"D c #D8D8F4",
"F c #E0E0E0",
"G c #E8E8E8",
"H c #F1F1F1",
"J c #FCFCFC",
/* pixels */
"@@@@@@@@@@@@@@@@@@@@@@@@@@@@@@@@@@@@@@@@@@@@@@@@@@@@@@@@@@@@@@@@@@@@@@@@@@@@@@@@@@@@@@@@@@@@@@@@@@@@@@@@@@@@@@@@@@@@@@@@@@@@@@@@@@@@@@@@@@@@@@@@@@@@@@@@@@@@@@@@@@@@@@@@@@@@@@@@@@@@@@@@@@@@@@@@@@@@@@@@@@@@@@@@@@@@@@@@@@@@@@@@@@@@@@@@@@@@@@@@@@@@@@@@@@@@@@@@@@@@@@@@@@@@@@@@@@@@@@@@@@@@@@@@@@@@@@@@@@@@@@@@@@@@@@@@@@@@@@@@",
"@@@@@@@@@@@@@@@@@@@@@@@@@@@@@@@@@@@@@@@@@@@@@@@@@@@@@@@@@@@@@@@@@@@@@@@@@@@@@@@@@@@@@@@@@@@@@@@@@@@@@@@@@@@@@@@@@@@@@@@@@@@@@@@@@@@@@@@@@@@@@@@@@@@@@@@@@@@@@@@@@@@@@@@@@@@@@@@@@@@@@@@@@@@@@@@@@@@@@@@@@@@@@@@@@@@@@@@@@@@@@@@@@@@@@@@@@@@@@@@@@@@@@@@@@@@@@@@@@@@@@@@@@@@@@@@@@@@@@@@@@@@@@@@@@@@@@@@@@@@@@@@@@@@@@@@@@@@@@@@@",
"@@@@@@@@@@@@@@@@@@@@@@@@@@@@@@@@@@@@@@@@@@@@@@@@@@@@@@@@@@@@@@@@@@@@@@@@@@@@@@@@@@@@@@@@@@@@@@@@@@@@@@@@@@@@@@@@@@@@@@@@@@@@@@@@@@@@@@@@@@@@@@@@@@@@@@@@@@@@@@@@@@@@@@@@@@@@@@@@@@@@@@@@@@@@@@@@@@@@@@@@@@@@@@@@@@@@@@@@@@@@@@@@@@@@@@@@@@@@@@@@@@@@@@@@@@@@@@@@@@@@@@@@@@@@@@@@@@@@@@@@@@@@@@@@@@@@@@@@@@@@@@@@@@@@@@@@@@@@@@@@",
"@@@@@@@@@@@@@@@@@@@@@@@@@@@@@@@@@@@@@@@@@@@@@@@@@@@@@@@@@@@@@@@@@@@@@@@@@@@@@@@@@@@@@@@@@@@@@@@@@@@@@@@@@@@@@@@@@@@@@@@@@@@@@@@@@@@@@@@@@@@@@@@@@@@@@@@@@@@@@@@@@@@@@@@@@@@@@@@@@@@@@@@@@@@@@@@@@@@@@@@@@@@@@@@@@@@@@@@@@@@@@@@@@@@@@@@@@@@@@@@@@@@@@@@@@@@@@@@@@@@@@@@@@@@@@@@@@@@@@@@@@@@@@@@@@@@@@@@@@@@@@@@@@@@@@@@@@@@@@@@@",
"@@@@@@@@@@@@@@@@@@@@@@@@@@@@@@@@@@@@@@@@@@@@@@@@@@@@@@@@@@@@@@@@@@@@@@@@@@@@@@@@@@@@@@@@@@@@@@@@@@@@@@@@@@@@@@@@@@@@@@@@@@@@@@@@@@@@@@@@@@@@@@@@@@@@@@@@@@@@@@@@@@@@@@@@@@@@@@@@@@@@@@@@@@@@@@@@@@@@@@@@@@@@@@@@@@@@@@@@@@@@@@@@@@@@@@@@@@@@@@@@@@@@@@@@@@@@@@@@@@@@@@@@@@@@@@@@@@@@@@@@@@@@@@@@@@@@@@@@@@@@@@@@@@@@@@@@@@@@@@@@",
"@@@@@@@@@@@@@@@@@@@@@@@@@@@@@@@@@@@@@@@@@@@@@@@@@@@@@@@@@@@@@@@@@@@@@@@@@@@@@@@@@@@@@@@@@@@@@@@@@@@@@@@@@@@@@@@@@@@@@@@@@@@@@@@@@@@@@@@@@@@@@@@@@@@@@@@@@@@@@@@@@@@@@@@@@@@@@@@@@@@@@@@@@@@@@@@@@@@@@@@@@@@@@@@@@@@@@@@@@@@@@@@@@@@@@@@@@@@@@@@@@@@@@@@@@@@@@@@@@@@@@@@@@@@@@@@@@@@@@@@@@@@@@@@@@@@@@@@@@@@@@@@@@@@@@@@@@@@@@@@@",
"@@@@@@@@@@@@@@@@@@@@@@@@@@@@@@@@@@@@@@@@@@@@@@@@@@@@@@@@@@@@@@@@@@@@@@@@@@@@@@@@@@@@@@@@@@@@@@@@@@@@@@@@@@@@@@@@@@@@@@@@@@@@@@@@@@@@@@@@@@@@@@@@@@@@@@@@@@@@@@@@@@@@@@@@@@@@@@@@@@@@@@@@@@@@@@@@@@@@@@@@@@@@@@@@@@@@@@@@@@@@@@@@@@@@@@@@@@@@@@@@@@@@@@@@@@@@@@@@@@@@@@@@@@@@@@@@@@@@@@@@@@@@@@@@@@@@@@@@@@@@@@@@@@@@@@@@@@@@@@@@",
"@@@@@@@@@@@@@@@@@@@@@@@@@@@@@@@@@@@@@@@@@@@@@@@@@@@@@@@@@@@@@@@@@@@@@@@@@@@@@@@@@@@@@@@@@@@@@@@@@@@@@@@@@@@@@@@@@@@@@@@@@@@@@@@@@@@@@@@@@@@@@@@@@@@@@@@@@@@@@@@@@@@@@@@@@@@@@@@@@@@@@@@@@@@@@@@@@@@@@@@@@@@@@@@@@@@@@@@@@@@@@@@@@@@@@@@@@@@@@@@@@@@@@@@@@@@@@@@@@@@@@@@@@@@@@@@@@@@@@@@@@@@@@@@@@@@@@@@@@@@@@@@@@@@@@@@@@@@@@@@@",
"@@@@@@@@@@@@@@@@@@@@@@@@@@@@@@@@@@@@@@@@@@@@@@@@@@@@@@@@@@@@@@@@@@@@@@@@@@@@@@@@@@@@@@@@@@@@@@@@@@@@@@@@@@@@@@@@@@@@@@@@@@@@@@@@@@@@@@@@@@@@@@@@@@@@@@@@@@@@@@@@@@@@@@@@@@@@@@@@@@@@@@@@@@@@@@@@@@@@@@@@@@@@@@@@@@@@@@@@@@@@@@@@@@@@@@@@@@@@@@@@@@@@@@@@@@@@@@@@@@@@@@@@@@@@@@@@@@@@@@@@@@@@@@@@@@@@@@@@@@@@@@@@@@@@@@@@@@@@@@@@",
"@@@@@@@@@@@@@@@@@@@@@@@@@@@@@@@@@@@@@@@@@@@@@@@@@@@@@@@@@@@@@@@@@@@@@@@@@@@@@@@@@@@@@@@@@@@@@@@@@@@@@@@@@@@@@@@@@@@@@@@@@@@@@@@@@@@@@@@@@@@@@@@@@@@@@@@@@@@@@@@@@@@@@@@@@@@@@@@@@@@@@@@@@@@@@@@@@@@@@@@@@@@@@@@@@@@@@@@@@@@@@@@@@@@@@@@@@@@@@@@@@@@@@@@@@@@@@@@@@@@@@@@@@@@@@@@@@@@@@@@@@@@@@@@@@@@@@@@@@@@@@@@@@@@@@@@@@@@@@@@@",
"@@@@@@@@@@@@@@@@@@@@@@@@@@@@@@@@@@@@@@@@@@@@@@@@@@@@@@@@@@@@@@@@@@@@@@@@@@@@@@@@@@@@@@@@@@@@@@@@@@@@@@@@@@@@@@@@@@@@@@@@@@@@@@@@@@@@@@@@@@@@@@@@@@@@@@@@@@@@@@@@@@@@@@@@@@@@@@@@@@@@@@@@@@@@@@@@@@@@@@@@@@@@@@@@@@@@@@@@@@@@@@@@@@@@@@@@@@@@@@@@@@@@@@@@@@@@@@@@@@@@@@@@@@@@@@@@@@@@@@@@@@@@@@@@@@@@@@@@@@@@@@@@@@@@@@@@@@@@@@@@",
"@@@@@@@@@@@@@@@@@@@@@@@@@@@@@@@@@@@@@@@@@@@@@@@@@@@@@@@@@@@@@@@@@@@@@@@@@@@@@@@@@@@@@@@@@@@@@@@@@@@@@@@@@@@@@@@@@@@@@@@@@@@@@@@@@@@@@@@@@@@@@@@@@@@@@@@@@@@@@@@@@@@@@@@@@@@@@@@@@@@@@@@@@@@@@@@@@@@@@@@@@@@@@@@@@@@@@@@@@@@@@@@@@@@@@@@@@@@@@@@@@@@@@@@@@@@@@@@@@@@@@@@@@@@@@@@@@@@@@@@@@@@@@@@@@@@@@@@@@@@@@@@@@@@@@@@@@@@@@@@@",
"@@@@@@@@@@@@@@@@@@@@@@@@@@@@@@@@@@@@@@@@@@@@@@@@@@@@@@@@@@@@@@@@@@@@@@@@@@@@@@@@@@@@@@@@@@@@@@@@@@@@@@@@@@@@@@@@@@@@@@@@@@@@@@@@@@@@@@@@@@@@@@@@@@@@@@@@@@@@@@@@@@@@@@@@@@@@@@@@@@@@@@@@@@@@@@@@@@@@@@@@@@@@@@@@@@@@@@@@@@@@@@@@@@@@@@@@@@@@@@@@@@@@@@@@@@@@@@@@@@@@@@@@@@@@@@@@@@@@@@@@@@@@@@@@@@@@@@@@@@@@@@@@@@@@@@@@@@@@@@@@",
"@@@@@@@@@@@@@@@@@@@@@@@@@@@@@@@@@@@@@@@@@@@@@@@@@@@@@@@@@@@@@@@@@@@@@@@@@@@@@@@@@@@@@@@@@@@@@@@@@@@@@@@@@@@@@@@@@@@@@@@@@@@@@@@@@@@@@@@@@@@@@@@@@@@@@@@@@@@@@@@@@@@@@@@@@@@@@@@@@@@@@@@@@@@@@@@@@@@@@@@@@@@@@@@@@@@@@@@@@@@@@@@@@@@@@@@@@@@@@@@@@@@@@@@@@@@@@@@@@@@@@@@@@@@@@@@@@@@@@@@@@@@@@@@@@@@@@@@@@@@@@@@@@@@@@@@@@@@@@@@@",
"@@@@@@@@@@@@@@@@@@@@@@@@@@@@@@@@@@@@@@@@@@@@@@@@@@@@@@@@@@@@@@@@@@@@@@@@@@@@@@@@@@@@@@@@@@@@@@@@@@@@@@@@@@@@@@@@@@@@@@@@@@@@@@@@@@@@@@@@@@@@@@@@@@@@@@@@@@@@@@@@@@@@@@@@@@@@@@@@@@@@@@@@@@@@@@@@@@@@@@@@@@@@@@@@@@@@@@@@@@@@@@@@@@@@@@@@@@@@@@@@@@@@@@@@@@@@@@@@@@@@@@@@@@@@@@@@@@@@@@@@@@@@@@@@@@@@@@@@@@@@@@@@@@@@@@@@@@@@@@@@",
"@@@@@@@@@@@@@@@@@@@@@@@@@@@@@@@@@@@@@@@@@@@@@@@@@@@@@@@@@@@@@@@@@@@@@@@@@@@@@@@@@@@@@@@@@@@@@@@@@@@@@@@@@@@@@@@@@@@@@@@@@@@@@@@@@@@@@@@@@@@@@@@@@@@@@@@@@@@@@@@@@@@@@@@@@@@@@@@@@@@@@@@@@@@@@@@@@@@@@@@@@@@@@@@@@@@@@@@@@@@@@@@@@@@@@@@@@@@@@@@@@@@@@@@@@@@@@@@@@@@@@@@@@@@@@@@@@@@@@@@@@@@@@@@@@@@@@@@@@@@@@@@@@@@@@@@@@@@@@@@@",
"@@@@@@@@@@@@@@@@@@@@@@@@@@@@@@@@@@@@@@@@@@@@@@@@@@@@@@@@@@@@@@@@@@@@@@@@@@@@@@@@@@@@@@@@@@@@@@@@@@@@@@@@@@@@@@@@@@@@@@@@@@@@@@@@@@@@@@@@@@@@@@@@@@@@@@@@@@@@@@@@@@@@@@@@@@@@@@@@@@@@@@@@@@@@@@@@@@@@@@@@@@@@@@@@@@@@@@@@@@@@@@@@@@@@@@@@@@@@@@@@@@@@@@@@@@@@@@@@@@@@@@@@@@@@@@@@@@@@@@@@@@@@@@@@@@@@@@@@@@@@@@@@@@@@@@@@@@@@@@@@",
"@@@@@@@@@@@@@@@@@@@@@@@@@@@@@@@@@@@@@@@@@@@@@@@@@@@@@@@@@@@@@@@@@@@@@@@@@@@@@@@@@@@@@@@@@@@@@@@@@@@@@@@@@@@@@@@@@@@@@@@@@@@@@@@@@@@@@@@@@@@@@@@@@@@@@@@@@@@@@@@@@@@@@@@@@@@@@@@@@@@@@@@@@@@@@@@@@@@@@@@@@@@@@@@@@@@@@@@@@@@@@@@@@@@@@@@@@@@@@@@@@@@@@@@@@@@@@@@@@@@@@@@@@@@@@@@@@@@@@@@@@@@@@@@@@@@@@@@@@@@@@@@@@@@@@@@@@@@@@@@@",
"@@@@@@@@@@@@@@@@@@@@@@@@@@@@@@@@@@@@@@@@@@@@@@@@@@@@@@@@@@@@@@@@@@@@@@@@@@@@@@@@@@@@@@@@@@@@@@@@@@@@@@@@@@@@@@@@@@@@@@@@@@@@@@@@@@@@@@@@@@@@@@@@@@@@@@@@@@@@@@@@@@@@@@@@@@@@@@@@@@@@@@@@@@@@@@@@@@@@@@@@@@@@@@@@@@@@@@@@@@@@@@@@@@@@@@@@@@@@@@@@@@@@@@@@@@@@@@@@@@@@@@@@@@@@@@@@@@@@@@@@@@@@@@@@@@@@@@@@@@@@@@@@@@@@@@@@@@@@@@@@",
"@@@@@@@@@@@@@@@@@@@@@@@@@@@@@@@@@@@@@@@@@@@@@@@@@@@@@@@@@@@@@@@@@@@@@@@@@@@@@@@@@@@@@@@@@@@@@@@@@@@@@@@@@@@@@@@@@@@@@@@@@@@@@@@@@@@@@@@@@@@@@@@@@@@@@@@@@@@@@@@@@@@@@@@@@@@@@@@@@@@@@@@@@@@@@@@@@@@@@@@@@@@@@@@@@@@@@@@@@@@@@@@@@@@@@@@@@@@@@@@@@@@@@@@@@@@@@@@@@@@@@@@@@@@@@@@@@@@@@@@@@@@@@@@@@@@@@@@@@@@@@@@@@@@@@@@@@@@@@@@@",
"@@@@@@@@@@@@@@@@@@@@@@@@@@@@@@@@@@@@@@@@@@@@@@@@@@@@@@@@@@@@@@@@@@@@@@@@@@@@@@@@@@@@@@@@@@@@@@@@@@@@@@@@@@@@@@@@@@@@@@@@@@@@@@@@@@@@@@@@@@@@@@@@@@@@@@@@@@@@@@@@@@@@@@@@@@@@@@@@@@@@@@@@@@@@@@@@@@@@@@@@@@@@@@@@@@@@@@@@@@@@@@@@@@@@@@@@@@@@@@@@@@@@@@@@@@@@@@@@@@@@@@@@@@@@@@@@@@@@@@@@@@@@@@@@@@@@@@@@@@@@@@@@@@@@@@@@@@@@@@@@",
"@@@@@@@@@@@@@@@@@@@@@@@@@@@@@@@@@@@@@@@@@@@@@@@@@@@@@@@@@@@@@@@@@@@@@@@@@@@@@@@@@@@@@@@@@@@@@@@@@@@@@@@@@@@@@@@@@@@@@@@@@@@@@@@@@@@@@@@@@@@@@@@@@@@@@@@@@@@@@@@@@@@@@@@@@@@@@@@@@@@@@@@@@@@@@@@@@@@@@@@@@@@@@@@@@@@@@@@@@@@@@@@@@@@@@@@@@@@@@@@@@@@@@@@@@@@@@@@@@@@@@@@@@@@@@@@@@@@@@@@@@@@@@@@@@@@@@@@@@@@@@@@@@@@@@@@@@@@@@@@@",
"@@@@@@@@@@@@@@@@@@@@@@@@@@@@@@@@@@@@@@@@@@@@@@@@@@@@@@@@@@@@@@@@@@@@@@@@@@@@@@@@@@@@@@@@@@@@@@@@@@@@@@@@@@@@@@@@@@@@@@@@@@@@@@@@@@@@@@@@@@@@@@@@@@@@@@@@@@@@@@@@@@@@@@@@@@@@@@@@@@@@@@@@@@@@@@@@@@@@@@@@@@@@@@@@@@@@@@@@@@@@@@@@@@@@@@@@@@@@@@@@@@@@@@@@@@@@@@@@@@@@@@@@@@@@@@@@@@@@@@@@@@@@@@@@@@@@@@@@@@@@@@@@@@@@@@@@@@@@@@@@",
"@@@@@@@@@@@@@@@@@@@@@@@@@@@@@@@@@@@@@@@@@@@@@@@@@@@@@@@@@@@@@@@@@@@@@@@@@@@@@@@@@@@@@@@@@@@@@@@@@@@@@@@@@@@@@@@@@@@@@@@@@@@@@@@@@@@@@@@@@@@@@@@@@@@@@@@@@@@@@@@@@@@@@@@@@@@@@@@@@@@@@@@@@@@@@@@@@@@@@@@@@@@@@@@@@@@@@@@@@@@@@@@@@@@@@@@@@@@@@@@@@@@@@@@@@@@@@@@@@@@@@@@@@@@@@@@@@@@@@@@@@@@@@@@@@@@@@@@@@@@@@@@@@@@@@@@@@@@@@@@@",
"@@@@@@@@@@@@@@@@@@@@@@@@@@@@@@@@@@@@@@@@@@@@@@@@@@@@@@@@@@@@@@@@@@@@@@@@@@@@@@@@@@@@@@@@@@@@@@@@@@@@@@@@@@@@@@@@@@@@@@@@@@@@@@@@@@@@@@@@@@@@@@@@@@@@@@@@@@@@@@@@@@@@@@@@@@@@@@@@@@@@@@@@@@@@@@@@@@@@@@@@@@@@@@@@@@@@@@@@@@@@@@@@@@@@@@@@@@@@@@@@@@@@@@@@@@@@@@@@@@@@@@@@@@@@@@@@@@@@@@@@@@@@@@@@@@@@@@@@@@@@@@@@@@@@@@@@@@@@@@@@",
"@@@@@@@@@@@@@@@@@@@@@@@@@@@@@@@@@@@@@@@@@@@@@@@@@@@@@@@@@@@@@@@@@@@@@@@@@@@@@@@@@@@@@@@@@@@@@@@@@@@@@@@@@@@@@@@@@@@@@@@@@@@@@@@@@@@@@@@@@@@@@@@@@@@@@@@@@@@@@@@@@@@@@@@@@@@@@@@@@@@@@@@@@@@@@@@@@@@@@@@@@@@@@@@@@@@@@@@@@@@@@@@@@@@@@@@@@@@@@@@@@@@@@@@@@@@@@@@@@@@@@@@@@@@@@@@@@@@@@@@@@@@@@@@@@@@@@@@@@@@@@@@@@@@@@@@@@@@@@@@@",
"@@@@@@@@@@@@@@@@@@@@@@@@@@@@@@@@@@@@@@@@@@@@@@@@@@@@@@@@@@@@@@@@@@@@@@@@@@@@@@@@@@@@@@@@@@@@@@@@@@@@@@@@@@@@@@@@@@@@@@@@@@@@@@@@@@@@@@@@@@@@@@@@@@@@@@@@@@@@@@@@@@@@@@@@@@@@@@@@@@@@@@@@@@@@@@@@@@@@@@@@@@@@@@@@@@@@@@@@@@@@@@@@@@@@@@@@@@@@@@@@@@@@@@@@@@@@@@@@@@@@@@@@@@@@@@@@@@@@@@@@@@@@@@@@@@@@@@@@@@@@@@@@@@@@@@@@@@@@@@@@",
"@@@@@@@@@@@@@@@@@@@@@@@@@@@@@@@@@@@@@@@@@@@@@@@@@@@@@@@@@@@@@@@@@@@@@@@@@@@@@@@@@@@@@@@@@@@@@@@@@@@@@@@@@@@@@@@@@@@@@@@@@@@@@@@@@@@@@@@@@@@@@@@@@@@@@@@@@@@@@@@@@@@@@@@@@@@@@@@@@@@@@@@@@@@@@@@@@@@@@@@@@@@@@@@@@@@@@@@@@@@@@@@@@@@@@@@@@@@@@@@@@@@@@@@@@@@@@@@@@@@@@@@@@@@@@@@@@@@@@@@@@@@@@@@@@@@@@@@@@@@@@@@@@@@@@@@@@@@@@@@@",
"@@@@@@@@@@@@@@@@@@@@@@@@@@@@@@@@@@@@@@@@@@@@@@@@@@@@@@@@@@@@@@@@@@@@@@@@@@@@@@@@@@@@@@@@@@@@@@@@@@@@@@@@@@@@@@@@@@@@@@@@@@@@@@@@@@@@@@@@@@@@@@@@@@@@@@@@@@@@@@@@@@@@@@@@@@@@@@@@@@@@@@@@@@@@@@@@@@@@@@@@@@@@@@@@@@@@@@@@@@@@@@@@@@@@@@@@@@@@@@@@@@@@@@@@@@@@@@@@@@@@@@@@@@@@@@@@@@@@@@@@@@@@@@@@@@@@@@@@@@@@@@@@@@@@@@@@@@@@@@@@",
"@@@@@@@@@@@@@@@@@@@@@@@@@@@@@@@@@@@@@@@@@@@@@@@@@@@@@@@@@@@@@@@@@@@@@@@@@@@@@@@@@@@@@@@@@@@@@@@@@@@@@@@@@@@@@@@@@@@@@@@@@@@@@@@@@@@@@@@@@@@@@@@@@@@@@@@@@@@@@@@@@@@@@@@@@@@@@@@@@@@@@@@@@@@@@@@@@@@@@@@@@@@@@@@@@@@@@@@@@@@@@@@@@@@@@@@@@@@@@@@@@@@@@@@@@@@@@@@@@@@@@@@@@@@@@@@@@@@@@@@@@@@@@@@@@@@@@@@@@@@@@@@@@@@@@@@@@@@@@@@@",
"@@@@@@@@@@@@@@@@@@@@@@@@@@@@@@@@@@@@@@@@@@@@@@@@@@@@@@@@@@@@@@@@@@@@@@@@@@@@@@@@@@@@@@@@@@@@@@@@@@@@@@@@@@@@@@@@@@@@@@@@@@@@@@@@@@@@@@@@@@@@@@@@@@@@@@@@@@@@@@@@@@@@@@@@@@@@@@@@@@@@@@@@@@@@@@@@@@@@@@@@@@@@@@@@@@@@@@@@@@@@@@@@@@@@@@@@@@@@@@@@@@@@@@@@@@@@@@@@@@@@@@@@@@@@@@@@@@@@@@@@@@@@@@@@@@@@@@@@@@@@@@@@@@@@@@@@@@@@@@@@",
"@@@@@@@@@@@@@@@@@@@@@@@@@@@@@@@@@@@@@@@@@@@@@@@@@@@@@@@@@@@@@@@@@@@@@@@@@@@@@@@@@@@@@@@@@@@@@@@@@@@@@@@@@@@@@@@@@@@@@@@@@@@@@@@@@@@@@@@@@@@@@@@@@@@@@@@@@@@@@@@@@@@@@@@@@@@@@@@@@@@@@@@@@@@@@@@@@@@@@@@@@@@@@@@@@@@@@@@@@@@@@@@@@@@@@@@@@@@@@@@@@@@@@@@@@@@@@@@@@@@@@@@@@@@@@@@@@@@@@@@@@@@@@@@@@@@@@@@@@@@@@@@@@@@@@@@@@@@@@@@@",
"@@@@@@@@@@@@@@@@@@@@@@@@@@@@@@@@@@@@@@@@@@@@@@@@@@@@@@@@@@@@@@@@@@@@@@@@@@@@@@@@@@@@@@@@@@@@@@@@@@@@@@@@@@@@@@@@@@@@@@@@@@@@@@@@@@@@@@@@@@@@@@@@@@@@@@@@@@@@@@@@@@@@@@@@@@@@@@@@@@@@@@@@@@@@@@@@@@@@@@@@@@@@@@@@@@@@@@@@@@@@@@@@@@@@@@@@@@@@@@@@@@@@@@@@@@@@@@@@@@@@@@@@@@@@@@@@@@@@@@@@@@@@@@@@@@@@@@@@@@@@@@@@@@@@@@@@@@@@@@@@",
"@@@@@@@@@@@@@@@@@@@@@@@@@@@@@@@@@@@@@@@@@@@@@@@@@@@@@@@@@@@@@@@@@@@@@@@@@@@@@@@@@@@@@@@@@@@@@@@@@@@@@@@@@@@@@@@@@@@@@@@@@@@@@@@@@@@@@@@@@@@@@@@@@@@@@@@@@@@@@@@@@@@@@@@@@@@@@@@@@@@@@@@@@@@@@@@@@@@@@@@@@@@@@@@@@@@@@@@@@@@@@@@@@@@@@@@@@@@@@@@@@@@@@@@@@@@@@@@@@@@@@@@@@@@@@@@@@@@@@@@@@@@@@@@@@@@@@@@@@@@@@@@@@@@@@@@@@@@@@@@@",
"@@@@@@@@@@@@@@@@@@@@@@@@@@@@@@@@@@@@@@@@@@@@@@@@@@@@@@@@@@@@@@@@@@@@@@@@@@@@@@@@@@@@@@@@@@@@@@@@@@@@@@@@@@@@@@@@@@@@@@@@@@@@@@@@@@@@@@@@@@@@@@@@@@@@@@@@@@@@@@@@@@@@@@@@@@@@@@@@@@@@@@@@@@@@@@@@@@@@@@@@@@@@@@@@@@@@@@@@@@@@@@@@@@@@@@@@@@@@@@@@@@@@@@@@@@@@@@@@@@@@@@@@@@@@@@@@@@@@@@@@@@@@@@@@@@@@@@@@@@@@@@@@@@@@@@@@@@@@@@@@",
"@@@@@@@@@@@@@@@@@@@@@@@@@@@@@@@@@@@@@@@@@@@@@@@@@@@@@@@@@@@@@@@@@@@@@@@@@@@@@@@@@@@@@@@@@@@@@@@@@@@@@@@@@@@@@@@@@@@@@@@@@@@@@@@@@@@@@@@@@@@@@@@@@@@@@@@@@@@@@@@@@@@@@@@@@@@@@@@@@@@@@@@@@@@@@@@@@@@@@@@@@@@@@@@@@@@@@@@@@@@@@@@@@@@@@@@@@@@@@@@@@@@@@@@@@@@@@@@@@@@@@@@@@@@@@@@@@@@@@@@@@@@@@@@@@@@@@@@@@@@@@@@@@@@@@@@@@@@@@@@@",
"@@@@@@@@@@@@@@@@@@@@@@@@@@@@@@@@@@@@@@@@@@@@@@@@@@@@@@@@@@@@@@@@@@@@@@@@@@@@@@@@@@@@@@@@@@@@@@@@@@@@@@@@@@@@@@@@@@@@@@@@@@@@@@@@@@@@@@@@@@@@@@@@@@@@@@@@@@@@@@@@@@@@@@@@@@@@@@@@@@@@@@@@@@@@@@@@@@@@@@@@@@@@@@@@@@@@@@@@@@@@@@@@@@@@@@@@@@@@@@@@@@@@@@@@@@@@@@@@@@@@@@@@@@@@@@@@@@@@@@@@@@@@@@@@@@@@@@@@@@@@@@@@@@@@@@@@@@@@@@@@",
"                          646456889xcbnmMNCZCNMmnbcx9878cbc5                             O     O                                                            h                                                                                                +                                          O                       ",
"                         %646456889xcbnmMNCZCNMmnbcx9878cbc5%                                                                       O                        ,                                                                                                                                                              ,O  ",
"                         2646456889xcbnmMNCZCNMmnbcx9878cbc52     ,                                                                                                                                               ,                                                                Cm      CC                                   ",
"                         3646456889xcbnmMNCZCNMmnbcx9878cbc53                                                                                                                                                                                                                     CmNC    Cmmm                                  ",
"     D                   4646456889xcbnmMNCZCNMmnbcx9878cbc54                                      O                    O                                                                   O                                                                       h            CmNC9   CmmN9           ,                      ",
"                         5646456889xcbnmMNCZCNMmnbcx9878cbc55                                                                                                                                                                                                                   CmNC9   CmmN9  ,                                ",
"       O    ,            6646456889xcbnmMNCZCNMmnbcx9878cbc55              D                                                                                                                           O                                                                       CmNC9   CmmN9,                                   ",
"          O              6646456889xcbnmMNCZCNMmnbcx9878cbc55                D                                                                    O                                                        O                         D            +                           CmNC9   CmmN9                                     ",
"                 ,       5646456889xcbbmMNCZCNMmnbcx9878cbc55  h     ,                                                                      O                                   D O                                                 h                          2xxxxxxxxxxxxxxxxC9   CmmN9                                   ,  ",
"                         5646456889xcbnmMNCZCNMmnbcx9878cbc55                                                O                h     ,                                                                                       +                              2xxxx7777777777777777xxxxCmmN9    ,                    ,             ",
"                         5646456889xcbnmMNCZCNMmnbcx9878cbc55          O                           O           O                                                                                                                          ,     O        2xx777777777777777777777777xxN9                                        ",
"                         5476456889xcbnmMNCZCNMmbbcx9878cbc55                                                                                                               O                                                                           2x777777555555555555555577777792                                        ",
"                         5476456889xcbnmMNCZCNMmmbcx9878cbc85                           ,                                                      ,                                O                                                                      2x7775555                5555777x2                      DO              O",
"        O                5476456889xcbnmMNCZCNmmbbcx9878cbc85                                                                                                                            ,                                                             x7755   488888888888888884   5577x                                       ",
"                         5476456889xcbnmMNCZCNMmnbcx9878cbc95       O                                                                               ,                                                                                                  775  488888bnmMNCZCNMmnb88884  577                                       ",
"                         5476456889xcbnmMNCZCNMmnbcx98789cbc5                                                                        O                                         ,                          ,                                     O      75 886889xcbnmMNCZCNMmnbcx97888 57                                   O   ",
"               O        O5476456889xcbnmMNCZCNMmnbcx98788cbc5         ,                       ,             ,                               O                    O                                                                                     5 7645689xcbnmMNCZCNMmnbcx978cb8 5                                       ",
"                     D   5476456889xcbnmMNCZCNMmnbcx98788cbc5                                                            O                          ,         O       ,             O                                                          O        67645689xcbnmMNCZCNMmnbcx978cbc5                           qeeeeeeeeeeee",
"                        %5476456889xcbnmMNCZCNMmnbcx98788cbc5%                                            O                        O                         O             ,                                                                           %67645689xcbnmMNCZCNMmbbcx978cbc5%                          qeeeeeeeeeeee",
"                        25476456889xcbnmMNCZCNMmnbcx98788cbc52                                     ,                                                      ,                                       +                                            +       267645689xcbnmMNCZCNMmbbcx978cbc52   D                         qqwwwwwwww",
"        ,          ,    35476456889xcbnmMNCZCNMmnbcx98788cbc53                                                                                              ,               h   O                            ,                                     O   367645689xcbnmMNCZCNMmnbcx978cbc53                  O     ,      qqqqqqqq",
"                        45476456889xcbnmMNCZCNMmnbcx98788cbc54              O                                                                                                                        O                                                 467645689xcbnmMNCZCNMmnbcx978cbc54            O       ,       Oh   qqqqqq",
"              h         55476456889xcbnmMNCZCNMmnbcx98788cbc55                                   ,            O            D           O O                         ,     O                                               O                             567645689xcbnmMNCZCNMmnbcx978cbc55                                   qqqq",
"         ,              65476456889xcbnmMNCZCNMmnbcx98788cbc55       ,        O                                                                                                                      ,                                                 667645689xcbnmMNCZCNMmnbcx978cbc55                                     qq",
"                        65476456889xcbnmMNCZCNMmnbcx98788cbc55                                                O                 ,      ,       O                  O                                                                                  h 667645689xcbnmMNCZCNMmnbcx978cbc55                                       ",
"            O           55476456889xcbnmMNCZCNMmnbcx98788cbc55                                                                                                                                                                                         567645689xcbnmMNCZCNMmnbcx978cbc55                                       ",
"                        55476456889xcbnmMNCZCNMmnbcx98788cbc55                                                            O     O                         O                                                   O          ,                             567645689xcbnmMNCZCNMmnbcx978cbc95                                       ",
"                        55476456889xcbnmMNCZCNMmnbcx98788cbc55                                                                                                                       ,     +                                                           567645689xcbnmMNCZCNMmnbcx9789cbc5                                       ",
"                        55476456889xcbnmMNCZCNMmnbcx98788cbc55                                          OO                                                    ,           +                                                                 O          567645689xcbnmMNCZCNMmnbcx9788cbc5        O                              ",
"                        55476456889xcbnmMNCZCNMmnbcx98788cbc55                 ,                  ,                                                        O                  +                                     ,                                  567645689xcbnmMNCZCNMmnbcx9788cbc5                                       ",
"      ,                 55476456889xcbnmMNCZCNMmnbcx98788cbc55                          O                               O                                                                                                          O                   567645689xcbnmMNCZCNMmnbcx9788cbc5                                       ",
"                        55476456889xcbbmMNCZCNMmnbcx98788cbc55             h                                                           O   O                             ,                                                           O                 567645689xcbnmMNCZCNMmnbcx9788cbc5               , O                     ",
"     O                  54675456889xcbnmMNCZCNMmnbcx98878cbc55                                                        ,                                                              +                                                                 567645689xcbbmMNCZCNMmnbcx9878cbc5                                       ",
"                        54764567889xcbnmMNCZCNMmnbcx98878cbc55                                                          O                                                                                                                              566456789xcbnmMNCZCNMmnbcx9878cbc5                                   -rrr",
"                        54764568889xcbnmMNCZCNMmnbcx98878cbc85                                                                                                                                          ,                                              676456889xcbnmMNCZCNMmnbcx9878cbc5                                 -rreep",
"                       %54764568889xcbnmMNCZCNMmnbcx98878cbc95%                                                                                        ,                      +                                                                       %676456889xcbnmMNCZCNMmnbcx9878cbc5%     ,                       ,-rrreeep",
"       ,               254764568889xcbnmMNCZCNMmnbcx988789cbc52             ,                                                             O                                                              ,              O                             2676456889xcbnmMNCZCNMmnbcx9878cbc52           ,                -rrreeeeui",
"           ,           354764568889xcbnmMNCZCNMmnbcx988788cbc53                                                                                                                                                         DO                            3676456889xcbnmMNCZCNMmnbcx9878cbc53                          -rrreeeeeuui",
"                       554764568889xcbnmMNCZCNMmnbcx988788cbc54                                                                         O                                                                                                             4676456889xcbnmMNCZCNMmnbcx9878cbc54                        -rrrreqqeeuuuu",
"                       554764568889xcbn852%#%2259bcx988788cbc55                                         j   ,  O                   O                     +                                                                             O              5676456889xcbnmMNCZCNMmnbcx9878cbc55                      -rrrreeeqeeuuuuu",
"                       554764568889xc53@$642%@52$36x988788cbc55                                        hkh             ,         ,                                                                                    O                              ,6676456889xcbnmMNCZCNMmbbcx9878cbc55                    -rrrreqq@@eeiiiiii",
"                       55476456888972%#8@9%c2 92#@23888788cbc55                                       jkDkj                                                     ,                           h     +                                                 , 6676456889xcbnmMNCZCNMmnbcx9878cbc55                  -rrrrqq@X@@eeuuuuuu@",
"                       554764568884$$3#Zx     X2S7X$%68788cbc55                                        hkh                                                    ,                                                            ,                          5676456889xcbnmMNCZCNMmnbcx9878cbc55               D-rrrreeqXX@Xeeuuuuuuu@",
"                      %5547645688422$c8X#%6786$.7c222%7788cbc55                      ,                  j                                                                                                                                             5676456889xcbnmMNCZCNMmnbcx9878cbc55              -rrreeqqoooooeeuuuuuuuuu",
"         ,            255476456862X7m@@5NJJJJJGM$ 7m@#%788cbc55      ,       CC      mC                                                                   +                                                                                           5676456889xcbn852%$$2259bcx9878cbc55       O     -rrreeqooooooeeuuuuuuuuuu",
"                      3554764568%2 .$ nJGSSSSASJJxo%  3%88cbc55             mmmC    CNmC                                                                                                                                    O                         5676456889xc62@$632$#52$36x9878cbc55           -rrreqqqooooooerrrrrrrrrrrr",
"                      45547645643    SJSAGJJASJHJJN   o278cbc55             9NmmC   9CNmC                                                                                     ,   +                     +                                             567645688972$$8@9%c2 92$@228878cbc55          -rreeeqooooooooerrrrrrrrrrrr",
"                      555476456%$   mJZSJMc8ZZc9bcC7   2%8cbc55              9NmmC   9CNmC        ,                    O                                                                                                     ,              ,         5676456884$$3#Zx     X2S7X#2678cbc55         -rreqqoooooooooooeewwwwwwwwww",
"                      5554764532.  3JSAJC. $Jx 74  A$  @28cbc55               9NmmC   9CNmC                                        O           +                                                                                     O                56764568422$v7X#26886#.7v223%58cbc95        -rreqqqqqqqqqqqqqqqeeqqqqqqqqq",
"   h                  555476452$   MJAJC  2JJ6%J7  Sb   %4cbc55                9NmmC   9CNmC                                                                D                                   +                 ,                      h            567645662X7m@@5NHJJJJGM% 7m@#%89cbc5        rreqq---------------eeqqqqqqqq",
"                      55547645%#  XGSJC  4JGSNHJ# .GS   %2cbc55                 9NmmC   9Cxxxxxxxxxxxxx2                                                                                         +                                                    5676456%% .% mJGSSSSSSJJxX%  328cbc5       -rreqoooooooooooooooooee-------",
"                      55547645$x. 9GJC  4JJSZJJ% .AJS4 @9%cbc55                  9NmmCxxxx7777777777777xxxx2                                               39mmmmmmmmmmmmmmmmmmmmmmmm8888mm93                     O               O  ,                56764522.   SJAAGJJSSJGJJN   X27cbc5       rreeqooooooooooooooooooee------",
"            ,         55547545@bc8mGC  5JHSFFG2 XZJFCb8vx$cbc55     ,             9Nxx777777777777777777777xx2                                     39mmmmmmmmnbbbbbbbbbbnmnbbnmMNZNMmbbbbbbmmmmmmmm88              O                                 %567646%$   MJAZJNc8ZZc9bcC7   22cbc5%      rreeqqqqqqqqqqqqqqqqqqqqee=====",
"                      55467455@cNbcJ@  $$@@@mm  cJbMSxMm7$cbc55                   297777775555555555555777777x2                                39mmmmcxcbbbbbnbbbbbbbbbbnmbbbnmMNZNMmbbbbbbbbbbbbbbbb8893              O                         O   25676422.  3JAAJC. #Jx 64  A%  @%xbc52      rreeq--------------------ee====",
"                      55467455@xnbcG@       vm  bm mS9nn7%cbc55                  2x7775555             5555777x2                ,            5mmnnbnbcxcbbbbbnbbbbbbbbbbnmnbbnmMNZNMmnbbbbbbbbbbbbbbbbbbmm5                                          356764%$   mJAJC  2JJ6%J7  Sb   %7bc53      rreeqoooooooooooooooooooooee***",
"                      55467455#974xCmxxxb6  bNoo7@XSN83c52cbc55                  x7755   488888888888884   5577x                           4cbcbnnbnbcxcbbbbbnbbbbbbbbbbnmnbbnmMNZNMmnbbbbbbbbbbbbbbbbbbbcbc4                               ,        456764%#  XGSJC  3JGSNHJ# .GS   %4bc54      rreeqqqqqqqqqqqqqqqqqqqqqqqeeee",
"                      5546745524cbvvJJJJJM  7JSSCZSGcbvv$6cbc55                  775  488889bnmMNNMmnb88884  577                          8xcbcbnnbnbcxcbbbbbnbbbbbbbbbbnmnbbnmMNZNMmbbbbbbbbbbbbbbbbbbbbcbcx8              O             O  ,       556764#x. 9GJC. 4JHSAJJ2 .AJS4 @x2bc55      rreeq-----------------------eee",
"          ,        h  554674556@bn88ZGAAJb  8JFSFSJM79mx@8cbc55                  75 886889xcbbmMNNMmnbcx97888 57                 O       58xcbcbnnbnbcxcbbbbbbbbbbvbbbbbnmnbbnmMNZNMmnbbbbbbbbbbbbbbbbbbbcbcx85                    O  O              656764@bc7mHN. 5JJSFFF2 XZJSCn8vx2bc55      rreeqqooooooooooooooooooo@X@X@X",
"                      554674556$893c9GGASZNMZSSSAHZ8x3b248cbc552     D           5 7645689xcbnmMNNMmnbcx978cb8 5              h          58xcbcbnnbbbcxcbbbbcxxxxxxxxxxxxxxxxxxxxxxxxxxxxxxcbbbbbbbbbbbbbcbcx85                            O         656765@xNbcJ@  $$@@@mm  cJvmSxMm7%bc55      rreeqqqooooooooooooooooooX@X@X@",
"                      5546745567@vMmc9SGSSGHFSASHA9vmM9o88cbc552          ,       67645689xcbnmMNNMmnbcx978cbc5       O       O          58xcbcbnncxxxxxxxxx84%%%%%%%%%%%%%%%%%%%%%%%%%%%%48xxxxxxxxxcbbbcbcx85                                      556764@xnbxH@       vn  bm mF9bn62bc55      -rreeqqqqqqqqqqqqqqqqqqqqqqqqqq",
"                      554674556823nn%5cNGGGFFGGSM847nv$588cbc552                 %67645689xcbnmMNNMmnbcx978cbc5%                         58xcxxxxx84%%%%%%%%%%$$$$$$$$$$$$$$$$$$%$$$$$$$$$%%%%%%%%%%48xxxxxcx85  O                                   556764@983cCmxccb6  bNo@8@XSC83c55bc55      ,rrreeqqqqqqqqqqqqqqqqqqqqqqqqq",
"                     %55467455688#695647bNCCCNMc9624x32788cbc854                 267645689xcbnmMNNMmnbcx978cbc52                         58x83%%%%%%$$$68cnMNNNNNNNNNNNNNNNNNNNNNNNNNNNNNNNNMnc86$$$%%%%%%38x85          O     O                     556764%4cbcvJJJJJm  8JSSCZSScbvv$9bc55     <a-rrreeeeeeeeeeeeeeeeeeeeeeeeee",
"                     2554674556888@6m543%449x626$2x72%8788cbc955                 367645689xcbnmMNNMmnbcx978cbc53                         53 68cnNNNNNNNNNMnmMmnnnnnnnnnnmMmnmMNCSSGHGFSCN  nnnnMNNN  NNMnc86 35    h                               , 5567645@bb88CGASJb  8JFFFSJM79m9@cbc55      ,a,-rrrrrrrrrrrrrrrrrrrrrrrrrrr",
"                     35546745568889%379335548m3828x22888788cbc55                 467645689xcbnmmNNMmnbcx978cbc54                          389xcxnmncx9xcbnnmMmnnnnnnnnnnmMmnmMNCSFGHGSSCNM nnnnytttty 555c 983                    O                  5567645#893c9GGASZNMZSSAAGA9x3b34cbc55       <   -rrrrrrrrrrrrrrrrrrrrrrrrr",
"                     45546745568889x5268bxb78mxv94$79888788cbc55                 567645689xcbnmMNNMmnbcx978cbc55                         3855c nm5cx9xcbnnnmMmnnnnnnnnnnmMmnbmMNCSFGHGFSCN 55nn5555tty  55 598                                       55676456@vMmc9SGSSHGFASSGZ9vmm9@8cbc55                                     ",
"h                    55546745568889xcb7$%467754$$8cx9888788cbc55                 667645689xcbnmMNNMmnbcx978cbc55                        385555cn5 5x9xcbnnmMmbnnnnnnnnnnmMmnnmMNCSFGHGF CNM##55####555   nb 5 83                                     5567645622nn%5cNFGGGFGHSM858nv$58cbc55                                     ",
" ,                   55546745568889xcbb8889xx9889bcx9888788cbc55                 667645689xcbnmMNNMmnbcx978cbc55           D           3555   55   5  bnnnmMmnnnnnnnnnnnnmMmnmMNCSSGHG  CN###5####%##5   55  x 83                                    556764568#795647bMZCCNmv962492278cbc55                 ,         h         ",
"                     55546745568889xcbnm889xx988mbcx9888788cbc55                 567645689xcbnmMNNmmnbcx978cbc55                      38555    5    x  nnmMmnnnnnnnnnnnnnmMmnmMNCSSGHGF CN55#######%          x983          O                        5676456788#6m5422449x726$2x73%878cbc55           O                         ",
"                     55546745568889xcbbm889xx989bbcx9888788cbc55                 567645689xcbnmMNNMmnbcx978cbc95                     35555         55bnnnmMmnnnnnnnnnnnnnmMmnbmMNCSFGGG  C5########%         b x983                                  56764568889%279335548n3828x228878cbc55                                     ",
"               ,     55546745568889xcbnmm89xx98mnbcx9888788cbc55             ,   567645689xcbnmMNNMmnbcx9789cbc5                    355  5           5n nmMmnnnnnnnnnnnnnmMmnnmMNCSSGHGF C5#########%%      55 cx  3   D                            %56764568889x6%58bxb78mcvx3$798878cbc95%               ,    O               ",
"                     55546745568889xcbnmM89xx99mnbcx9888788cbc55                 567645689xcbnmMNCMmnbcx9788cbc5               O   355                 nmMmnnnnnnnnnnnnnnmMmnnmMNCSFGHGFS5############$      5 5   83                 O             256764568889xcb7$%467753$$8cx988789cbc52                                    ",
"      O              55546745568889xcbnmMN9xx9Mmnbcx9888788cbc55             ,   567645689xcbnmMNNmmnbcx9788cbc5                  355      8bZZ3     5nnmMmnnnnnbmbnnnnnnmMmnnmMNCSSGHGFS##############         bcx 83                            , 356764568889xcbn8889xx9889bcx988788cbc53 O                           O      ",
"                     55547455678899xcbnmMN9xx9Mmnbcx9888788cbc55                 567645689xcbnmMNNMmnbcx9788cbc5                 385     8mZZ%%Z3x5  55nmMmnnnnnnnnnnnnnnmMmnnnmMNCSSGH######m5######$          55cx983   ,                         456764568889xcbnm889xx988nbcx988788cbc54                                    ",
"                     55467455688889xcbnmMNCxxNMmnbcx9888788cbc55                 567645689xcbnmMNNMmnbcx9788cbc5               O38955  8mZmmZ  %Z5     5MmbnnnnnnnnnnnnnnnmMmnnmMNCSFG##F@CNMmn#n5###%            5cx983                            556764568889xcbnm889xx989nbcx988788cbc55                                    ",
"           ,         55467455688889xcbnmMNCZCNMmnbcx9888788cbc55                 567645689xcbnmMNNMmnbcx9878cbc5               38 x558mZmmZMZn %Zc5    mMmmbnnnnnnnnnnnnnnmMmnnmMNC FG#GFS NMm nn55##$             bc 983                           656764568889xcbnmm89xx98mnbcx988788cbc55                                    ",
"                     55467455688889xcbnmMNCZCNMmnbcx9888788cbc55                 566456789xcbnmMNNMmnbcx9878cbc5          O   38  c8mZmmZZZMbZZZbcb5  mMmnnnnnnnnnnnnnnnnnmMmnnnmMNCSFGHGFSCNMmn####%%           5n    983             D       O    656764568889xcbnmM89xx99mnbcx988788cbc55                                    ",
"                     55467455688889xcbbmMNCZCNMmnbcx9888788cbc55                 676456889xcbnmMNNMmnbcx9878cbc5             389x8mZmmZZZM99m99 cbnn nmMmnnnnnnnnnnnnnnnnnmMmnnnmMNCSSGHGSSCN55nn5#%$            nbnn  x983                         556764568889xcbnmMN9xx9Mmnbcx988788cbc55                                    ",
"       D             55467455688889xcbnmMNCZCNMmnbcx9888788cbc55                %676456889xcbnmMNNMmnbcx9878Bic5%           3898mZmmZZZM99m99x  cbnnn mMmnnnnnnnnnnnnnnnnnmMmnnnmMNCSSGHGF5555##n5#$           5nnnbnnbcx983                 ,      556764568889xcbnmMN9xx9Mmnbcx988788cbc55                   O    ,           ",
"           ,        %55467455688889xcbnmMNCZCNMmnbcx9888788cbc55                2676456889xcbnmMNNMmnbcx987iiii52          388mZmmZZZM99m99 x9x bnnnnm mnnnnnnnnnnnnnnnnnnmMmnnnmMNCSFGHGFS#####55###     %#    5nn    bcx983                       556764568889xcbnmMNCxxNMmnbcx988788cbc55                         O          ",
"                    255467455688889xcbnmMNC666Mmnbcx9888788cbc55  h   ,         3676456889xcbnmMNNM2xCCCCCCCCCCCCCCCx2    38mZmmZZZM99m99cccx9x bnnnnmMmnnnnnnnnnnnnnnnnnnmMmnnnnmMNCSSGHG5#CN###5#%     #%#     55 5nn bcx983      O               556764568889xcbnmMNCZCNM666cx988788cbc55         ,                          ",
"           O        355467455688889xcbnmMN6&&&6mnbcx9888788cbc55                4676456889xcbn2xCCCCCMMMMMMMMMMMMMMmCCCCbxmZmmZZZM99m99ncccx9xcb nnnnmMmnnnnnnnnnnnnnnnnnnmmmnnnnmMNCSSGHG SCNM5##%#     %#         5bnnnbcx983                     556764568889xcbbmMNCZCN60006x988788cbc55                                    ",
"                    455467455688889xcbnmMN6&&&6mnbcx9888788cbc55                56764568892xCCCCMMMMMmmmmmmmmmmmmmmmMMbbmZmmZZZM99m9nmnccccx9xcb nnnmMmnnnnnnbnnnnnnnbnnnnnmMmnnnmMNCSFG GSSCN55##%#     %#          55nnnbcx983                    556764568889xcbnmMNCZCN60006x988788cbc55                                    ",
"                    555467455688889xcbnmMN66666mnbcx9888788cbc55         ,      66764562xCCCMMMmmmmmmbbbbbbbbbbbbbbbbbmZmmZZZM99m9vbmnccccx9xcb nnnnmmmnnnnnnmbnnnnnbmnnnnnmMmnnnmMNCSFGHGFSCN5##$#     %%##           bnnnbcx983                   556764568889xcbnmMNCZCN66666x988788cbc55                                    ",
"                    555467455688889xcbnmMN6&&&6mnbcx9888788cbc55         O      667642xCCMMMmmmmbbbbbbbbbbbbbbbbbbbbmZmmZZZM99m9xccnmnccccx9xc nnnnmMmnnnnnnnnnnnnnnnnnnnnnmMmnnnnmmNCSFGGGF#######    %#####        nn bnnnbcx983                  556764568889xcbnmMNCZCN60006x988788cbc55                                    ",
"                    555467455688889xcbnmMN6&&&6mnbcx9888788cbc55                5672xCCMMmmmbbbbbbbbbbbbbbbbbbbbbbmZmmZZZM99m9cxccnmnccccx9xcbnnnnnmMmnnnnnnnnnnnnnnnnnnnnnmMmnnnnmMNCSFGHGFSCN#m# nn ####n nytt tyn  nnnbnnnbcx983                 556764568889xcbnmMNCZCN60006x988888cbc55                                    ",
"                    555467455688889JJJJJJJJJJJJJJJJJJJJJJJJJJJJJJJJJJJJJJJJJJJJJJJJJJJJJJJJJJJJJJJJJJJJJJJJJJJJJJJJJJJJJJJJJJJJJJJJJJJJJJJJJJJJJJJJJJJJJJJJJJJJJJJJJJJJJJJJJJJJJJJJJJJJJJJJJJJJJJJJJJJJJJJJJJJJJJJJJJJJJJJJJJJJJJJJJJJJJJJJJJJJJJJJJJJJJJJJJJJJJJJJJJJJJJJJJJJJJJJJJJJJJbc55                                    ",
"                    555467455688889JJJJJJJJJJJJJJJJJJJJJJJJJJJJJJJJJJJJJJJJJJJJJJJJJJJJJJJJJJJJJJJJJJJJJJJJJJJJJJJJJJJJJJJJJJJJJJJJJJJJJJJJJJJJJJJJJJJJJJJJJJJJJJJJJJJJJJJJJJJJJJJJJJJJJJJJJJJJJJJJJJJJJJJJJJJJJJJJJJJJJJJJJJJJJJJJJJJJJJJJJJJJJJJJJJJJJJJJJJJJJJJJJJJJJJJJJJJJJJJJJJJJJbc55%                                   ",
"                    555467455688889GZZZZZZZZZZZZZZZZZZZZZZZZZZZZZZZZZZZZZZZZZZZZZZZZZZZZZZZZZZZZZZZZZZZZZZZZZZZZZZZZZZZZZZZZZZZZZZZZZZZZZZZZZZZZZZZZZZZZZZZZZZZZZZZZZZZZZZZZZZZZZZZZZZZZZZZZZZZZZZZZZZZZZZZZZZZZZZZZZZZZZZZZZZZZZZZZZZZZZZZZZZZZZZZZZZZZZZZZZZZZZZZZZZZZZZZZZZZZZZZZZZZGbc552                                   ",
"                    555467455688889GZZZZZZZZZZZZZZZZZZZZZZZZZZZZZZZZZZZZZZZZZZZZZZZZZZZZZZZZZZZZZZZZZZZZZZZZZZZZZZZZZZZZZZZZZZZZZZZZZZZZZZZZZZZZZZZZZZZZZZZZZZZZZZZZZZZZZZZZZZZZZZZZZZZZZZZZZZZZZZZZZZZZZZZZZZZZZZZZZZZZZZZZZZZZZZZZZZZZZZZZZZZZZZZZZZZZZZZZZZZZZZZZZZZZZZZZZZZZZZZZZZZGbc553      O                            ",
"                    555467455688889cccccccccccccccccccccccccccccccccccccccccccccccccccccccccccccccccccccccccccccccccccccccccccccccccccccccccccccccccccccccccccccccccccccccccccccccccccccccccccccccccccccccccccccccccccccccccccccccccccccccccccccccccccccccccccccccccccccccccccccccccccccbc554                                   ",
"                    555467455688889xcbCm55555555555nMn55555555555nMn55555555555nMn55555555555nMn55555555555bMn55555555555nMn55555555555nMn55555555555nMn55555555555nMn55555555555nMn55555555555nMn55555555555nMn55555555555nMn55555555555nMn55555555555nMn55555555555nMn55555555555mC88cbc555      h                            ",
"                    555467455688889xcbGC52222222225nCn52222222225nCn52222222225nCn52222222225nCn52222222225nCn52222222225nCn52222222225nCn52222222225nCn52222222225nCn52222222225nCn52222222225nCn52222222225nCn52222222225nCn52222222225nCn52222222225nCn52222222225nCn52222222225CG88cbc955          ,                        ",
"                    555467455688889xcbGC55555555555nCn55555555555nCn55555555555nCn55555555555nCn55555555555nCn55555555555nCn55555555555nCn55555555555bCn55555555555nCn55555555555nCn55555555555nCn55555555555nCn55555555555nCn55555555555nCn55555555555bCn55555555555nCn55555555555CG889cbc55                           D       ",
"             h      555467455688889xcbGCJJJJJJJJJJJCCJJJJJJJJJJJJCCJJJJJJJJJJJJCCJJJJJJJJJJJJCCJJJJJJJJJJJJCCJJJJJJJJJJJJCCJJJJJJJJJJJJCCJJJJJJJJJJJJCCJJJJJJJJJJJJCCJJJJJJJJJJJJCCJJJJJJJJJJJJCCJJJJJJJJJJJJCCJJJJJJJJJJJJCCJJJJJJJJJJJJCCJJJJJJJJJJJJCCJJJJJJJJJJJJCCJJJJJJJJJJJJCG888cbc55                              ,    ",
"                    554567455688889xcbGCCCCCCCCCCCCCCCCCCCCCCCCCCCCCCCCCCCCCCCCCCCCCCCCCCCCCCCCCCCCCCCCCCCCCCCCCCCCCCCCCCCCCCCCCCCCCCCCCCCCCCCCCCCCCCCCCCCCCCCCCCCCCCCCCCCCCCCCCCCCCCCCCCCCCCCCCCCCCCCCCCCCCCCCCCCCCCCCCCCCCCCCCCCCCCCCCCCCCCCCCCCCCCCCCCCCCCCCCCCCCCCCCCCCCCCCCCCCCG888cbc55                                   ",
"                   %554567455688889xcbGCCCCCCCCCCCCCCCCCCCCCCCCCCCCCCCCCCCCCCCCCCCCCCCCCCCCCCCCCCCCCCCCCCCCCCCCCCCCCCCCCCCCCCCCCCCCCCCCCCCCCCCCCCCCCCCCCCCCCCCCCCCCCCCCCCCCCCCCCCCCCCCCCCCCCCCCCCCCCCCCCCCCCCCCCCCCCCCCCCCCCCCCCCCCCCCCCCCCCCCCCCCCCCCCCCCCCCCCCCCCCCCCCCCCCCCCCCCCCG888cbc55                                   ",
"                   2554567455688889xcbGCCCCCCCCCCCCCCCCCCCCCCCCCCCCCCCCCCCCCCCCCCCCCCCCCCCCCCCCCCCCCCCCCCCCCCCCCCCCCCCCCCCCCCCCCCCCCCCCCCCCCCCCCCCCCCCCCCCCCCCCCCCCCCCCCCCCCCCCCCCCCCCCCCCCCCCCCCCCCCCCCCCCCCCCCCCCCCCCCCCCCCCCCCCCCCCCCCCCCCCCCCCCCCCCCCCCCCCCCCCCCCCCCCCCCCCCCCCCCG888cbc55  O                                ",
"                   3554567455688889xcbGCCCCCCCCCCCCCCCCCCCCCCCCCCCCCCCCCCCCCCCCCCCCCCCCCCCCCCCCCCCCCCCCCCCCCCCCCCCCCCCCCCCCCCCCCCCCCCCCCCCCCCCCCCCCCCCCCCCCCCCCCCCCCCCCCCCCCCCCCCCCCCCCCCCCCCCCCCCCCCCCCCCCCCCCCCCCCCCCCCCCCCCCCCCCCCCCCCCCCCCCCCCCCCCCCCCCCCCCCCCCCCCCCCCCCCCCCCCCCG888cbv55                                   ",
"%%%%%%%%%%%%%%%%%%%4554674556888889xcbGGGGGGGGGGGGGGGGGGGGGGGGGGGGGGFGGGGGGGGGGGGGGGGFGGJJJJJJJJJJJJJJJJJJJJJJJJJJJJJJJJCmGGGGGGGGGGGGGGGGGGGGGGGGGGGGGGGGGGGGGGGGGGGGGGGGGGGGGGGGGGGGGGGGGGGGGGGmCJJJJJJJJJJJJJJJJJJJJJJJJJJJJJJJJGGGGGGGGGGGGGGGGGGGGGGGGGGGGGGGGGGGGGGGGGGGGGGGGGG888cbc55%%%%%%%%%%%%%%%%%%%%%%%%%%%%%%%%%%%",
"%%%%%%%%%%%%%%%%%%%5554674556888889xcGSFFFFFFFFFFFFFFFFFFFFFFFFFFFFFFFFFFFFFFFFFFFFFFFFFJJJJJJJJJJJJJJJJJJJJJJJJJJJJJJJJmMFFFFFFSFFFFFFFFFFFFFFFFFFFFFFFFFFFFFFFFFFFFFFFFFFFFFFFSFFFFFFFFFFFFFFFFMmJJJJJJJJJJJJJJJJJJJJJJJJJJJJJJJJFFFFFFFFFFFFFFFFFFFFFFFFFFFFFFFFFFFFFFFFFFFFFSFFFFG88cbc55%%%%%%%%%%%%%%%%%%%%%%%%%%%%%%%%%%%",
"%%%%%%%%%%%%%%%%%%%5554674556888889xGFFFFFFFFFFFFFFFFFFFFFFFFFFFFFFFFFFFFFFFFFFFFFFFFFFJJJJJJJJJJJJJJJJJJJJJJJJJJJJJJJJJnMFFFFFFFFFFFFFFFFFFFFFFFFFFFFFFFFFFFFFFFFFFFFFFFFFFFFFFFFFFFFFFFFFFFFFFFMnJJJJJJJJJJJJJJJJJJJJJJJJJJJJJJJJJFFFFFFFFFFFFFFFFFFFFFFFFFFFFFFFFFFFFFFFFFFFFFFFFFFG8cbc55%%%%%2%%%%%%%%%%%%%%%%%%%%%%2%%%%%%",
"%%%%%%%2%%%%%%%2%%%5554674556888889GFFFFFFFFFFFFFFFFFFFFFFFFFFFFFFFFFFFFFFFFFFFFFFFFFFFJJJJJJJJJJJJJJJJJJJJJJJJJJJJJJJJJnMFFFFFFFFFFFFFFFFFFFFFFFFFFFFFFFFFFFFFFFFFFFFFFFFFFFFFFFFFFFFFFFFFFFFFFFMnJJJJJJJJJJJJJJJJJJJJJJJJJJJJJJJJJFFFFFFFFFFFFFFFFFFFFFFFFFFFFFFFFFFFFFFFFFFFFFFFFFFFGcbc55%%%2%%%%%%%%2%%%%%%%%%2%%2%%%%2%%2%",
"%%%%22%%222%%%%%2%%555467455688888GFFFFFFFFFFFFFFFFFFFFFFFFFFFFFFFFFFFFFFFFFFFFFFFFFFFJJJJJJJJJJJJJJJJJJJJJJJJJJJJJJJJJZnMFFFFFFFFFFFFFFFFFFFFFFFFFFFFFFFFFFFFFFFFFFFFFFFFFFFFFFFFFFFFFFFFFFFFFFFMnZJJJJJJJJJJJJJJJJJJJJJJJJJJJJJJJJJFFFFFFFFFFFFFFFFFFFFFFFFFFFFFFFFFFFFFFFFFFFFFFFFFFFGbc55%%2%2222%%2%%%%2%%%%2222%%%2%%%%22%",
"2%%%%2%2%22222%2%2%55546745568888GFFFFFFFFFFFFFFFFFFFFFFFFFFFFFFFFFFFFFFFFFFFFFFFFFFFFJJJJJJJJJJJJJJJJJJJJJJJJJJJJJJJJJmnMFFFFFFFFFFFFFFFFFFFFFFFFFFFFFFFFFFFFFFFFFFFFFFFFFFFFFFFFFFFFFFFFFFFFFFFMnmJJJJJJJJnnnnnnnmnnnnnmnnnnJJJJJJJSFFFFFFFFFFFFFFFFFFFFFFFFFFFFFFFFFFFFFFFFFFFFFFFFFFFGc55%%2222222%2%%22%2%222222%2222%%2222",
"23%22222322222322235554674556888GFFFFFFFFFFFFFFFFFFFFFFFFFFFFFFFFFFFFFFFFFFFFFFFFFFFFJJJJJJJJJJJJJJJJJJJJJJJJJJJJJJJJJJmnMFFFFFFFFFFFFFFFFFFFFFFFFFFFFFFFFFFFFFFFFFFFFFFFFFFFFFFFFFFFFFFFFFFFFFFFMnmJJJJJJJJ .  .    . .   22cJJJJJJJJFFFFFFFFFFFFFFFFFFFFFFFFFFFFFFFFFFFFFFSFFFFFFFFFFFFFG5522222222232322333%22224232%%2323322",
"2222233323222232223555467455688GFFFFFFFFFFFFFFFFFFFFFFFFFFFFFFFFFFFFFFFFFFFFFFFFFFFFFJJJJJJJJJJJJJJJJJJJJJJJJJJJJJJJJJJnMFFFFFFFFFFFFFFFFFFFFFFFFFFFFFFFFFFFFFFFFFFSFFFFFFFFFFFFFFFFFFFFFFFFFFFFFFMnJJJJJJJJJ . . .  .     22ccJJJJJJJFFFFFFFFFFFFFFFFFFFFFFFFFFFFFFFFFFFFFFFFFFFFFFFFFFFFFG522322323222322232223232323322223223",
"233223333332333333255546745568GFFFFFFFFFFFFFFFSFFFFFFFFFFFFFFFFFFFFFFFFFFFFFFFFFFFFFJJJJJJJJJJJJJJJJJJJJJJJJJJJJJJJJJJZnMFFFFFFFFFFFFFFFFFFFFFFFFFFFFFFFFFFFFFFFFFFFFFFFFFFFFFFFFFFFFFFFFFFFFFFFFFMnZJJJJJJJJ000  000 .000.222cJJJJJJJJFFFFFFFFFFFFFFFFFFFFFFFFFFFFFFFFFFFFFFFFFFFFFFFFFFFFFG33322232223232223323332333222333322",
"32242333233333333435554674556GFFFFFFFFFFFFFFFFFFFFFFFFFFFFFFFFFFFFFFFFFFFFFFFFFFFFFFJJJJJJJJJJJJJJJJJJJJJJJJJJJJJJJJJJmnMFFFFFFFFFFFFFFFFFFFFFFFFFFFFFFFFFFFFFFFFFFFFFFFFFFFFFFFFFFFFFFFFFFFFFFFFFMnmJJJJJJJJ .  . .   ..  222ccJJJJJJJFFFFFFFFFFFFFFFFFFFFFFFFFFFFFFFFFFFFFFFFFFFFFFFFFFFFFFG2333333233433333233333224223433443",
"3334344333433433333555467455GFFFFFFFFFFFFFFFFFFFFFFFFFFFFFFFFFFFFFFFFFFFFFFFFFFFFFFJJJJJJJJJJJJJJJJJJJJJJJJJJJJJJJJJJJmnmFFFFFFFFFFFFFFFFFFFFFFFFFFFFFFFFFFFFFFFFFFFFFFFFFFFFFFFFFFFFFFFFFFFFFFFFFMnmJJJJJJJJJ .   . .    .2222cJJJJJJJJFFSFFFFFFFFFFFFFFFFFFFFFFFFFFFFFFFFFFFFFFFFFFFFFFFFFFFG433333344333334333443452543333443",
"333343443434334343355546745GFFFFFFFFFFFFFFFFFFFFFFFFFFFFFFFFFFFFFFFFFFFFFFFFFFFFFFFJJJJJJJJJJJJJJJJJJJJJJJJJJJJJJJJJJJmnMFFFFFFFFFFFFFFFFFFFFFFFFFFFFFFFFFFFFFFFFFFFFFFFFFFFFFFFFFFFFFFFFFFFFFFFFFMnmJJJJJJJJJ  ..   ..  ..2222cJJJJJJJJFFFFFFFFFFFFFFFFFFFFFFFFFFFFFFFFFFFFFFFFFFFFFFFFFFFFFFFG44444433434433334344344244443343",
"33444434354444334455554674GFFFFFFFFFFFFFFFFFFFFFFFFFFFFFFFFFFFFFFFFFFFFFFFFFFFFFFFJJJJJJJJJJJJJJJJJJJJJJJJJJJJJJJJJJJZmnMFFFFFFFFFFFFFFFFFFFFFFFFFFFFFFFFFFFFFFFFFFFFFFFFFFFFFFFFFFFFFFFFFFFFFFFFFMnmZJJJJJJJJ.    .   ..  2222ccJJJJJJJJFFFFFFFFFFFFFFFFFFFFFFFFFFFFFFFFFFFFFFFFFFFFFFFFFFFFFFFG4445444544444444434443444433444",
"4454454443454545534555467GFFFFFFFFFFFFFFFFFSFFFFFFFFFFFFFFFFFFFFFFFFFFFFFFFFFSFFFFJJJJJJJJJJJJJJJJJJJJJJJJJJJJJJJJJJJmmnMFFFFFFFFFFFFFFFFFSFFFFFFFSFFFFFFFFFFFFFSFFFFFFFFFFFFFFFFFFFFFFSFFFFFFFFFFMnmmJJJJJJJJ   .. ..   . 22222cJJJJJJJJFFFFFFFFFFFFFSFFFFFFFFFFFFFFFFFFFFFFFFFFSFFFFFFFFFFFFFFFG555344344545444535455345445444",
"545445455455454444555546GGGGGGGGGGGGGGGGGGGGGGGGGGGGGGGGGGGGGFGGGGGGGGGGGGGGGGGGFJJJJJJJJJJJJJJJJJJJJJJJJJJJJJJJJJJJJmmbMGGGGGGGGGGGGGGGGGGGGGGGGGGGGGGGGGGGGGGGGGGGGGGGGGGGGGGGGGGGGGGGGGGGGGGGGGMnmmJJJJJJJJJ.   .   . . 22222ccJJJJJJJJGGGGGGGGGGGGGGGGGGGGGGGGGGGGGGGGGGGGGGGGGGGGGGGGGGGGGGGGG55455545545454544444554454445",
"555554544545545544555546GCCCCCCCCCCCCCCCCCCCCCCCCCCCCCCCCCCCCCCCCCCCCCCCCCCCCCCCCJJJJJJJJJJJJJJJJJJJJJJJJJJJJJJJJJJJJmmmnMCCCCCCCCCCCCCCCCCCCCCCCF11111111111111111111111FCCCCCCCCCCCCCCCCCCCCCCCMnmmmJJJJJJJJJ .   . . .  222222cJJJJJJJJCCCCCCCCCCCCCCCCCCCCCCCCCCCCCCCCCCCCCCCCCCCCCCCCCCCCCCCCG65455455555455655545554455446",
"564545655455645555555546GCCCCCCCCCCCCCCCCCCCCCCCCCCCCCCCCCCCCCCCCCCCCCCCCCCCCCCCJJJJJJJJJJJJJJJJJJJJJJJJJJJJJJJJJJJJZmmmnMCCCCCCCCCCCCCCCCCCCm95CF11111111111111111111111FCm95CCCCCCCCCCCCCCCCCCCMbmmmZJJJJJJJJ . .   .   .222222ccJJJJJJJJCCCCCCCCCCCCCCCCCCCCCCCCCCCCCCCCCCCCCCCCCCCCCCCCCCCCCCCG65545555555556546665655555665",
"566565566655565666655456GCCCCCCCCCCCCCCCCCCCCCCCCCCCCCCCCCCCCCCCCCCCCCCCCCCCCCCCJJJJJJJJJJJJJJJJJJJJJJJJJJJJJJJJJJJJmmmmnMCCCCCCCCCCCCCCCCCCCm95CF11sssssssssssssssssss11FCm95CCCCCCCCCCCCCCCCCCCMnmmmmJJJJJJJJJ  . .   .. 2222222cJJJJJJJJCCCCCCCCCCCCCCCCCCCCCCCCCCCCCCCCCCCCCCCCCCCCCCCCCCCCCCCG66665556665656566656665665665",
"665566666656566666555456GCCCCCCCCCCCCCCCCCCCCCCCCCCCCCCCCCCCCCCCCCCCCCCCCCCCCCCJJJJJJJJJJJJJJJJJJJJJJJJJJJJJJJJJJJJJmmmmnMCCCCCCCCCCCCCCCCCCCm95CF11sfffffffdsdfffffffs11FCm95CCCCCCCCCCCCCCCCCCCMnmmmmJJJJJJJJJ ..   .    2222222cJJJJJJJJJCCCCCCCCCCCCCCCCCCCCCCCCCCCCCCCCCCCCCCCCCCCCCCCCCCCCCCG66665666665665566666656666566",
"656777676676667666555456GCCCCCCCCCCCCCCCCCCCCCCCCCCCCCCCCCCCCCCCCCCCCCCCCCCCCCCJJJJJJJJJJJJJJJJJJJJJJJJJJJJJJJJJJJJJmmmmnMCCCCCCCCCCCCCCCCCCCJJJCF11sffVVVVfdsdfVVVVffs11FCJJJCCCCCCCCCCCCCCCCCCCMnmmmmJJJJJJJJJJJJJJJJJJJJJJJJJJJJJJJJJJJJJCCCCCCCCCCCCCCCCCCCCCCCCCCCCCCCCCCCCCCCCCCCCCCCCCCCCCCG66556566665666666766667656676",
"676666666777776667555456GCCCCCCCCCCCCCCCCCCCCCCCCCCCCCCCCCCCCCCCCCCCCCCCCCCCCCJJJJJJJJJJJJJJJJJJJJJJJJJJJJJJJJJJJJJZmmmmnMCCCCCCCCCCCCCCCCCCGHHHHF11sffzzzzfdsdfzzzzffs11FHHHGHCCCCCCCCCCCCCCCCCCMnmmmmZJJJJJJJJJJJJJJJJJJJJJJJJJJJJJJJJJJJJJCCCCCCCCCCCCCCCCCCCCCCCCCCCCCCCCCCCCCCCCCCCCCCCCCCCCCG66677776667666666767676676666",
"667777677777666677555456GCCCCCCCCCCCCCCCCCCCCCCCCCCCCCCCCCCCCCCCCCCCCCCCCCCCCCJJJJJJJJJJJJJJJJJJJJJJJJJJJJJJJJJJJJJmmmmmnMCCCCCCCCCCCCCCCCCHGGHGGF11sffllllfdsdfllllffs11FGGHGGHCCCCCCCCCCCCCCCCCMnmmmmmJJJJJJJJJJJJJJJJJJJJJJJJJJJJJJJJJJJJJCCCCCCCCCCCCCCCCCCCCCCCCCCCCCCCCCCCCCCCCCCCCCCCCCCCCCG76777667777777767766767677676",
"876778777777797777555456t>>>>>>>>>>>>>>>>>>>>>>>>>>>>>>>>>>>>>>>>>>>>>>>>>>>>JJJJJJJJJJJJJJJJJJJJJJJJJJJJJJJJJJJJJJmmmm:;:>>>>>>>>>>>>>>>>tttttttFssdffggggfdsdfggggffdssFttttttt>>>>>>>>>>>>>>>>:;mmmmmJJJJJJJJJJJJJJJJJJJJJJJJJJJJJJJJJJJJJJ>>>>>>>>>>>>>>>>>>>>>>>>>>>>>>>>>>>>>>>>>>>>>>>>>>>>y78777787777677787787677878767",
"777888777787777788555456t>>>>>>>>>>>>>>>>>>>>>>>>>>>>>>>>>>>>>>>>>>>>>>>>>>>>JJJJJJJJJJJJJJJJJJJJJJJJJJJJJJJJJJJJJJmm:::;:>>>>>>>>>>>>>>>ttttttttFddffffffffdsdffffffffddFtttttttt>>>>>>>>>>>>>>>:;:::mmJJJJJJJJJJJJJJJJJJJJJJJJJJJJJJJJJJJJJJ>>>>>>>>>>>>>>>>>>>>>>>>>>>>>>>>>>>>>>>>>>>>>>>>>>>>y78887777778877778877777887778",
"787787778787787788555456t>>>>>>>>>>>>>>>>>>>>>>>>>>>>>>>>>>>>>>>>>>>>>>>>>>>tttttttttttttttttttttttttttttttttttttty:::::;:>>>>>>>>>>>>>>tttttttttFffffffffffdsdffffffffffFttttttttt>>>>>>>>>>>>>>:;:::::yttttttttttttttttttttttttttttttttttttty>>>>>>>>>>>>>>>>>>>>>>>>>>>>>>>>>>>>>>>>>>>>>>>>>>>y77777877778778887888887788877",
"788777788787788878555456GCCCCCCCCCCCCCCCCCCCCCCCCCCCCCCCCCCCCCCCCCCCCCCCCCCCttttttttttttttttttttttttttttttttttttty:::::mnMCCCCCCCCCCCCCCCCCCCCCCCFffffffffffdsdffffffffffFCCCCCCCCCCCCCCCCCCCCCCCMn::::::yttttttttttttttttttttttttttttttttttttyCCCCCCCCCCCCCCCCCCCCCCCCCCCCCCCCCCCCCCCCCCCCCCCCCCCG88788878788778877888888788888",
"888888888888878888555456GCCCCCCCCCCCCCCCCCCCCCCCCCCCCCCCCCCCCCCCCCCCCCCCCCCtttttttttttttttttttttttttttttttttttttty::mmmmnMCCCCCCCCCCCCCCCCCCCCCCCFffffffffffdsdffffffffffFCCCCCCCCCCCCCCCCCCCCCCCMnmmmm::ytttttttttttttttttttttttttttttttttttttyCCCCCCCCCCCCCCCCCCCCCCCCCCCCCCCCCCCCCCCCCCCCCCCCCCG88888888888887888888888888888",
"888888888888888888555456GCCCCCCCCCCCCCCCCCCCCCCCCCCCCCCCCCCCCCCCCCCCCCCCCCCJJJJJJJJJJJJJJJJJJJJJJJJJJJJJJJJJJJJJJJmmmmmmnMCCCCCCCCCCCCCCCCCCCCCCCFffffffffffdsdffffffffffFCCCCCCCCCCCCCCCCCCCCCCCmnmmmmmmJJJJJJJJJJJJJJJJJJJJJJJJJJJJJJJJJJJJJJJCCCCCCCCCCCCCCCCCCCCCCCCCCCCCCCCCCCCCCCCCCCCCCCCCCG88888888888888888888888888888",
"@@@@@@@@@@@@@@@@@@@@@@@@@@@@@@@@@@@@@@@@@@@@@@@@@@@@@@@@@@@@@@@@@@@@@@@@@@@@@@@@@@@@@@@@@@@@@@@@@@@@@@@@@@@@@@@@@@@@@@@@@@@@@@@@@@@@@@@@@@@@@@@@@@@@@@@@@@@@@@@@@@@@@@@@@@@@@@@@@@@@@@@@@@@@@@@@@@@@@@@@@@@@@@@@@@@@@@@@@@@@@@@@@@@@@@@@@@@@@@@@@@@@@@@@@@@@@@@@@@@@@@@@@@@@@@@@@@@@@@@@@@@@@@@@@@@@@@@@@@@@@@@@@@@@@@@@@@@@@@@@",
"@@@@@@@@@@@@@@@@@@@@@@@@@@@@@@@@@@@@@@@@@@@@@@@@@@@@@@@@@@@@@@@@@@@@@@@@@@@@@@@@@@@@@@@@@@@@@@@@@@@@@@@@@@@@@@@@@@@@@@@@@@@@@@@@@@@@@@@@@@@@@@@@@@@@@@@@@@@@@@@@@@@@@@@@@@@@@@@@@@@@@@@@@@@@@@@@@@@@@@@@@@@@@@@@@@@@@@@@@@@@@@@@@@@@@@@@@@@@@@@@@@@@@@@@@@@@@@@@@@@@@@@@@@@@@@@@@@@@@@@@@@@@@@@@@@@@@@@@@@@@@@@@@@@@@@@@@@@@@@@@",
"@@@@@@@@@@@@@@@@@@@@@@@@@@@@@@@@@@@@@@@@@@@@@@@@@@@@@@@@@@@@@@@@@@@@@@@@@@@@@@@@@@@@@@@@@@@@@@@@@@@@@@@@@@@@@@@@@@@@@@@@@@@@@@@@@@@@@@@@@@@@@@@@@@@@@@@@@@@@@@@@@@@@@@@@@@@@@@@@@@@@@@@@@@@@@@@@@@@@@@@@@@@@@@@@@@@@@@@@@@@@@@@@@@@@@@@@@@@@@@@@@@@@@@@@@@@@@@@@@@@@@@@@@@@@@@@@@@@@@@@@@@@@@@@@@@@@@@@@@@@@@@@@@@@@@@@@@@@@@@@@",
"@@@@@@@@@@@@@@@@@@@@@@@@@@@@@@@@@@@@@@@@@@@@@@@@@@@@@@@@@@@@@@@@@@@@@@@@@@@@@@@@@@@@@@@@@@@@@@@@@@@@@@@@@@@@@@@@@@@@@@@@@@@@@@@@@@@@@@@@@@@@@@@@@@@@@@@@@@@@@@@@@@@@@@@@@@@@@@@@@@@@@@@@@@@@@@@@@@@@@@@@@@@@@@@@@@@@@@@@@@@@@@@@@@@@@@@@@@@@@@@@@@@@@@@@@@@@@@@@@@@@@@@@@@@@@@@@@@@@@@@@@@@@@@@@@@@@@@@@@@@@@@@@@@@@@@@@@@@@@@@@",
"@@@@@@@@@@@@@@@@@@@@@@@@@@@@@@@@@@@@@@@@@@@@@@@@@@@@@@@@@@@@@@@@@@@@@@@@@@@@@@@@@@@@@@@@@@@@@@@@@@@@@@@@@@@@@@@@@@@@@@@@@@@@@@@@@@@@@@@@@@@@@@@@@@@@@@@@@@@@@@@@@@@@@@@@@@@@@@@@@@@@@@@@@@@@@@@@@@@@@@@@@@@@@@@@@@@@@@@@@@@@@@@@@@@@@@@@@@@@@@@@@@@@@@@@@@@@@@@@@@@@@@@@@@@@@@@@@@@@@@@@@@@@@@@@@@@@@@@@@@@@@@@@@@@@@@@@@@@@@@@@",
"@@@@@@@@@@@@@@@@@@@@@@@@@@@@@@@@@@@@@@@@@@@@@@@@@@@@@@@@@@@@@@@@@@@@@@@@@@@@@@@@@@@@@@@@@@@@@@@@@@@@@@@@@@@@@@@@@@@@@@@@@@@@@@@@@@@@@@@@@@@@@@@@@@@@@@@@@@@@@@@@@@@@@@@@@@@@@@@@@@@@@@@@@@@@@@@@@@@@@@@@@@@@@@@@@@@@@@@@@@@@@@@@@@@@@@@@@@@@@@@@@@@@@@@@@@@@@@@@@@@@@@@@@@@@@@@@@@@@@@@@@@@@@@@@@@@@@@@@@@@@@@@@@@@@@@@@@@@@@@@@",
"@@@@@@@@@@@@@@@@@@@@@@@@@@@@@@@@@@@@@@@@@@@@@@@@@@@@@@@@@@@@@@@@@@@@@@@@@@@@@@@@@@@@@@@@@@@@@@@@@@@@@@@@@@@@@@@@@@@@@@@@@@@@@@@@@@@@@@@@@@@@@@@@@@@@@@@@@@@@@@@@@@@@@@@@@@@@@@@@@@@@@@@@@@@@@@@@@@@@@@@@@@@@@@@@@@@@@@@@@@@@@@@@@@@@@@@@@@@@@@@@@@@@@@@@@@@@@@@@@@@@@@@@@@@@@@@@@@@@@@@@@@@@@@@@@@@@@@@@@@@@@@@@@@@@@@@@@@@@@@@@",
"@@@@@@@@@@@@@@@@@@@@@@@@@@@@@@@@@@@@@@@@@@@@@@@@@@@@@@@@@@@@@@@@@@@@@@@@@@@@@@@@@@@@@@@@@@@@@@@@@@@@@@@@@@@@@@@@@@@@@@@@@@@@@@@@@@@@@@@@@@@@@@@@@@@@@@@@@@@@@@@@@@@@@@@@@@@@@@@@@@@@@@@@@@@@@@@@@@@@@@@@@@@@@@@@@@@@@@@@@@@@@@@@@@@@@@@@@@@@@@@@@@@@@@@@@@@@@@@@@@@@@@@@@@@@@@@@@@@@@@@@@@@@@@@@@@@@@@@@@@@@@@@@@@@@@@@@@@@@@@@@",
"@@@@@@@@@@@@@@@@@@@@@@@@@@@@@@@@@@@@@@@@@@@@@@@@@@@@@@@@@@@@@@@@@@@@@@@@@@@@@@@@@@@@@@@@@@@@@@@@@@@@@@@@@@@@@@@@@@@@@@@@@@@@@@@@@@@@@@@@@@@@@@@@@@@@@@@@@@@@@@@@@@@@@@@@@@@@@@@@@@@@@@@@@@@@@@@@@@@@@@@@@@@@@@@@@@@@@@@@@@@@@@@@@@@@@@@@@@@@@@@@@@@@@@@@@@@@@@@@@@@@@@@@@@@@@@@@@@@@@@@@@@@@@@@@@@@@@@@@@@@@@@@@@@@@@@@@@@@@@@@@",
"@@@@@@@@@@@@@@@@@@@@@@@@@@@@@@@@@@@@@@@@@@@@@@@@@@@@@@@@@@@@@@@@@@@@@@@@@@@@@@@@@@@@@@@@@@@@@@@@@@@@@@@@@@@@@@@@@@@@@@@@@@@@@@@@@@@@@@@@@@@@@@@@@@@@@@@@@@@@@@@@@@@@@@@@@@@@@@@@@@@@@@@@@@@@@@@@@@@@@@@@@@@@@@@@@@@@@@@@@@@@@@@@@@@@@@@@@@@@@@@@@@@@@@@@@@@@@@@@@@@@@@@@@@@@@@@@@@@@@@@@@@@@@@@@@@@@@@@@@@@@@@@@@@@@@@@@@@@@@@@@",
"@@@@@@@@@@@@@@@@@@@@@@@@@@@@@@@@@@@@@@@@@@@@@@@@@@@@@@@@@@@@@@@@@@@@@@@@@@@@@@@@@@@@@@@@@@@@@@@@@@@@@@@@@@@@@@@@@@@@@@@@@@@@@@@@@@@@@@@@@@@@@@@@@@@@@@@@@@@@@@@@@@@@@@@@@@@@@@@@@@@@@@@@@@@@@@@@@@@@@@@@@@@@@@@@@@@@@@@@@@@@@@@@@@@@@@@@@@@@@@@@@@@@@@@@@@@@@@@@@@@@@@@@@@@@@@@@@@@@@@@@@@@@@@@@@@@@@@@@@@@@@@@@@@@@@@@@@@@@@@@@",
"@@@@@@@@@@@@@@@@@@@@@@@@@@@@@@@@@@@@@@@@@@@@@@@@@@@@@@@@@@@@@@@@@@@@@@@@@@@@@@@@@@@@@@@@@@@@@@@@@@@@@@@@@@@@@@@@@@@@@@@@@@@@@@@@@@@@@@@@@@@@@@@@@@@@@@@@@@@@@@@@@@@@@@@@@@@@@@@@@@@@@@@@@@@@@@@@@@@@@@@@@@@@@@@@@@@@@@@@@@@@@@@@@@@@@@@@@@@@@@@@@@@@@@@@@@@@@@@@@@@@@@@@@@@@@@@@@@@@@@@@@@@@@@@@@@@@@@@@@@@@@@@@@@@@@@@@@@@@@@@@",
"@@@@@@@@@@@@@@@@@@@@@@@@@@@@@@@@@@@@@@@@@@@@@@@@@@@@@@@@@@@@@@@@@@@@@@@@@@@@@@@@@@@@@@@@@@@@@@@@@@@@@@@@@@@@@@@@@@@@@@@@@@@@@@@@@@@@@@@@@@@@@@@@@@@@@@@@@@@@@@@@@@@@@@@@@@@@@@@@@@@@@@@@@@@@@@@@@@@@@@@@@@@@@@@@@@@@@@@@@@@@@@@@@@@@@@@@@@@@@@@@@@@@@@@@@@@@@@@@@@@@@@@@@@@@@@@@@@@@@@@@@@@@@@@@@@@@@@@@@@@@@@@@@@@@@@@@@@@@@@@@",
"@@@@@@@@@@@@@@@@@@@@@@@@@@@@@@@@@@@@@@@@@@@@@@@@@@@@@@@@@@@@@@@@@@@@@@@@@@@@@@@@@@@@@@@@@@@@@@@@@@@@@@@@@@@@@@@@@@@@@@@@@@@@@@@@@@@@@@@@@@@@@@@@@@@@@@@@@@@@@@@@@@@@@@@@@@@@@@@@@@@@@@@@@@@@@@@@@@@@@@@@@@@@@@@@@@@@@@@@@@@@@@@@@@@@@@@@@@@@@@@@@@@@@@@@@@@@@@@@@@@@@@@@@@@@@@@@@@@@@@@@@@@@@@@@@@@@@@@@@@@@@@@@@@@@@@@@@@@@@@@@",
"@@@@@@@@@@@@@@@@@@@@@@@@@@@@@@@@@@@@@@@@@@@@@@@@@@@@@@@@@@@@@@@@@@@@@@@@@@@@@@@@@@@@@@@@@@@@@@@@@@@@@@@@@@@@@@@@@@@@@@@@@@@@@@@@@@@@@@@@@@@@@@@@@@@@@@@@@@@@@@@@@@@@@@@@@@@@@@@@@@@@@@@@@@@@@@@@@@@@@@@@@@@@@@@@@@@@@@@@@@@@@@@@@@@@@@@@@@@@@@@@@@@@@@@@@@@@@@@@@@@@@@@@@@@@@@@@@@@@@@@@@@@@@@@@@@@@@@@@@@@@@@@@@@@@@@@@@@@@@@@@",
"@@@@@@@@@@@@@@@@@@@@@@@@@@@@@@@@@@@@@@@@@@@@@@@@@@@@@@@@@@@@@@@@@@@@@@@@@@@@@@@@@@@@@@@@@@@@@@@@@@@@@@@@@@@@@@@@@@@@@@@@@@@@@@@@@@@@@@@@@@@@@@@@@@@@@@@@@@@@@@@@@@@@@@@@@@@@@@@@@@@@@@@@@@@@@@@@@@@@@@@@@@@@@@@@@@@@@@@@@@@@@@@@@@@@@@@@@@@@@@@@@@@@@@@@@@@@@@@@@@@@@@@@@@@@@@@@@@@@@@@@@@@@@@@@@@@@@@@@@@@@@@@@@@@@@@@@@@@@@@@@",
"@@@@@@@@@@@@@@@@@@@@@@@@@@@@@@@@@@@@@@@@@@@@@@@@@@@@@@@@@@@@@@@@@@@@@@@@@@@@@@@@@@@@@@@@@@@@@@@@@@@@@@@@@@@@@@@@@@@@@@@@@@@@@@@@@@@@@@@@@@@@@@@@@@@@@@@@@@@@@@@@@@@@@@@@@@@@@@@@@@@@@@@@@@@@@@@@@@@@@@@@@@@@@@@@@@@@@@@@@@@@@@@@@@@@@@@@@@@@@@@@@@@@@@@@@@@@@@@@@@@@@@@@@@@@@@@@@@@@@@@@@@@@@@@@@@@@@@@@@@@@@@@@@@@@@@@@@@@@@@@@",
"@@@@@@@@@@@@@@@@@@@@@@@@@@@@@@@@@@@@@@@@@@@@@@@@@@@@@@@@@@@@@@@@@@@@@@@@@@@@@@@@@@@@@@@@@@@@@@@@@@@@@@@@@@@@@@@@@@@@@@@@@@@@@@@@@@@@@@@@@@@@@@@@@@@@@@@@@@@@@@@@@@@@@@@@@@@@@@@@@@@@@@@@@@@@@@@@@@@@@@@@@@@@@@@@@@@@@@@@@@@@@@@@@@@@@@@@@@@@@@@@@@@@@@@@@@@@@@@@@@@@@@@@@@@@@@@@@@@@@@@@@@@@@@@@@@@@@@@@@@@@@@@@@@@@@@@@@@@@@@@@",
"@@@@@@@@@@@@@@@@@@@@@@@@@@@@@@@@@@@@@@@@@@@@@@@@@@@@@@@@@@@@@@@@@@@@@@@@@@@@@@@@@@@@@@@@@@@@@@@@@@@@@@@@@@@@@@@@@@@@@@@@@@@@@@@@@@@@@@@@@@@@@@@@@@@@@@@@@@@@@@@@@@@@@@@@@@@@@@@@@@@@@@@@@@@@@@@@@@@@@@@@@@@@@@@@@@@@@@@@@@@@@@@@@@@@@@@@@@@@@@@@@@@@@@@@@@@@@@@@@@@@@@@@@@@@@@@@@@@@@@@@@@@@@@@@@@@@@@@@@@@@@@@@@@@@@@@@@@@@@@@@",
"@@@@@@@@@@@@@@@@@@@@@@@@@@@@@@@@@@@@@@@@@@@@@@@@@@@@@@@@@@@@@@@@@@@@@@@@@@@@@@@@@@@@@@@@@@@@@@@@@@@@@@@@@@@@@@@@@@@@@@@@@@@@@@@@@@@@@@@@@@@@@@@@@@@@@@@@@@@@@@@@@@@@@@@@@@@@@@@@@@@@@@@@@@@@@@@@@@@@@@@@@@@@@@@@@@@@@@@@@@@@@@@@@@@@@@@@@@@@@@@@@@@@@@@@@@@@@@@@@@@@@@@@@@@@@@@@@@@@@@@@@@@@@@@@@@@@@@@@@@@@@@@@@@@@@@@@@@@@@@@@",
"@@@@@@@@@@@@@@@@@@@@@@@@@@@@@@@@@@@@@@@@@@@@@@@@@@@@@@@@@@@@@@@@@@@@@@@@@@@@@@@@@@@@@@@@@@@@@@@@@@@@@@@@@@@@@@@@@@@@@@@@@@@@@@@@@@@@@@@@@@@@@@@@@@@@@@@@@@@@@@@@@@@@@@@@@@@@@@@@@@@@@@@@@@@@@@@@@@@@@@@@@@@@@@@@@@@@@@@@@@@@@@@@@@@@@@@@@@@@@@@@@@@@@@@@@@@@@@@@@@@@@@@@@@@@@@@@@@@@@@@@@@@@@@@@@@@@@@@@@@@@@@@@@@@@@@@@@@@@@@@@",
"@@@@@@@@@@@@@@@@@@@@@@@@@@@@@@@@@@@@@@@@@@@@@@@@@@@@@@@@@@@@@@@@@@@@@@@@@@@@@@@@@@@@@@@@@@@@@@@@@@@@@@@@@@@@@@@@@@@@@@@@@@@@@@@@@@@@@@@@@@@@@@@@@@@@@@@@@@@@@@@@@@@@@@@@@@@@@@@@@@@@@@@@@@@@@@@@@@@@@@@@@@@@@@@@@@@@@@@@@@@@@@@@@@@@@@@@@@@@@@@@@@@@@@@@@@@@@@@@@@@@@@@@@@@@@@@@@@@@@@@@@@@@@@@@@@@@@@@@@@@@@@@@@@@@@@@@@@@@@@@@",
"@@@@@@@@@@@@@@@@@@@@@@@@@@@@@@@@@@@@@@@@@@@@@@@@@@@@@@@@@@@@@@@@@@@@@@@@@@@@@@@@@@@@@@@@@@@@@@@@@@@@@@@@@@@@@@@@@@@@@@@@@@@@@@@@@@@@@@@@@@@@@@@@@@@@@@@@@@@@@@@@@@@@@@@@@@@@@@@@@@@@@@@@@@@@@@@@@@@@@@@@@@@@@@@@@@@@@@@@@@@@@@@@@@@@@@@@@@@@@@@@@@@@@@@@@@@@@@@@@@@@@@@@@@@@@@@@@@@@@@@@@@@@@@@@@@@@@@@@@@@@@@@@@@@@@@@@@@@@@@@@",
"@@@@@@@@@@@@@@@@@@@@@@@@@@@@@@@@@@@@@@@@@@@@@@@@@@@@@@@@@@@@@@@@@@@@@@@@@@@@@@@@@@@@@@@@@@@@@@@@@@@@@@@@@@@@@@@@@@@@@@@@@@@@@@@@@@@@@@@@@@@@@@@@@@@@@@@@@@@@@@@@@@@@@@@@@@@@@@@@@@@@@@@@@@@@@@@@@@@@@@@@@@@@@@@@@@@@@@@@@@@@@@@@@@@@@@@@@@@@@@@@@@@@@@@@@@@@@@@@@@@@@@@@@@@@@@@@@@@@@@@@@@@@@@@@@@@@@@@@@@@@@@@@@@@@@@@@@@@@@@@@",
"@@@@@@@@@@@@@@@@@@@@@@@@@@@@@@@@@@@@@@@@@@@@@@@@@@@@@@@@@@@@@@@@@@@@@@@@@@@@@@@@@@@@@@@@@@@@@@@@@@@@@@@@@@@@@@@@@@@@@@@@@@@@@@@@@@@@@@@@@@@@@@@@@@@@@@@@@@@@@@@@@@@@@@@@@@@@@@@@@@@@@@@@@@@@@@@@@@@@@@@@@@@@@@@@@@@@@@@@@@@@@@@@@@@@@@@@@@@@@@@@@@@@@@@@@@@@@@@@@@@@@@@@@@@@@@@@@@@@@@@@@@@@@@@@@@@@@@@@@@@@@@@@@@@@@@@@@@@@@@@@",
"@@@@@@@@@@@@@@@@@@@@@@@@@@@@@@@@@@@@@@@@@@@@@@@@@@@@@@@@@@@@@@@@@@@@@@@@@@@@@@@@@@@@@@@@@@@@@@@@@@@@@@@@@@@@@@@@@@@@@@@@@@@@@@@@@@@@@@@@@@@@@@@@@@@@@@@@@@@@@@@@@@@@@@@@@@@@@@@@@@@@@@@@@@@@@@@@@@@@@@@@@@@@@@@@@@@@@@@@@@@@@@@@@@@@@@@@@@@@@@@@@@@@@@@@@@@@@@@@@@@@@@@@@@@@@@@@@@@@@@@@@@@@@@@@@@@@@@@@@@@@@@@@@@@@@@@@@@@@@@@@",
"@@@@@@@@@@@@@@@@@@@@@@@@@@@@@@@@@@@@@@@@@@@@@@@@@@@@@@@@@@@@@@@@@@@@@@@@@@@@@@@@@@@@@@@@@@@@@@@@@@@@@@@@@@@@@@@@@@@@@@@@@@@@@@@@@@@@@@@@@@@@@@@@@@@@@@@@@@@@@@@@@@@@@@@@@@@@@@@@@@@@@@@@@@@@@@@@@@@@@@@@@@@@@@@@@@@@@@@@@@@@@@@@@@@@@@@@@@@@@@@@@@@@@@@@@@@@@@@@@@@@@@@@@@@@@@@@@@@@@@@@@@@@@@@@@@@@@@@@@@@@@@@@@@@@@@@@@@@@@@@@",
"@@@@@@@@@@@@@@@@@@@@@@@@@@@@@@@@@@@@@@@@@@@@@@@@@@@@@@@@@@@@@@@@@@@@@@@@@@@@@@@@@@@@@@@@@@@@@@@@@@@@@@@@@@@@@@@@@@@@@@@@@@@@@@@@@@@@@@@@@@@@@@@@@@@@@@@@@@@@@@@@@@@@@@@@@@@@@@@@@@@@@@@@@@@@@@@@@@@@@@@@@@@@@@@@@@@@@@@@@@@@@@@@@@@@@@@@@@@@@@@@@@@@@@@@@@@@@@@@@@@@@@@@@@@@@@@@@@@@@@@@@@@@@@@@@@@@@@@@@@@@@@@@@@@@@@@@@@@@@@@@",
"@@@@@@@@@@@@@@@@@@@@@@@@@@@@@@@@@@@@@@@@@@@@@@@@@@@@@@@@@@@@@@@@@@@@@@@@@@@@@@@@@@@@@@@@@@@@@@@@@@@@@@@@@@@@@@@@@@@@@@@@@@@@@@@@@@@@@@@@@@@@@@@@@@@@@@@@@@@@@@@@@@@@@@@@@@@@@@@@@@@@@@@@@@@@@@@@@@@@@@@@@@@@@@@@@@@@@@@@@@@@@@@@@@@@@@@@@@@@@@@@@@@@@@@@@@@@@@@@@@@@@@@@@@@@@@@@@@@@@@@@@@@@@@@@@@@@@@@@@@@@@@@@@@@@@@@@@@@@@@@@",
"@@@@@@@@@@@@@@@@@@@@@@@@@@@@@@@@@@@@@@@@@@@@@@@@@@@@@@@@@@@@@@@@@@@@@@@@@@@@@@@@@@@@@@@@@@@@@@@@@@@@@@@@@@@@@@@@@@@@@@@@@@@@@@@@@@@@@@@@@@@@@@@@@@@@@@@@@@@@@@@@@@@@@@@@@@@@@@@@@@@@@@@@@@@@@@@@@@@@@@@@@@@@@@@@@@@@@@@@@@@@@@@@@@@@@@@@@@@@@@@@@@@@@@@@@@@@@@@@@@@@@@@@@@@@@@@@@@@@@@@@@@@@@@@@@@@@@@@@@@@@@@@@@@@@@@@@@@@@@@@@",
"@@@@@@@@@@@@@@@@@@@@@@@@@@@@@@@@@@@@@@@@@@@@@@@@@@@@@@@@@@@@@@@@@@@@@@@@@@@@@@@@@@@@@@@@@@@@@@@@@@@@@@@@@@@@@@@@@@@@@@@@@@@@@@@@@@@@@@@@@@@@@@@@@@@@@@@@@@@@@@@@@@@@@@@@@@@@@@@@@@@@@@@@@@@@@@@@@@@@@@@@@@@@@@@@@@@@@@@@@@@@@@@@@@@@@@@@@@@@@@@@@@@@@@@@@@@@@@@@@@@@@@@@@@@@@@@@@@@@@@@@@@@@@@@@@@@@@@@@@@@@@@@@@@@@@@@@@@@@@@@@",
"@@@@@@@@@@@@@@@@@@@@@@@@@@@@@@@@@@@@@@@@@@@@@@@@@@@@@@@@@@@@@@@@@@@@@@@@@@@@@@@@@@@@@@@@@@@@@@@@@@@@@@@@@@@@@@@@@@@@@@@@@@@@@@@@@@@@@@@@@@@@@@@@@@@@@@@@@@@@@@@@@@@@@@@@@@@@@@@@@@@@@@@@@@@@@@@@@@@@@@@@@@@@@@@@@@@@@@@@@@@@@@@@@@@@@@@@@@@@@@@@@@@@@@@@@@@@@@@@@@@@@@@@@@@@@@@@@@@@@@@@@@@@@@@@@@@@@@@@@@@@@@@@@@@@@@@@@@@@@@@@",
"@@@@@@@@@@@@@@@@@@@@@@@@@@@@@@@@@@@@@@@@@@@@@@@@@@@@@@@@@@@@@@@@@@@@@@@@@@@@@@@@@@@@@@@@@@@@@@@@@@@@@@@@@@@@@@@@@@@@@@@@@@@@@@@@@@@@@@@@@@@@@@@@@@@@@@@@@@@@@@@@@@@@@@@@@@@@@@@@@@@@@@@@@@@@@@@@@@@@@@@@@@@@@@@@@@@@@@@@@@@@@@@@@@@@@@@@@@@@@@@@@@@@@@@@@@@@@@@@@@@@@@@@@@@@@@@@@@@@@@@@@@@@@@@@@@@@@@@@@@@@@@@@@@@@@@@@@@@@@@@@",
"@@@@@@@@@@@@@@@@@@@@@@@@@@@@@@@@@@@@@@@@@@@@@@@@@@@@@@@@@@@@@@@@@@@@@@@@@@@@@@@@@@@@@@@@@@@@@@@@@@@@@@@@@@@@@@@@@@@@@@@@@@@@@@@@@@@@@@@@@@@@@@@@@@@@@@@@@@@@@@@@@@@@@@@@@@@@@@@@@@@@@@@@@@@@@@@@@@@@@@@@@@@@@@@@@@@@@@@@@@@@@@@@@@@@@@@@@@@@@@@@@@@@@@@@@@@@@@@@@@@@@@@@@@@@@@@@@@@@@@@@@@@@@@@@@@@@@@@@@@@@@@@@@@@@@@@@@@@@@@@@",
"@@@@@@@@@@@@@@@@@@@@@@@@@@@@@@@@@@@@@@@@@@@@@@@@@@@@@@@@@@@@@@@@@@@@@@@@@@@@@@@@@@@@@@@@@@@@@@@@@@@@@@@@@@@@@@@@@@@@@@@@@@@@@@@@@@@@@@@@@@@@@@@@@@@@@@@@@@@@@@@@@@@@@@@@@@@@@@@@@@@@@@@@@@@@@@@@@@@@@@@@@@@@@@@@@@@@@@@@@@@@@@@@@@@@@@@@@@@@@@@@@@@@@@@@@@@@@@@@@@@@@@@@@@@@@@@@@@@@@@@@@@@@@@@@@@@@@@@@@@@@@@@@@@@@@@@@@@@@@@@@",
"@@@@@@@@@@@@@@@@@@@@@@@@@@@@@@@@@@@@@@@@@@@@@@@@@@@@@@@@@@@@@@@@@@@@@@@@@@@@@@@@@@@@@@@@@@@@@@@@@@@@@@@@@@@@@@@@@@@@@@@@@@@@@@@@@@@@@@@@@@@@@@@@@@@@@@@@@@@@@@@@@@@@@@@@@@@@@@@@@@@@@@@@@@@@@@@@@@@@@@@@@@@@@@@@@@@@@@@@@@@@@@@@@@@@@@@@@@@@@@@@@@@@@@@@@@@@@@@@@@@@@@@@@@@@@@@@@@@@@@@@@@@@@@@@@@@@@@@@@@@@@@@@@@@@@@@@@@@@@@@@",
"@@@@@@@@@@@@@@@@@@@@@@@@@@@@@@@@@@@@@@@@@@@@@@@@@@@@@@@@@@@@@@@@@@@@@@@@@@@@@@@@@@@@@@@@@@@@@@@@@@@@@@@@@@@@@@@@@@@@@@@@@@@@@@@@@@@@@@@@@@@@@@@@@@@@@@@@@@@@@@@@@@@@@@@@@@@@@@@@@@@@@@@@@@@@@@@@@@@@@@@@@@@@@@@@@@@@@@@@@@@@@@@@@@@@@@@@@@@@@@@@@@@@@@@@@@@@@@@@@@@@@@@@@@@@@@@@@@@@@@@@@@@@@@@@@@@@@@@@@@@@@@@@@@@@@@@@@@@@@@@@"
};
