/* XPM */
static char *end_floor3_009[] = {
/* columns rows colors chars-per-pixel */
"320 200 87 1 ",
"  c #000000",
". c #0B0B0B",
"X c gray8",
"o c #1C1C1C",
"O c #201408",
"+ c #301C0C",
"@ c #00002C",
"# c #00003C",
"$ c #0C1C30",
"% c gray14",
"& c #2C2C2C",
"* c #343434",
"= c #3C3C3C",
"- c #600000",
"; c #402810",
": c #503418",
"> c #743804",
", c #603814",
"< c #004400",
"1 c #005C00",
"2 c #007400",
"3 c #60401C",
"4 c #684018",
"5 c #704820",
"6 c #000050",
"7 c #000064",
"8 c #244870",
"9 c #444444",
"0 c #4C4C4C",
"q c #545454",
"w c #5C5C5C",
"e c #646464",
"r c #6C6C6C",
"t c #747474",
"y c #7C7C7C",
"u c #AC0C0C",
"i c #F80000",
"p c #984C08",
"a c #AC580C",
"s c #805424",
"d c #94602C",
"f c #C4701C",
"g c #C47024",
"h c #A8784C",
"j c #008C00",
"k c #00A400",
"l c #CC8038",
"z c #B08458",
"x c #BC906C",
"c c #D09050",
"v c #D89C64",
"b c #DCAC7C",
"n c #040488",
"m c #0C0CAC",
"M c #2C5480",
"N c #346090",
"B c #3C6CA0",
"V c #4C78A8",
"C c #1010C0",
"Z c #4040D0",
"A c #7878E0",
"S c #5884B0",
"D c #6C90BC",
"F c #848484",
"G c #8C8C8C",
"H c #939393",
"J c #989898",
"K c #A0A0A0",
"L c #A8A8A8",
"P c #B0B0B0",
"I c #BCBCBC",
"U c #D0B094",
"Y c #D8BCA8",
"T c #E4C098",
"R c #ECD0B4",
"E c #ECECB8",
"W c #80A0C4",
"Q c #C4C4C4",
"! c #CCCCCC",
"~ c #D4D4D4",
"^ c #DADADA",
"/ c #ECF4D8",
"( c #D8D8F4",
") c #E0E0E0",
"_ c #E8E8E8",
"` c #F1F1F1",
"' c #FCFCFC",
/* pixels */
"%%%%%%%%%%%%%%%%%%%%%%%%%%%%%%%%%%%%%%%%%%%%%%%%%%%%%%%%%%%%%%%%%%%%%%%%%%%%%%%%%%%%%%%%%%%%%%%%%%%%%%%%%%%%%%%%%%%%%%%%%%%%%%%%%%%%%%%%%%%%%%%%%%%%%%%%%%%%%%%%%%%%%%%%%%%%%%%%%%%%%%%%%%%%%%%%%%%%%%%%%%%%%%%%%%%%%%%%%%%%%%%%%%%%%%%%%%%%%%%%%%%%%%%%%%%%%%%%%%%%%%%%%%%%%%%%%%%%%%%%%%%%%%%%%%%%%%%%%%%%%%%%%%%%%%%%%%%%%%%%",
"%%%%%%%%%%%%%%%%%%%%%%%%%%%%%%%%%%%%%%%%%%%%%%%%%%%%%%%%%%%%%%%%%%%%%%%%%%%%%%%%%%%%%%%%%%%%%%%%%%%%%%%%%%%%%%%%%%%%%%%%%%%%%%%%%%%%%%%%%%%%%%%%%%%%%%%%%%%%%%%%%%%%%%%%%%%%%%%%%%%%%%%%%%%%%%%%%%%%%%%%%%%%%%%%%%%%%%%%%%%%%%%%%%%%%%%%%%%%%%%%%%%%%%%%%%%%%%%%%%%%%%%%%%%%%%%%%%%%%%%%%%%%%%%%%%%%%%%%%%%%%%%%%%%%%%%%%%%%%%%%",
"%%%%%%%%%%%%%%%%%%%%%%%%%%%%%%%%%%%%%%%%%%%%%%%%%%%%%%%%%%%%%%%%%%%%%%%%%%%%%%%%%%%%%%%%%%%%%%%%%%%%%%%%%%%%%%%%%%%%%%%%%%%%%%%%%%%%%%%%%%%%%%%%%%%%%%%%%%%%%%%%%%%%%%%%%%%%%%%%%%%%%%%%%%%%%%%%%%%%%%%%%%%%%%%%%%%%%%%%%%%%%%%%%%%%%%%%%%%%%%%%%%%%%%%%%%%%%%%%%%%%%%%%%%%%%%%%%%%%%%%%%%%%%%%%%%%%%%%%%%%%%%%%%%%%%%%%%%%%%%%%",
"%%%%%%%%%%%%%%%%%%%%%%%%%%%%%%%%%%%%%%%%%%%%%%%%%%%%%%%%%%%%%%%%%%%%%%%%%%%%%%%%%%%%%%%%%%%%%%%%%%%%%%%%%%%%%%%%%%%%%%%%%%%%%%%%%%%%%%%%%%%%%%%%%%%%%%%%%%%%%%%%%%%%%%%%%%%%%%%%%%%%%%%%%%%%%%%%%%%%%%%%%%%%%%%%%%%%%%%%%%%%%%%%%%%%%%%%%%%%%%%%%%%%%%%%%%%%%%%%%%%%%%%%%%%%%%%%%%%%%%%%%%%%%%%%%%%%%%%%%%%%%%%%%%%%%%%%%%%%%%%%",
"%%%%%%%%%%%%%%%%%%%%%%%%%%%%%%%%%%%%%%%%%%%%%%%%%%%%%%%%%%%%%%%%%%%%%%%%%%%%%%%%%%%%%%%%%%%%%%%%%%%%%%%%%%%%%%%%%%%%%%%%%%%%%%%%%%%%%%%%%%%%%%%%%%%%%%%%%%%%%%%%%%%%%%%%%%%%%%%%%%%%%%%%%%%%%%%%%%%%%%%%%%%%%%%%%%%%%%%%%%%%%%%%%%%%%%%%%%%%%%%%%%%%%%%%%%%%%%%%%%%%%%%%%%%%%%%%%%%%%%%%%%%%%%%%%%%%%%%%%%%%%%%%%%%%%%%%%%%%%%%%",
"%%%%%%%%%%%%%%%%%%%%%%%%%%%%%%%%%%%%%%%%%%%%%%%%%%%%%%%%%%%%%%%%%%%%%%%%%%%%%%%%%%%%%%%%%%%%%%%%%%%%%%%%%%%%%%%%%%%%%%%%%%%%%%%%%%%%%%%%%%%%%%%%%%%%%%%%%%%%%%%%%%%%%%%%%%%%%%%%%%%%%%%%%%%%%%%%%%%%%%%%%%%%%%%%%%%%%%%%%%%%%%%%%%%%%%%%%%%%%%%%%%%%%%%%%%%%%%%%%%%%%%%%%%%%%%%%%%%%%%%%%%%%%%%%%%%%%%%%%%%%%%%%%%%%%%%%%%%%%%%%",
"%%%%%%%%%%%%%%%%%%%%%%%%%%%%%%%%%%%%%%%%%%%%%%%%%%%%%%%%%%%%%%%%%%%%%%%%%%%%%%%%%%%%%%%%%%%%%%%%%%%%%%%%%%%%%%%%%%%%%%%%%%%%%%%%%%%%%%%%%%%%%%%%%%%%%%%%%%%%%%%%%%%%%%%%%%%%%%%%%%%%%%%%%%%%%%%%%%%%%%%%%%%%%%%%%%%%%%%%%%%%%%%%%%%%%%%%%%%%%%%%%%%%%%%%%%%%%%%%%%%%%%%%%%%%%%%%%%%%%%%%%%%%%%%%%%%%%%%%%%%%%%%%%%%%%%%%%%%%%%%%",
"%%%%%%%%%%%%%%%%%%%%%%%%%%%%%%%%%%%%%%%%%%%%%%%%%%%%%%%%%%%%%%%%%%%%%%%%%%%%%%%%%%%%%%%%%%%%%%%%%%%%%%%%%%%%%%%%%%%%%%%%%%%%%%%%%%%%%%%%%%%%%%%%%%%%%%%%%%%%%%%%%%%%%%%%%%%%%%%%%%%%%%%%%%%%%%%%%%%%%%%%%%%%%%%%%%%%%%%%%%%%%%%%%%%%%%%%%%%%%%%%%%%%%%%%%%%%%%%%%%%%%%%%%%%%%%%%%%%%%%%%%%%%%%%%%%%%%%%%%%%%%%%%%%%%%%%%%%%%%%%%",
"%%%%%%%%%%%%%%%%%%%%%%%%%%%%%%%%%%%%%%%%%%%%%%%%%%%%%%%%%%%%%%%%%%%%%%%%%%%%%%%%%%%%%%%%%%%%%%%%%%%%%%%%%%%%%%%%%%%%%%%%%%%%%%%%%%%%%%%%%%%%%%%%%%%%%%%%%%%%%%%%%%%%%%%%%%%%%%%%%%%%%%%%%%%%%%%%%%%%%%%%%%%%%%%%%%%%%%%%%%%%%%%%%%%%%%%%%%%%%%%%%%%%%%%%%%%%%%%%%%%%%%%%%%%%%%%%%%%%%%%%%%%%%%%%%%%%%%%%%%%%%%%%%%%%%%%%%%%%%%%%",
"%%%%%%%%%%%%%%%%%%%%%%%%%%%%%%%%%%%%%%%%%%%%%%%%%%%%%%%%%%%%%%%%%%%%%%%%%%%%%%%%%%%%%%%%%%%%%%%%%%%%%%%%%%%%%%%%%%%%%%%%%%%%%%%%%%%%%%%%%%%%%%%%%%%%%%%%%%%%%%%%%%%%%%%%%%%%%%%%%%%%%%%%%%%%%%%%%%%%%%%%%%%%%%%%%%%%%%%%%%%%%%%%%%%%%%%%%%%%%%%%%%%%%%%%%%%%%%%%%%%%%%%%%%%%%%%%%%%%%%%%%%%%%%%%%%%%%%%%%%%%%%%%%%%%%%%%%%%%%%%%",
"%%%%%%%%%%%%%%%%%%%%%%%%%%%%%%%%%%%%%%%%%%%%%%%%%%%%%%%%%%%%%%%%%%%%%%%%%%%%%%%%%%%%%%%%%%%%%%%%%%%%%%%%%%%%%%%%%%%%%%%%%%%%%%%%%%%%%%%%%%%%%%%%%%%%%%%%%%%%%%%%%%%%%%%%%%%%%%%%%%%%%%%%%%%%%%%%%%%%%%%%%%%%%%%%%%%%%%%%%%%%%%%%%%%%%%%%%%%%%%%%%%%%%%%%%%%%%%%%%%%%%%%%%%%%%%%%%%%%%%%%%%%%%%%%%%%%%%%%%%%%%%%%%%%%%%%%%%%%%%%%",
"%%%%%%%%%%%%%%%%%%%%%%%%%%%%%%%%%%%%%%%%%%%%%%%%%%%%%%%%%%%%%%%%%%%%%%%%%%%%%%%%%%%%%%%%%%%%%%%%%%%%%%%%%%%%%%%%%%%%%%%%%%%%%%%%%%%%%%%%%%%%%%%%%%%%%%%%%%%%%%%%%%%%%%%%%%%%%%%%%%%%%%%%%%%%%%%%%%%%%%%%%%%%%%%%%%%%%%%%%%%%%%%%%%%%%%%%%%%%%%%%%%%%%%%%%%%%%%%%%%%%%%%%%%%%%%%%%%%%%%%%%%%%%%%%%%%%%%%%%%%%%%%%%%%%%%%%%%%%%%%%",
"%%%%%%%%%%%%%%%%%%%%%%%%%%%%%%%%%%%%%%%%%%%%%%%%%%%%%%%%%%%%%%%%%%%%%%%%%%%%%%%%%%%%%%%%%%%%%%%%%%%%%%%%%%%%%%%%%%%%%%%%%%%%%%%%%%%%%%%%%%%%%%%%%%%%%%%%%%%%%%%%%%%%%%%%%%%%%%%%%%%%%%%%%%%%%%%%%%%%%%%%%%%%%%%%%%%%%%%%%%%%%%%%%%%%%%%%%%%%%%%%%%%%%%%%%%%%%%%%%%%%%%%%%%%%%%%%%%%%%%%%%%%%%%%%%%%%%%%%%%%%%%%%%%%%%%%%%%%%%%%%",
"%%%%%%%%%%%%%%%%%%%%%%%%%%%%%%%%%%%%%%%%%%%%%%%%%%%%%%%%%%%%%%%%%%%%%%%%%%%%%%%%%%%%%%%%%%%%%%%%%%%%%%%%%%%%%%%%%%%%%%%%%%%%%%%%%%%%%%%%%%%%%%%%%%%%%%%%%%%%%%%%%%%%%%%%%%%%%%%%%%%%%%%%%%%%%%%%%%%%%%%%%%%%%%%%%%%%%%%%%%%%%%%%%%%%%%%%%%%%%%%%%%%%%%%%%%%%%%%%%%%%%%%%%%%%%%%%%%%%%%%%%%%%%%%%%%%%%%%%%%%%%%%%%%%%%%%%%%%%%%%%",
"%%%%%%%%%%%%%%%%%%%%%%%%%%%%%%%%%%%%%%%%%%%%%%%%%%%%%%%%%%%%%%%%%%%%%%%%%%%%%%%%%%%%%%%%%%%%%%%%%%%%%%%%%%%%%%%%%%%%%%%%%%%%%%%%%%%%%%%%%%%%%%%%%%%%%%%%%%%%%%%%%%%%%%%%%%%%%%%%%%%%%%%%%%%%%%%%%%%%%%%%%%%%%%%%%%%%%%%%%%%%%%%%%%%%%%%%%%%%%%%%%%%%%%%%%%%%%%%%%%%%%%%%%%%%%%%%%%%%%%%%%%%%%%%%%%%%%%%%%%%%%%%%%%%%%%%%%%%%%%%%",
"%%%%%%%%%%%%%%%%%%%%%%%%%%%%%%%%%%%%%%%%%%%%%%%%%%%%%%%%%%%%%%%%%%%%%%%%%%%%%%%%%%%%%%%%%%%%%%%%%%%%%%%%%%%%%%%%%%%%%%%%%%%%%%%%%%%%%%%%%%%%%%%%%%%%%%%%%%%%%%%%%%%%%%%%%%%%%%%%%%%%%%%%%%%%%%%%%%%%%%%%%%%%%%%%%%%%%%%%%%%%%%%%%%%%%%%%%%%%%%%%%%%%%%%%%%%%%%%%%%%%%%%%%%%%%%%%%%%%%%%%%%%%%%%%%%%%%%%%%%%%%%%%%%%%%%%%%%%%%%%%",
"%%%%%%%%%%%%%%%%%%%%%%%%%%%%%%%%%%%%%%%%%%%%%%%%%%%%%%%%%%%%%%%%%%%%%%%%%%%%%%%%%%%%%%%%%%%%%%%%%%%%%%%%%%%%%%%%%%%%%%%%%%%%%%%%%%%%%%%%%%%%%%%%%%%%%%%%%%%%%%%%%%%%%%%%%%%%%%%%%%%%%%%%%%%%%%%%%%%%%%%%%%%%%%%%%%%%%%%%%%%%%%%%%%%%%%%%%%%%%%%%%%%%%%%%%%%%%%%%%%%%%%%%%%%%%%%%%%%%%%%%%%%%%%%%%%%%%%%%%%%%%%%%%%%%%%%%%%%%%%%%",
"%%%%%%%%%%%%%%%%%%%%%%%%%%%%%%%%%%%%%%%%%%%%%%%%%%%%%%%%%%%%%%%%%%%%%%%%%%%%%%%%%%%%%%%%%%%%%%%%%%%%%%%%%%%%%%%%%%%%%%%%%%%%%%%%%%%%%%%%%%%%%%%%%%%%%%%%%%%%%%%%%%%%%%%%%%%%%%%%%%%%%%%%%%%%%%%%%%%%%%%%%%%%%%%%%%%%%%%%%%%%%%%%%%%%%%%%%%%%%%%%%%%%%%%%%%%%%%%%%%%%%%%%%%%%%%%%%%%%%%%%%%%%%%%%%%%%%%%%%%%%%%%%%%%%%%%%%%%%%%%%",
"%%%%%%%%%%%%%%%%%%%%%%%%%%%%%%%%%%%%%%%%%%%%%%%%%%%%%%%%%%%%%%%%%%%%%%%%%%%%%%%%%%%%%%%%%%%%%%%%%%%%%%%%%%%%%%%%%%%%%%%%%%%%%%%%%%%%%%%%%%%%%%%%%%%%%%%%%%%%%%%%%%%%%%%%%%%%%%%%%%%%%%%%%%%%%%%%%%%%%%%%%%%%%%%%%%%%%%%%%%%%%%%%%%%%%%%%%%%%%%%%%%%%%%%%%%%%%%%%%%%%%%%%%%%%%%%%%%%%%%%%%%%%%%%%%%%%%%%%%%%%%%%%%%%%%%%%%%%%%%%%",
"%%%%%%%%%%%%%%%%%%%%%%%%%%%%%%%%%%%%%%%%%%%%%%%%%%%%%%%%%%%%%%%%%%%%%%%%%%%%%%%%%%%%%%%%%%%%%%%%%%%%%%%%%%%%%%%%%%%%%%%%%%%%%%%%%%%%%%%%%%%%%%%%%%%%%%%%%%%%%%%%%%%%%%%%%%%%%%%%%%%%%%%%%%%%%%%%%%%%%%%%%%%%%%%%%%%%%%%%%%%%%%%%%%%%%%%%%%%%%%%%%%%%%%%%%%%%%%%%%%%%%%%%%%%%%%%%%%%%%%%%%%%%%%%%%%%%%%%%%%%%%%%%%%%%%%%%%%%%%%%%",
"%%%%%%%%%%%%%%%%%%%%%%%%%%%%%%%%%%%%%%%%%%%%%%%%%%%%%%%%%%%%%%%%%%%%%%%%%%%%%%%%%%%%%%%%%%%%%%%%%%%%%%%%%%%%%%%%%%%%%%%%%%%%%%%%%%%%%%%%%%%%%%%%%%%%%%%%%%%%%%%%%%%%%%%%%%%%%%%%%%%%%%%%%%%%%%%%%%%%%%%%%%%%%%%%%%%%%%%%%%%%%%%%%%%%%%%%%%%%%%%%%%%%%%%%%%%%%%%%%%%%%%%%%%%%%%%%%%%%%%%%%%%%%%%%%%%%%%%%%%%%%%%%%%%%%%%%%%%%%%%%",
"%%%%%%%%%%%%%%%%%%%%%%%%%%%%%%%%%%%%%%%%%%%%%%%%%%%%%%%%%%%%%%%%%%%%%%%%%%%%%%%%%%%%%%%%%%%%%%%%%%%%%%%%%%%%%%%%%%%%%%%%%%%%%%%%%%%%%%%%%%%%%%%%%%%%%%%%%%%%%%%%%%%%%%%%%%%%%%%%%%%%%%%%%%%%%%%%%%%%%%%%%%%%%%%%%%%%%%%%%%%%%%%%%%%%%%%%%%%%%%%%%%%%%%%%%%%%%%%%%%%%%%%%%%%%%%%%%%%%%%%%%%%%%%%%%%%%%%%%%%%%%%%%%%%%%%%%%%%%%%%%",
"%%%%%%%%%%%%%%%%%%%%%%%%%%%%%%%%%%%%%%%%%%%%%%%%%%%%%%%%%%%%%%%%%%%%%%%%%%%%%%%%%%%%%%%%%%%%%%%%%%%%%%%%%%%%%%%%%%%%%%%%%%%%%%%%%%%%%%%%%%%%%%%%%%%%%%%%%%%%%%%%%%%%%%%%%%%%%%%%%%%%%%%%%%%%%%%%%%%%%%%%%%%%%%%%%%%%%%%%%%%%%%%%%%%%%%%%%%%%%%%%%%%%%%%%%%%%%%%%%%%%%%%%%%%%%%%%%%%%%%%%%%%%%%%%%%%%%%%%%%%%%%%%%%%%%%%%%%%%%%%%",
"%%%%%%%%%%%%%%%%%%%%%%%%%%%%%%%%%%%%%%%%%%%%%%%%%%%%%%%%%%%%%%%%%%%%%%%%%%%%%%%%%%%%%%%%%%%%%%%%%%%%%%%%%%%%%%%%%%%%%%%%%%%%%%%%%%%%%%%%%%%%%%%%%%%%%%%%%%%%%%%%%%%%%%%%%%%%%%%%%%%%%%%%%%%%%%%%%%%%%%%%%%%%%%%%%%%%%%%%%%%%%%%%%%%%%%%%%%%%%%%%%%%%%%%%%%%%%%%%%%%%%%%%%%%%%%%%%%%%%%%%%%%%%%%%%%%%%%%%%%%%%%%%%%%%%%%%%%%%%%%%",
"%%%%%%%%%%%%%%%%%%%%%%%%%%%%%%%%%%%%%%%%%%%%%%%%%%%%%%%%%%%%%%%%%%%%%%%%%%%%%%%%%%%%%%%%%%%%%%%%%%%%%%%%%%%%%%%%%%%%%%%%%%%%%%%%%%%%%%%%%%%%%%%%%%%%%%%%%%%%%%%%%%%%%%%%%%%%%%%%%%%%%%%%%%%%%%%%%%%%%%%%%%%%%%%%%%%%%%%%%%%%%%%%%%%%%%%%%%%%%%%%%%%%%%%%%%%%%%%%%%%%%%%%%%%%%%%%%%%%%%%%%%%%%%%%%%%%%%%%%%%%%%%%%%%%%%%%%%%%%%%%",
"%%%%%%%%%%%%%%%%%%%%%%%%%%%%%%%%%%%%%%%%%%%%%%%%%%%%%%%%%%%%%%%%%%%%%%%%%%%%%%%%%%%%%%%%%%%%%%%%%%%%%%%%%%%%%%%%%%%%%%%%%%%%%%%%%%%%%%%%%%%%%%%%%%%%%%%%%%%%%%%%%%%%%%%%%%%%%%%%%%%%%%%%%%%%%%%%%%%%%%%%%%%%%%%%%%%%%%%%%%%%%%%%%%%%%%%%%%%%%%%%%%%%%%%%%%%%%%%%%%%%%%%%%%%%%%%%%%%%%%%%%%%%%%%%%%%%%%%%%%%%%%%%%%%%%%%%%%%%%%%%",
"%%%%%%%%%%%%%%%%%%%%%%%%%%%%%%%%%%%%%%%%%%%%%%%%%%%%%%%%%%%%%%%%%%%%%%%%%%%%%%%%%%%%%%%%%%%%%%%%%%%%%%%%%%%%%%%%%%%%%%%%%%%%%%%%%%%%%%%%%%%%%%%%%%%%%%%%%%%%%%%%%%%%%%%%%%%%%%%%%%%%%%%%%%%%%%%%%%%%%%%%%%%%%%%%%%%%%%%%%%%%%%%%%%%%%%%%%%%%%%%%%%%%%%%%%%%%%%%%%%%%%%%%%%%%%%%%%%%%%%%%%%%%%%%%%%%%%%%%%%%%%%%%%%%%%%%%%%%%%%%%",
"%%%%%%%%%%%%%%%%%%%%%%%%%%%%%%%%%%%%%%%%%%%%%%%%%%%%%%%%%%%%%%%%%%%%%%%%%%%%%%%%%%%%%%%%%%%%%%%%%%%%%%%%%%%%%%%%%%%%%%%%%%%%%%%%%%%%%%%%%%%%%%%%%%%%%%%%%%%%%%%%%%%%%%%%%%%%%%%%%%%%%%%%%%%%%%%%%%%%%%%%%%%%%%%%%%%%%%%%%%%%%%%%%%%%%%%%%%%%%%%%%%%%%%%%%%%%%%%%%%%%%%%%%%%%%%%%%%%%%%%%%%%%%%%%%%%%%%%%%%%%%%%%%%%%%%%%%%%%%%%%",
"%%%%%%%%%%%%%%%%%%%%%%%%%%%%%%%%%%%%%%%%%%%%%%%%%%%%%%%%%%%%%%%%%%%%%%%%%%%%%%%%%%%%%%%%%%%%%%%%%%%%%%%%%%%%%%%%%%%%%%%%%%%%%%%%%%%%%%%%%%%%%%%%%%%%%%%%%%%%%%%%%%%%%%%%%%%%%%%%%%%%%%%%%%%%%%%%%%%%%%%%%%%%%%%%%%%%%%%%%%%%%%%%%%%%%%%%%%%%%%%%%%%%%%%%%%%%%%%%%%%%%%%%%%%%%%%%%%%%%%%%%%%%%%%%%%%%%%%%%%%%%%%%%%%%%%%%%%%%%%%%",
"%%%%%%%%%%%%%%%%%%%%%%%%%%%%%%%%%%%%%%%%%%%%%%%%%%%%%%%%%%%%%%%%%%%%%%%%%%%%%%%%%%%%%%%%%%%%%%%%%%%%%%%%%%%%%%%%%%%%%%%%%%%%%%%%%%%%%%%%%%%%%%%%%%%%%%%%%%%%%%%%%%%%%%%%%%%%%%%%%%%%%%%%%%%%%%%%%%%%%%%%%%%%%%%%%%%%%%%%%%%%%%%%%%%%%%%%%%%%%%%%%%%%%%%%%%%%%%%%%%%%%%%%%%%%%%%%%%%%%%%%%%%%%%%%%%%%%%%%%%%%%%%%%%%%%%%%%%%%%%%%",
"%%%%%%%%%%%%%%%%%%%%%%%%%%%%%%%%%%%%%%%%%%%%%%%%%%%%%%%%%%%%%%%%%%%%%%%%%%%%%%%%%%%%%%%%%%%%%%%%%%%%%%%%%%%%%%%%%%%%%%%%%%%%%%%%%%%%%%%%%%%%%%%%%%%%%%%%%%%%%%%%%%%%%%%%%%%%%%%%%%%%%%%%%%%%%%%%%%%%%%%%%%%%%%%%%%%%%%%%%%%%%%%%%%%%%%%%%%%%%%%%%%%%%%%%%%%%%%%%%%%%%%%%%%%%%%%%%%%%%%%%%%%%%%%%%%%%%%%%%%%%%%%%%%%%%%%%%%%%%%%%",
"%%%%%%%%%%%%%%%%%%%%%%%%%%%%%%%%%%%%%%%%%%%%%%%%%%%%%%%%%%%%%%%%%%%%%%%%%%%%%%%%%%%%%%%%%%%%%%%%%%%%%%%%%%%%%%%%%%%%%%%%%%%%%%%%%%%%%%%%%%%%%%%%%%%%%%%%%%%%%%%%%%%%%%%%%%%%%%%%%%%%%%%%%%%%%%%%%%%%%%%%%%%%%%%%%%%%%%%%%%%%%%%%%%%%%%%%%%%%%%%%%%%%%%%%%%%%%%%%%%%%%%%%%%%%%%%%%%%%%%%%%%%%%%%%%%%%%%%%%%%%%%%%%%%%%%%%%%%%%%%%",
"%%%%%%%%%%%%%%%%%%%%%%%%%%%%%%%%%%%%%%%%%%%%%%%%%%%%%%%%%%%%%%%%%%%%%%%%%%%%%%%%%%%%%%%%%%%%%%%%%%%%%%%%%%%%%%%%%%%%%%%%%%%%%%%%%%%%%%%%%%%%%%%%%%%%%%%%%%%%%%%%%%%%%%%%%%%%%%%%%%%%%%%%%%%%%%%%%%%%%%%%%%%%%%%%%%%%%%%%%%%%%%%%%%%%%%%%%%%%%%%%%%%%%%%%%%%%%%%%%%%%%%%%%%%%%%%%%%%%%%%%%%%%%%%%%%%%%%%%%%%%%%%%%%%%%%%%%%%%%%%%",
"%%%%%%%%%%%%%%%%%%%%%%%%%%%%%%%%%%%%%%%%%%%%%%%%%%%%%%%%%%%%%%%%%%%%%%%%%%%%%%%%%%%%%%%%%%%%%%%%%%%%%%%%%%%%%%%%%%%%%%%%%%%%%%%%%%%%%%%%%%%%%%%%%%%%%%%%%%%%%%%%%%%%%%%%%%%%%%%%%%%%%%%%%%%%%%%%%%%%%%%%%%%%%%%%%%%%%%%%%%%%%%%%%%%%%%%%%%%%%%%%%%%%%%%%%%%%%%%%%%%%%%%%%%%%%%%%%%%%%%%%%%%%%%%%%%%%%%%%%%%%%%%%%%%%%%%%%%%%%%%%",
"%%%%%%%%%%%%%%%%%%%%%%%%%%%%%%%%%%%%%%%%%%%%%%%%%%%%%%%%%%%%%%%%%%%%%%%%%%%%%%%%%%%%%%%%%%%%%%%%%%%%%%%%%%%%%%%%%%%%%%%%%%%%%%%%%%%%%%%%%%%%%%%%%%%%%%%%%%%%%%%%%%%%%%%%%%%%%%%%%%%%%%%%%%%%%%%%%%%%%%%%%%%%%%%%%%%%%%%%%%%%%%%%%%%%%%%%%%%%%%%%%%%%%%%%%%%%%%%%%%%%%%%%%%%%%%%%%%%%%%%%%%%%%%%%%%%%%%%%%%%%%%%%%%%%%%%%%%%%%%%%",
"%%%%%%%%%%%%%%%%%%%%%%%%%%%%%%%%%%%%%%%%%%%%%%%%%%%%%%%%%%%%%%%%%%%%%%%%%%%%%%%%%%%%%%%%%%%%%%%%%%%%%%%%%%%%%%%%%%%%%%%%%%%%%%%%%%%%%%%%%%%%%%%%%%%%%%%%%%%%%%%%%%%%%%%%%%%%%%%%%%%%%%%%%%%%%%%%%%%%%%%%%%%%%%%%%%%%%%%%%%%%%%%%%%%%%%%%%%%%%%%%%%%%%%%%%%%%%%%%%%%%%%%%%%%%%%%%%%%%%%%%%%%%%%%%%%%%%%%%%%%%%%%%%%%%%%%%%%%%%%%%",
"%%%%%%%%%%%%%%%%%%%%%%%%%%%%%%%%%%%%%%%%%%%%%%%%%%%%%%%%%%%%%%%%%%%%%%%%%%%%%%%%%%%%%%%%%%%%%%%%%%%%%%%%%%%%%%%%%%%%%%%%%%%%%%%%%%%%%%%%%%%%%%%%%%%%%%%%%%%%%%%%%%%%%%%%%%%%%%%%%%%%%%%%%%%%%%%%%%%%%%%%%%%%%%%%%%%%%%%%%%%%%%%%%%%%%%%%%%%%%%%%%%%%%%%%%%%%%%%%%%%%%%%%%%%%%%%%%%%%%%%%%%%%%%%%%%%%%%%%%%%%%%%%%%%%%%%%%%%%%%%%",
"                          eqeqwettyFGJKLPIQ!QIPLKJGFytrtGJGw                             @     @                                                            C                                                                                                #                                          @                       ",
"                         =eqeqwettyFGJKLPIQ!QIPLKJGFytrtGJGw=                                                                       @                        6                                                                                                                                                              6@  ",
"                         9eqeqwettyFGJKLPIQ!QIPLKJGFytrtGJGw9     6                                                                                                                                               6                                                                QL      QQ                                   ",
"                         0eqeqwettyFGJKLPIQ!QIPLKJGFytrtGJGw0                                                                                                                                                                                                                     QLIQ    QLLL                                  ",
"     (                   qeqeqwettyFGJKLPIQ!QIPLKJGFytrtGJGwq                                      @                    @                                                                   @                                                                       C            QLIQy   QLLIy           6                      ",
"                         weqeqwettyFGJKLPIQ!QIPLKJGFytrtGJGww                                                                                                                                                                                                                   QLIQy   QLLIy  6                                ",
"       @    6            eeqeqwettyFGJKLPIQ!QIPLKJGFytrtGJGww              (                                                                                                                           @                                                                       QLIQy   QLLIy6                                   ",
"          @              eeqeqwettyFGJKLPIQ!QIPLKJGFytrtGJGww                (                                                                    @                                                        @                         (            #                           QLIQy   QLLIy                                     ",
"                 6       weqeqwettyFGJJLPIQ!QIPLKJGFytrtGJGww  C     6                                                                      @                                   ( @                                                 C                          9FFFFFFFFFFFFFFFFQy   QLLIy                                   6  ",
"                         weqeqwettyFGJKLPIQ!QIPLKJGFytrtGJGww                                                @                C     6                                                                                       #                              9FFFFrrrrrrrrrrrrrrrrFFFFQLLIy    6                    6             ",
"                         weqeqwettyFGJKLPIQ!QIPLKJGFytrtGJGww          @                           @           @                                                                                                                          6     @        9FFrrrrrrrrrrrrrrrrrrrrrrrrFFIy                                        ",
"                         wqreqwettyFGJKLPIQ!QIPLKJGFytrtGJGww                                                                                                               @                                                                           9Frrrrrrwwwwwwwwwwwwwwwwrrrrrry9                                        ",
"                         wqreqwettyFGJKLPIQ!QIPLKJGFytrtGJGtw                           6                                                      6                                @                                                                      9Frrrwwww                wwwwrrrF9                      (@              @",
"        @                wqreqwettyFGJKLPIQ!QIPLKJGFytrtGJGtw                                                                                                                            6                                                             Frrww   qttttttttttttttttq   wwrrF                                       ",
"                         wqreqwettyFGJKLPIQ!QIPLKJGFytrtGJGyw       @                                                                               6                                                                                                  rrw  qtttttJKLPIQ!QIPLKJttttq  wrr                                       ",
"                         wqreqwettyFGJKLPIQ!QIPLKJGFytrtyGJGw                                                                        @                                         6                          6                                     @      rw ttettyFGJKLPIQ!QIPLKJGFyrttt wr                                   @   ",
"               @        @wqreqwettyFGJKLPIQ!QIPLKJGFytrttGJGw         6                       6             6                               @                    @                                                                                     w reqwetyFGJKLPIQ!QIPLKJGFyrtGJt w                                       ",
"                     (   wqreqwettyFGJKLPIQ!QIPLJJGFytrttGJGw                                                            @                          6         @       6             @                                                          @        ereqwetyFGJKLPIQ!QIPLKJGFyrtGJGw                                        ",
"                        =wqreqwettyFGJKLPIQ!QIPLLJGFytrttGJGw=                                            @                        @                         @             6                                                                           =ereqwetyFGJKLPIQ!QIPLKJGFyrtGJGw=                                       ",
"                        9wqreqwettyFGJKLPIQ!QIPLKJGFytrttGJGw9                                     6                                                      6                                       #                                            #       9ereqwetyFGJKLPIQ!QIPLKJGFyrtGJGw9   (                                   ",
"        6          6    0wqreqwettyFGJKLPIQ!QIPLKJGFytrttGJGw0                                                                                              6               C   @                            6                                     @   0ereqwetyFGJKLPIQ!QIPLKJGFyrtGJGw0                  @     6              ",
"                        wwqreqwettyFGJKLPIQ!QIPLKJGFytrttGJGwq              @                                                                                                                        @                                                 qereqwetyFGJKLPIQ!QIPLJJGFyrtGJGwq            @       6       @C         ",
"              C         wwqreqwettyFGJKLPIQ!QIPLKJGFytrttGJGww                                   6            @            (           @ @                         6     @                                               @                             wereqwetyFGJKLPIQ!QIPLKJGFyrtGJGww                                       ",
"         6              ewqreqwettyFGJJLPIQ!QIPLKJGFytrttGJGww       6        @                                                                                                                      6                                                 eereqwetyFGJKLPIQ!QIPLKJGFyrtGJGww                                       ",
"                        ewqreqwettyFGJKLPIQ!QIPLKJGFytrttGJGww                                                @                 6      6       @                  @                                                                                  C eereqwetyFGJKLPIQ!QIPLKJGFyrtGJGww                                       ",
"            @           wwqreqwettyFGJKLPIQ!QILLKJGFytrttGJGww                                                                                                                                                                                         wereqwetyFGJKLPIQ!QIPLKJGFyrtGJGww                                       ",
"                        wwqreqwettyFGJKLPIQ!QIPLKJGFytrttGJGww                                                            @     @                         @                                                   @          6                             wereqwetyFGJKLPIQ!QIPLKJGFyrtGJGyw                                       ",
"                        wwqreqwettyFHJLLLIQ!QIPLKJGFytrttGJGww                                                                                                                       6     #               tJ!!0                                       wereqwetyFGJKLLIQ!QIPLKJGFyrtyGJGw                                       ",
"                        wwqreqwettyFGJJLPIQ!QIPLKJGFytrttGJGww                                          @@                                                    6           #                              tL!!==!0         J!!0              @          wereqwetyFGJKLPIQ!QIPLKJGFyrttGJGw        @                              ",
"                        wwqreqwettyFGJKLPIQ!QIPLKJGFytrttGJGww                 6                  6                                                        @                  #                        tL!LL!  =!   6   L!!==!0                        wereqwetyFGJKLPIQ!QIPLKJGFyrttGJGw                                       ",
"      6                 wwqreqwettyFGJKLPIQ!QIPLKJGFytrttGJGww                          @                               @                                                                            tL!LL!P!K =!     L!LL!  =!    @                   wereqwetyFGJKLPIQ!QIPLKJGFyrttGJGw                                       ",
"                        wwqreqwettyFGJJLPIQ!QIPLKJGFytrttGJGww             C                                                           @   @                             6                         tL!LL!!!PJ!!!J   L!LL!P!J =!      @                 wereqwetyFGJKLPIQ!QIPLKJGFyrttGJGw               6 @                     ",
"     @                  wqerwqwettyFGJKLPIQ!QIPLKJGFyttrtGJGww                                                        6                                                              #           tL!LL!!!PyyLyyw  L!LL!!!PJ!~!J                        wereqwetyFGJKLPIQ!QIPLKJGFytrtGJGw                                       ",
"                        wqreqwerttyFGJKLPIQ!QIPLKJGFyttrtGJGww                                                          @                                                   Rc                 tL!LL!!!PyyLyyw  L!LL!!!PyyLyyw                         weeqwertyFGJKLPIQ!QIPLKJGFytrtGJGw                                       ",
"                        wqreqwetttyFGJKLPIQ!QIPLKJGFyttrtGJGtw                                                                                                             cccc              tL!LL!!!PyyLyyw  L!LL!!~LyyLyyw                           ereqwettyFGJKLPIQ!QIPLKJGFytrtGJGw                                       ",
"                       =wqreqwetttyFGJKLPIQ!QIPLKJGFyttrtGJGyw=                                                                                        6           9FQQQQQQQQQQQQQQQF9     tL!LL!!!PyyLyyw  L!LL!!!PyyLyyw                            =ereqwettyFGJKLPIQ!QIPLKJGFytrtGJGw=     6                       6        ",
"       6               9wqreqwetttyFGJKLPIQ!QIPLKJGFyttrtyGJGw9             6                                                             @                   9FQQQQQPPPPLPPPPPPPPPLQQQQJFL!LL!!!PyyLyyw 6L!LL!!!PyyLyyw@                             9ereqwettyFGJKLPIQ!QIPLKJGFytrtGJGw9           6                          ",
"           6           0wqreqwetttyFGJKLPIQ!QIPLKJGFyttrttGJGw0                                                                                           9FQQQQPPPPPLLLLLLLLLLLLLLLPPJJL!LL!!!PyyLyyw  L!LL~!!LyyLyyw  (@                            0ereqwettyFGJKLPIQ!QIPLKJGFytrtGJGw0                                      ",
"                       wwqreqwetttyFGJKLPIQ!QIPLKJGFyttrttGJGwq                                                                         @              9FQQQPPPPLLLLLJJJJJJJJJJJJJJJJJL!LL!!!PyyLyyw  L!LL!!!LyFLyyw                                  qereqwettyFGJKLPIQ!QIPLKJGFytrtGJGwq                                     C",
"                       wwqreqwetttyFGJKtw9=&=09wyJGFyttrttGJGww                                         Z   6  @                   @                 9FQQPPPLLLLJJJJJJJJJJJJJJJJJJJJL!LL!!!PyyLyyw9 L!LL!!!PyyLyyw                     @              wereqwettyFGJKLPIQ!QIPLJJGFytrtGJGww                                      ",
"                       wwqreqwetttyFGw0%*e00*%q9*0wFyttrttGJGww                                        CAC             6         6                 9FQQPLLLLJJJJJJJJJJJJJJJJJJJJJJL!LL!!!PyyLyyPPPL!LL!!!PyyLyyw      @                              6eereqwettyFGJKLPIQ!QIPLKJGFytrtGJGww                           @          ",
"                       wwqreqwetttyr9=&t%y=G9 y0&&90tttrttGJGww                                       ZA(AZ                                       FQQPPLJJJJJJJJJJJJJJJJJJJJJJJJJ=LL!!!PyyLyyJJJL!LL!!!PyyLyyw                                      6 eereqwettyFGJKLPIQ!QIPLKJGFytrtGJGww                                      ",
"                       wwqreqwetttq**0&!F     o=^ro&=etrttGJGww                                        CAC                                      9FQPPLJJJJJJJJJJJJJJJJJJJJJJJJJJJ=P!!PyyLyyJJJJ=LL!!!PyyLyyw               6                          wereqwettyFGJKLPIQ!QIPLKJGFytrtGJGww               (                      ",
"                      =wwqreqwettq90*Gro&9erte*XrG990=rrttGJGww                      6                  Z                                      wQQPJJJJJJJJJJJJJFFFFFFFFFFFFFFFFF=FJJJLyyJJJJJJ=L!!PyyLyyw                                            wereqwettyFGJKLPIQ!QILLKJGFytrtGJGww                  @                   ",
"         6            9wwqreqwetr9XeK%&wI`''''_P* rK%&=rttGJGww      6       QQ      LQ                                                       wQPJJJJJJFFFFFFFFFyyyyyyyyyFyyyyyFGJ=FJyy=FFFFFFF=FJJJLyyJQw                                            wereqwettyFGJKtw9=&=00wyJGFytrtGJGww       @                              ",
"                      0wwqreqwet== X* L'_^^~~^^''Fo=  0=ttGJGww             LLLQ    QILQ                                                     wPJJJFFFFFyyyyyyFyyyyyyyyyyyFyyyyyFGJe====yFyyyyyyy=yJyy=FJJPw                 @                         wereqwettyFGe0%*e00*%w=*0eFytrtGJGww                                      ",
"                      qwwqreqweq0    ~'~~_''^^'_`'I   o9rtGJGww             yILLQ   yQILQ                                                   wJyFFFyFyytyyyyyyFyyyyyyyyyyyFyyyyyFGJGeeeeyFyyyyyyye====yyFFyJw                                          wereqwettyr9*&t%y=G9 y0&&90ttrtGJGww                                      ",
"                      wwwqreqwe=*   L'~~'IGt!!GyJHQr   9=tGJGww              yILLQ   yQILQ        6                    @                    JrtyyyyFyytyyyyyyFyyyyyyyyyyyFyyyyyFGJGteeetFyyyyyyyyeeeeyyFytrJ                 6              6         wereqwettw**0&!F     o=^rX&=ertGJGww                                      ",
"                      wwwqreqwq9.  0'~~'Q  *`F rq  ~=  %9tGJGww               yILLQ   yQILQ                                        @        rrtyyyyFyytyyyyyyFyyyyyyyyyyyFyyyyyFGJGFeeeeFyyyyyyyyteeetyFytrr                         @                wereqwet090*GrX&9erte*.rH990=wtGJGyw                                      ",
"   C                  wwwqreqw=*   P'~'Q  0''e='r  ^J   =qGJGww                yILLQ   yQILQ                                                rrtyyyyFyytyyyyyyrrrrrrrrrrrrrrrrrrrrrrreeeerrryyyyyyyeeeeyFytrr      6                      C            wereqwee9XrL%&wI`''''_P= eL%&=tyGJGw                                      ",
"                      wwwqreqw9&  X_^'Q  q'_^Q`'& ._~   =9GJGww                 yILLQ   yQFFFFFFFFFFFFF9                                    rrtyyyyFrrrrrrrrr                              rrrrrrreeeeyFytrr                                          wereqwe== .* L'_^^~^^^''Fo=  09tGJGw                         6         6  ",
"                      wwwqreqw&F. y_'Q  w'`^~`'= .~`^q &y=GJGww                  yILLQFFFFrrrrrrrrrrrrrFFFF9                                rrtyrrrr       0yLLLLLLLLLLLLLLLLLLLLLLLLttttLLy0        errytrr      @               @  6                wereqw90    ~'~~_''^^'``'I   o9eGJGw                                      ",
"            6         wwwqrwqw&JFtL_I. w'`^)__9 o!')!JtHF*GJGww     6             yIFFrrrrrrrrrrrrrrrrrrrrrFF9                           +saorrr   0yLLLLLLLLKJJJJJJJJJJKLKJJJLPI!IPLeeeeyJLLLLLLLLtt   rrrr       @                                 =wereqw=*   P'~~'IGt!!GyJGQr   99GJGw=                                     ",
"                      wwqerqww&FIKG'%  **%%%LL  F'JP^yPLr*GJGww                   9yrrrrrrwwwwwwwwwwwwwrrrrrrF9                         O,sd;  0yLL;;GFGJJJJJJJJJJJJJJJJKLKJJKLPI!IPLyeeeeJJJJJJJJJeetty0  r           @                         @   9wereq09.  0'~~'Q  &'F r0  ~=  %=GJGw9      6                              ",
"                      wwqerqww%yJJG_%       JK  JL L^FKJe=GJGww                  9Frrrwwww             wwwwrrrF9                6        4sa,wLLKKJfaGFGJJJJJKJJJJJJJJJJKLKJJKLPI!IPLKeeeeJJJJJJJJJyeeeyLLw                                          0wereq=*   P`~'Q  0''e='r  ^J   =eJGw0                                     ",
"                      wwqerqww&FrqGQLFFFJe  JIoot%X^Qt0Gw0GJGww                  Frrww   qtttttttttttttq   wwrrF                         ;aqGJGJKKJcpGFGJJJJJKJJJJJJJJJJKLKJJKLPI!IPLKeeeeyJJJJJJJJJeeeeJGJGq                               6        qwereq=*  X_^'Q  q'_^I`'* ._~   =qJGwq             6                       ",
"                      wwqerqww9qGJGH'''''P  r'^^Q!^)GJHG*eGJGww                  rrw  qtttttJKLPIIPLKJttttq  wrr    K                     tFGJGJXKJp;GFGJJJ;;KJJJJJJJJJJKLKJJKLPI!IPLJyeeeeJJJJJJJJJeeeeJGJGFt              @             @  6       wwereq&F. y_'Q. q'`^~''= .!`^q &y9JGww                             @       ",
"          6        C  wwqerqwww%JKtt!_~~'J  t'_))^'PrtLF%tGJGww                  rw ttettyFGJKLPIIPLKJGFyrttt wr KGFKG*          @       wtFGJGJK>pKJGFGJJpbaJJJJJJJJJJJKLKJJKLPI!IPLKJeeeeJJJJJJJJJyeeeyGJGFtw                    @  @              ewereq%JGrL`I  w'`^)))9 o!')!KtHF9JGww                        6            ",
"                      wwqerqwwe*ty0Gy__~^!IP!^~~^_!yF0H0qtGJGww=     (           w reqwetyFGJKLPIIPLKJGFyrtGJt w LKG*F        C       $o wtFGJGJKvT;J;>lJJfb;FFFFFFFFFFFFFFFFFFFFFFFFFFFFFFGJJJJJJJJJeeeeGJGFtw                            @         ewereq&FIJG'&  **%&%LL  G'JL^FPLr=JGww                                     ",
"                      wwqerqwwer%HLLFy^`~^_`)~~^`~yGLPyottGJGww9          6       ereqwetyFGJKLPIIPLKJGFyrtGJGw KGF   @       @      $:l wtFGJGJKvTp,lbRoF>>tq==============9=============qtFFFFFFFFFGyeeGJGFtw                                      wwereq%yKJF`%       HL  JL L)yKJe9JGww       7                             ",
"                      wwqerqwwet00KK=wGI)`_))__^LtqtKH&wttGJGww0                 =ereqwetyFGJKLLIIPLKJGFyrtGJGw=LKG*                 ;4sfotfv;;F,lbllccl;o====****************************==========qtFFFFFGFtw  @                                   wwereq&FrqGQLFGGJe  JIoot%X^Qt0GwwJGww      6n6                            ",
"                     =wwqerqwwett&ryweqrJIQQQIPHye9qF09rttGJGtwq                 9ereqwetyFGJKLPIIPLKJGFyrtGJGw9 K                   ;,53wtFtlfpafcbbbfaafKPIIIIIIIIIIIIIIIIIIIIIIIIIIIyIIIIPKGte***======0tFtw          @     @                     wwereq=qGHGH'`'''L  r'^^Q!^)GJGH*yJGww     7nmn7                           ",
"                     9wwqerqwwettt&wLwq0=qqyFe9e*0Fr0=trttGJGyww                 0ereqwetyFGJKLPIIPLKJGFyrtGJGw0                      ,; w0 elvTRvvTTbcvRbKLPLKKKKKKKKKKLPLKLPIQ^^_`_)FyFPLKKKKPIIIIIIIPKGte 0w    C                               6 wwereqw%JJtt!_~~'J  t')_)^'PryLF%GJGww      6n6                            ",
"                     0wwqerqwwettty=0ryq0wwqtL0t9tF90tttrttGJGww                 qereqwetyFGJKLPIIPLKJGFy**GJGwq                          0tacbRTTTTTTRTTc;Lo;>KKKKKKKKKLPLKLPIQ^)___FyF*PLKKKKkjjjjkKJKJGFyt0                    @                  wwereqw&ty0Gy__~^!IP!^~^~_~yF0J0qGJGww       7    @                        ",
"                     qwwqerqwwetttyFe=wtJFJrtLFHy0*rytttrttGJGww                 wereqwetyFGJKLPIIPLKJGF*tyGJGww                         0fllR'ERTTTTRTRTTa>aaoKKKKKKKKKLPLKKLPIQ^)_`_yF*IPLKKKKkjjjjkKJKJGFyt0                                      wwereqwe%JLLGy^_~^``)~^^`!tHLLyotGJGww                                     ",
"C                    wwwqerqwwetttyFGJe*=qerrwq**tGFytttrttGJGww                 eereqwetyFGJKLPIIPLKJG*tyFGJGww                        0twbc''/ERTTTRRERTfpoKKKKKKKKKKKLPLKKLLIQ^)_`_)G*IPLKKKKkjjjjkKKJKJGFyt0                                     wwereqwe90JK=wGQ)__))__^PtwtKG*etGJGww                                     ",
" 6                   wwwqerqwwetttyFGJKtttyFFyttyJGFytttrttGJGww                 eereqwetyFGJKLPIIPLKJGFyFtGJGww           (           0w,wTT/'`/RRTREEEETflLKKKKKKKKKKKKLPLKLPIQ^)_`_)*QIPLKKKKKkjjjjkKKJKJGFyt0                                    wwereqwet&ryweqrJP!!IIPGye0qF0=rtGJGww                 6         C         ",
"                     wwwqerqwwetttyFGJKLttyFFyttKJGFytttrttGJGww                 wereqwetyFGJKLPIIPLKJGFFrtGJGww         y            0t>ahUR''//ERRR//ERvcv>KKKKKKKKKKKKLPLKLPIQ^^___)^QIPLKKKKKKkjjjjkKKJKJGFyt0          @                        wereqwertt&wLwq0=qqyFr9e*9Fe0=trtGJGww           @                         ",
"                     wwwqerqwwetttyFGJJLttyFFytyKJGFytttrttGJGww                 wereqwetyFGJKLPIIPLKJGFyrtGJGyw        FyF          0wwczxY/``/R/'''//RTcap;>KKKKKKKKKKKLPLKKLPIQ^)_`_)^QIPLKKKKKkjjjjkKKKJKJGFyt0                                  wereqwettty=0ry00wwqyJ0t9tF90ttrtGJGww                                     ",
"               6     wwwqerqwwetttyFGJKLLtyFFytLKJGFytttrttGJGww             6   wereqwetyFGJKLPIIPLKJGFyrtyGJGw       FyF*         0wwcvbTR/_/`/E'''//RTvg>KKKKKKKKKKKKKLPLKKLPIQ^)_`_)^QIPLKKKKKKkjjjjkKKJKKJGFyt0   (                            =wereqwetttyFe=wtJFJrtLGGF0=ryttrtGJGyw=               6    @               ",
"                     wwwqerqwwettyyFGJKLPtyFFyyLKJGFytttrttGJGww                 wereqwetyFGJKLPIIPLKJGFyrttGJGw        yF*    @   0wwlbbbRRE//'/''''//RTbll;KKKKKKKKKKKKLPLKKLPIQ^)_`_)^QIPLKKKKKKKkjjjjkKKJKKJGFyt0                 @             9wereqwetttyFGJr*=qerrw0**tGFyttrtyGJGw9                                    ",
"      @              wwwqerqwwetttyFGJKLPIyFFyPLKJGFytttrttGJGww             6   wereqwetyFGJKLPIIPLKJGFyrttGJGw         G*       0wwllTTTE//'''''''/`/ETbvvcaKKKKKKKKKKKLPLLJLPIQ^^_`_^~QILLKKKJKKKkjjjjkKKKJKKJGFyt0                            6 0wereqwetttyFGJKtttyFFyttyJGFyttrttGJGw0 @                           @      ",
"                     wwwqrqwwertttyFGJKLPIyFFyPLKJGFytttrttGJGww                 wereqwetyFGJKLPIIPLKJGFyrttGJGw         *       0twllcTTR//'''''Fw''`/ETbTv>;KKKKKKKKKKKLPLJKKLPIQ^)_`_)^QIPLKKLKKKKkjjjjkKKKJKKJGFyt0   6                         qwereqwetttyFGJKLttyFFyttKJGFyttrttGJGwq                                    ",
"                     wwqerqwwettttyFGJKLPIQFFIPLKJGFytttrttGJGww                 wereqwetyFGJKLPIIPLKJGFyrttGJGw               @0tywwccvTY/'''''/w''''/RTTa;KKKXKKKJKKKKKKLPLKKLPIQ^)_`_)^QIPLKKJKKKKKkjjjjkKKKJKKJGFyt0                            wwereqwetttyFGJKLttyFFytyKJGFyttrttGJGww                                    ",
"           6         wwqerqwwettttyFGJKLPIQ!QIPLKJGFytttrttGJGww                 wereqwetyFGJKLPIIPLKJGFytrtGJGw               0t FwwlvvcKLw''''wGw////RbvfpKKKKKKKLJKKKKKLPLKKLLQQ~)_`_)^QIPLKKKKKKKKkjjjjkKKKKJKKJGFyt0                           ewereqwetttyFGJKLLtyFFytLKJGFyttrttGJGww                                    ",
"                     wwqerqwwettttyFGJKLPIQ!QIPLKJGFytttrttGJGww                 weeqwertyFGJKLPIIPLKJGFytLtGJGw          @   0t  GwlllllLKGw/''wGJw//LvLKfRfoKKKKKKKKKKKJLPLKKKLPIQ^)_`_)^QIPLKKKKKKKKkjjjjkKKKKJKJJGFyt0             (       @    ewereqwetttyFGJKLPtyFFyyLKJGFyttrttGJGww                                    ",
"                     wwqerqwwettttyFGJJLPIQ!QIPLKJGFytttrttGJGww                 ereqwettyFGJKLPIIPLKJGFytKtGJGw             0tyFGlllllKllGGwR//GJKJRKLPLKop;KKKKKKKKKKKJLLPLKKKLLIQ^^_`_^^QIPLKKKKKKKKKkjjjjkKKKKJKKJGFyt0                         wwereqwetttyFGJKLPIyFFyPLKJGFyttrttGJGww                                    ",
"       (             wwqerqwwettttyFGJKLPIQ!QIPLKJGFytttrttGJGww                =ereqwettyFGJKLPIIPLKJGFyKGtGJGw=           0tyFGGGwlGlKLKGuGFbTGJKKKcLPLKKKKKKKKKKKKKKKKKLPLKKKLPIQ^)_`_)^QIPLKKKKKKKKKkjjjjkKKKKKJKKJGFyt0                 6      wwereqwetttyFGJKLPIyFFyPLKJGFyttrttGJGww                   @    6           ",
"           6        =wwqerqwwettttyFGJKLPIQ!QIPLKJGFytttrttGJGww                9ereqwettyFGJKLPIIPLKJGFyGGtGJGw9          0tyFGGGlllGKLKGGuFyFuJKKKKL LKKKKKKKKKKKKKKKKKKLPLKKKLPIQ^)_`_)~QQLLKKKKKKKKKKkjjjjkKKKKKJKKJGFyt0                       wwereqwetttyFGJJLPIQFFIPLKJGFyttrttGJGww                         @          ",
"                    9wwqerqwwettttyFGJKLPIQeeePLKJGFytttrttGJGww  C   6         0ereqwettyFGJLLPIILLKJGFytrtGJGw0         qtyFGGG GFlKLKGGGGFyFuJKKKKLPLKKKKKKJLKKKKKKKKKKLPLKKKKLPIQ^^_`_)^QIPLKjjjjjKKKKkjjjjkKKKKJKKKJGFyt0      @               wwereqwetttyFGJLLPIQ!QIPeeeGFyttrttGJGww         6                          ",
"           @        0wwqerqwwettttyFGJKLPIe---eLKJGFytttrttGJGww                qereqwettyFGJJLPIIPLKJGFytrtGJGwq        0tyFGGGGGFGGKLKGGGFyFGJ KKKKLPLKKKKKKKJKKKKKKKKKKLPLKKKKLPIQ^)_`_)~QIPLKkjjjjkKKKkjjjjkKKKKKJKKKJGFyt0                     wwereqwetttyFGJJLPIQ!QIeiiieFyttrttGJGww                                    ",
"                    qwwqerqwwettttyFGJKLPIe---eLKJGFytttrttGJGww                wereqwettyFGJJLPIIPLKJGFytrtGJGww       0tyFGGGGGFGGKLKGGGGFyFGJ KKKLPLKKKKKKKKKKKKKKKKKKKKLPLKKKLPIQ^)_`_)^QIPLKKjjjjjKKKKkjjjjkKKKKKJKKKJGFyt0                    wwereqwetttyFGJKLPIQ!QIeiiieFyttrttGJGww                                    ",
"                    wwwqerqwwettttyFGJKLPIeeeeeLKJGFytttrttGJGww         6      eereqwettyFGJKLPIIPLKJGFytrtGJGww      0tyFGGGGGGFGKLKGGGGFyFGJ KKKKLPLKKKKKKKKKKKKKKKKKKKKLPLKKKLPIQ^)___)^QIPLKKKKKKKKKKKKkjjjjkKKKKKJKKKJGFyt0                   wwereqwetttyFGJKLPIQ!QIeeeeeFyttrttGJGww                                    ",
"                    wwwqerqwwettttyFGJKLPIe---eLKJGFytttrttGJGww         @      eereqwettyFGJKLPIIPLKJGFytrtGJGww     0tyFGGGGGGFGGKLKGGGGFyFG KKKKLPLKKKKKKKKKKKKKKKKKKKKJLPLKKKKLPIQ^)___)^QIPLKKKKKKKKKKKkjjjjkKKKKKKJKKKJGFyt0                  wwereqwetttyFGJKLPIQ!QIeiiieFyttrttGJGww                                    ",
"                    wwwqerqwwettttyFGJKLPIe---eLKJGFytttrttGJGww                wereqwettyFGJKLPIIPLKJGFytrtGJGww    0tyFGGGGGGFGGKLKGGGGFyFGJKKKKKLPLKKKKKKKKKKKKKKKKKKKKKLPLKKKKLPIQ^)_`_)^QIPLKKKKKKKKKKKKkjjjjkKKKKKKJKKKJGFyt0                 wwereqwetttyFGJKLPIQ!QIeiiieFytttttGJGww                                    ",
"                    wwwqerqwwetttty'''''''''''''''''''''''''''''''''''''''''''''''''''''''''''''''''''''''''''''''''''''''''''''''''''''''''''''''''''''''''''''''''''''''''''''''''''''''''''''''''''''''''''''''''''''''''''''''''''''''''''''''''''''''''''''''''''''''''''''''''''''JGww                                    ",
"                    wwwqerqwwetttty'''''''''''''''''''''''''''''''''''''''''''''''''''''''''''''''''''''''''''''''''''''''''''''''''''''''''''''''''''''''''''''''''''''''''''''''''''''''''''''''''''''''''''''''''''''''''''''''''''''''''''''''''''''''''''''''''''''''''''''''''''''JGww=                                   ",
"                    wwwqerqwwetttty_!!!!!!!!!!!!!!!!!!!!!!!!!!!!!!!!!!!!!!!!!!!!!!!!!!!!!!!!!!!!!!!!!!!!!!!!!!!!!!!!!!!!!!!!!!!!!!!!!!!!!!!!!!!!!!!!!!!!!!!!!!!!!!!!!!!!!!!!!!!!!!!!!!!!!!!!!!!!!!!!!!!!!!!!!!!!!!!!!!!!!!!!!!!!!!!!!!!!!!!!!!!!!!!!!!!!!!!!!!!!!!!!!!!!!!!!!!!!!!!!!!!_JGww9                                   ",
"                    wwwqerqwwetttty_!!!!!!!!!!!!!!!!!!!!!!!!!!!!!!!!!!!!!!!!!!!!!!!!!!!!!!!!!!!!!!!!!!!!!!!!!!!!!!!!!!!!!!!!!!!!!!!!!!!!!!!!!!!!!!!!!!!!!!!!!!!!!!!!!!!!!!!!!!!!!!!!!!!!!!!!!!!!!!!!!!!!!!!!!!!!!!!!!!!!!!!!!!!!!!!!!!!!!!!!!!!!!!!!!!!!!!!!!!!!!!!!!!!!!!!!!!!!!!!!!!!_JGww0      @                            ",
"                    wwwqerqwwettttyGGGGGGGGGGGGGGGGGGGGGGGGGGGGGGGGGGGGGGGGGGGGGGGGGGGGGGGGGGGGGGGGGGGGGGGGGGGGGGGGGGGGGGGGGGGGGGGGGGGGGGGGGGGGGGGGGGGGGGGGGGGGGGGGGGGGGGGGGGGGGGGGGGGGGGGGGGGGGGGGGGGGGGGGGGGGGGGGGGGGGGGGGGGGGGGGGGGGGGGGGGGGGGGGGGGGGGGGGGGGGGGGGGGGGGGGGGGGGGGGGGGGGJGwwq                                   ",
"                    wwwqerqwwettttyFGJQLwwwwwwwwwwwKPKwwwwwwwwwwwKPKwwwwwwwwwwwKPKwwwwwwwwwwwKPKwwwwwwwwwwwKPKwwwwwwwwwwwKPKwwwwwwwwwwwKPKwwwwwwwwwwwKPKwwwwwwwwwwwKPKwwwwwwwwwwwKPKwwwwwwwwwweJPKwwwwwwwwwwwKPKwwwwwwwwwwwKPKwwwwwwwwwwwKPKwwwwwwwwwwwKPKwwwwwwwwwwwKPKwwwwwwwwwwwLQttGJGwww      C                            ",
"                    wwwqerqwwettttyFGJ_Qw999999999wKQKw999999999wKQKw999999999wKQKw999999999wKQKw999999999wKQKw999999999wKQKw999999999wKQKw999999999wKQKw999999999wKQKw999999999wKQKw999999999wKQKw999999999wKQKw999999999wKQKw999999999wKQKw999999999wKQKw999999999wKQKw999999999wQ_ttGJGyww          6                        ",
"                    wwwqerqwwettttyFGJ_QwwwwwwwwwwwKQKwwwwwwwwwwwKQKwwwwwwwwwwwKQKwwwwwwwwwwwKQKwwwwwwwwwwwKQKwwwwwwwwwwwKQKwwwwwwwwwwwKQKwwwwwwwwwwwKQKwwwwwwwwwwwJQKwwwwwwwwwwwKQKwwwwwwwwwwwKQKwwwwwwwwwwwKQKwwwwwwwwwwwKQKwwwwwwwwwwwKQKwwwwwwwwwwwKQKwwwwwwwwwwwKQKwwwwwwwwwwwQ_ttyGJGww                           (       ",
"             C      wwwqerqwwettttyFGJ_Q'''''''''''QQ''''''''''''QQ''''''''''''QQ''''''''''''QQ''''''''''''QQ''''''''''''QQ''''''''''''QQ''''''''''''QQ''''''''''''QQ''''''''''''QQ''''''''''''QQ''''''''''''QQ''''''''''''QQ''''''''''''QQ''''''''''''QQ''''''''''''QQ''''''''''''Q_tttGJGww                              6    ",
"                    wwqwerqwwettttyFGJ_QQQQQQQQQQQQQQQQQQQQQQQQQQQQQQQQQQQQQQQQQQQQQQQQQQQQQQQQQQQQQQQQQQQQQQQQQQQQQQQQQQQQQQQQQQQQQQQQQQQQQQQQQQQQQQQQQQQQQQQQQQQQQQQQQQQQQQQQQQQQQQQQQQQQQQQQQQQQQQQQQQQQQQQQQQQQQQQQQQQQQQQQQQQQQQQQQQQQQQQQQQQQQQQQQQQQQQQQQQQQQQQQQQQQQQQQQQQQQ_tttGJGww                                   ",
"                   =wwqwerqwwettttyFGJ_QQQQQQQQQQQQQQQQQQQQQQQQQQQQQQQQQQQQQQQQQQQQQQQQQQQQQQQQQQQQQQQQQQQQQQQQQQQQQQQQQQQQQQQQQQQQQQQQQQQQQQQQQQQQQQQQQQQQQQQQQQQQQQQQQQQQQQQQQQQQQQQQQQQQQQQQQQQQQQQQQQQQQQQQQQQQQQQQQQQQQQQQQQQQQQQQQQQQQQQQQQQQQQQQQQQQQQQQQQQQQQQQQQQQQQQQQQQQQ_tttGJGww                                   ",
"                   9wwqwerqwwettttyFGJ_QQQQQQQQQQQQQQQQQQQQQQQQQQQQQQQQQQQQQQQQQQQQQQQQQQQQQQQQQQQQQQQQQQQQQQQQQQQQQQQQQQQQQQQQQQQQQQQQQQQQQQQQQQQQQQQQQQQQQQQQQQQQQQQQQQQQQQQQQQQQQQQQQQQQQQQQQQQQQQQQQQQQQQQQQQQQQQQQQQQQQQQQQQQQQQQQQQQQQQQQQQQQQQQQQQQQQQQQQQQQQQQQQQQQQQQQQQQQQ_tttGJGww  @                                ",
"                   0wwqwerqwwettttyFGJ_QQQQQQQQQQQQQQQQQQQQQQQQQQQQQQQQQQQQQQQQQQIQQQQQQQQQQQQQQQQQQQQQQQQQQQQQIQQQQQQQQQQQQQQQQQQQQQQQQQQQQQQQQQQQQQQQQQQQQQQQQQQQQQQQQQQQQQQQQQQQQQQQQQQQQQQQQQQQQQQQQQQQQQQQQQQQQQQIQQQQQQQQQQQQQQQQQQQQQQQQQQQQQQQQQQQQQQQQQQQQQQQQQQQQQQQQQQQQQ_tttGJGww                                   ",
"===================qwwqerqwwetttttyFGJ__________________________________________________''''''''''''''''''''''''''''''''QP_______________________________________________________________________PQ''''''''''''''''''''''''''''''''_____________________)_________________________)__tttGJGww===================================",
"===================wwwqerqwwetttttyFG_))))))))))^)))))))))))))))^)))))))))))))))))))))))''''''''''''''''''''''''''''''''LP))))))))))))))))))))))))))))))^))))))))))))))))))))))))))))))))))))^)))PL''''''''''''''''''''''''''''''''))))))))))))))))))))))))))))))))))))))))))))))))))_ttGJGww===================================",
"===================wwwqerqwwetttttyF_))))))))))))))))))))))))))))))))))))))))))))))))))'''''''''''''''''''''''''''''''''KP)))))))))))))))))))))))))))))))))))))))))))))))))))))))))))))))))))))))PK'''''''''''''''''''''''''''''''''))))))))))))))))))))))))))))))))))))))))))))))))))_tGJGww=====9======================9======",
"=======9=======9===wwwqerqwwettttty_)))))))))))))))))))))))))))))))))))))))))))))))))))'''''''''''''''''''''''''''''''''KP)))))))))))))))))))))))))))))))))))))))))))))))))))))))))))))))))))))))PK''''''''''''''''''''''''''''''''')))))))))))))))))))))))))))))))))))))))))))))))))))_GJGww===9========9=========9==9====9==9=",
"====99==999=====9==wwwqerqwwettttt_^))))))))))))))))))))))))))))))))))))))))))))))))))'''''''''''''''''''''''''''''''''!KP)))))))))))))))))))))))))))))))))))))))))))))))))))))))))))))))))))))))LK!''''''''''''''''''''''''''''''''')^)))))))))))))))))))))))))))))))))))))))))))))))))_JGww==9=9999==9====9====9999===9====99=",
"9====9=9=99999=9=9=wwwqerqwwetttt_))))))))))))))))))))))))))))))))))))))))))))))))))))'''''''''''''''''''''''''''''''''LKP^))))))))))))))))))))))))))))))))))))))))))))))))))))))))))))))))))))))PKL'''''''''''''''''''''''''''''''''))))))))))))))))))))))))))))))))))))))))))))))))))))_Gww==9999999=9==99=9=9=9999=9999==9999",
"90=9999909999909990wwwqerqwwettt_))))))))))))))))))))))))))))))))))))))))))))))))))))''''''''''''''''''''''''''''''''''LKP)))))))))))))))))))))))))))))))))))))))))))))))))))))))))))))))))))))))PKL''''''''''''''''''''''''''''''''''))))))))))))))))))))))))))))))))))))))))))))))))))))_ww09999999909099000=90900909==9090099",
"9999900090999909990wwwqerqwwett_)))))))))))))))))))))))))))))))))))))))))))))))))))))''''''''''''''''''''''''''''''''''KP))))))))))))^))))))))))))))))))))))))))))))))))))))))))))))))))))))))))))PK'''''''''''''''''''''''''''''''''')))))))))))))))))))))))))))))))))))))))))))))))))))))_w99099090999099909990909090099990990",
"9009900000090000009wwwqerqwwet_)))))))))))))))))))))))))))))))))))))))))))))))))))))''''''''''''''''''''''''''''''''''!KP)))))))))))))))))))))))))))))))))))))))))))))))))))))))))))))))))))))))))PK!'''''''''''''''''''''''''''''''''')))))))))))))))))))))))))))))))))))))))))))))))))))))_00099909990909990090009000999000099",
"099q9000900000000q0wwwqerqwwe_))))))))))))))))))))))))))))))))))))))))))))))))))))))''''''''''''''''''''''''''''''''''LKP)))))))))))))))))))))))))))))))))))))))))))))))))))))))^)))))))))))))))))PKL''''''''''''''''''''''''''''''''''))))))))))))))))))))))))))))))))))))))))))))))))))))))_9000000900q00000900000900090q00qq0",
"000q0qq000q00q00000wwwqerqww_))))))))))))))))))))))))))))))))))))))))))))))))))))))'''''''''''''''''''''''''''''''''''LKP)))))))))))))))))))))))))))))))))))))))))))))))))))))))))))))))))))))))))PKL'''''''''''''''''''''''''''''''''''))))))))))))))))))))))))))))))))))))))))))))))))))))))_q000000qq00000q000qq0wq0qq0000qq0",
"0000q0qq0q0w00q0q00wwwqerqw_))))))))))))))))))))))))))^))))))))))))))))))))))))))))'''''''''''''''''''''''''''''''''''LKP)))))))))))))))))))))))))))))))))))))))))))))))))))))))))))))))))))))))))PKL''''''''''''''''''''''''''''''''''')))))))))))))))))))))))))))))))))))))))))))))))))))))))_qqqqqq00q0qq0000q0qq0q00qqqq00q0",
"00qqqq0q0wqqqq00qqwwwwqerq_)))))))))))))))))))))))))))))))))))))))))))))))))))))))'''''''''''''''''''''''''''''''''''!LKP)))))))))))))))))))))))))))))))))))))))))))))))))))))))))))))))))))))))))PKL!''''''''''''''''''''''''''''''''''')))))))))))))))))))))))))))))))))))))))))))))))))))))))_qqqwqqqwqqqqqqqqq0qqq00qqq00qqq",
"qqwqqwqqq0qwqwqww0qwwwqer_))))))))))))^)))))))))))))))))))))))))))))))^)))))))))))'''''''''''''''''''''''''''''''''''LLKP)))))))))))^)))))))))))))))))^)))))))))))))))))))^)))))))))))))))))))))))PKLL'''''''''''''''''''''''''''''''''''))))))))))))))))))))^))))))))))))))))^))))))))))))))))))_www0qq0qqwqwqqqw0wqww0qwqqwqqq",
"wqwqqwqwwqwwqwqqqqwwwwqe_________________________________________________________''''''''''''''''''''''''''''''''''''LLKP_________________________________________________________________________PKLL''''''''''''''''''''''''''''''''''''_________________________________________________________wwqwwwqwwqwqwqwqqqqqwwqqwqqqw",
"wwwwwqwqqwqwwqwwqqwwwwqe_QQQQQQQQQQQQQQQQQQQQQQQQQQQQQQQQQQQQQQQQQQQQQQQQQQQQQQQI''''''''''''''''''''''''''''''''''''LLLKPQQQQQQQQQQQQQQQQQQQQQQQ)88888888888888888888888)QQQQQQQQQQQQQQQQQQQQQQQPKLLL''''''''''''''''''''''''''''''''''''QQQQQQQQQQQQQQQQQQQQQQQQQQQQQQQQQQQQQQQQQQQQQQQQQQQQQQQQ_ewqwwqwwwwwqwwewwwqwwwqqwwqqe",
"weqwqwewwqwweqwwwwwwwwqe_QQQQQQQQQQQQQQQQQQQQQQQQQQQQQQQQQQQQQQQQQQQQQQQQQQQQQQQ''''''''''''''''''''''''''''''''''''QLLLKPQQQQQQQQQQQQQQQQQQQLywQ)88888888888888888888888)QLywQQQQQQQQQQQQQQQQQQQPKLLL!''''''''''''''''''''''''''''''''''''QQQQQQQQQQQQQQQQQQQQQQQQQQQQQQQQQQQQQQQQQQQQQQQQQQQQQQQ_ewwqwwwwwwwwwewqeeewewwwwweew",
"weewewweeewwweweeeewwqwe_QQQQQQQQQQQQQQQQQQQQQQQQQQQQQQQQQQQQQQQQQQQQQQQQQQQQQQQ''''''''''''''''''''''''''''''''''''LLLLKPQQQQQQQQQQQQQQQQQQQLywQ)88MMMMMMMMMMMMMMMMMMM88)QLywQQQQQQQQQQQQQQQQQQQPKLLLL''''''''''''''''''''''''''''''''''''QQQQQQQQQQQQQQQQQQQQQQQQQQQQQQQQQQQQQQQQQQQQQQQQQQQQQQQ_eeeewwweeeweweweeeweeeweeweew",
"eewweeeeeeweweeeeewwwqwe_QQQQQQQQQQQQQQQQQQQQQQQQQQQQQQQQQQQQQQQQQQQQQQQQQQQQQQ'''''''''''''''''''''''''''''''''''''LLLLKPQQQQQQQQQQQQQQQQQQQLywQ)88MBBBBBBBNMNBBBBBBBM88)QLywQQQQQQQQQQQQQQQQQQQPKLLLL'''''''''''''''''''''''''''''''''''''QQQQQQQQQQQQQQQQQQQQQQQQQQQQQQQQQQQQQQQQQQQQQQQQQQQQQQ_eeeeweeeeeweewweeeeeeweeeewee",
"ewerrrereereeereeewwwqwe_QQQQQQQQQQQQQQQQQQQQQQQQQQQQQQQQQQQQQQQQQQQQQQQQQQQQQQ'''''''''''''''''''''''''''''''''''''LLLLKPQQQQQQQQQQQQQQQQQQQ'''Q)88MBBWWWWBNMNBWWWWBBM88)Q'''QQQQQQQQQQQQQQQQQQQLKLLLL'''''''''''''''''''''''''''''''''''''QQQQQQQQQQQQQQQQQQQQQQQQQQQQQQQQQQQQQQQQQQQQQQQQQQQQQQ_eewweweeeeweeeeeereeeereweere",
"ereeeeeeerrrrreeerwwwqwe_QQQQQQQQQQQQQQQQQQQQQQQQQQQQQQQQQQQQQQQQQQQQQQQQQQQQQ'''''''''''''''''''''''''''''''''''''!LLLLKPQQQQQQQQQQQQQQQQQQ_````)88MBBDDDDBNMNBDDDDBBM88)``_``QQQQQQQQQQQQQQQQQQPKLLLL!'''''''''''''''''''''''''''''''''''''QQQQQQQQQQQQQQQQQQQQQQQQQQQQQQQQQQQQQQQQQQQQQQQQQQQQQ_eeerrrreeereeeeeererereereeee",
"eerrrrerrrrreeeerrwwwqwe_QQQQQQQQQQQQQQQQQQQQQQQQQQQQQQQQQQQQQQQQQQQQQQQQQQQQQ'''''''''''''''''''''''''''''''''''''LLLLLKPQQQQQQQQQQQQQQQQQ`__`__)88MBBSSSSBNMNBSSSSBBM88)__`__`QQQQQQQQQQQQQQQQQPKLLLLL'''''''''''''''''''''''''''''''''''''QQQQQQQQQQQQQQQQQQQQQQQQQQQQQQQQQQQQQQQQQQQQQQQQQQQQQ_rerrreerrrrrrrrerreerererrere",
"trerrtrrrrrrrtrrrrwwwqwej2222222222222222222222222222222222222222222222222222''''''''''''''''''''''''''''''''''''''LLLL1<12222222222222222jjjjjjj)MMNBBVVVVBNMNBVVVVBBNMM)jjjjjjj22222222222222221<LLLLL''''''''''''''''''''''''''''''''''''''2222222222222222222222222222222222222222222222222222krtrrrrtrrrrerrrtrrtrerrtrtrer",
"rrrtttrrrrtrrrrrttwwwqwej2222222222222222222222222222222222222222222222222222''''''''''''''''''''''''''''''''''''''LL111<1222222222222222jjjjjjjj)NNBBBBBBBBNMNBBBBBBBBNN)jjjjjjjj2222222222222221<111LL''''''''''''''''''''''''''''''''''''''2222222222222222222222222222222222222222222222222222krtttrrrrrrttrrrrttrrrrrttrrrt",
"rtrrtrrrtrtrrtrrttwwwqwej222222222222222222222222222222222222222222222222222jjjjjjjjjjjjjjjjjjjjjjjjjjjjjjjjjjjjjjk11111<122222222222222jjjjjjjjj)BBBBBBBBBBNMNBBBBBBBBBB)jjjjjjjjj222222222222221<11111kjjjjjjjjjjjjjjjjjjjjjjjjjjjjjjjjjjjjjk222222222222222222222222222222222222222222222222222krrrrrtrrrrtrrtttrtttttrrtttrr",
"rttrrrrttrtrrtttrtwwwqwe_QQQQQQQQQQQQQQQQQQQQQQQQQQQQQQQQQQQQQQQQQQQQQQQQQQQjjjjjjjjjjjjjjjjjjjjjjjjjjjjjjjjjjjjjk11111LKPQQQQQQQQQQQQQQQQQQQQQQQ)BBBBBBBBBBNMNBBBBBBBBBB)QQQQQQQQQQQQQQQQQQQQQQQPK111111kjjjjjjjjjjjjjjjjjjjjjjjjjjjjjjjjjjjjkQQQQQQQQQQQQQQQQQQQQQQQQQQQQQQQQQQQQQQQQQQQQQQQQQQQ_ttrtttrtrttrrttrrttttttrttttt",
"tttttttttttttrttttwwwqwe_QQQQQQQQQQQQQQQQQQQQQQQQQQQQQQQQQQQQQQQQQQQQQQQQQQjjjjjjjjjjjjjjjjjjjjjjjjjjjjjjjjjjjjjjk11LLLLKPQQQQQQQQQQQQQQQQQQQQQQQ)BBBBBBBBBBNMNBBBBBBBBBB)QQQQQQQQQQQQQQQQQQQQQQQPKLLLL11kjjjjjjjjjjjjjjjjjjjjjjjjjjjjjjjjjjjjjkQQQQQQQQQQQQQQQQQQQQQQQQQQQQQQQQQQQQQQQQQQQQQQQQQQ_tttttttttttttrttttttttttttttt",
"ttttttttttttttttttwwwqwe_QQQQQQQQQQQQQQQQQQQQQQQQQQQQQQQQQQQQQQQQQQQQQQQQQQ'''''''''''''''''''''''''''''''''''''''LLLLLLKPQIQQQQQQQQQQQQQQQQQQQQQ)BBBBBBBBBBNMNBBBBBBBBBB)QQQQQQQQQQQQQQQQQQQQQQQPKLLLLLL'''''''''''''''''''''''''''''''''''''''QQQQQQQQQQQQQQQQQQQQQQQQQQQQQQQQQQQQQQQQQQQQQQQQQQ_ttttttttttttttttttttttttttttt",
"%%%%%%%%%%%%%%%%%%%%%%%%%%%%%%%%%%%%%%%%%%%%%%%%%%%%%%%%%%%%%%%%%%%%%%%%%%%%%%%%%%%%%%%%%%%%%%%%%%%%%%%%%%%%%%%%%%%%%%%%%%%%%%%%%%%%%%%%%%%%%%%%%%%%%%%%%%%%%%%%%%%%%%%%%%%%%%%%%%%%%%%%%%%%%%%%%%%%%%%%%%%%%%%%%%%%%%%%%%%%%%%%%%%%%%%%%%%%%%%%%%%%%%%%%%%%%%%%%%%%%%%%%%%%%%%%%%%%%%%%%%%%%%%%%%%%%%%%%%%%%%%%%%%%%%%%%%%%%%%%",
"%%%%%%%%%%%%%%%%%%%%%%%%%%%%%%%%%%%%%%%%%%%%%%%%%%%%%%%%%%%%%%%%%%%%%%%%%%%%%%%%%%%%%%%%%%%%%%%%%%%%%%%%%%%%%%%%%%%%%%%%%%%%%%%%%%%%%%%%%%%%%%%%%%%%%%%%%%%%%%%%%%%%%%%%%%%%%%%%%%%%%%%%%%%%%%%%%%%%%%%%%%%%%%%%%%%%%%%%%%%%%%%%%%%%%%%%%%%%%%%%%%%%%%%%%%%%%%%%%%%%%%%%%%%%%%%%%%%%%%%%%%%%%%%%%%%%%%%%%%%%%%%%%%%%%%%%%%%%%%%%",
"%%%%%%%%%%%%%%%%%%%%%%%%%%%%%%%%%%%%%%%%%%%%%%%%%%%%%%%%%%%%%%%%%%%%%%%%%%%%%%%%%%%%%%%%%%%%%%%%%%%%%%%%%%%%%%%%%%%%%%%%%%%%%%%%%%%%%%%%%%%%%%%%%%%%%%%%%%%%%%%%%%%%%%%%%%%%%%%%%%%%%%%%%%%%%%%%%%%%%%%%%%%%%%%%%%%%%%%%%%%%%%%%%%%%%%%%%%%%%%%%%%%%%%%%%%%%%%%%%%%%%%%%%%%%%%%%%%%%%%%%%%%%%%%%%%%%%%%%%%%%%%%%%%%%%%%%%%%%%%%%",
"%%%%%%%%%%%%%%%%%%%%%%%%%%%%%%%%%%%%%%%%%%%%%%%%%%%%%%%%%%%%%%%%%%%%%%%%%%%%%%%%%%%%%%%%%%%%%%%%%%%%%%%%%%%%%%%%%%%%%%%%%%%%%%%%%%%%%%%%%%%%%%%%%%%%%%%%%%%%%%%%%%%%%%%%%%%%%%%%%%%%%%%%%%%%%%%%%%%%%%%%%%%%%%%%%%%%%%%%%%%%%%%%%%%%%%%%%%%%%%%%%%%%%%%%%%%%%%%%%%%%%%%%%%%%%%%%%%%%%%%%%%%%%%%%%%%%%%%%%%%%%%%%%%%%%%%%%%%%%%%%",
"%%%%%%%%%%%%%%%%%%%%%%%%%%%%%%%%%%%%%%%%%%%%%%%%%%%%%%%%%%%%%%%%%%%%%%%%%%%%%%%%%%%%%%%%%%%%%%%%%%%%%%%%%%%%%%%%%%%%%%%%%%%%%%%%%%%%%%%%%%%%%%%%%%%%%%%%%%%%%%%%%%%%%%%%%%%%%%%%%%%%%%%%%%%%%%%%%%%%%%%%%%%%%%%%%%%%%%%%%%%%%%%%%%%%%%%%%%%%%%%%%%%%%%%%%%%%%%%%%%%%%%%%%%%%%%%%%%%%%%%%%%%%%%%%%%%%%%%%%%%%%%%%%%%%%%%%%%%%%%%%",
"%%%%%%%%%%%%%%%%%%%%%%%%%%%%%%%%%%%%%%%%%%%%%%%%%%%%%%%%%%%%%%%%%%%%%%%%%%%%%%%%%%%%%%%%%%%%%%%%%%%%%%%%%%%%%%%%%%%%%%%%%%%%%%%%%%%%%%%%%%%%%%%%%%%%%%%%%%%%%%%%%%%%%%%%%%%%%%%%%%%%%%%%%%%%%%%%%%%%%%%%%%%%%%%%%%%%%%%%%%%%%%%%%%%%%%%%%%%%%%%%%%%%%%%%%%%%%%%%%%%%%%%%%%%%%%%%%%%%%%%%%%%%%%%%%%%%%%%%%%%%%%%%%%%%%%%%%%%%%%%%",
"%%%%%%%%%%%%%%%%%%%%%%%%%%%%%%%%%%%%%%%%%%%%%%%%%%%%%%%%%%%%%%%%%%%%%%%%%%%%%%%%%%%%%%%%%%%%%%%%%%%%%%%%%%%%%%%%%%%%%%%%%%%%%%%%%%%%%%%%%%%%%%%%%%%%%%%%%%%%%%%%%%%%%%%%%%%%%%%%%%%%%%%%%%%%%%%%%%%%%%%%%%%%%%%%%%%%%%%%%%%%%%%%%%%%%%%%%%%%%%%%%%%%%%%%%%%%%%%%%%%%%%%%%%%%%%%%%%%%%%%%%%%%%%%%%%%%%%%%%%%%%%%%%%%%%%%%%%%%%%%%",
"%%%%%%%%%%%%%%%%%%%%%%%%%%%%%%%%%%%%%%%%%%%%%%%%%%%%%%%%%%%%%%%%%%%%%%%%%%%%%%%%%%%%%%%%%%%%%%%%%%%%%%%%%%%%%%%%%%%%%%%%%%%%%%%%%%%%%%%%%%%%%%%%%%%%%%%%%%%%%%%%%%%%%%%%%%%%%%%%%%%%%%%%%%%%%%%%%%%%%%%%%%%%%%%%%%%%%%%%%%%%%%%%%%%%%%%%%%%%%%%%%%%%%%%%%%%%%%%%%%%%%%%%%%%%%%%%%%%%%%%%%%%%%%%%%%%%%%%%%%%%%%%%%%%%%%%%%%%%%%%%",
"%%%%%%%%%%%%%%%%%%%%%%%%%%%%%%%%%%%%%%%%%%%%%%%%%%%%%%%%%%%%%%%%%%%%%%%%%%%%%%%%%%%%%%%%%%%%%%%%%%%%%%%%%%%%%%%%%%%%%%%%%%%%%%%%%%%%%%%%%%%%%%%%%%%%%%%%%%%%%%%%%%%%%%%%%%%%%%%%%%%%%%%%%%%%%%%%%%%%%%%%%%%%%%%%%%%%%%%%%%%%%%%%%%%%%%%%%%%%%%%%%%%%%%%%%%%%%%%%%%%%%%%%%%%%%%%%%%%%%%%%%%%%%%%%%%%%%%%%%%%%%%%%%%%%%%%%%%%%%%%%",
"%%%%%%%%%%%%%%%%%%%%%%%%%%%%%%%%%%%%%%%%%%%%%%%%%%%%%%%%%%%%%%%%%%%%%%%%%%%%%%%%%%%%%%%%%%%%%%%%%%%%%%%%%%%%%%%%%%%%%%%%%%%%%%%%%%%%%%%%%%%%%%%%%%%%%%%%%%%%%%%%%%%%%%%%%%%%%%%%%%%%%%%%%%%%%%%%%%%%%%%%%%%%%%%%%%%%%%%%%%%%%%%%%%%%%%%%%%%%%%%%%%%%%%%%%%%%%%%%%%%%%%%%%%%%%%%%%%%%%%%%%%%%%%%%%%%%%%%%%%%%%%%%%%%%%%%%%%%%%%%%",
"%%%%%%%%%%%%%%%%%%%%%%%%%%%%%%%%%%%%%%%%%%%%%%%%%%%%%%%%%%%%%%%%%%%%%%%%%%%%%%%%%%%%%%%%%%%%%%%%%%%%%%%%%%%%%%%%%%%%%%%%%%%%%%%%%%%%%%%%%%%%%%%%%%%%%%%%%%%%%%%%%%%%%%%%%%%%%%%%%%%%%%%%%%%%%%%%%%%%%%%%%%%%%%%%%%%%%%%%%%%%%%%%%%%%%%%%%%%%%%%%%%%%%%%%%%%%%%%%%%%%%%%%%%%%%%%%%%%%%%%%%%%%%%%%%%%%%%%%%%%%%%%%%%%%%%%%%%%%%%%%",
"%%%%%%%%%%%%%%%%%%%%%%%%%%%%%%%%%%%%%%%%%%%%%%%%%%%%%%%%%%%%%%%%%%%%%%%%%%%%%%%%%%%%%%%%%%%%%%%%%%%%%%%%%%%%%%%%%%%%%%%%%%%%%%%%%%%%%%%%%%%%%%%%%%%%%%%%%%%%%%%%%%%%%%%%%%%%%%%%%%%%%%%%%%%%%%%%%%%%%%%%%%%%%%%%%%%%%%%%%%%%%%%%%%%%%%%%%%%%%%%%%%%%%%%%%%%%%%%%%%%%%%%%%%%%%%%%%%%%%%%%%%%%%%%%%%%%%%%%%%%%%%%%%%%%%%%%%%%%%%%%",
"%%%%%%%%%%%%%%%%%%%%%%%%%%%%%%%%%%%%%%%%%%%%%%%%%%%%%%%%%%%%%%%%%%%%%%%%%%%%%%%%%%%%%%%%%%%%%%%%%%%%%%%%%%%%%%%%%%%%%%%%%%%%%%%%%%%%%%%%%%%%%%%%%%%%%%%%%%%%%%%%%%%%%%%%%%%%%%%%%%%%%%%%%%%%%%%%%%%%%%%%%%%%%%%%%%%%%%%%%%%%%%%%%%%%%%%%%%%%%%%%%%%%%%%%%%%%%%%%%%%%%%%%%%%%%%%%%%%%%%%%%%%%%%%%%%%%%%%%%%%%%%%%%%%%%%%%%%%%%%%%",
"%%%%%%%%%%%%%%%%%%%%%%%%%%%%%%%%%%%%%%%%%%%%%%%%%%%%%%%%%%%%%%%%%%%%%%%%%%%%%%%%%%%%%%%%%%%%%%%%%%%%%%%%%%%%%%%%%%%%%%%%%%%%%%%%%%%%%%%%%%%%%%%%%%%%%%%%%%%%%%%%%%%%%%%%%%%%%%%%%%%%%%%%%%%%%%%%%%%%%%%%%%%%%%%%%%%%%%%%%%%%%%%%%%%%%%%%%%%%%%%%%%%%%%%%%%%%%%%%%%%%%%%%%%%%%%%%%%%%%%%%%%%%%%%%%%%%%%%%%%%%%%%%%%%%%%%%%%%%%%%%",
"%%%%%%%%%%%%%%%%%%%%%%%%%%%%%%%%%%%%%%%%%%%%%%%%%%%%%%%%%%%%%%%%%%%%%%%%%%%%%%%%%%%%%%%%%%%%%%%%%%%%%%%%%%%%%%%%%%%%%%%%%%%%%%%%%%%%%%%%%%%%%%%%%%%%%%%%%%%%%%%%%%%%%%%%%%%%%%%%%%%%%%%%%%%%%%%%%%%%%%%%%%%%%%%%%%%%%%%%%%%%%%%%%%%%%%%%%%%%%%%%%%%%%%%%%%%%%%%%%%%%%%%%%%%%%%%%%%%%%%%%%%%%%%%%%%%%%%%%%%%%%%%%%%%%%%%%%%%%%%%%",
"%%%%%%%%%%%%%%%%%%%%%%%%%%%%%%%%%%%%%%%%%%%%%%%%%%%%%%%%%%%%%%%%%%%%%%%%%%%%%%%%%%%%%%%%%%%%%%%%%%%%%%%%%%%%%%%%%%%%%%%%%%%%%%%%%%%%%%%%%%%%%%%%%%%%%%%%%%%%%%%%%%%%%%%%%%%%%%%%%%%%%%%%%%%%%%%%%%%%%%%%%%%%%%%%%%%%%%%%%%%%%%%%%%%%%%%%%%%%%%%%%%%%%%%%%%%%%%%%%%%%%%%%%%%%%%%%%%%%%%%%%%%%%%%%%%%%%%%%%%%%%%%%%%%%%%%%%%%%%%%%",
"%%%%%%%%%%%%%%%%%%%%%%%%%%%%%%%%%%%%%%%%%%%%%%%%%%%%%%%%%%%%%%%%%%%%%%%%%%%%%%%%%%%%%%%%%%%%%%%%%%%%%%%%%%%%%%%%%%%%%%%%%%%%%%%%%%%%%%%%%%%%%%%%%%%%%%%%%%%%%%%%%%%%%%%%%%%%%%%%%%%%%%%%%%%%%%%%%%%%%%%%%%%%%%%%%%%%%%%%%%%%%%%%%%%%%%%%%%%%%%%%%%%%%%%%%%%%%%%%%%%%%%%%%%%%%%%%%%%%%%%%%%%%%%%%%%%%%%%%%%%%%%%%%%%%%%%%%%%%%%%%",
"%%%%%%%%%%%%%%%%%%%%%%%%%%%%%%%%%%%%%%%%%%%%%%%%%%%%%%%%%%%%%%%%%%%%%%%%%%%%%%%%%%%%%%%%%%%%%%%%%%%%%%%%%%%%%%%%%%%%%%%%%%%%%%%%%%%%%%%%%%%%%%%%%%%%%%%%%%%%%%%%%%%%%%%%%%%%%%%%%%%%%%%%%%%%%%%%%%%%%%%%%%%%%%%%%%%%%%%%%%%%%%%%%%%%%%%%%%%%%%%%%%%%%%%%%%%%%%%%%%%%%%%%%%%%%%%%%%%%%%%%%%%%%%%%%%%%%%%%%%%%%%%%%%%%%%%%%%%%%%%%",
"%%%%%%%%%%%%%%%%%%%%%%%%%%%%%%%%%%%%%%%%%%%%%%%%%%%%%%%%%%%%%%%%%%%%%%%%%%%%%%%%%%%%%%%%%%%%%%%%%%%%%%%%%%%%%%%%%%%%%%%%%%%%%%%%%%%%%%%%%%%%%%%%%%%%%%%%%%%%%%%%%%%%%%%%%%%%%%%%%%%%%%%%%%%%%%%%%%%%%%%%%%%%%%%%%%%%%%%%%%%%%%%%%%%%%%%%%%%%%%%%%%%%%%%%%%%%%%%%%%%%%%%%%%%%%%%%%%%%%%%%%%%%%%%%%%%%%%%%%%%%%%%%%%%%%%%%%%%%%%%%",
"%%%%%%%%%%%%%%%%%%%%%%%%%%%%%%%%%%%%%%%%%%%%%%%%%%%%%%%%%%%%%%%%%%%%%%%%%%%%%%%%%%%%%%%%%%%%%%%%%%%%%%%%%%%%%%%%%%%%%%%%%%%%%%%%%%%%%%%%%%%%%%%%%%%%%%%%%%%%%%%%%%%%%%%%%%%%%%%%%%%%%%%%%%%%%%%%%%%%%%%%%%%%%%%%%%%%%%%%%%%%%%%%%%%%%%%%%%%%%%%%%%%%%%%%%%%%%%%%%%%%%%%%%%%%%%%%%%%%%%%%%%%%%%%%%%%%%%%%%%%%%%%%%%%%%%%%%%%%%%%%",
"%%%%%%%%%%%%%%%%%%%%%%%%%%%%%%%%%%%%%%%%%%%%%%%%%%%%%%%%%%%%%%%%%%%%%%%%%%%%%%%%%%%%%%%%%%%%%%%%%%%%%%%%%%%%%%%%%%%%%%%%%%%%%%%%%%%%%%%%%%%%%%%%%%%%%%%%%%%%%%%%%%%%%%%%%%%%%%%%%%%%%%%%%%%%%%%%%%%%%%%%%%%%%%%%%%%%%%%%%%%%%%%%%%%%%%%%%%%%%%%%%%%%%%%%%%%%%%%%%%%%%%%%%%%%%%%%%%%%%%%%%%%%%%%%%%%%%%%%%%%%%%%%%%%%%%%%%%%%%%%%",
"%%%%%%%%%%%%%%%%%%%%%%%%%%%%%%%%%%%%%%%%%%%%%%%%%%%%%%%%%%%%%%%%%%%%%%%%%%%%%%%%%%%%%%%%%%%%%%%%%%%%%%%%%%%%%%%%%%%%%%%%%%%%%%%%%%%%%%%%%%%%%%%%%%%%%%%%%%%%%%%%%%%%%%%%%%%%%%%%%%%%%%%%%%%%%%%%%%%%%%%%%%%%%%%%%%%%%%%%%%%%%%%%%%%%%%%%%%%%%%%%%%%%%%%%%%%%%%%%%%%%%%%%%%%%%%%%%%%%%%%%%%%%%%%%%%%%%%%%%%%%%%%%%%%%%%%%%%%%%%%%",
"%%%%%%%%%%%%%%%%%%%%%%%%%%%%%%%%%%%%%%%%%%%%%%%%%%%%%%%%%%%%%%%%%%%%%%%%%%%%%%%%%%%%%%%%%%%%%%%%%%%%%%%%%%%%%%%%%%%%%%%%%%%%%%%%%%%%%%%%%%%%%%%%%%%%%%%%%%%%%%%%%%%%%%%%%%%%%%%%%%%%%%%%%%%%%%%%%%%%%%%%%%%%%%%%%%%%%%%%%%%%%%%%%%%%%%%%%%%%%%%%%%%%%%%%%%%%%%%%%%%%%%%%%%%%%%%%%%%%%%%%%%%%%%%%%%%%%%%%%%%%%%%%%%%%%%%%%%%%%%%%",
"%%%%%%%%%%%%%%%%%%%%%%%%%%%%%%%%%%%%%%%%%%%%%%%%%%%%%%%%%%%%%%%%%%%%%%%%%%%%%%%%%%%%%%%%%%%%%%%%%%%%%%%%%%%%%%%%%%%%%%%%%%%%%%%%%%%%%%%%%%%%%%%%%%%%%%%%%%%%%%%%%%%%%%%%%%%%%%%%%%%%%%%%%%%%%%%%%%%%%%%%%%%%%%%%%%%%%%%%%%%%%%%%%%%%%%%%%%%%%%%%%%%%%%%%%%%%%%%%%%%%%%%%%%%%%%%%%%%%%%%%%%%%%%%%%%%%%%%%%%%%%%%%%%%%%%%%%%%%%%%%",
"%%%%%%%%%%%%%%%%%%%%%%%%%%%%%%%%%%%%%%%%%%%%%%%%%%%%%%%%%%%%%%%%%%%%%%%%%%%%%%%%%%%%%%%%%%%%%%%%%%%%%%%%%%%%%%%%%%%%%%%%%%%%%%%%%%%%%%%%%%%%%%%%%%%%%%%%%%%%%%%%%%%%%%%%%%%%%%%%%%%%%%%%%%%%%%%%%%%%%%%%%%%%%%%%%%%%%%%%%%%%%%%%%%%%%%%%%%%%%%%%%%%%%%%%%%%%%%%%%%%%%%%%%%%%%%%%%%%%%%%%%%%%%%%%%%%%%%%%%%%%%%%%%%%%%%%%%%%%%%%%",
"%%%%%%%%%%%%%%%%%%%%%%%%%%%%%%%%%%%%%%%%%%%%%%%%%%%%%%%%%%%%%%%%%%%%%%%%%%%%%%%%%%%%%%%%%%%%%%%%%%%%%%%%%%%%%%%%%%%%%%%%%%%%%%%%%%%%%%%%%%%%%%%%%%%%%%%%%%%%%%%%%%%%%%%%%%%%%%%%%%%%%%%%%%%%%%%%%%%%%%%%%%%%%%%%%%%%%%%%%%%%%%%%%%%%%%%%%%%%%%%%%%%%%%%%%%%%%%%%%%%%%%%%%%%%%%%%%%%%%%%%%%%%%%%%%%%%%%%%%%%%%%%%%%%%%%%%%%%%%%%%",
"%%%%%%%%%%%%%%%%%%%%%%%%%%%%%%%%%%%%%%%%%%%%%%%%%%%%%%%%%%%%%%%%%%%%%%%%%%%%%%%%%%%%%%%%%%%%%%%%%%%%%%%%%%%%%%%%%%%%%%%%%%%%%%%%%%%%%%%%%%%%%%%%%%%%%%%%%%%%%%%%%%%%%%%%%%%%%%%%%%%%%%%%%%%%%%%%%%%%%%%%%%%%%%%%%%%%%%%%%%%%%%%%%%%%%%%%%%%%%%%%%%%%%%%%%%%%%%%%%%%%%%%%%%%%%%%%%%%%%%%%%%%%%%%%%%%%%%%%%%%%%%%%%%%%%%%%%%%%%%%%",
"%%%%%%%%%%%%%%%%%%%%%%%%%%%%%%%%%%%%%%%%%%%%%%%%%%%%%%%%%%%%%%%%%%%%%%%%%%%%%%%%%%%%%%%%%%%%%%%%%%%%%%%%%%%%%%%%%%%%%%%%%%%%%%%%%%%%%%%%%%%%%%%%%%%%%%%%%%%%%%%%%%%%%%%%%%%%%%%%%%%%%%%%%%%%%%%%%%%%%%%%%%%%%%%%%%%%%%%%%%%%%%%%%%%%%%%%%%%%%%%%%%%%%%%%%%%%%%%%%%%%%%%%%%%%%%%%%%%%%%%%%%%%%%%%%%%%%%%%%%%%%%%%%%%%%%%%%%%%%%%%",
"%%%%%%%%%%%%%%%%%%%%%%%%%%%%%%%%%%%%%%%%%%%%%%%%%%%%%%%%%%%%%%%%%%%%%%%%%%%%%%%%%%%%%%%%%%%%%%%%%%%%%%%%%%%%%%%%%%%%%%%%%%%%%%%%%%%%%%%%%%%%%%%%%%%%%%%%%%%%%%%%%%%%%%%%%%%%%%%%%%%%%%%%%%%%%%%%%%%%%%%%%%%%%%%%%%%%%%%%%%%%%%%%%%%%%%%%%%%%%%%%%%%%%%%%%%%%%%%%%%%%%%%%%%%%%%%%%%%%%%%%%%%%%%%%%%%%%%%%%%%%%%%%%%%%%%%%%%%%%%%%",
"%%%%%%%%%%%%%%%%%%%%%%%%%%%%%%%%%%%%%%%%%%%%%%%%%%%%%%%%%%%%%%%%%%%%%%%%%%%%%%%%%%%%%%%%%%%%%%%%%%%%%%%%%%%%%%%%%%%%%%%%%%%%%%%%%%%%%%%%%%%%%%%%%%%%%%%%%%%%%%%%%%%%%%%%%%%%%%%%%%%%%%%%%%%%%%%%%%%%%%%%%%%%%%%%%%%%%%%%%%%%%%%%%%%%%%%%%%%%%%%%%%%%%%%%%%%%%%%%%%%%%%%%%%%%%%%%%%%%%%%%%%%%%%%%%%%%%%%%%%%%%%%%%%%%%%%%%%%%%%%%",
"%%%%%%%%%%%%%%%%%%%%%%%%%%%%%%%%%%%%%%%%%%%%%%%%%%%%%%%%%%%%%%%%%%%%%%%%%%%%%%%%%%%%%%%%%%%%%%%%%%%%%%%%%%%%%%%%%%%%%%%%%%%%%%%%%%%%%%%%%%%%%%%%%%%%%%%%%%%%%%%%%%%%%%%%%%%%%%%%%%%%%%%%%%%%%%%%%%%%%%%%%%%%%%%%%%%%%%%%%%%%%%%%%%%%%%%%%%%%%%%%%%%%%%%%%%%%%%%%%%%%%%%%%%%%%%%%%%%%%%%%%%%%%%%%%%%%%%%%%%%%%%%%%%%%%%%%%%%%%%%%",
"%%%%%%%%%%%%%%%%%%%%%%%%%%%%%%%%%%%%%%%%%%%%%%%%%%%%%%%%%%%%%%%%%%%%%%%%%%%%%%%%%%%%%%%%%%%%%%%%%%%%%%%%%%%%%%%%%%%%%%%%%%%%%%%%%%%%%%%%%%%%%%%%%%%%%%%%%%%%%%%%%%%%%%%%%%%%%%%%%%%%%%%%%%%%%%%%%%%%%%%%%%%%%%%%%%%%%%%%%%%%%%%%%%%%%%%%%%%%%%%%%%%%%%%%%%%%%%%%%%%%%%%%%%%%%%%%%%%%%%%%%%%%%%%%%%%%%%%%%%%%%%%%%%%%%%%%%%%%%%%%",
"%%%%%%%%%%%%%%%%%%%%%%%%%%%%%%%%%%%%%%%%%%%%%%%%%%%%%%%%%%%%%%%%%%%%%%%%%%%%%%%%%%%%%%%%%%%%%%%%%%%%%%%%%%%%%%%%%%%%%%%%%%%%%%%%%%%%%%%%%%%%%%%%%%%%%%%%%%%%%%%%%%%%%%%%%%%%%%%%%%%%%%%%%%%%%%%%%%%%%%%%%%%%%%%%%%%%%%%%%%%%%%%%%%%%%%%%%%%%%%%%%%%%%%%%%%%%%%%%%%%%%%%%%%%%%%%%%%%%%%%%%%%%%%%%%%%%%%%%%%%%%%%%%%%%%%%%%%%%%%%%",
"%%%%%%%%%%%%%%%%%%%%%%%%%%%%%%%%%%%%%%%%%%%%%%%%%%%%%%%%%%%%%%%%%%%%%%%%%%%%%%%%%%%%%%%%%%%%%%%%%%%%%%%%%%%%%%%%%%%%%%%%%%%%%%%%%%%%%%%%%%%%%%%%%%%%%%%%%%%%%%%%%%%%%%%%%%%%%%%%%%%%%%%%%%%%%%%%%%%%%%%%%%%%%%%%%%%%%%%%%%%%%%%%%%%%%%%%%%%%%%%%%%%%%%%%%%%%%%%%%%%%%%%%%%%%%%%%%%%%%%%%%%%%%%%%%%%%%%%%%%%%%%%%%%%%%%%%%%%%%%%%",
"%%%%%%%%%%%%%%%%%%%%%%%%%%%%%%%%%%%%%%%%%%%%%%%%%%%%%%%%%%%%%%%%%%%%%%%%%%%%%%%%%%%%%%%%%%%%%%%%%%%%%%%%%%%%%%%%%%%%%%%%%%%%%%%%%%%%%%%%%%%%%%%%%%%%%%%%%%%%%%%%%%%%%%%%%%%%%%%%%%%%%%%%%%%%%%%%%%%%%%%%%%%%%%%%%%%%%%%%%%%%%%%%%%%%%%%%%%%%%%%%%%%%%%%%%%%%%%%%%%%%%%%%%%%%%%%%%%%%%%%%%%%%%%%%%%%%%%%%%%%%%%%%%%%%%%%%%%%%%%%%",
"%%%%%%%%%%%%%%%%%%%%%%%%%%%%%%%%%%%%%%%%%%%%%%%%%%%%%%%%%%%%%%%%%%%%%%%%%%%%%%%%%%%%%%%%%%%%%%%%%%%%%%%%%%%%%%%%%%%%%%%%%%%%%%%%%%%%%%%%%%%%%%%%%%%%%%%%%%%%%%%%%%%%%%%%%%%%%%%%%%%%%%%%%%%%%%%%%%%%%%%%%%%%%%%%%%%%%%%%%%%%%%%%%%%%%%%%%%%%%%%%%%%%%%%%%%%%%%%%%%%%%%%%%%%%%%%%%%%%%%%%%%%%%%%%%%%%%%%%%%%%%%%%%%%%%%%%%%%%%%%%",
"%%%%%%%%%%%%%%%%%%%%%%%%%%%%%%%%%%%%%%%%%%%%%%%%%%%%%%%%%%%%%%%%%%%%%%%%%%%%%%%%%%%%%%%%%%%%%%%%%%%%%%%%%%%%%%%%%%%%%%%%%%%%%%%%%%%%%%%%%%%%%%%%%%%%%%%%%%%%%%%%%%%%%%%%%%%%%%%%%%%%%%%%%%%%%%%%%%%%%%%%%%%%%%%%%%%%%%%%%%%%%%%%%%%%%%%%%%%%%%%%%%%%%%%%%%%%%%%%%%%%%%%%%%%%%%%%%%%%%%%%%%%%%%%%%%%%%%%%%%%%%%%%%%%%%%%%%%%%%%%%"
};
