/* XPM */
static char *end_floor3_007[] = {
/* columns rows colors chars-per-pixel */
"320 200 69 1 ",
"  c #000000",
". c #0B0B0B",
"X c gray8",
"o c #1B1B1B",
"O c #00002C",
"+ c #00003C",
"@ c gray14",
"# c #2C2C2C",
"$ c #343434",
"% c #3C3C3C",
"& c #600000",
"* c #743804",
"= c #603814",
"- c #004400",
"; c #005C00",
": c #007400",
"> c #000050",
", c #000064",
"< c #244870",
"1 c #444444",
"2 c #4C4C4C",
"3 c #545454",
"4 c #5C5C5C",
"5 c #646464",
"6 c #6C6C6C",
"7 c #747474",
"8 c #7C7C7C",
"9 c #F80000",
"0 c #984C08",
"q c #AC580C",
"w c #C4701C",
"e c #008C00",
"r c #00A400",
"t c #CC8038",
"y c #D09050",
"u c #D89C64",
"i c #DCAC7C",
"p c #040488",
"a c #0C0CAC",
"s c #2C5480",
"d c #346090",
"f c #3C6CA0",
"g c #4C78A8",
"h c #1010C0",
"j c #4040D0",
"k c #7878E0",
"l c #5884B0",
"z c #6C90BC",
"x c #848484",
"c c #8C8C8C",
"v c #939393",
"b c #989898",
"n c #A0A0A0",
"m c #A8A8A8",
"M c #B0B0B0",
"N c #BCBCBC",
"B c #E4C098",
"V c #ECD0B4",
"C c #80A0C4",
"Z c #C4C4C4",
"A c #CCCCCC",
"S c #D4D4D4",
"D c #DADADA",
"F c #ECF4D8",
"G c #D8D8F4",
"H c #E0E0E0",
"J c #E8E8E8",
"K c #F1F1F1",
"L c #FCFCFC",
/* pixels */
"@@@@@@@@@@@@@@@@@@@@@@@@@@@@@@@@@@@@@@@@@@@@@@@@@@@@@@@@@@@@@@@@@@@@@@@@@@@@@@@@@@@@@@@@@@@@@@@@@@@@@@@@@@@@@@@@@@@@@@@@@@@@@@@@@@@@@@@@@@@@@@@@@@@@@@@@@@@@@@@@@@@@@@@@@@@@@@@@@@@@@@@@@@@@@@@@@@@@@@@@@@@@@@@@@@@@@@@@@@@@@@@@@@@@@@@@@@@@@@@@@@@@@@@@@@@@@@@@@@@@@@@@@@@@@@@@@@@@@@@@@@@@@@@@@@@@@@@@@@@@@@@@@@@@@@@@@@@@@@@@",
"@@@@@@@@@@@@@@@@@@@@@@@@@@@@@@@@@@@@@@@@@@@@@@@@@@@@@@@@@@@@@@@@@@@@@@@@@@@@@@@@@@@@@@@@@@@@@@@@@@@@@@@@@@@@@@@@@@@@@@@@@@@@@@@@@@@@@@@@@@@@@@@@@@@@@@@@@@@@@@@@@@@@@@@@@@@@@@@@@@@@@@@@@@@@@@@@@@@@@@@@@@@@@@@@@@@@@@@@@@@@@@@@@@@@@@@@@@@@@@@@@@@@@@@@@@@@@@@@@@@@@@@@@@@@@@@@@@@@@@@@@@@@@@@@@@@@@@@@@@@@@@@@@@@@@@@@@@@@@@@@",
"@@@@@@@@@@@@@@@@@@@@@@@@@@@@@@@@@@@@@@@@@@@@@@@@@@@@@@@@@@@@@@@@@@@@@@@@@@@@@@@@@@@@@@@@@@@@@@@@@@@@@@@@@@@@@@@@@@@@@@@@@@@@@@@@@@@@@@@@@@@@@@@@@@@@@@@@@@@@@@@@@@@@@@@@@@@@@@@@@@@@@@@@@@@@@@@@@@@@@@@@@@@@@@@@@@@@@@@@@@@@@@@@@@@@@@@@@@@@@@@@@@@@@@@@@@@@@@@@@@@@@@@@@@@@@@@@@@@@@@@@@@@@@@@@@@@@@@@@@@@@@@@@@@@@@@@@@@@@@@@@",
"@@@@@@@@@@@@@@@@@@@@@@@@@@@@@@@@@@@@@@@@@@@@@@@@@@@@@@@@@@@@@@@@@@@@@@@@@@@@@@@@@@@@@@@@@@@@@@@@@@@@@@@@@@@@@@@@@@@@@@@@@@@@@@@@@@@@@@@@@@@@@@@@@@@@@@@@@@@@@@@@@@@@@@@@@@@@@@@@@@@@@@@@@@@@@@@@@@@@@@@@@@@@@@@@@@@@@@@@@@@@@@@@@@@@@@@@@@@@@@@@@@@@@@@@@@@@@@@@@@@@@@@@@@@@@@@@@@@@@@@@@@@@@@@@@@@@@@@@@@@@@@@@@@@@@@@@@@@@@@@@",
"@@@@@@@@@@@@@@@@@@@@@@@@@@@@@@@@@@@@@@@@@@@@@@@@@@@@@@@@@@@@@@@@@@@@@@@@@@@@@@@@@@@@@@@@@@@@@@@@@@@@@@@@@@@@@@@@@@@@@@@@@@@@@@@@@@@@@@@@@@@@@@@@@@@@@@@@@@@@@@@@@@@@@@@@@@@@@@@@@@@@@@@@@@@@@@@@@@@@@@@@@@@@@@@@@@@@@@@@@@@@@@@@@@@@@@@@@@@@@@@@@@@@@@@@@@@@@@@@@@@@@@@@@@@@@@@@@@@@@@@@@@@@@@@@@@@@@@@@@@@@@@@@@@@@@@@@@@@@@@@@",
"@@@@@@@@@@@@@@@@@@@@@@@@@@@@@@@@@@@@@@@@@@@@@@@@@@@@@@@@@@@@@@@@@@@@@@@@@@@@@@@@@@@@@@@@@@@@@@@@@@@@@@@@@@@@@@@@@@@@@@@@@@@@@@@@@@@@@@@@@@@@@@@@@@@@@@@@@@@@@@@@@@@@@@@@@@@@@@@@@@@@@@@@@@@@@@@@@@@@@@@@@@@@@@@@@@@@@@@@@@@@@@@@@@@@@@@@@@@@@@@@@@@@@@@@@@@@@@@@@@@@@@@@@@@@@@@@@@@@@@@@@@@@@@@@@@@@@@@@@@@@@@@@@@@@@@@@@@@@@@@@",
"@@@@@@@@@@@@@@@@@@@@@@@@@@@@@@@@@@@@@@@@@@@@@@@@@@@@@@@@@@@@@@@@@@@@@@@@@@@@@@@@@@@@@@@@@@@@@@@@@@@@@@@@@@@@@@@@@@@@@@@@@@@@@@@@@@@@@@@@@@@@@@@@@@@@@@@@@@@@@@@@@@@@@@@@@@@@@@@@@@@@@@@@@@@@@@@@@@@@@@@@@@@@@@@@@@@@@@@@@@@@@@@@@@@@@@@@@@@@@@@@@@@@@@@@@@@@@@@@@@@@@@@@@@@@@@@@@@@@@@@@@@@@@@@@@@@@@@@@@@@@@@@@@@@@@@@@@@@@@@@@",
"@@@@@@@@@@@@@@@@@@@@@@@@@@@@@@@@@@@@@@@@@@@@@@@@@@@@@@@@@@@@@@@@@@@@@@@@@@@@@@@@@@@@@@@@@@@@@@@@@@@@@@@@@@@@@@@@@@@@@@@@@@@@@@@@@@@@@@@@@@@@@@@@@@@@@@@@@@@@@@@@@@@@@@@@@@@@@@@@@@@@@@@@@@@@@@@@@@@@@@@@@@@@@@@@@@@@@@@@@@@@@@@@@@@@@@@@@@@@@@@@@@@@@@@@@@@@@@@@@@@@@@@@@@@@@@@@@@@@@@@@@@@@@@@@@@@@@@@@@@@@@@@@@@@@@@@@@@@@@@@@",
"@@@@@@@@@@@@@@@@@@@@@@@@@@@@@@@@@@@@@@@@@@@@@@@@@@@@@@@@@@@@@@@@@@@@@@@@@@@@@@@@@@@@@@@@@@@@@@@@@@@@@@@@@@@@@@@@@@@@@@@@@@@@@@@@@@@@@@@@@@@@@@@@@@@@@@@@@@@@@@@@@@@@@@@@@@@@@@@@@@@@@@@@@@@@@@@@@@@@@@@@@@@@@@@@@@@@@@@@@@@@@@@@@@@@@@@@@@@@@@@@@@@@@@@@@@@@@@@@@@@@@@@@@@@@@@@@@@@@@@@@@@@@@@@@@@@@@@@@@@@@@@@@@@@@@@@@@@@@@@@@",
"@@@@@@@@@@@@@@@@@@@@@@@@@@@@@@@@@@@@@@@@@@@@@@@@@@@@@@@@@@@@@@@@@@@@@@@@@@@@@@@@@@@@@@@@@@@@@@@@@@@@@@@@@@@@@@@@@@@@@@@@@@@@@@@@@@@@@@@@@@@@@@@@@@@@@@@@@@@@@@@@@@@@@@@@@@@@@@@@@@@@@@@@@@@@@@@@@@@@@@@@@@@@@@@@@@@@@@@@@@@@@@@@@@@@@@@@@@@@@@@@@@@@@@@@@@@@@@@@@@@@@@@@@@@@@@@@@@@@@@@@@@@@@@@@@@@@@@@@@@@@@@@@@@@@@@@@@@@@@@@@",
"@@@@@@@@@@@@@@@@@@@@@@@@@@@@@@@@@@@@@@@@@@@@@@@@@@@@@@@@@@@@@@@@@@@@@@@@@@@@@@@@@@@@@@@@@@@@@@@@@@@@@@@@@@@@@@@@@@@@@@@@@@@@@@@@@@@@@@@@@@@@@@@@@@@@@@@@@@@@@@@@@@@@@@@@@@@@@@@@@@@@@@@@@@@@@@@@@@@@@@@@@@@@@@@@@@@@@@@@@@@@@@@@@@@@@@@@@@@@@@@@@@@@@@@@@@@@@@@@@@@@@@@@@@@@@@@@@@@@@@@@@@@@@@@@@@@@@@@@@@@@@@@@@@@@@@@@@@@@@@@@",
"@@@@@@@@@@@@@@@@@@@@@@@@@@@@@@@@@@@@@@@@@@@@@@@@@@@@@@@@@@@@@@@@@@@@@@@@@@@@@@@@@@@@@@@@@@@@@@@@@@@@@@@@@@@@@@@@@@@@@@@@@@@@@@@@@@@@@@@@@@@@@@@@@@@@@@@@@@@@@@@@@@@@@@@@@@@@@@@@@@@@@@@@@@@@@@@@@@@@@@@@@@@@@@@@@@@@@@@@@@@@@@@@@@@@@@@@@@@@@@@@@@@@@@@@@@@@@@@@@@@@@@@@@@@@@@@@@@@@@@@@@@@@@@@@@@@@@@@@@@@@@@@@@@@@@@@@@@@@@@@@",
"@@@@@@@@@@@@@@@@@@@@@@@@@@@@@@@@@@@@@@@@@@@@@@@@@@@@@@@@@@@@@@@@@@@@@@@@@@@@@@@@@@@@@@@@@@@@@@@@@@@@@@@@@@@@@@@@@@@@@@@@@@@@@@@@@@@@@@@@@@@@@@@@@@@@@@@@@@@@@@@@@@@@@@@@@@@@@@@@@@@@@@@@@@@@@@@@@@@@@@@@@@@@@@@@@@@@@@@@@@@@@@@@@@@@@@@@@@@@@@@@@@@@@@@@@@@@@@@@@@@@@@@@@@@@@@@@@@@@@@@@@@@@@@@@@@@@@@@@@@@@@@@@@@@@@@@@@@@@@@@@",
"@@@@@@@@@@@@@@@@@@@@@@@@@@@@@@@@@@@@@@@@@@@@@@@@@@@@@@@@@@@@@@@@@@@@@@@@@@@@@@@@@@@@@@@@@@@@@@@@@@@@@@@@@@@@@@@@@@@@@@@@@@@@@@@@@@@@@@@@@@@@@@@@@@@@@@@@@@@@@@@@@@@@@@@@@@@@@@@@@@@@@@@@@@@@@@@@@@@@@@@@@@@@@@@@@@@@@@@@@@@@@@@@@@@@@@@@@@@@@@@@@@@@@@@@@@@@@@@@@@@@@@@@@@@@@@@@@@@@@@@@@@@@@@@@@@@@@@@@@@@@@@@@@@@@@@@@@@@@@@@@",
"@@@@@@@@@@@@@@@@@@@@@@@@@@@@@@@@@@@@@@@@@@@@@@@@@@@@@@@@@@@@@@@@@@@@@@@@@@@@@@@@@@@@@@@@@@@@@@@@@@@@@@@@@@@@@@@@@@@@@@@@@@@@@@@@@@@@@@@@@@@@@@@@@@@@@@@@@@@@@@@@@@@@@@@@@@@@@@@@@@@@@@@@@@@@@@@@@@@@@@@@@@@@@@@@@@@@@@@@@@@@@@@@@@@@@@@@@@@@@@@@@@@@@@@@@@@@@@@@@@@@@@@@@@@@@@@@@@@@@@@@@@@@@@@@@@@@@@@@@@@@@@@@@@@@@@@@@@@@@@@@",
"@@@@@@@@@@@@@@@@@@@@@@@@@@@@@@@@@@@@@@@@@@@@@@@@@@@@@@@@@@@@@@@@@@@@@@@@@@@@@@@@@@@@@@@@@@@@@@@@@@@@@@@@@@@@@@@@@@@@@@@@@@@@@@@@@@@@@@@@@@@@@@@@@@@@@@@@@@@@@@@@@@@@@@@@@@@@@@@@@@@@@@@@@@@@@@@@@@@@@@@@@@@@@@@@@@@@@@@@@@@@@@@@@@@@@@@@@@@@@@@@@@@@@@@@@@@@@@@@@@@@@@@@@@@@@@@@@@@@@@@@@@@@@@@@@@@@@@@@@@@@@@@@@@@@@@@@@@@@@@@@",
"@@@@@@@@@@@@@@@@@@@@@@@@@@@@@@@@@@@@@@@@@@@@@@@@@@@@@@@@@@@@@@@@@@@@@@@@@@@@@@@@@@@@@@@@@@@@@@@@@@@@@@@@@@@@@@@@@@@@@@@@@@@@@@@@@@@@@@@@@@@@@@@@@@@@@@@@@@@@@@@@@@@@@@@@@@@@@@@@@@@@@@@@@@@@@@@@@@@@@@@@@@@@@@@@@@@@@@@@@@@@@@@@@@@@@@@@@@@@@@@@@@@@@@@@@@@@@@@@@@@@@@@@@@@@@@@@@@@@@@@@@@@@@@@@@@@@@@@@@@@@@@@@@@@@@@@@@@@@@@@@",
"@@@@@@@@@@@@@@@@@@@@@@@@@@@@@@@@@@@@@@@@@@@@@@@@@@@@@@@@@@@@@@@@@@@@@@@@@@@@@@@@@@@@@@@@@@@@@@@@@@@@@@@@@@@@@@@@@@@@@@@@@@@@@@@@@@@@@@@@@@@@@@@@@@@@@@@@@@@@@@@@@@@@@@@@@@@@@@@@@@@@@@@@@@@@@@@@@@@@@@@@@@@@@@@@@@@@@@@@@@@@@@@@@@@@@@@@@@@@@@@@@@@@@@@@@@@@@@@@@@@@@@@@@@@@@@@@@@@@@@@@@@@@@@@@@@@@@@@@@@@@@@@@@@@@@@@@@@@@@@@@",
"@@@@@@@@@@@@@@@@@@@@@@@@@@@@@@@@@@@@@@@@@@@@@@@@@@@@@@@@@@@@@@@@@@@@@@@@@@@@@@@@@@@@@@@@@@@@@@@@@@@@@@@@@@@@@@@@@@@@@@@@@@@@@@@@@@@@@@@@@@@@@@@@@@@@@@@@@@@@@@@@@@@@@@@@@@@@@@@@@@@@@@@@@@@@@@@@@@@@@@@@@@@@@@@@@@@@@@@@@@@@@@@@@@@@@@@@@@@@@@@@@@@@@@@@@@@@@@@@@@@@@@@@@@@@@@@@@@@@@@@@@@@@@@@@@@@@@@@@@@@@@@@@@@@@@@@@@@@@@@@@",
"@@@@@@@@@@@@@@@@@@@@@@@@@@@@@@@@@@@@@@@@@@@@@@@@@@@@@@@@@@@@@@@@@@@@@@@@@@@@@@@@@@@@@@@@@@@@@@@@@@@@@@@@@@@@@@@@@@@@@@@@@@@@@@@@@@@@@@@@@@@@@@@@@@@@@@@@@@@@@@@@@@@@@@@@@@@@@@@@@@@@@@@@@@@@@@@@@@@@@@@@@@@@@@@@@@@@@@@@@@@@@@@@@@@@@@@@@@@@@@@@@@@@@@@@@@@@@@@@@@@@@@@@@@@@@@@@@@@@@@@@@@@@@@@@@@@@@@@@@@@@@@@@@@@@@@@@@@@@@@@@",
"@@@@@@@@@@@@@@@@@@@@@@@@@@@@@@@@@@@@@@@@@@@@@@@@@@@@@@@@@@@@@@@@@@@@@@@@@@@@@@@@@@@@@@@@@@@@@@@@@@@@@@@@@@@@@@@@@@@@@@@@@@@@@@@@@@@@@@@@@@@@@@@@@@@@@@@@@@@@@@@@@@@@@@@@@@@@@@@@@@@@@@@@@@@@@@@@@@@@@@@@@@@@@@@@@@@@@@@@@@@@@@@@@@@@@@@@@@@@@@@@@@@@@@@@@@@@@@@@@@@@@@@@@@@@@@@@@@@@@@@@@@@@@@@@@@@@@@@@@@@@@@@@@@@@@@@@@@@@@@@@",
"@@@@@@@@@@@@@@@@@@@@@@@@@@@@@@@@@@@@@@@@@@@@@@@@@@@@@@@@@@@@@@@@@@@@@@@@@@@@@@@@@@@@@@@@@@@@@@@@@@@@@@@@@@@@@@@@@@@@@@@@@@@@@@@@@@@@@@@@@@@@@@@@@@@@@@@@@@@@@@@@@@@@@@@@@@@@@@@@@@@@@@@@@@@@@@@@@@@@@@@@@@@@@@@@@@@@@@@@@@@@@@@@@@@@@@@@@@@@@@@@@@@@@@@@@@@@@@@@@@@@@@@@@@@@@@@@@@@@@@@@@@@@@@@@@@@@@@@@@@@@@@@@@@@@@@@@@@@@@@@@",
"@@@@@@@@@@@@@@@@@@@@@@@@@@@@@@@@@@@@@@@@@@@@@@@@@@@@@@@@@@@@@@@@@@@@@@@@@@@@@@@@@@@@@@@@@@@@@@@@@@@@@@@@@@@@@@@@@@@@@@@@@@@@@@@@@@@@@@@@@@@@@@@@@@@@@@@@@@@@@@@@@@@@@@@@@@@@@@@@@@@@@@@@@@@@@@@@@@@@@@@@@@@@@@@@@@@@@@@@@@@@@@@@@@@@@@@@@@@@@@@@@@@@@@@@@@@@@@@@@@@@@@@@@@@@@@@@@@@@@@@@@@@@@@@@@@@@@@@@@@@@@@@@@@@@@@@@@@@@@@@@",
"@@@@@@@@@@@@@@@@@@@@@@@@@@@@@@@@@@@@@@@@@@@@@@@@@@@@@@@@@@@@@@@@@@@@@@@@@@@@@@@@@@@@@@@@@@@@@@@@@@@@@@@@@@@@@@@@@@@@@@@@@@@@@@@@@@@@@@@@@@@@@@@@@@@@@@@@@@@@@@@@@@@@@@@@@@@@@@@@@@@@@@@@@@@@@@@@@@@@@@@@@@@@@@@@@@@@@@@@@@@@@@@@@@@@@@@@@@@@@@@@@@@@@@@@@@@@@@@@@@@@@@@@@@@@@@@@@@@@@@@@@@@@@@@@@@@@@@@@@@@@@@@@@@@@@@@@@@@@@@@@",
"@@@@@@@@@@@@@@@@@@@@@@@@@@@@@@@@@@@@@@@@@@@@@@@@@@@@@@@@@@@@@@@@@@@@@@@@@@@@@@@@@@@@@@@@@@@@@@@@@@@@@@@@@@@@@@@@@@@@@@@@@@@@@@@@@@@@@@@@@@@@@@@@@@@@@@@@@@@@@@@@@@@@@@@@@@@@@@@@@@@@@@@@@@@@@@@@@@@@@@@@@@@@@@@@@@@@@@@@@@@@@@@@@@@@@@@@@@@@@@@@@@@@@@@@@@@@@@@@@@@@@@@@@@@@@@@@@@@@@@@@@@@@@@@@@@@@@@@@@@@@@@@@@@@@@@@@@@@@@@@@",
"@@@@@@@@@@@@@@@@@@@@@@@@@@@@@@@@@@@@@@@@@@@@@@@@@@@@@@@@@@@@@@@@@@@@@@@@@@@@@@@@@@@@@@@@@@@@@@@@@@@@@@@@@@@@@@@@@@@@@@@@@@@@@@@@@@@@@@@@@@@@@@@@@@@@@@@@@@@@@@@@@@@@@@@@@@@@@@@@@@@@@@@@@@@@@@@@@@@@@@@@@@@@@@@@@@@@@@@@@@@@@@@@@@@@@@@@@@@@@@@@@@@@@@@@@@@@@@@@@@@@@@@@@@@@@@@@@@@@@@@@@@@@@@@@@@@@@@@@@@@@@@@@@@@@@@@@@@@@@@@@",
"@@@@@@@@@@@@@@@@@@@@@@@@@@@@@@@@@@@@@@@@@@@@@@@@@@@@@@@@@@@@@@@@@@@@@@@@@@@@@@@@@@@@@@@@@@@@@@@@@@@@@@@@@@@@@@@@@@@@@@@@@@@@@@@@@@@@@@@@@@@@@@@@@@@@@@@@@@@@@@@@@@@@@@@@@@@@@@@@@@@@@@@@@@@@@@@@@@@@@@@@@@@@@@@@@@@@@@@@@@@@@@@@@@@@@@@@@@@@@@@@@@@@@@@@@@@@@@@@@@@@@@@@@@@@@@@@@@@@@@@@@@@@@@@@@@@@@@@@@@@@@@@@@@@@@@@@@@@@@@@@",
"@@@@@@@@@@@@@@@@@@@@@@@@@@@@@@@@@@@@@@@@@@@@@@@@@@@@@@@@@@@@@@@@@@@@@@@@@@@@@@@@@@@@@@@@@@@@@@@@@@@@@@@@@@@@@@@@@@@@@@@@@@@@@@@@@@@@@@@@@@@@@@@@@@@@@@@@@@@@@@@@@@@@@@@@@@@@@@@@@@@@@@@@@@@@@@@@@@@@@@@@@@@@@@@@@@@@@@@@@@@@@@@@@@@@@@@@@@@@@@@@@@@@@@@@@@@@@@@@@@@@@@@@@@@@@@@@@@@@@@@@@@@@@@@@@@@@@@@@@@@@@@@@@@@@@@@@@@@@@@@@",
"@@@@@@@@@@@@@@@@@@@@@@@@@@@@@@@@@@@@@@@@@@@@@@@@@@@@@@@@@@@@@@@@@@@@@@@@@@@@@@@@@@@@@@@@@@@@@@@@@@@@@@@@@@@@@@@@@@@@@@@@@@@@@@@@@@@@@@@@@@@@@@@@@@@@@@@@@@@@@@@@@@@@@@@@@@@@@@@@@@@@@@@@@@@@@@@@@@@@@@@@@@@@@@@@@@@@@@@@@@@@@@@@@@@@@@@@@@@@@@@@@@@@@@@@@@@@@@@@@@@@@@@@@@@@@@@@@@@@@@@@@@@@@@@@@@@@@@@@@@@@@@@@@@@@@@@@@@@@@@@@",
"@@@@@@@@@@@@@@@@@@@@@@@@@@@@@@@@@@@@@@@@@@@@@@@@@@@@@@@@@@@@@@@@@@@@@@@@@@@@@@@@@@@@@@@@@@@@@@@@@@@@@@@@@@@@@@@@@@@@@@@@@@@@@@@@@@@@@@@@@@@@@@@@@@@@@@@@@@@@@@@@@@@@@@@@@@@@@@@@@@@@@@@@@@@@@@@@@@@@@@@@@@@@@@@@@@@@@@@@@@@@@@@@@@@@@@@@@@@@@@@@@@@@@@@@@@@@@@@@@@@@@@@@@@@@@@@@@@@@@@@@@@@@@@@@@@@@@@@@@@@@@@@@@@@@@@@@@@@@@@@@",
"@@@@@@@@@@@@@@@@@@@@@@@@@@@@@@@@@@@@@@@@@@@@@@@@@@@@@@@@@@@@@@@@@@@@@@@@@@@@@@@@@@@@@@@@@@@@@@@@@@@@@@@@@@@@@@@@@@@@@@@@@@@@@@@@@@@@@@@@@@@@@@@@@@@@@@@@@@@@@@@@@@@@@@@@@@@@@@@@@@@@@@@@@@@@@@@@@@@@@@@@@@@@@@@@@@@@@@@@@@@@@@@@@@@@@@@@@@@@@@@@@@@@@@@@@@@@@@@@@@@@@@@@@@@@@@@@@@@@@@@@@@@@@@@@@@@@@@@@@@@@@@@@@@@@@@@@@@@@@@@@",
"@@@@@@@@@@@@@@@@@@@@@@@@@@@@@@@@@@@@@@@@@@@@@@@@@@@@@@@@@@@@@@@@@@@@@@@@@@@@@@@@@@@@@@@@@@@@@@@@@@@@@@@@@@@@@@@@@@@@@@@@@@@@@@@@@@@@@@@@@@@@@@@@@@@@@@@@@@@@@@@@@@@@@@@@@@@@@@@@@@@@@@@@@@@@@@@@@@@@@@@@@@@@@@@@@@@@@@@@@@@@@@@@@@@@@@@@@@@@@@@@@@@@@@@@@@@@@@@@@@@@@@@@@@@@@@@@@@@@@@@@@@@@@@@@@@@@@@@@@@@@@@@@@@@@@@@@@@@@@@@@",
"@@@@@@@@@@@@@@@@@@@@@@@@@@@@@@@@@@@@@@@@@@@@@@@@@@@@@@@@@@@@@@@@@@@@@@@@@@@@@@@@@@@@@@@@@@@@@@@@@@@@@@@@@@@@@@@@@@@@@@@@@@@@@@@@@@@@@@@@@@@@@@@@@@@@@@@@@@@@@@@@@@@@@@@@@@@@@@@@@@@@@@@@@@@@@@@@@@@@@@@@@@@@@@@@@@@@@@@@@@@@@@@@@@@@@@@@@@@@@@@@@@@@@@@@@@@@@@@@@@@@@@@@@@@@@@@@@@@@@@@@@@@@@@@@@@@@@@@@@@@@@@@@@@@@@@@@@@@@@@@@",
"@@@@@@@@@@@@@@@@@@@@@@@@@@@@@@@@@@@@@@@@@@@@@@@@@@@@@@@@@@@@@@@@@@@@@@@@@@@@@@@@@@@@@@@@@@@@@@@@@@@@@@@@@@@@@@@@@@@@@@@@@@@@@@@@@@@@@@@@@@@@@@@@@@@@@@@@@@@@@@@@@@@@@@@@@@@@@@@@@@@@@@@@@@@@@@@@@@@@@@@@@@@@@@@@@@@@@@@@@@@@@@@@@@@@@@@@@@@@@@@@@@@@@@@@@@@@@@@@@@@@@@@@@@@@@@@@@@@@@@@@@@@@@@@@@@@@@@@@@@@@@@@@@@@@@@@@@@@@@@@@",
"@@@@@@@@@@@@@@@@@@@@@@@@@@@@@@@@@@@@@@@@@@@@@@@@@@@@@@@@@@@@@@@@@@@@@@@@@@@@@@@@@@@@@@@@@@@@@@@@@@@@@@@@@@@@@@@@@@@@@@@@@@@@@@@@@@@@@@@@@@@@@@@@@@@@@@@@@@@@@@@@@@@@@@@@@@@@@@@@@@@@@@@@@@@@@@@@@@@@@@@@@@@@@@@@@@@@@@@@@@@@@@@@@@@@@@@@@@@@@@@@@@@@@@@@@@@@@@@@@@@@@@@@@@@@@@@@@@@@@@@@@@@@@@@@@@@@@@@@@@@@@@@@@@@@@@@@@@@@@@@@",
"@@@@@@@@@@@@@@@@@@@@@@@@@@@@@@@@@@@@@@@@@@@@@@@@@@@@@@@@@@@@@@@@@@@@@@@@@@@@@@@@@@@@@@@@@@@@@@@@@@@@@@@@@@@@@@@@@@@@@@@@@@@@@@@@@@@@@@@@@@@@@@@@@@@@@@@@@@@@@@@@@@@@@@@@@@@@@@@@@@@@@@@@@@@@@@@@@@@@@@@@@@@@@@@@@@@@@@@@@@@@@@@@@@@@@@@@@@@@@@@@@@@@@@@@@@@@@@@@@@@@@@@@@@@@@@@@@@@@@@@@@@@@@@@@@@@@@@@@@@@@@@@@@@@@@@@@@@@@@@@@",
"@@@@@@@@@@@@@@@@@@@@@@@@@@@@@@@@@@@@@@@@@@@@@@@@@@@@@@@@@@@@@@@@@@@@@@@@@@@@@@@@@@@@@@@@@@@@@@@@@@@@@@@@@@@@@@@@@@@@@@@@@@@@@@@@@@@@@@@@@@@@@@@@@@@@@@@@@@@@@@@@@@@@@@@@@@@@@@@@@@@@@@@@@@@@@@@@@@@@@@@@@@@@@@@@@@@@@@@@@@@@@@@@@@@@@@@@@@@@@@@@@@@@@@@@@@@@@@@@@@@@@@@@@@@@@@@@@@@@@@@@@@@@@@@@@@@@@@@@@@@@@@@@@@@@@@@@@@@@@@@@",
"                          535345778xcbnmMNZAZNMmnbcx8767cbc4                             O     O                                                            h                                                                                                +                                          O                       ",
"                         %535345778xcbnmMNZAZNMmnbcx8767cbc4%                                                                       O                        >                                                                                                                                                              >O  ",
"                         1535345778xcbnmMNZAZNMmnbcx8767cbc41     >                                                                                                                                               >                                                                Zm      ZZ                                   ",
"                         2535345778xcbnmMNZAZNMmnbcx8767cbc42                                                                                                                                                                                                                     ZmNZ    Zmmm                                  ",
"     G                   3535345778xcbnmMNZAZNMmnbcx8767cbc43                                      O                    O                                                                   O                                                                       h            ZmNZ8   ZmmN8           >                      ",
"                         4535345778xcbnmMNZAZNMmnbcx8767cbc44                                                                                                                                                                                                                   ZmNZ8   ZmmN8  >                                ",
"       O    >            5535345778xcbnmMNZAZNMmnbcx8767cbc44              G                                                                                                                           O                                                                       ZmNZ8   ZmmN8>                                   ",
"          O              5535345778xcbnmMNZAZNMmnbcx8767cbc44                G                                                                    O                                                        O                         G            +                           ZmNZ8   ZmmN8                                     ",
"                 >       4535345778xcbbmMNZAZNMmnbcx8767cbc44  h     >                                                                      O                                   G O                                                 h                          1xxxxxxxxxxxxxxxxZ8   ZmmN8                                   >  ",
"                         4535345778xcbnmMNZAZNMmnbcx8767cbc44                                                O                h     >                                                                                       +                              1xxxx6666666666666666xxxxZmmN8    >                    >             ",
"                         4535345778xcbnmMNZAZNMmnbcx8767cbc44          O                           O           O                                                                                                                          >     O        1xx666666666666666666666666xxN8                                        ",
"                         4365345778xcbnmMNZAZNMmnbcx8767cbc44                                                                                                               O                                                                           1x666666444444444444444466666681                                        ",
"                         4365345778xcbnmMNZAZNMmnbcx8767cbc74                           >                                                      >                                O                                                                      1x6664444                4444666x1                      GO              O",
"        O                4365345778xcbnmMNZAZNMmnbcx8767cbc74                                                                                                                            >                                                             x6644   377777777777777773   4466x                                       ",
"                         4365345778xcbnmMNZAZNMmnbcx8767cbc84       O                                                                               >                                                                                                  664  377777bnmMNZAZNMmnb77773  466                                       ",
"                         4365345778xcbnmMNZAZNMmnbcx87678cbc4                                                                        O                                         >                          >                                     O      64 775778xcbnmMNZAZNMmnbcx86777 46                                   O   ",
"               O        O4365345778xcbnmMNZAZNMmnbcx87677cbc4         >                       >             >                               O                    O                                                                                     4 6534578xcbnmMNZAZNMmnbcx867cb7 4                                       ",
"                     G   4365345778xcbnmMNZAZNMmnbcx87677cbc4                                                            O                          >         O       >             O                                                          O        56534578xcbnmMNZAZNMmnbcx867cbc4                                        ",
"                        %4365345778xcbnmMNZAZNMmnbcx87677cbc4%                                            O                        O                         O             >                                                                           %56534578xcbnmMNZAZNMmnbcx867cbc4%                                       ",
"                        13365345778xcbnmMNZAZNMmnbcx87677cbc41                                     >                                                      >                                       +                                            +       156534578xcbnmMNZAZNMmnbcx867cbc41   G                                   ",
"        >          >    35365345778xcbnmMNZAZNMmnbcx87677cbc42                                                                                              >               h   O                            >                                     O   256534578xcbnmMNZAZNMmnbcx867cbc42                  O     >              ",
"                        33365345778xcbnmMNZAZNMmnbcx87677cbc43              O                                                                                                                        O                                                 356534578xcbnmMNZAZNMmbbcx867cbc43            O       >       Oh         ",
"              h         35365345778xcbnmMNZAZNMmnbcx87677cbc44                                   >            O            G           O O                         >     O                                               O                             456534578xcbnmMNZAZNMmnbcx867cbc44                                       ",
"         >              53375345778xcbnmMNZAZNMmnbcx87677cbc44       >        O                                                                                                                      >                                                 556534578xcbnmMNZAZNMmnbcx867cbc44                                       ",
"                        55365345778xcbbmMNZAZNMmnbcx87677cbc44                                                O                 >      >       O                  O                                                                                  h 556534578xcbnmMNZAZNMmnbcx867cbc44                                       ",
"            O           44365345778xcbnmMNZAZNmmnbcx87677cbc44                                                                                                                                                                                         456534578xcbnmMNZAZNMmnbcx867cbc44                                       ",
"                        44365345778xcbnmMNZAZNMmnbcx87677cbc44                                                            O     O                         O                                                   O          >                             456534578xcbnmMNZAZNMmnbcx867cbc84                                       ",
"                        44365345778xcbnmMNZAZNMmnbcx87677cbc44                                                                                                                       >     +               7bAA2                                       456534578xcbnmMNZAZNMmbbcx8778cbc4                                       ",
"                        44365345778xcbnmMNZAZNMmnbcx87677cbc44                                          OO                                                    >           +                              7mAA%%A2         bAA2              O          456534578xcbnmMNZAZNMmnbcx8577cbc4        O                              ",
"                        44365345778xcbnmMNZAZNMmnbcx87677cbc44                 >                  >                                                        O                  +                        7mAmmA  %A   >   mAA%%A2                        456534578xcbnmMNZAZNMmnbcx8677cbc4                                       ",
"      >                 44365345778xcbnmMNZAZNMmnbcx87677cbc44                          O                               O                                                                            7mAmmAMAn %A     mAmmA  %A    O                   456534578xcbnmMNZAZNMmnbcx8687cbc4                                       ",
"                        44365345778xcbnmMNZAZNMmnbcx87677cbc44             h                                                           O   O                             >                         7mAmmAAAMbAAAb   mAmmAMAb 1A      O                 456534578xcbnmMNZAZNMmnbcx8677cbc4               > O                     ",
"     O                  43564345778xcbnmMNZAZNMmnbcx87767cbc44                                                        >                                                              +           7mAmmAAAM88m884  mAmmAAAMbAAAb                        456534578xcbnmMNZAZNMmnbcx8767cbc4                                       ",
"                        43653456778xcbbmMNZAZNMmnbcx87767cbc44                                                          O                                                   Vy                 7mAmmAAAM88m884  mAmmAAAM88mx84                         455345678xcbnmMNZAZNMmnbcx8767cbc4                                       ",
"                        43653457778xcbnmMNZAZNMmnbcx87767cbc74                                                                                                             yyyy              7mAmmAAAM88m884  mAmmAAAM88m883                           565345778xcbnmMNZAZNMmnbcx8757cbc4                                       ",
"                       %43653457778xcbnmMNZAZNMmnbcx87767cbc84%                                                                                        >           1xZZZZZZZZZZZZZZZx1     7mAmmAAAM88m884  mAmmAAAM88m884                            %565345778xcbnmMNZAZNMmnbcx8757cbc3%     >                       >        ",
"       >               143653457778xcbnmMNZAZNMmnbcx877678cbc41             >                                                             O                   1xZZZZZMMMMmMMMMMMMMMmZZZZbxmAmmAAAM88m884 >mAmmAAAM88m884O                             1565345778xcbnmMNZAZNMmnbcc8777cbc51           >                          ",
"           >           243653457778xcbnmMNZAZNMmnbcx877677cbc42                                                                                           1xZZZZMMMMMmmmmmmmmmmmmmmmMMbbmAmmAAAM88m884  mAmmASAM88m884  GO                            2565345778xcbnmMNZAZNMmnbcx8757cbc42                                      ",
"                       443653457778xcbnmMNZAZNMmnbcx877677cbc43                                                                         O              1xZZZMMMMmmmmmbbbbbbbbbbbbbbbbbmAmmAAAM88m884  mAmmAAAm88m884                                  3565345778xcbbmMNZAZNMmnbcx8777cbc43                                     h",
"                       443653457778xcbn741%#%1158bcx877677cbc44                                         j   >  O                   O                 1xZZMMMmmmmbbbbbbbbbbbbbbbbbbbbmAmmAAAM88m8841 mAmmAAAM88m884                     O              4565345778xcbmmMNZAZNMmnbcx8767cbc44                                      ",
"                       443653457778xc42@$531$@31$25x877677cbc44                                        hkh             >         >                 1xZZMmmmmbbbbbbbbbbbbbbbbbbbbbbmAmmAAAM88m88MMMmAmmAAAM88m8x3      O                              >5565345778xcbbmMNZAZNMmnbcx8767cbc44                           O          ",
"                       44365345777851%#7@8%c1 x1##11777677cbc44                                       jkGkj                                       xZZMMmbbbbbbbbbbbbbbbbbbbbbbbbb%mmAAAM88m88bbbmAmmAAAM88m884                                      > 5565345778xcbnmMNZAZNMmnbcx8767cbc44                                      ",
"                       443653457783$$2#Ax     o%D6o#%57677cbc44                                        hkh                                      1xZMMmbbbbbbbbbbbbbbbbbbbbbbbbbbb%MAAM88m88bbbb%mmAAAM88m884               >                          4565345778xcbnmMNZAZNMmnbcx8767cbc44               G                      ",
"                      %4436534578311$v6o#15675$X6v111%5677cbc44                      >                  j                                      4ZZMbbbbbbbbbbbbbxxxxxxxxxxxxxxxxx%xbbbm88bbbbbb%mAAM88m884                                            4565345778xcbnmMNZAZNMmnbcx8767cbc44                  O                   ",
"         >            144365345751X5m@#4NKLLLLJM$ 5n##1677cbc44      >       ZZ      mZ                                                       4ZMbbbbbbxxxxxxxxx888888888x88888xcb%xb88%xxxxxxx%xbbbm88bZ4                                            4565345778xcbn741%$$1148bcx8767cbc44       O                              ",
"                      2443653457%% .$ mLKSDSSDDLLxo%  2%77cbc44             mmmZ    ZNmZ                                                     4Mbbbxxxxx888888x88888888888x88888xcb5%%%%8x8888888%8b88%xbbM4                 O                         4565345778cc51@$521$#31$25x8767cbc44                                      ",
"                      34436534531.   SLSSJLLDDLJLLN   o157cbc44             8NmmZ   8ZNmZ                                                   4b8xxx8x887888888x88888888888x88888xcbc55558x88888885%%%%88xx8b4                                          456534577851$$7#7%c1 x1#@117767cbc44                                      ",
"                      444365345%$   mLSSLNc7AAc8bcZ6   117cbc44              8NmmZ   8ZNmZ        >                    O                    b678888x887888888x88888888888x88888xcbc75557x88888888555588x876b                 >              >         4565345773$$2#Ax     o1D6o$%567cbc44                                      ",
"                      4443653431.  2LSSLZ  $Lx 53  S%  @17cbc44               8NmmZ   8ZNmZ                                        O        6678888x887888888x88888888888x88888xcbcx5555x88888888755578x8766                         O                45653457311$v6X#15775$X5v112%57cbc84                                      ",
"   h                  44436534%$   MLSLZ  1LL5%L5  Db   %3cbc44                8NmmZ   8ZNmZ                                                6678888x887888888666566666666666666666665555666888888855558x8766      >                      h            456534551X6m@#3ZKLLLLJM$ 5m@#%78cbc4                                      ",
"                      444365331#  XJDLZ  3LJDNLL$ .JS   %1cbc44                 8NmmZ   8Zxxxxxxxxxxxxx1                                    6678888x666666666                              666666655558x8766                                          4565345%% .$ mLJDDSDSDLLxo%  217cbc4                         >         >  ",
"                      44436534$x. 8JLZ. 3LLDALL% .SLS3 #8%cbc44                  8NmmZxxxx6666666666666xxxx1                                66786666       28mmmmmmmmmmmmmmmmmmmmmmmm7777mm82        5668766      O               O  >                45653411.   SLSSJLLSDLJLLN   o15cbc4                                      ",
"            >         44436434#bc7mJZ  3LKDHHJ1 oALHZb7vx$cbc44     >             8Nxx666666666666666666666xx1               $$             6666   28mmmmmmmmnbbbbbbbbbbnmnbbnmMNANMm55558bmmmmmmmm77   6666       O                                 %456534%$   MLSSLNc7SAc8bcZ6   11cbc4%                                     ",
"                      44356344#xNbcL#  $$@@@mm  xLbMSxMm7$cbc44                   186666664444444444444666666x1              8x$   n        6  28mmmmcxcbbbbbnbbbbbbbbbbnmnbbnmMNANMm85555bbbbbbbbb557782  6           O                         O   14565321.  2LSSLZ  #Lx 53  S%  @%cbc41      >                              ",
"                      44356344@8nbcJo       vm  bm mD8nn5%cbc44                  1x6664444             4444666x1            8xcx$$mnc$       4mmnnbnbcxcbbbbbnbbbbbbbbbbnmnbbnmMNANMmn5555bbbbbbbbb85558mm4                                          245653%$   mLSLZ  2LL5%L5  Db   %5bc42                                     ",
"                      44356344#x63cZmxcxb5  vNoo7@XDZ72c32cbc44                  x6644   377777777777773   4466x            xccxnmncx$     3cbcbnnbnbcxcbbbbbnbbbbbbbbbbnmnbbnmmNANMmn55558bbbbbbbbb5555bcbc3                               >        345653%#  XJDLZ  3LJDNLL$ .JS   %3bc43             >                       ",
"                      4435634413cbcvLLLLLM  7LDDZADHcbvc$5cbc44                  664  377777bnmMNNMmnb77773  466        $$8 ccxnmncc$$    7xcbcbnnbnbcxcbbbbbnbbbbbbbbbbnmnbbnmMNANMmb85555bbbbbbbbb5555bcbcx7              O             O  >       445653#x. 8JLZ. 3LJDSLL% .ALD3 #81bc44                             O       ",
"          >        h  443563444@bb77ZJSSLb  7LHHDDLM58mx@7cbc54                  64 775778xcbnmMNNMmnbcx86777 46        78xccxcnmncx$ c  47xcbcbnnbnbcxcbbbbbbbbbbbbbbbbnmnbbnmMNANMmnb5555bbbbbbbbb85558cbcx74                    O  O              545653@bc6mJN. 4LLDHHD1 oALDAn7vx1bc44                        >            ",
"                      443563445$7x2c8JJSDANMADDSSKA8c2b137cbv34%     G           4 6534578xcbnmMNNMmnbcx867cb7 4      $$ xccxcnmnccx$xcb 47xcbcbnnbbbcxcbbbbcxxxxxxxxxxxxxxxxxxxxxxxxxxxxxxcbbbbbbbbb5555cbcx74                            O         545653#xNbcL#  $$@@@mm  cLvMSxMm6%bc44                                     ",
"                      4435634456@vmmc8DKSDJKHSSDKS8cmm8o77cbc441          >       56534578xcbnmMZNmmnbcx867cbc4      $78x ccxnmnccx8xcbnn$7xcbcbnncxxxxxxxxx73%%%%%%%%%%%%%%%%%%%%%%%%%%%%37xxxxxxxxxc855cbcx74                                      445653@xnbcK@       vm  bm mH8nb52bc44       ,                             ",
"                      443563445713nn%4cNHKJHHJJDM737mv$477cbc442                 %56534578xcbnmmNNMmnbcx867cbc4%    $78xcccxcnmcccx8$cb$$47xcxxxxx73%%%%%%%%%%$$$$$$$$$$$$$$%$$$$$$$$$$$$$%%%%%%%%%%37xxxxxcx74  O                                   445653#863xZmxccb5  bNoo7@XDZ72c33bc44      >p>                            ",
"                     %44356344577#5x3536bNZZZNMv8513821677cbc743                 156534578xcbnmMNNMmnbcx867cbc41    $8xcccxcnmnccx8$ $$  47x72%%%%%%$$$57cnMNNNNNNN$NNNNNNNNNNNNNNNNNNNNNNNNMnc75$$$%%%%%%27x74          O     O                     44565313vbcvLLLLLm  6LDDZADHcbcv$xbc44     ,pap,                           ",
"                     1443563445777#4m531%338x515$2x52%7677cbc844                 256534578xcbnmMNNMmnbcx867cbc42    $xcccxcnmncccx$      =2 57q0NNNNN=NNNMnmMmnnn$$n$nnnmMmnmmNZDDJKJHDZNMmnnnnMNNNNNNNMnc75 24    h                               > 4456533@bb67ZJSSLb  7LHHJDLM68mx@cbc44      >p>                            ",
"                     24435634457778%168334437m2717x11777577cbc44                 356534578xcbnmMNNMmnbcx867cbc43      cc$xc$$nc$x8x$    tB278*VinmncxBtcbnbmMmnn$bnnn$nnmMmnmMNADHJKJHDZNMmnnnnreeeernbnbcx872                    O                  4456534#783v8HJSDANMADSDSJS8c2b13cbc44       ,    O                        ",
"                     34435634457778x5147bxb67mxv82$68777677cbc44                 456534578xcbnmMNNMmnbcx867cbc44    $cc$ c$  $$ x8x$   tBB74*wFBm4cx8BcbnbmmMmn$cbnnnm$nmMmnnmmNZDHJKJHSZNMmnnnnreeeernbnbcx872                                      44565344@vmmc8DKSDJKHSDDKA8cmm8@7cbc44                                     ",
"h                    44435634457778xcb5$%356633$%7cx8777677cbc44                 556534578xcbnmMNNMmnbcx867cbc44    $ccx $     x8x$     tButyiFVuyytuBtbnnmMmnnn$nnn$$nnmMmnnmMNZDHJJJHDZNMmnnbnreeeernnbnbcx872                                     4456534512bn%3cNHJJHHJJDM747nv#57cbc44                                     ",
" >                   44435634457778xcbn7778xx8778bcx8777677cbc44                 556534578xcbnmMNNMmnbcx867cbc44    $cx$   G    8x$    2tiiuBVFVVBBuiitnnnmMmnnn$nnn$nnnnmMmnmmZZSHJKJHDZNMmnnmbnreeeernnbnbcx872                                    445653457$585536bNZANNMc8513x2157cbc44                 >         h         ",
"                     44435634457778xcbbm778xx877nbcx8777677cbc44                 456534578xcbnmMNNMmnbcx867cbc44     c$          c$   2V4BVVLLLLLFLVVB VnmMmnnnnn$n$$nnnnmMmnmMNZDHJKJHDZNmmnnnnnnreeeernnbnbcx872          O                        4565345677#5m4311338x515$1x52%767cbc44           O                         ",
"                     44435634457778xcbmm778xx878nbcx8777677cbc44                 456534578xcbnmMNNMmnbcx867cbc84     $           $$  244VVFLLLLLLLLLFVVnnmMmnnnnn$$nnnnnnmMmnnmMNZDHJKJHDZNMmnnnnnreeeernnnbnbcx872                                  45653457778%15x225337m2717x117767cbc44                                     ",
"               >     44435634457778xcbnmm78xx87mnbcx8777677cbc44             >   456534578xcbnmMNNMmnbcx8678cbc4                    244VV4LLLLLLLLLLVVV tmMmnnnnnnnnnnnnnmMmnnmMNZSHJJJHDZNMmnnnnnnreeeernnbnnbcx872   G                            %45653457778x5%57bxb57Mccx2%687767cbc84%               >    O               ",
"                     44435634457778xcbnmM78xx88mnbcx8777677cbc44                 456534578xcbnmMNNMmnbcx8677cbc4               O   244LVVVLLLLLLLLLLLVLBwMmnnnnnnnnnnnnnnmMmnnmMNZDHJKJHDZNMmnnnnnnnreeeernnbnnbcx872                 O             145653457778xcb5$%356632$$7cx877678cbc41                                    ",
"      O              44435634457778xcbnmMN8xx8Mmnbcx8777677cbc44             >   456534578xcbnmMNNMmnbcx8677cbc4                  244wBLVLLLLLLLLLLLLLLy*MmnnnnnnnnnnnnnnmMmnnmMNZDHJKJHDZNMmnnnnnnnreeeernnnbnnbcx872                            > 245653457778xcbn7778xx8778bcx877677cbc42 O                           O      ",
"                     44436344567778xcbnmMN8xx8Mmnbcx8777677cbc44                 456534578xcbnmMNNMmnbcx8677cbc4                 274L*yLLLLLLLLLLx4Vt44nmMmnnnnnnnnnnnnnnmmmnnnmMNZSDJKJHDZNMmnnnnnnnreeeernnnbnnbcx872   >                         345653457778xcbnm778xx877nbcx877677cbc43                                    ",
"                     44356344577778xcbnmMNZxxNMmnbcx8777677cbc44                 456534578xcbnmMNNMmnbcx8677cbc4               O27844*iLLLLLLLLLL4LFVyL4MmnnnnnnnnnnnnnnnnmMmnnmMNZDHJKJHSZNMmnnnnnnnnreeeernnnbnnbcx872                            445653457778xcbnm778xx878nbcx877677cbc44                                    ",
"           >         44356344577778xcbnmMNZAZNMmnbcx8777677cbc44                 456534578xcbnmMNNMmnbcx8767cbc4               27 x444VLLnm4LLLL4c4FiwLmMmnnnnnnnnnnnnnnnnmMmnnmMNZDHJKJHDZNMmnnnnnnnnreeeernnnnbnnbcx872                           545653457778xcbnmM78xx87mnbcx877677cbc44                                    ",
"                     44356344577778xcbbmMNZAZNMmnbcx8777677cbc44                 455345678xcbnmMNNMmnbcx8767cbc4          O   27  c4LyFLLmnc4LLL4cb3w=mMmnnnnnnnnnnnnnnnnnmMmnnnmMNZDHJKJHDZNMmnbnnnnnnreeeernnnnbnnbcc871             G       O    545653457778xcbnmM78xx88mnbcx877677cbc44                                    ",
"                     44356344577778xcbnmMNZAZNMmnbcx8777677cbc44                 565345778xcbnmMNNMmnbcx8767cbc4             378xcLL0iLnLLcc4LLLcbbm=nmMmnnnnnnnnnnnnnnnnnmMmnnnmMNZDDJKJHDZNMmnmbnnnnnnreeeernnnnbnnbcx873                         445653457778xcbnmMN8xx8Mmnbcx877677cbc44                                    ",
"       G             44356344577778xcbnmMNZAZNMmnbcx8777677cbc44                %565345778xcbnmMNNMmnbcx8767cbc4%           278xccc4*cinmncLcxLLcbmbn mMmnnnnnnnnnnbnnnnnnmMmnmbmMNZDDJKJDSZNMmnnnnnnnnnreeeernnnnnbnnbcx871                 >      445653457778xcbbmMN8xx8Mmnbcx877677cbc44                   O    >           ",
"           >        %44356344577778xcbnmMNZAZNMmnbcx8777677cbc44                1565345778xcbnmMNNMmnbcx8767cbc41          178xcccLLLcnmnccLx8xLbnnnnm mnnnnnbmbnnnmnnnnnnmMmnbnmMNZDHJKJHDZNMmnnnnnnnnnnreeeernnnnnbnbbcx882                       445653457778xcbmmMNZxxNMmnbcx877677cbc44                         O          ",
"                    144356344577778xcbnmMNZ555Mmnbcx8777677cbc44  h   >         2565345778xcbmmMNNMmnbcx8767cbc42         378xccc cxLnmnccccx8xBbnnnnmMmnnnnnnnnnnnbnnnnnnmMmnnnnmMNZDDJKJHDZNMmneeeeennnnreeeernnnnbnnnbcx872      O               445653457778xcbbmMNZAZNM555cx877677cbc44         >                          ",
"           O        244356344577778xcbnmMN5&&&5mnbcx8777677cbc44                3565345778xcbbmMNNMmnbcx8767cbc43        278xcccccxccnmncccx8xcbqnnnnmMmnnnnnnnnnnnnnnnnnnmMmnnnnmMNZDHJKJDDZNMmnreeeernnnreeeernnnnnbnnbbcx872                     445653457778xcbnmMNZAZN59995x877677cbc44                                    ",
"                    344356344577778xcbnmMN5&&&5mnbcx8777677cbc44                4565345778xcbbmMNNMmnbcx8767cbc44       278xcccccxccnmnccccx8xcb nnnmMmnnnnnnnnnnnnnnnnnnnnmMmnnnmMNZDDJKJHDZNMmnneeeeennnnreeeernnnnnbnnnbcx872                    445653457778xcbnmMNZAZN59995x877677cbc44                                    ",
"                    444356344577778xcbnmMN55555mnbcx8777677cbc44         >      5565345778xcbnmMNNMmbbcx8767cbc44      278xccccccxcnmnccccx8xcb nnnnmMmnnnnnnnnnnnnnnnnnnnnmMmnnnmMNZDHJKJHDZNMmnnnnnnnnnnnnreeeernnnnnbnnnbcx872                   445653457778xcbnmMNZAZN55555x877677cbc44                                    ",
"                    444356344577778xcbnmMN5&&&5mnbcx8777677cbc44         O      5565345778xcbnmMNNMmnbcx8767cbc44     278xccccccxccnmnccccx8xc nnnnmMmnnnnnnnnnnnnnnnnnnnnnmMmnnnnmMNZDDJJJHDZNMmnnnnnnnnnnnreeeernnnnnnbnnnbcx872                  445653457778xcbnmMNZAZN59995x877677cbc44                                    ",
"                    444356344577778xcbnmMN5&&&5mnbcx8777677cbc44                4565345778xcbnmMNNMmnbcx8767cbc44    278xccccccxccnmnccccx8xcbnnnnnmMmnnnnnnnnnnnnnnnnnnnnnmMmnnnnmMNZDHJKJHDZNMmnnnnnnnnnnnnreeeernnnnnnbnnnbcx872                 445653457778xcbnmMNZAZN59995x877777cbc44                                    ",
"                    444356344577778LLLLLLLLLLLLLLLLLLLLLLLLLLLLLLLLLLLLLLLLLLLLLLLLLLLLLLLLLLLLLLLLLLLLLLLLLLLLLLLLLLLLLLLLLLLLLLLLLLLLLLLLLLLLLLLLLLLLLLLLLLLLLLLLLLLLLLLLLLLLLLLLLLLLLLLLLLLLLLLLLLLLLLLLLLLLLLLLLLLLLLLLLLLLLLLLLLLLLLLLLLLLLLLLLLLLLLLLLLLLLLLLLLLLLLLLLLLLLLLLLLLLLbc44                                    ",
"                    444356344577778LLLLLLLLLLLLLLLLLLLLLLLLLLLLLLLLLLLLLLLLLLLLLLLLLLLLLLLLLLLLLLLLLLLLLLLLLLLLLLLLLLLLLLLLLLLLLLLLLLLLLLLLLLLLLLLLLLLLLLLLLLLLLLLLLLLLLLLLLLLLLLLLLLLLLLLLLLLLLLLLLLLLLLLLLLLLLLLLLLLLLLLLLLLLLLLLLLLLLLLLLLLLLLLLLLLLLLLLLLLLLLLLLLLLLLLLLLLLLLLLLLLLLbc44%                                   ",
"                    444356344577778JAAAAAAAAAAAAAAAAAAAAAAAAAAAAAAAAAAAAAAAAAAAAAAAAAAAAAAAAAAAAAAAAAAAAAAAAAAAAAAAAAAAAAAAAAAAAAAAAAAAAAAAAAAAAAAAAAAAAAAAAAAAAAAAAAAAAAAAAAAAAAAAAAAAAAAAAAAAAAAAAAAAAAAAAAAAAAAAAAAAAAAAAAAAAAAAAAAAAAAAAAAAAAAAAAAAAAAAAAAAAAAAAAAAAAAAAAAAAAAAAAAAJbc441                                   ",
"                    444356344577778JAAAAAAAAAAAAAAAAAAAAAAAAAAAAAAAAAAAAAAAAAAAAAAAAAAAAAAAAAAAAAAAAAAAAAAAAAAAAAAAAAAAAAAAAAAAAAAAAAAAAAAAAAAAAAAAAAAAAAAAAAAAAAAAAAAAAAAAAAAAAAAAAAAAAAAAAAAAAAAAAAAAAAAAAAAAAAAAAAAAAAAAAAAAAAAAAAAAAAAAAAAAAAAAAAAAAAAAAAAAAAAAAAAAAAAAAAAAAAAAAAAAJbc442      O                            ",
"                    444356344577778cccccccccccccccccccccccccccccccccccccccccccccccccccccccccccccccccccccccccccccccccccccccccccccccccccccccccccccccccccccccccccccccccccccccccccccccccccccccccccccccccccccccccccccccccccccccccccccccccccccccccccccccccccccccccccccccccccccccccccccccccccccbc443                                   ",
"                    444356344577778xcbZm44444444444nMn44444444444nMn44444444444nMn44444444444nMn44444444444nMn44444444444nMn44444444444nMn44444444444nMn44444444444nMn44444444444nMn44444444444nMn44444444444nMn44444444444nMn44444444444nMn44444444444nMn44444444444nMn44444444444mZ77cbc444      h                            ",
"                    444356344577778xcbJZ41111111114nZn41111111114nZn41111111114nZn41111111113nZn41111111114nZn41111111114nZn41111111114nZn41111111114nZn41111111114nZn41111111114nZn41111111114nZn41111111114nZn41111111114nZn41111111114nZn41111111114nZn41111111114nZn41111111114ZJ77cbc844          >                        ",
"                    444356344577778xcbJZ44444444444nZn44444444444nZn44434444444nZn44444444444nZn44444444444nZn44444444444nZn44444444444nZn44444444444bZn44444444434nZn44444444444nZn44444444444nZn44444444444nZn44444444444nZn44444444444nZn44444444444nZn44444444444nZn44444444444ZJ778cbc44                           G       ",
"             h      444356344577778xcbJZLLLLLLLLLLLZZLLLLLLLLLLLLZZLLLLLLLLLLLLZZLLLLLLLLLLLLZZLLLLLLLLLLLLZZLLLLLLLLLLLLZZLLLLLLLLLLLLZZLLLLLLLLLLLLZZLLLLLLLLLLLLZZLLLLLLLLLLLLZZLLLLLLLLLLLLZZLLLLLLLLLLLLZZLLLLLLLLLLLLZZLLLLLLLLLLLLZZLLLLLLLLLLLLZZLLLLLLLLLLLLZZLLLLLLLLLLLLZJ777cbc44                              >    ",
"                    443456344577778xcbJZZZZZZZZZZZZZZZZZZZZZZZZZZZZZZZZZZZZZZZZZZZZZZZZZZZZZZZZZZZZZZZZZZZZZZZZZZZZZZZZZZZZZZZZZZZZZZZZZZZZZZZZZZZZZZZZZZZZZZZZZZZZZZZZZZZZZZZZZZZZZZZZZZZZZZZZZZZZZZZZZZZZZZZZZZZZZZZZZZZZZZZZZZZZZZZZZZZZZZZZZZZZZZZZZZZZZZZZZZZZZZZZZZZZZZZZZZZZZJ777cbc44                                   ",
"                   %443456344577778xcbJZZZZZZZZZZZZZZZZZZZZZZZZZZZZZZZZZZZZZZZZZZZZZZZZZZZZZZZZZZZZZZZZZZZZZZZZZZZZZZZZZZZZZZZZZZZZZZZZZZZZZZZZZZZZZZZZZZZZZZZZZZZZZZZZZZZZZZZZZZZZZZZZZZZZZZZZZZZZZZZZZZZZZZZZZZZZZZZZZZZZZZZZZZZZZZZZZZZZZZZZZZZZZZZZZZZZZZZZZZZZZZZZZZZZZZZZZZZZZJ777cbc44                                   ",
"                   1443456344577778xcbJZZZZZZZZZZZZZZZZZZZZZZZZZZZZZZZZZZZZZZZZZZZZZZZZZZZZZZZZZZZZZZZZZZZZZZZZZZZZZZZZZZZZZZZZZZZZZZZZZZZZZZZZZZZZZZZZZZZZZZZZZZZZZZZZZZZZZZZZZZZZZZZZZZZZZZZZZZZZZZZZZZZZZZZZZZZZZZZZZZZZZZZZZZZZZZZZZZZZZZZZZZZZZZZZZZZZZZZZZZZZZZZZZZZZZZZZZZZZZJ777cbc44  O                                ",
"                   2443456344577778xcbJZZZZZZZZZZZZZZZZZZZZZZZZZZZZZZZZZZZZZZZZZZZZZZZZZZZZZZZZZZZZZZZZZZZZZZZZZZZZZZZZZZZZZZZZZZZZZZZZZZZZZZZZZZZZZZZZZZZZZZZZZZZZZZZZZZZZZZZZZZZZZZZZZZZZZZZZZZZZZZZZZZZZZZZZZZZZZZZNZZZZZZZZZZZZZZZZZZZZZZZZZZZZZZZZZZZNZZZZZZZZZZZZZZZZZZZZZZZZZJ777cbc44                                   ",
"%%%%%%%%%%%%%%%%%%%3443563445777778xcbJJJJJJJJJJJJJJJJJJJJJJJJJJJJJJJJJJJJJJJJJJJJJJJJJJLLLLLLLLLLLLLLLLLLLLLLLLLLLLLLLLZMJJJJJJJJJJJJJJJJJJJJJJJJJJJJJJJJJJJJJJJJJJJJJJJJJJJJJJJJJJJJJJJJJJJJJJJMZLLLLLLLLLLLLLLLLLLLLLLLLLLLLLLLLJJJJJJJJJJJJJJJJJJJJJJJJJJJJJJJJJJJJJJJJJJJJJJJJJJ777cbc44%%%%%%%%%%%%%%%%%%%%%%%%%%%%%%%%%%%",
"%%%%%%%%%%%%%%%%%%%4443563445777778xcJHHHHHHHHHHHHHHDHHHHHHHHHHHHHHHHHHHHHHHHHHHHHHHHHHHLLLLLLLLLLLLLLLLLLLLLLLLLLLLLLLLmmHHHHHHDHHHHHHHHHHHHHHHHHHHHHHHHHHHHHHHHHHHHHHHHHHHHHHHHHHHHHHHHHHHHHHHHMmLLLLLLLLLLLLLLLLLLLLLLLLLLLLLLLLHHHHHHHHHHHHHHHHHHHHHHHHHHHHHHHHHHHHHHHHHHHHHHHHHHJ77cbc44%%%%%%%%%%%%%%%%%%%%%%%%%%%%%%%%%%%",
"%%%%%%%%%%%%%%%%%%%4443563445777778xJHHHHHHHHHHHHHHHHHHHHHHHHHHHHHHHHHHHHHHHHHHHHHHHHHHLLLLLLLLLLLLLLLLLLLLLLLLLLLLLLLLLnMHHHHHHHHHHHHHHHHHHHHHHHHHHHHHHHHHHHHHHHHHHHHHHHHHHHHHHHHHHHHHHHHHHHHHHHMnLLLLLLLLLLLLLLLLLLLLLLLLLLLLLLLLLHHHHHHHHHHHHHHHHHHHHHHHHHHHHHHHHDHHHHHHHHHHHDHHHHHJ7cbc44%%%%%1%%%%%%%%%%%%%%%%%%%%%%1%%%%%%",
"%%%%%%%1%%%%%%%1%%%4443563445777778JHHHHHHHHHHHHHHHHHHHHHHHHHHHHHHHHHHHHHHHHHHHHHHHHHHHLLLLLLLLLLLLLLLLLLLLLLLLLLLLLLLLLnMHHHHHHHHHHHHHHHHHHHHHHHHHHHHHHHHHHHHHHHHHHHHHHHHHHHHHHHHHHHHHHHHHHHHHHHMnLLLLLLLLLLLLLLLLLLLLLLLLLLLLLLLLLHHHHHHHHHHHHHHHHHHHHHHHHHHHHHHHHHHHHHHHHHHHHHHHHHHHJcbc44%%%1%%%%%%%%1%%%%%%%%%1%%1%%%%1%%1%",
"%%%%11%%111%%%%%1%%444356344577777JDHHHHHHHHHHHHHHHHHHHHHHHHHHHHHHHHHHHHHHHHHHHHHHHHHHLLLLLLLLLLLLLLLLLLLLLLLLLLLLLLLLLAnMHHHHHHHHHHHHHHHHHHHHHHHHHHHHHHHHHHHHHHHHHHHHHHHHHHHHHHHHHHHHHHHHHHHDHHHmnALLLLLLLLLLLLLLLLLLLLLLLLLLLLLLLLLHDHHHHHHHHHHHHHHHHHHHHHHHHHHHHHHHHHHHHHHHHHHHHHHHHHJbc44%%1%1111%%1%%%%1%%%%1111%%%1%%%%11%",
"1%%%%1%1%11111%1%1%44435634457777JHHHHHHHHHHHHHHHHHHHHHHHHHHHHHHHHHHHHHHHHHHHHHHHHHHHHLLLLLLLLLLLLLLLLLLLLLLLLLLLLLLLLLmnMHHHHHHHHHHHHHHHHHHHHHHHHHHHHHHHHHHHHHHHHHHHHHHHHHHHHHHHHHHHHHHHHHHHHHHHMnmLLLLLLLLLLLLLLLLLLLLLLLLLLLLLLLLLHHHHHHHHHHHHHHHHHHHHHHHHHHHHHHHHHHHHHHHHHHHHHHHHHHHHJc44%%1111111%1%%11%1%1%1111%1111%%1111",
"12%11111211111211124443563445777JHHHHHHHHHHHHHHHHHHHHHHHHHHHHHHHHHHHHHHHHHHHHHHHHHHHHLLLLLLLLLLLLLLLLLLLLLLLLLLLLLLLLLLmnMHHHHHHHHHHHHHHHHHHHHHHHHHHHHHHHHHHHHHHHHHHHHHHHHHHHHHHHHHHHHHHHHHHHHHHHMnmLLLLLLLLLLLLLLLLLLLLLLLLLLLLLLLLLLHHHHHHHHHHHHHHHHHHHHHHHHHHHHHHHHHHHHHHHHHHHHHHHHHHHHJ4421111111121211222%11122121%%1212211",
"1111122212111121112444356344577JHHHHHHHHHHHHHHHHHHHHHHHHHHHHHHHHHHHHHHHHHHHHHHHHHHHHHLLLLLLLLLLLLLLLLLLLLLLLLLLLLLLLLLLnMHHHHHHHHHHHHHHHHHHHHHHHHHHHHHHHHHHHHHHHHHHHHHHHHHHHHHHHHHHHHHHHHHHHHHHHHHMnLLLLLLLLLLLLLLLLLLLLLLLLLLLLLLLLLLHHHHHHHHHHHHHHHHHHHHHHHHHHHHHHHHHHHHHHHHHHHHHHHHHHHHHJ411211212111211121112131212211112112",
"122112222221222222144435634457JHHHHHHHHHHHHHHHHHHHHHHHHHHHHHHHHHHHHHHHHHHHHHHHHHHHHHLLLLLLLLLLLLLLLLLLLLLLLLLLLLLLLLLLAnMHHHHHHHHHHHHHHHHHHHHHHHHHHHHHHHHHHHHHHHHHHHHHHHHHHHHHHHHHHHHHHHHHHHHHHHHHMnALLLLLLLLLLLLLLLLLLLLLLLLLLLLLLLLLLHHHHHHHHHHHHHHHHHHHHHHHHHHHHHHHHHHHHHHHHHHHHHHHHHHHHHJ22211121112121112212221222111222211",
"21131222122222222324443563445JHHHHHHHHHHHHHHHHHHHHHHHHHHHHHHHHHHHHHHHHHHHHHHHHHHHHHHLLLLLLLLLLLLLLLLLLLLLLLLLLLLLLLLLLmnMHHHHHHHHHHHHHHHHHHHHHHHHHHHHHHHHHHHHHHHHHHHHHDHHHHHHHHHHHHHHHDHHHHHHHHHHHMnmLLLLLLLLLLLLLLLLLLLLLLLLLLLLLLLLLLHHHHHHHHHHHHHHHHHHHHHHHHHHHHHHHHHHHHHHHHHHHHHHHHHHHHHHJ1222222122322222122222122212322332",
"2233233222322322222444356344JHHHHHHHHHHHHHHHHHHHHHHHHHHHHHHHHHHHHHHHHHHHHHHHHHHHHHHLLLLLLLLLLLLLLLLLLLLLLLLLLLLLLLLLLLmnMHHHHHHHHHHHHHHHHHHHHHHHHHHHHHHHHHHHHHHHHHHHHHHHHHHHHHHHHHHHHHHHHHHHHHHHHHMnmLLLLLLLLLLLLLLLLLLLLLLLLLLLLLLLLLLLHHHHHHHHHHHHHHHHHHHHHHHHHHHHHHHHHHHHHHHHHHHHHHHHHHHHHHJ322222233222223222332332332222332",
"222232332323223232244435634JHHHHHHHHHHHHHHHHHHHHHHHHHHHHHHHHHHHHHHHHHHHHHHHHHHHHHHHLLLLLLLLLLLLLLLLLLLLLLLLLLLLLLLLLLLmnMHHHHHHHHHHHHHHHHHHHHHHHHHHHHHHHHHHHHHHHHHHHHHHHHHHHHHHHHHHHHHHHHHHHHHHHHHMnmLLLLLLLLLLLLLLLLLLLLLLLLLLLLLLLLLLLHHHHHHHHHHHHHHHHHHHHHHHHHHHHHHHHHHHHHHHHHHHHHHHHHHHHHHDJ33333322323322223233232233332232",
"22333323243333223344443563JHHHHHHHHHHHHHHHHHHHHHHHHHHHHHHHHHHHHHHHHHHHHHHHHHHHHHHHLLLLLLLLLLLLLLLLLLLLLLLLLLLLLLLLLLLAmbMHHHHHHHHHHHHHHHHHHHHHHHHHHHHHHHHHHHHHHHHHHHHHHHHHHHHHHHHHHHHHHHHHHHHHHHHHMnmALLLLLLLLLLLLLLLLLLLLLLLLLLLLLLLLLLLHHHHHHHHHHHHHHHHHHHHHHHHHHHHHHHHHHHHHHHHHHHHHHHHHHHHHHHJ3334333433333333333332233322333",
"3343343332343434423444356JHHHHHHHHHHHHHHHHHHHHDHHHHHHHHHHHHHHHDHHHHHHHHHHHHHHDHHDHLLLLLLLLLLLLLLLLLLLLLLLLLLLLLLLLLLLmmnMHHHHHHHHHHHDHHHHHHHHHHHHHHHHHDHHHHHHHHHHHHHHHHHHHHHHHHHHHHHHHHHHHHHHHHHHHMnmmLLLLLLLLLLLLLLLLLLLLLLLLLLLLLLLLLLLHHHHHHHHHHHHHHHHHHHHDHHHHHDHHHHHHHHHHHHHHHHHHHHHHHHHHHHHJ444233233434333424344234334333",
"434334344344343333444435JJJJJJJJJJJJJJJJJJJJJJJJJJJJJJJJJJJJJJJJJJJJJJJJJJJJJJJJJLLLLLLLLLLLLLLLLLLLLLLLLLLLLLLLLLLLLmmnMJJJJJJJJJJJJJJJJJJJJJJJJJJJJJJJJJJJJJJJJJJJJJJJJJJJJJJJJJJJJJJJJJJJJJJJJJMnmmLLLLLLLLLLLLLLLLLLLLLLLLLLLLLLLLLLLLJJJJJJJJJJJJJJJJJJJJJJJJJJJJJJJJJJJJJJJJJJJJJJJJJJJJJJJJJ44344434434343433333443343334",
"444443433434434433444435JZZZZZZZZZZZZZZZZZZZZZZZZZZZZZZZZZZZZZZZZZZZZZZZZZZZZZZZZLLLLLLLLLLLLLLLLLLLLLLLLLLLLLLLLLLLLmmmnMZZZZZZZZZZZZZZZZZZZZZZZH<<<<<<<<<<<<<<<<<<<<<<<HZZZZZZZZZZZZZZZZZZZZZZZMnmmmLLLLLLLLLLLLLLLLLLLLLLLLLLLLLLLLLLLLZZZZZZZZZZZZZZZZZZZZZZZZZZZZZZZZZZZZZZZZZZZZZZZZZZZZZZZZJ54344344444344544434443344335",
"453434544344534444444435JZZZZZZZZZZZZZZZZZZZZZZZZZZZZZZZZZZZZZZZZZZZZZZZZZZZZZZZLLLLLLLLLLLLLLLLLLLLLLLLLLLLLLLLLLLLAmmmnMZZZZZZZZZZZZZZZZZZZm84ZH<<<<<<<<<<<<<<<<<<<<<<<HZm84ZZZZZZZZZZZZZZZZZZZMnmmmALLLLLLLLLLLLLLLLLLLLLLLLLLLLLLLLLLLLZZZZZZZZZZZZZZZZZZZZZZZZZZZZZZZZZZZZZZZZZZZZZZZZZZZZZZZJ54434444444445435554544444554",
"455454455544454555544345JZZZZZZZZZZZZZZZZZZZZZZZZZZZZZZZZZZZZZZZZZZZZZZZZZZZZZZZLLLLLLLLLLLLLLLLLLLLLLLLLLLLLLLLLLLLmmmmnMZZZZZZZZZZZZZZZZZZZm84ZH<<sssssssssssssssssss<<HZm84ZZZZZZZZZZZZZZZZZZZMnmmmmLLLLLLLLLLLLLLLLLLLLLLLLLLLLLLLLLLLLZZZZZZZZZZZZZZZZZZZZZZZZZZZZZZZZZZZZZZZZZZZZZZZZZZZZZZZJ55554445554545455545554554554",
"554455555545455555444345JZZZZZZZZZZZZZZZZZZZZZZZZZZZZZZZZZZZZZZZZZZZZZZZZZZZZZZLLLLLLLLLLLLLLLLLLLLLLLLLLLLLLLLLLLLLmmmmnMZZZZZZZZZZZZZZZZZZZm84ZH<<sfffffffdsdfffffffs<<HZm84ZZZZZZZZZZZZZZZZZZZMnmmmmLLLLLLLLLLLLLLLLLLLLLLLLLLLLLLLLLLLLLZZZZZZZZZZZZZZZZZZZZZZZZZZZZZZZZZZZZZZZZZZZZZZZZZZZZZZJ55554555554554455555545555455",
"545666565565556555444345JZZZZZZZZZZZZZZZZZZZZZZZZZZZZZZZZZZZZZZZZZZZZZZZZZZZZZZLLLLLLLLLLLLLLLLLLLLLLLLLLLLLLLLLLLLLmmmmnMZZZZZZZZZZZZZZZZZZZLLLZH<<sffCCCCfdsdfCCCCffs<<HZLLLZZZZZZZZZZZZZZZZZZZMnmmmmLLLLLLLLLLLLLLLLLLLLLLLLLLLLLLLLLLLLLZZZZZZZZZZZZZZZZZZZZZZZZZZZZZZZZZZZZZZZZZZZZZZZZZZZZZZJ55445455554555555655556545565",
"565555555666665556444345JZZZZZZZZZZZZZZZZZZZZZZZZZZZZZZZZZZZZZZZZZZZZZZZZZZZZZLLLLLLLLLLLLLLLLLLLLLLLLLLLLLLLLLLLLLAmmmmnMZZZZZZZZZZZZZZZZZZJKKKKH<<sffzzzzfdsdfzzzzffs<<HKKJKKZZZZZZZZZZZZZZZZZZMnmmmmALLLLLLLLLLLLLLLLLLLLLLLLLLLLLLLLLLLLLZZZZZZZZZZZZZZZZZZZZZZZZZZZZZZZZZZZZZZZZZZZZZZZZZZZZZJ55566665556555555656565565555",
"556666566666555566444345JZZZZZZZZZZZZZZZZZZZZZZZZZZZZZZZZZZZZZZZZZZZZZZZZZZZZZLLLLLLLLLLLLLLLLLLLLLLLLLLLLLLLLLLLLLmmmmmnMZZZZZZZZZZZZZZZZZKJJKJJH<<sffllllfdsdfllllffs<<HJJKJJKZZZZZZZZZZZZZZZZZMnmmmmmLLLLLLLLLLLLLLLLLLLLLLLLLLLLLLLLLLLLLZZZZZZZZZZZZZZZZZZZZZZZZZZZZZZZZZZZZZZZZZZZZZZZZZZZZZJ65666556666666656655656566565",
"765667666666676666444345e::::::::::::::::::::::::::::::::::::::::::::::::::::LLLLLLLLLLLLLLLLLLLLLLLLLLLLLLLLLLLLLLmmmm;-;::::::::::::::::eeeeeeeHssdffggggfdsdfggggffdssHeeeeeee::::::::::::::::;-mmmmmLLLLLLLLLLLLLLLLLLLLLLLLLLLLLLLLLLLLLL::::::::::::::::::::::::::::::::::::::::::::::::::::r67666676666566676676566767656",
"666777666676666677444345e::::::::::::::::::::::::::::::::::::::::::::::::::::LLLLLLLLLLLLLLLLLLLLLLLLLLLLLLLLLLLLLLmm;;;-;:::::::::::::::eeeeeeeeHddffffffffdsdffffffffddHeeeeeeee:::::::::::::::;-;;;mmLLLLLLLLLLLLLLLLLLLLLLLLLLLLLLLLLLLLLL::::::::::::::::::::::::::::::::::::::::::::::::::::r67776666667766667766666776667",
"676676667676676677444345e:::::::::::::::::::::::::::::::::::::::::::::::::::eeeeeeeeeeeeeeeeeeeeeee:eeeeeeeeeeeeeer;;;;;-;::::::::::::::eeeeeeeeeHffffffffffdsdffffffffffHeeeeeeeee::::::::::::::;-;;;;;reeeeeeeeeeeeeeeeeeeeeeeeeeeeeeeeeeeeer:::::::::::::::::::::::::::::::::::::::::::::::::::r66666766667667776777776677766",
"677666677676677767444345JZZZZZZZZZZZZZZZZZZZZZZZZZZZZZZZZZZZZZZZZZZZZZZZZZZZeeeeeeeeeeeeeeeeeeeeeeeeeeeeeeeeeeeeer;;;;;mnMZZZZZZZZZZZZZZZZZZZZZZZHffffffffffdsdffffffffffHZZZZZZZZZZZZZZZZZZZZZZZMn;;;;;;reeeeeeeeeeeeeeeeeeeeeeeeeeeeeeeeeeeerZZZZZZZZZZZZZZZZZZZZZZZZZZZZZZZZZZZZZZZZZZZZZZZZZZZJ77677767677667766777777677777",
"777777777777767777444345JZZZZZZZZZZZZZZZZZZZZZZZZZZZZZZZZZZZZZZZZZZZZZZZZZZeeeeeeeeeeeeeeeeeeeeeeeeeeeeeeeeeeeeeer;;mmmmnMZZZZZZZZZZZZZZZZZZZZZZZHffffffffffdsdffffffffffHZZZZZZZZZZZZZZZZZZZZZZZmnmmmm;;reeeeeeeeeeeeeeeeeeeeeeeeeeeeeeeeeeeeerZZZZZZZZZZZZZZZZZZZZZZZZZZZZZZZZZZZZZZZZZZZZZZZZZZJ77777777777776777777777777777",
"777777777777777777444345JZZZZZZZZZZZZZZZZZZZZZZZZZZZZZZZZZZZZZZZZZZZZZZZZZZLLLLLLLLLLLLLLLLLLLLLLLLLLLLLLLLLLLLLLLmmmmmmnmZZZZZZZZZZZZZZZZZZZZZZZHffffffffffdsdffffffffffHZZZZZZZZZZZZZZZZZZZZZZZMnmmmmmmLLLLLLLLLLLLLLLLLLLLLLLLLLLLLLLLLLLLLLLZZZZZZZZZZZZZZZZZZZZZZZZZZZZZZZZZZZZZZZZZZZZZZZZZZJ77777777777777778777777777777",
"@@@@@@@@@@@@@@@@@@@@@@@@@@@@@@@@@@@@@@@@@@@@@@@@@@@@@@@@@@@@@@@@@@@@@@@@@@@@@@@@@@@@@@@@@@@@@@@@@@@@@@@@@@@@@@@@@@@@@@@@@@@@@@@@@@@@@@@@@@@@@@@@@@@@@@@@@@@@@@@@@@@@@@@@@@@@@@@@@@@@@@@@@@@@@@@@@@@@@@@@@@@@@@@@@@@@@@@@@@@@@@@@@@@@@@@@@@@@@@@@@@@@@@@@@@@@@@@@@@@@@@@@@@@@@@@@@@@@@@@@@@@@@@@@@@@@@@@@@@@@@@@@@@@@@@@@@@@@@@@@",
"@@@@@@@@@@@@@@@@@@@@@@@@@@@@@@@@@@@@@@@@@@@@@@@@@@@@@@@@@@@@@@@@@@@@@@@@@@@@@@@@@@@@@@@@@@@@@@@@@@@@@@@@@@@@@@@@@@@@@@@@@@@@@@@@@@@@@@@@@@@@@@@@@@@@@@@@@@@@@@@@@@@@@@@@@@@@@@@@@@@@@@@@@@@@@@@@@@@@@@@@@@@@@@@@@@@@@@@@@@@@@@@@@@@@@@@@@@@@@@@@@@@@@@@@@@@@@@@@@@@@@@@@@@@@@@@@@@@@@@@@@@@@@@@@@@@@@@@@@@@@@@@@@@@@@@@@@@@@@@@@",
"@@@@@@@@@@@@@@@@@@@@@@@@@@@@@@@@@@@@@@@@@@@@@@@@@@@@@@@@@@@@@@@@@@@@@@@@@@@@@@@@@@@@@@@@@@@@@@@@@@@@@@@@@@@@@@@@@@@@@@@@@@@@@@@@@@@@@@@@@@@@@@@@@@@@@@@@@@@@@@@@@@@@@@@@@@@@@@@@@@@@@@@@@@@@@@@@@@@@@@@@@@@@@@@@@@@@@@@@@@@@@@@@@@@@@@@@@@@@@@@@@@@@@@@@@@@@@@@@@@@@@@@@@@@@@@@@@@@@@@@@@@@@@@@@@@@@@@@@@@@@@@@@@@@@@@@@@@@@@@@@",
"@@@@@@@@@@@@@@@@@@@@@@@@@@@@@@@@@@@@@@@@@@@@@@@@@@@@@@@@@@@@@@@@@@@@@@@@@@@@@@@@@@@@@@@@@@@@@@@@@@@@@@@@@@@@@@@@@@@@@@@@@@@@@@@@@@@@@@@@@@@@@@@@@@@@@@@@@@@@@@@@@@@@@@@@@@@@@@@@@@@@@@@@@@@@@@@@@@@@@@@@@@@@@@@@@@@@@@@@@@@@@@@@@@@@@@@@@@@@@@@@@@@@@@@@@@@@@@@@@@@@@@@@@@@@@@@@@@@@@@@@@@@@@@@@@@@@@@@@@@@@@@@@@@@@@@@@@@@@@@@@",
"@@@@@@@@@@@@@@@@@@@@@@@@@@@@@@@@@@@@@@@@@@@@@@@@@@@@@@@@@@@@@@@@@@@@@@@@@@@@@@@@@@@@@@@@@@@@@@@@@@@@@@@@@@@@@@@@@@@@@@@@@@@@@@@@@@@@@@@@@@@@@@@@@@@@@@@@@@@@@@@@@@@@@@@@@@@@@@@@@@@@@@@@@@@@@@@@@@@@@@@@@@@@@@@@@@@@@@@@@@@@@@@@@@@@@@@@@@@@@@@@@@@@@@@@@@@@@@@@@@@@@@@@@@@@@@@@@@@@@@@@@@@@@@@@@@@@@@@@@@@@@@@@@@@@@@@@@@@@@@@@",
"@@@@@@@@@@@@@@@@@@@@@@@@@@@@@@@@@@@@@@@@@@@@@@@@@@@@@@@@@@@@@@@@@@@@@@@@@@@@@@@@@@@@@@@@@@@@@@@@@@@@@@@@@@@@@@@@@@@@@@@@@@@@@@@@@@@@@@@@@@@@@@@@@@@@@@@@@@@@@@@@@@@@@@@@@@@@@@@@@@@@@@@@@@@@@@@@@@@@@@@@@@@@@@@@@@@@@@@@@@@@@@@@@@@@@@@@@@@@@@@@@@@@@@@@@@@@@@@@@@@@@@@@@@@@@@@@@@@@@@@@@@@@@@@@@@@@@@@@@@@@@@@@@@@@@@@@@@@@@@@@",
"@@@@@@@@@@@@@@@@@@@@@@@@@@@@@@@@@@@@@@@@@@@@@@@@@@@@@@@@@@@@@@@@@@@@@@@@@@@@@@@@@@@@@@@@@@@@@@@@@@@@@@@@@@@@@@@@@@@@@@@@@@@@@@@@@@@@@@@@@@@@@@@@@@@@@@@@@@@@@@@@@@@@@@@@@@@@@@@@@@@@@@@@@@@@@@@@@@@@@@@@@@@@@@@@@@@@@@@@@@@@@@@@@@@@@@@@@@@@@@@@@@@@@@@@@@@@@@@@@@@@@@@@@@@@@@@@@@@@@@@@@@@@@@@@@@@@@@@@@@@@@@@@@@@@@@@@@@@@@@@@",
"@@@@@@@@@@@@@@@@@@@@@@@@@@@@@@@@@@@@@@@@@@@@@@@@@@@@@@@@@@@@@@@@@@@@@@@@@@@@@@@@@@@@@@@@@@@@@@@@@@@@@@@@@@@@@@@@@@@@@@@@@@@@@@@@@@@@@@@@@@@@@@@@@@@@@@@@@@@@@@@@@@@@@@@@@@@@@@@@@@@@@@@@@@@@@@@@@@@@@@@@@@@@@@@@@@@@@@@@@@@@@@@@@@@@@@@@@@@@@@@@@@@@@@@@@@@@@@@@@@@@@@@@@@@@@@@@@@@@@@@@@@@@@@@@@@@@@@@@@@@@@@@@@@@@@@@@@@@@@@@@",
"@@@@@@@@@@@@@@@@@@@@@@@@@@@@@@@@@@@@@@@@@@@@@@@@@@@@@@@@@@@@@@@@@@@@@@@@@@@@@@@@@@@@@@@@@@@@@@@@@@@@@@@@@@@@@@@@@@@@@@@@@@@@@@@@@@@@@@@@@@@@@@@@@@@@@@@@@@@@@@@@@@@@@@@@@@@@@@@@@@@@@@@@@@@@@@@@@@@@@@@@@@@@@@@@@@@@@@@@@@@@@@@@@@@@@@@@@@@@@@@@@@@@@@@@@@@@@@@@@@@@@@@@@@@@@@@@@@@@@@@@@@@@@@@@@@@@@@@@@@@@@@@@@@@@@@@@@@@@@@@@",
"@@@@@@@@@@@@@@@@@@@@@@@@@@@@@@@@@@@@@@@@@@@@@@@@@@@@@@@@@@@@@@@@@@@@@@@@@@@@@@@@@@@@@@@@@@@@@@@@@@@@@@@@@@@@@@@@@@@@@@@@@@@@@@@@@@@@@@@@@@@@@@@@@@@@@@@@@@@@@@@@@@@@@@@@@@@@@@@@@@@@@@@@@@@@@@@@@@@@@@@@@@@@@@@@@@@@@@@@@@@@@@@@@@@@@@@@@@@@@@@@@@@@@@@@@@@@@@@@@@@@@@@@@@@@@@@@@@@@@@@@@@@@@@@@@@@@@@@@@@@@@@@@@@@@@@@@@@@@@@@@",
"@@@@@@@@@@@@@@@@@@@@@@@@@@@@@@@@@@@@@@@@@@@@@@@@@@@@@@@@@@@@@@@@@@@@@@@@@@@@@@@@@@@@@@@@@@@@@@@@@@@@@@@@@@@@@@@@@@@@@@@@@@@@@@@@@@@@@@@@@@@@@@@@@@@@@@@@@@@@@@@@@@@@@@@@@@@@@@@@@@@@@@@@@@@@@@@@@@@@@@@@@@@@@@@@@@@@@@@@@@@@@@@@@@@@@@@@@@@@@@@@@@@@@@@@@@@@@@@@@@@@@@@@@@@@@@@@@@@@@@@@@@@@@@@@@@@@@@@@@@@@@@@@@@@@@@@@@@@@@@@@",
"@@@@@@@@@@@@@@@@@@@@@@@@@@@@@@@@@@@@@@@@@@@@@@@@@@@@@@@@@@@@@@@@@@@@@@@@@@@@@@@@@@@@@@@@@@@@@@@@@@@@@@@@@@@@@@@@@@@@@@@@@@@@@@@@@@@@@@@@@@@@@@@@@@@@@@@@@@@@@@@@@@@@@@@@@@@@@@@@@@@@@@@@@@@@@@@@@@@@@@@@@@@@@@@@@@@@@@@@@@@@@@@@@@@@@@@@@@@@@@@@@@@@@@@@@@@@@@@@@@@@@@@@@@@@@@@@@@@@@@@@@@@@@@@@@@@@@@@@@@@@@@@@@@@@@@@@@@@@@@@@",
"@@@@@@@@@@@@@@@@@@@@@@@@@@@@@@@@@@@@@@@@@@@@@@@@@@@@@@@@@@@@@@@@@@@@@@@@@@@@@@@@@@@@@@@@@@@@@@@@@@@@@@@@@@@@@@@@@@@@@@@@@@@@@@@@@@@@@@@@@@@@@@@@@@@@@@@@@@@@@@@@@@@@@@@@@@@@@@@@@@@@@@@@@@@@@@@@@@@@@@@@@@@@@@@@@@@@@@@@@@@@@@@@@@@@@@@@@@@@@@@@@@@@@@@@@@@@@@@@@@@@@@@@@@@@@@@@@@@@@@@@@@@@@@@@@@@@@@@@@@@@@@@@@@@@@@@@@@@@@@@@",
"@@@@@@@@@@@@@@@@@@@@@@@@@@@@@@@@@@@@@@@@@@@@@@@@@@@@@@@@@@@@@@@@@@@@@@@@@@@@@@@@@@@@@@@@@@@@@@@@@@@@@@@@@@@@@@@@@@@@@@@@@@@@@@@@@@@@@@@@@@@@@@@@@@@@@@@@@@@@@@@@@@@@@@@@@@@@@@@@@@@@@@@@@@@@@@@@@@@@@@@@@@@@@@@@@@@@@@@@@@@@@@@@@@@@@@@@@@@@@@@@@@@@@@@@@@@@@@@@@@@@@@@@@@@@@@@@@@@@@@@@@@@@@@@@@@@@@@@@@@@@@@@@@@@@@@@@@@@@@@@@",
"@@@@@@@@@@@@@@@@@@@@@@@@@@@@@@@@@@@@@@@@@@@@@@@@@@@@@@@@@@@@@@@@@@@@@@@@@@@@@@@@@@@@@@@@@@@@@@@@@@@@@@@@@@@@@@@@@@@@@@@@@@@@@@@@@@@@@@@@@@@@@@@@@@@@@@@@@@@@@@@@@@@@@@@@@@@@@@@@@@@@@@@@@@@@@@@@@@@@@@@@@@@@@@@@@@@@@@@@@@@@@@@@@@@@@@@@@@@@@@@@@@@@@@@@@@@@@@@@@@@@@@@@@@@@@@@@@@@@@@@@@@@@@@@@@@@@@@@@@@@@@@@@@@@@@@@@@@@@@@@@",
"@@@@@@@@@@@@@@@@@@@@@@@@@@@@@@@@@@@@@@@@@@@@@@@@@@@@@@@@@@@@@@@@@@@@@@@@@@@@@@@@@@@@@@@@@@@@@@@@@@@@@@@@@@@@@@@@@@@@@@@@@@@@@@@@@@@@@@@@@@@@@@@@@@@@@@@@@@@@@@@@@@@@@@@@@@@@@@@@@@@@@@@@@@@@@@@@@@@@@@@@@@@@@@@@@@@@@@@@@@@@@@@@@@@@@@@@@@@@@@@@@@@@@@@@@@@@@@@@@@@@@@@@@@@@@@@@@@@@@@@@@@@@@@@@@@@@@@@@@@@@@@@@@@@@@@@@@@@@@@@@",
"@@@@@@@@@@@@@@@@@@@@@@@@@@@@@@@@@@@@@@@@@@@@@@@@@@@@@@@@@@@@@@@@@@@@@@@@@@@@@@@@@@@@@@@@@@@@@@@@@@@@@@@@@@@@@@@@@@@@@@@@@@@@@@@@@@@@@@@@@@@@@@@@@@@@@@@@@@@@@@@@@@@@@@@@@@@@@@@@@@@@@@@@@@@@@@@@@@@@@@@@@@@@@@@@@@@@@@@@@@@@@@@@@@@@@@@@@@@@@@@@@@@@@@@@@@@@@@@@@@@@@@@@@@@@@@@@@@@@@@@@@@@@@@@@@@@@@@@@@@@@@@@@@@@@@@@@@@@@@@@@",
"@@@@@@@@@@@@@@@@@@@@@@@@@@@@@@@@@@@@@@@@@@@@@@@@@@@@@@@@@@@@@@@@@@@@@@@@@@@@@@@@@@@@@@@@@@@@@@@@@@@@@@@@@@@@@@@@@@@@@@@@@@@@@@@@@@@@@@@@@@@@@@@@@@@@@@@@@@@@@@@@@@@@@@@@@@@@@@@@@@@@@@@@@@@@@@@@@@@@@@@@@@@@@@@@@@@@@@@@@@@@@@@@@@@@@@@@@@@@@@@@@@@@@@@@@@@@@@@@@@@@@@@@@@@@@@@@@@@@@@@@@@@@@@@@@@@@@@@@@@@@@@@@@@@@@@@@@@@@@@@@",
"@@@@@@@@@@@@@@@@@@@@@@@@@@@@@@@@@@@@@@@@@@@@@@@@@@@@@@@@@@@@@@@@@@@@@@@@@@@@@@@@@@@@@@@@@@@@@@@@@@@@@@@@@@@@@@@@@@@@@@@@@@@@@@@@@@@@@@@@@@@@@@@@@@@@@@@@@@@@@@@@@@@@@@@@@@@@@@@@@@@@@@@@@@@@@@@@@@@@@@@@@@@@@@@@@@@@@@@@@@@@@@@@@@@@@@@@@@@@@@@@@@@@@@@@@@@@@@@@@@@@@@@@@@@@@@@@@@@@@@@@@@@@@@@@@@@@@@@@@@@@@@@@@@@@@@@@@@@@@@@@",
"@@@@@@@@@@@@@@@@@@@@@@@@@@@@@@@@@@@@@@@@@@@@@@@@@@@@@@@@@@@@@@@@@@@@@@@@@@@@@@@@@@@@@@@@@@@@@@@@@@@@@@@@@@@@@@@@@@@@@@@@@@@@@@@@@@@@@@@@@@@@@@@@@@@@@@@@@@@@@@@@@@@@@@@@@@@@@@@@@@@@@@@@@@@@@@@@@@@@@@@@@@@@@@@@@@@@@@@@@@@@@@@@@@@@@@@@@@@@@@@@@@@@@@@@@@@@@@@@@@@@@@@@@@@@@@@@@@@@@@@@@@@@@@@@@@@@@@@@@@@@@@@@@@@@@@@@@@@@@@@@",
"@@@@@@@@@@@@@@@@@@@@@@@@@@@@@@@@@@@@@@@@@@@@@@@@@@@@@@@@@@@@@@@@@@@@@@@@@@@@@@@@@@@@@@@@@@@@@@@@@@@@@@@@@@@@@@@@@@@@@@@@@@@@@@@@@@@@@@@@@@@@@@@@@@@@@@@@@@@@@@@@@@@@@@@@@@@@@@@@@@@@@@@@@@@@@@@@@@@@@@@@@@@@@@@@@@@@@@@@@@@@@@@@@@@@@@@@@@@@@@@@@@@@@@@@@@@@@@@@@@@@@@@@@@@@@@@@@@@@@@@@@@@@@@@@@@@@@@@@@@@@@@@@@@@@@@@@@@@@@@@@",
"@@@@@@@@@@@@@@@@@@@@@@@@@@@@@@@@@@@@@@@@@@@@@@@@@@@@@@@@@@@@@@@@@@@@@@@@@@@@@@@@@@@@@@@@@@@@@@@@@@@@@@@@@@@@@@@@@@@@@@@@@@@@@@@@@@@@@@@@@@@@@@@@@@@@@@@@@@@@@@@@@@@@@@@@@@@@@@@@@@@@@@@@@@@@@@@@@@@@@@@@@@@@@@@@@@@@@@@@@@@@@@@@@@@@@@@@@@@@@@@@@@@@@@@@@@@@@@@@@@@@@@@@@@@@@@@@@@@@@@@@@@@@@@@@@@@@@@@@@@@@@@@@@@@@@@@@@@@@@@@@",
"@@@@@@@@@@@@@@@@@@@@@@@@@@@@@@@@@@@@@@@@@@@@@@@@@@@@@@@@@@@@@@@@@@@@@@@@@@@@@@@@@@@@@@@@@@@@@@@@@@@@@@@@@@@@@@@@@@@@@@@@@@@@@@@@@@@@@@@@@@@@@@@@@@@@@@@@@@@@@@@@@@@@@@@@@@@@@@@@@@@@@@@@@@@@@@@@@@@@@@@@@@@@@@@@@@@@@@@@@@@@@@@@@@@@@@@@@@@@@@@@@@@@@@@@@@@@@@@@@@@@@@@@@@@@@@@@@@@@@@@@@@@@@@@@@@@@@@@@@@@@@@@@@@@@@@@@@@@@@@@@",
"@@@@@@@@@@@@@@@@@@@@@@@@@@@@@@@@@@@@@@@@@@@@@@@@@@@@@@@@@@@@@@@@@@@@@@@@@@@@@@@@@@@@@@@@@@@@@@@@@@@@@@@@@@@@@@@@@@@@@@@@@@@@@@@@@@@@@@@@@@@@@@@@@@@@@@@@@@@@@@@@@@@@@@@@@@@@@@@@@@@@@@@@@@@@@@@@@@@@@@@@@@@@@@@@@@@@@@@@@@@@@@@@@@@@@@@@@@@@@@@@@@@@@@@@@@@@@@@@@@@@@@@@@@@@@@@@@@@@@@@@@@@@@@@@@@@@@@@@@@@@@@@@@@@@@@@@@@@@@@@@",
"@@@@@@@@@@@@@@@@@@@@@@@@@@@@@@@@@@@@@@@@@@@@@@@@@@@@@@@@@@@@@@@@@@@@@@@@@@@@@@@@@@@@@@@@@@@@@@@@@@@@@@@@@@@@@@@@@@@@@@@@@@@@@@@@@@@@@@@@@@@@@@@@@@@@@@@@@@@@@@@@@@@@@@@@@@@@@@@@@@@@@@@@@@@@@@@@@@@@@@@@@@@@@@@@@@@@@@@@@@@@@@@@@@@@@@@@@@@@@@@@@@@@@@@@@@@@@@@@@@@@@@@@@@@@@@@@@@@@@@@@@@@@@@@@@@@@@@@@@@@@@@@@@@@@@@@@@@@@@@@@",
"@@@@@@@@@@@@@@@@@@@@@@@@@@@@@@@@@@@@@@@@@@@@@@@@@@@@@@@@@@@@@@@@@@@@@@@@@@@@@@@@@@@@@@@@@@@@@@@@@@@@@@@@@@@@@@@@@@@@@@@@@@@@@@@@@@@@@@@@@@@@@@@@@@@@@@@@@@@@@@@@@@@@@@@@@@@@@@@@@@@@@@@@@@@@@@@@@@@@@@@@@@@@@@@@@@@@@@@@@@@@@@@@@@@@@@@@@@@@@@@@@@@@@@@@@@@@@@@@@@@@@@@@@@@@@@@@@@@@@@@@@@@@@@@@@@@@@@@@@@@@@@@@@@@@@@@@@@@@@@@@",
"@@@@@@@@@@@@@@@@@@@@@@@@@@@@@@@@@@@@@@@@@@@@@@@@@@@@@@@@@@@@@@@@@@@@@@@@@@@@@@@@@@@@@@@@@@@@@@@@@@@@@@@@@@@@@@@@@@@@@@@@@@@@@@@@@@@@@@@@@@@@@@@@@@@@@@@@@@@@@@@@@@@@@@@@@@@@@@@@@@@@@@@@@@@@@@@@@@@@@@@@@@@@@@@@@@@@@@@@@@@@@@@@@@@@@@@@@@@@@@@@@@@@@@@@@@@@@@@@@@@@@@@@@@@@@@@@@@@@@@@@@@@@@@@@@@@@@@@@@@@@@@@@@@@@@@@@@@@@@@@@",
"@@@@@@@@@@@@@@@@@@@@@@@@@@@@@@@@@@@@@@@@@@@@@@@@@@@@@@@@@@@@@@@@@@@@@@@@@@@@@@@@@@@@@@@@@@@@@@@@@@@@@@@@@@@@@@@@@@@@@@@@@@@@@@@@@@@@@@@@@@@@@@@@@@@@@@@@@@@@@@@@@@@@@@@@@@@@@@@@@@@@@@@@@@@@@@@@@@@@@@@@@@@@@@@@@@@@@@@@@@@@@@@@@@@@@@@@@@@@@@@@@@@@@@@@@@@@@@@@@@@@@@@@@@@@@@@@@@@@@@@@@@@@@@@@@@@@@@@@@@@@@@@@@@@@@@@@@@@@@@@@",
"@@@@@@@@@@@@@@@@@@@@@@@@@@@@@@@@@@@@@@@@@@@@@@@@@@@@@@@@@@@@@@@@@@@@@@@@@@@@@@@@@@@@@@@@@@@@@@@@@@@@@@@@@@@@@@@@@@@@@@@@@@@@@@@@@@@@@@@@@@@@@@@@@@@@@@@@@@@@@@@@@@@@@@@@@@@@@@@@@@@@@@@@@@@@@@@@@@@@@@@@@@@@@@@@@@@@@@@@@@@@@@@@@@@@@@@@@@@@@@@@@@@@@@@@@@@@@@@@@@@@@@@@@@@@@@@@@@@@@@@@@@@@@@@@@@@@@@@@@@@@@@@@@@@@@@@@@@@@@@@@",
"@@@@@@@@@@@@@@@@@@@@@@@@@@@@@@@@@@@@@@@@@@@@@@@@@@@@@@@@@@@@@@@@@@@@@@@@@@@@@@@@@@@@@@@@@@@@@@@@@@@@@@@@@@@@@@@@@@@@@@@@@@@@@@@@@@@@@@@@@@@@@@@@@@@@@@@@@@@@@@@@@@@@@@@@@@@@@@@@@@@@@@@@@@@@@@@@@@@@@@@@@@@@@@@@@@@@@@@@@@@@@@@@@@@@@@@@@@@@@@@@@@@@@@@@@@@@@@@@@@@@@@@@@@@@@@@@@@@@@@@@@@@@@@@@@@@@@@@@@@@@@@@@@@@@@@@@@@@@@@@@",
"@@@@@@@@@@@@@@@@@@@@@@@@@@@@@@@@@@@@@@@@@@@@@@@@@@@@@@@@@@@@@@@@@@@@@@@@@@@@@@@@@@@@@@@@@@@@@@@@@@@@@@@@@@@@@@@@@@@@@@@@@@@@@@@@@@@@@@@@@@@@@@@@@@@@@@@@@@@@@@@@@@@@@@@@@@@@@@@@@@@@@@@@@@@@@@@@@@@@@@@@@@@@@@@@@@@@@@@@@@@@@@@@@@@@@@@@@@@@@@@@@@@@@@@@@@@@@@@@@@@@@@@@@@@@@@@@@@@@@@@@@@@@@@@@@@@@@@@@@@@@@@@@@@@@@@@@@@@@@@@@",
"@@@@@@@@@@@@@@@@@@@@@@@@@@@@@@@@@@@@@@@@@@@@@@@@@@@@@@@@@@@@@@@@@@@@@@@@@@@@@@@@@@@@@@@@@@@@@@@@@@@@@@@@@@@@@@@@@@@@@@@@@@@@@@@@@@@@@@@@@@@@@@@@@@@@@@@@@@@@@@@@@@@@@@@@@@@@@@@@@@@@@@@@@@@@@@@@@@@@@@@@@@@@@@@@@@@@@@@@@@@@@@@@@@@@@@@@@@@@@@@@@@@@@@@@@@@@@@@@@@@@@@@@@@@@@@@@@@@@@@@@@@@@@@@@@@@@@@@@@@@@@@@@@@@@@@@@@@@@@@@@",
"@@@@@@@@@@@@@@@@@@@@@@@@@@@@@@@@@@@@@@@@@@@@@@@@@@@@@@@@@@@@@@@@@@@@@@@@@@@@@@@@@@@@@@@@@@@@@@@@@@@@@@@@@@@@@@@@@@@@@@@@@@@@@@@@@@@@@@@@@@@@@@@@@@@@@@@@@@@@@@@@@@@@@@@@@@@@@@@@@@@@@@@@@@@@@@@@@@@@@@@@@@@@@@@@@@@@@@@@@@@@@@@@@@@@@@@@@@@@@@@@@@@@@@@@@@@@@@@@@@@@@@@@@@@@@@@@@@@@@@@@@@@@@@@@@@@@@@@@@@@@@@@@@@@@@@@@@@@@@@@@",
"@@@@@@@@@@@@@@@@@@@@@@@@@@@@@@@@@@@@@@@@@@@@@@@@@@@@@@@@@@@@@@@@@@@@@@@@@@@@@@@@@@@@@@@@@@@@@@@@@@@@@@@@@@@@@@@@@@@@@@@@@@@@@@@@@@@@@@@@@@@@@@@@@@@@@@@@@@@@@@@@@@@@@@@@@@@@@@@@@@@@@@@@@@@@@@@@@@@@@@@@@@@@@@@@@@@@@@@@@@@@@@@@@@@@@@@@@@@@@@@@@@@@@@@@@@@@@@@@@@@@@@@@@@@@@@@@@@@@@@@@@@@@@@@@@@@@@@@@@@@@@@@@@@@@@@@@@@@@@@@@",
"@@@@@@@@@@@@@@@@@@@@@@@@@@@@@@@@@@@@@@@@@@@@@@@@@@@@@@@@@@@@@@@@@@@@@@@@@@@@@@@@@@@@@@@@@@@@@@@@@@@@@@@@@@@@@@@@@@@@@@@@@@@@@@@@@@@@@@@@@@@@@@@@@@@@@@@@@@@@@@@@@@@@@@@@@@@@@@@@@@@@@@@@@@@@@@@@@@@@@@@@@@@@@@@@@@@@@@@@@@@@@@@@@@@@@@@@@@@@@@@@@@@@@@@@@@@@@@@@@@@@@@@@@@@@@@@@@@@@@@@@@@@@@@@@@@@@@@@@@@@@@@@@@@@@@@@@@@@@@@@@",
"@@@@@@@@@@@@@@@@@@@@@@@@@@@@@@@@@@@@@@@@@@@@@@@@@@@@@@@@@@@@@@@@@@@@@@@@@@@@@@@@@@@@@@@@@@@@@@@@@@@@@@@@@@@@@@@@@@@@@@@@@@@@@@@@@@@@@@@@@@@@@@@@@@@@@@@@@@@@@@@@@@@@@@@@@@@@@@@@@@@@@@@@@@@@@@@@@@@@@@@@@@@@@@@@@@@@@@@@@@@@@@@@@@@@@@@@@@@@@@@@@@@@@@@@@@@@@@@@@@@@@@@@@@@@@@@@@@@@@@@@@@@@@@@@@@@@@@@@@@@@@@@@@@@@@@@@@@@@@@@@",
"@@@@@@@@@@@@@@@@@@@@@@@@@@@@@@@@@@@@@@@@@@@@@@@@@@@@@@@@@@@@@@@@@@@@@@@@@@@@@@@@@@@@@@@@@@@@@@@@@@@@@@@@@@@@@@@@@@@@@@@@@@@@@@@@@@@@@@@@@@@@@@@@@@@@@@@@@@@@@@@@@@@@@@@@@@@@@@@@@@@@@@@@@@@@@@@@@@@@@@@@@@@@@@@@@@@@@@@@@@@@@@@@@@@@@@@@@@@@@@@@@@@@@@@@@@@@@@@@@@@@@@@@@@@@@@@@@@@@@@@@@@@@@@@@@@@@@@@@@@@@@@@@@@@@@@@@@@@@@@@@"
};
