/* XPM */
static char *end_floor3_011[] = {
/* columns rows colors chars-per-pixel */
"320 200 82 1 ",
"  c #000000",
". c #0B0B0B",
"X c gray8",
"o c #1C1C1C",
"O c #00002C",
"+ c #081420",
"@ c #00003C",
"# c gray14",
"$ c #2C2C2C",
"% c #343434",
"& c #3C3C3C",
"* c #600000",
"= c #700404",
"- c #402810",
"; c #743804",
": c #603814",
"> c #004400",
", c #005C00",
"< c #007400",
"1 c #000050",
"2 c #000064",
"3 c #244870",
"4 c #444444",
"5 c #4C4C4C",
"6 c #545454",
"7 c #5C5C5C",
"8 c #646464",
"9 c #6C6C6C",
"0 c #747474",
"q c #7C7C7C",
"w c #840404",
"e c #980808",
"r c #AC0C0C",
"t c #C01010",
"y c #F80000",
"u c #C42424",
"i c #984C08",
"p c #AC580C",
"a c #C06410",
"s c #C4701C",
"d c #C47024",
"f c #008C00",
"g c #00A400",
"h c #CC8038",
"j c #D09050",
"k c #D89C64",
"l c #DCAC7C",
"z c #D0D450",
"x c #D8D868",
"c c #040488",
"v c #0C0CAC",
"b c #2C5480",
"n c #346090",
"m c #3C6CA0",
"M c #4C78A8",
"N c #1010C0",
"B c #4040D0",
"V c #7878E0",
"C c #5884B0",
"Z c #6C90BC",
"A c #848484",
"S c #8C8C8C",
"D c #939393",
"F c #989898",
"G c #A0A0A0",
"H c #A8A8A8",
"J c #B0B0B0",
"K c #BCBCBC",
"L c #E4C098",
"P c #ECD0B4",
"I c #E0ECB4",
"U c #80A0C4",
"Y c #C4C4C4",
"T c #CCCCCC",
"R c #D4D4D4",
"E c #DADADA",
"W c #ECF4D8",
"Q c #D8D8F4",
"! c #E0E0E0",
"~ c #E8E8E8",
"^ c #F2F2F2",
"/ c #FCFCFC",
/* pixels */
"################################################################################################################################################################################################################################################################################################################################",
"################################################################################################################################################################################################################################################################################################################################",
"################################################################################################################################################################################################################################################################################################################################",
"################################################################################################################################################################################################################################################################################################################################",
"################################################################################################################################################################################################################################################################################################################################",
"################################################################################################################################################################################################################################################################################################################################",
"################################################################################################################################################################################################################################################################################################################################",
"################################################################################################################################################################################################################################################################################################################################",
"################################################################################################################################################################################################################################################################################################################################",
"################################################################################################################################################################################################################################################################################################################################",
"################################################################################################################################################################################################################################################################################################################################",
"################################################################################################################################################################################################################################################################################################################################",
"################################################################################################################################################################################################################################################################################################################################",
"################################################################################################################################################################################################################################################################################################################################",
"################################################################################################################################################################################################################################################################################################################################",
"################################################################################################################################################################################################################################################################################################################################",
"################################################################################################################################################################################################################################################################################################################################",
"################################################################################################################################################################################################################################################################################################################################",
"################################################################################################################################################################################################################################################################################################################################",
"################################################################################################################################################################################################################################################################################################################################",
"################################################################################################################################################################################################################################################################################################################################",
"################################################################################################################################################################################################################################################################################################################################",
"################################################################################################################################################################################################################################################################################################################################",
"################################################################################################################################################################################################################################################################################################################################",
"################################################################################################################################################################################################################################################################################################################################",
"################################################################################################################################################################################################################################################################################################################################",
"################################################################################################################################################################################################################################################################################################################################",
"################################################################################################################################################################################################################################################################################################################################",
"################################################################################################################################################################################################################################################################################################################################",
"################################################################################################################################################################################################################################################################################################################################",
"################################################################################################################################################################################################################################################################################################################################",
"################################################################################################################################################################################################################################################################################################################################",
"################################################################################################################################################################################################################################################################################################################################",
"################################################################################################################################################################################################################################################################################################################################",
"################################################################################################################################################################################################################################################################################################################################",
"################################################################################################################################################################################################################################################################################################################################",
"################################################################################################################################################################################################################################################################################################################################",
"                          86867800qASFGHJKYTYKJHGFSAq090SFS7                             O     O                                                            N                                                                                                @                                          O                       ",
"                         &86867800qASFGHJKYTYKJHGFSAq090SFS7&                                                                       O                        1                                                                                                                                                              1O  ",
"                         486867800qASFGHJKYTYKJHGFSAq090SFS74     1                                                                                                                                               1                                                                YH      YY                                   ",
"                         586867800qASFGHJKYTYKJHGFSAq090SFS75                                                                                                                                                                                                                     YHKY    YHHH                                  ",
"     Q                   686867800qASFGHJKYTYKJHGFSAq090SFS76                                      O                    O                                                                   O                                                                       N            YHKYq   YHHKq           1                      ",
"                         786867800qASFGHJKYTYKJHGFSAq090SFS77                                                                                                                                                                                                                   YHKYq   YHHKq  1                                ",
"       O    1            886867800qASFGHJKYTYKJHGFSAq090SFS77              Q                                                                                                                           O                                                                       YHKYq   YHHKq1                                   ",
"          O              886867800qASFGHJKYTYKJHGFSAq090SFS77                Q                                                                    O                                                        O                         Q            @                           YHKYq   YHHKq                                     ",
"                 1       786867800qASFFHJKYTYKJHGFSAq090SFS77  N     1                                                                      O                                   Q O                                                 N                          4AAAAAAAAAAAAASAAYq   YHHKq                                   1  ",
"                         786867800qASFGHJKYTYKJHGFSAq090SFS77                                                O                N     1                                                                                       @                              4AAAA9999999999999999AAAAYHHKq    1                    1             ",
"                         786867800qASFGHJKYTYKJHGFSAq090SFS77          O                           O           O                                                                                                                          1     O        4AA999999999999999999999999AAKq                                        ",
"                         769867800qASFGHJKYTYKJHGFSAq090SFS77                                                                                                               O                                                                           4A9999997777777777777777999999q4                                        ",
"                         769867800qASFGHJKYTYKJHGFSAq090SFS07                           1                                                      1                                O                                                                      4A9997777                7777999A4                      QO              O",
"        O                769867800qASFGHJKYTYKJHGFSAq090SFS07                                                                                                                            1                                                             A9977   600000000000000006   7799A                                       ",
"                         769867800qASFGHJKYTYKJHGFSAq000SFSq7       O                                                                               1                                                                                                  997  600000FGHJKYTYKJHFF00006  799                                       ",
"                         769867800qASFGHJKYTYKJHFFSAq090qSFS7                                                                        O                                         1                          1                                     O      97 00800qASFGHJKYTYKJHGFSAq9000 79                                   O   ",
"               O        O769867800qASFGHJKYTYKJHGFSAq0900SFS7         1                       1             1                               O                    O                                                                                     7 986780qASFGHJKYTYKJHGFSAq90SF0 7                                       ",
"                     Q   760867800qASFGHJKYTYKJHGFSAq0900SFS7                                                            O                          1         O       1             O                                                          O        8986780qASFGHJKYTYKJHGFSAq90SFS7                                        ",
"                        &769867800qASFGHJKYTYKJHGFSAq0900SFS7&                                            O                        O                         O             1                                                                           &8986780qASFGHJKYTYKJHGFSAq90SFS7&                                       ",
"                        4769867800qASFGHJKYTYKJHGFSAq0900SFS74                                     1                                                      1                                       @                                            @       48986780qASFGHJKYTYKJHGFSAq90SFS74   Q                                   ",
"        1          1    5769867800qASFGHJKYTYKJHGFSAq0900SFS75                                                                                              1               N   O                            1                                     O   58986780qASFGHJKYTYKJHGFSAq90SFS75                  O     1              ",
"                        6769867800qASFGHJKYTYKJHGFSAq0900SFS76              O                                                                                                                        O                                                 68986780qASFGHJKYTYKJHFFSAq90SFS76            O       1       ON         ",
"              N         7769867800qASFGHJKYTYKJHGFSAq0900SFS77                                   1            O            Q           O O                         1     O                                               O                             78986780qASFGHJKYTYKJHGFSAq90SFS77                                       ",
"         1              8769867800qASFFHJKYTYKJHGFSAq0900SFS77       1        O                                                                                                                      1                                                 88986780qASFGHJKYTYKJHGFSAq90SFS77                                       ",
"                        8769867800qASFGHJKYTYKJHGFSAq0900SFS77                                                O                 1      1       O                  O                                                                                  N 88986780qASFGHJKYTYKJHGFSAq90SFS77                                       ",
"            O           7769867800qASFGHJKYTYKJHGFSAq0900SFS77                                                                                                                                                                                         78986780qASFGHJKYTYKJHGFSAq90SFS77                                       ",
"                        7769867800qASFGHJKYTYKHHGFSAq0900SFS77                                                            O     O                         O                                                   O          1                             78986780qASFGHJKYTYKJHGFSAq90SFSq7                                       ",
"                        7769867800qSSFGHJKYTYKJHGFSAq0900SFS77                                                                                                                       1     @               0FTT5                                       78986780qASFGHJKYTYKJHFFSAq90qSFS7                                       ",
"                        7769867800qASFGHJKYTYKJHGFSAq0900SFS77                                          OO                                                    1           @                              0HTT&&T5         FTT5              O          78986780qASFGHJKYTYKJHGFSAq900DFS7        O                              ",
"                        7769867800qASFFHJKYTYKJHGFSAq0900SFS77                 1                  1                                                        O                  @                        0HTHHT  &T   1   HTT&&T5                        78986780qASFGHJKYTYKJHGFSAq900SFS7                                       ",
"      1                 7769867800qASFGHJKYTYKJHGFSAq0900SFS77                          O                               O                                                                            0HTHHTJTG &T     HTHHT  &T    O                   78986780qASFGHJKYTYKJHGFSAq900SFS7                                       ",
"                        7769867800qASFFHJKYTYKJHGFSAq0900SFS77             N                                                           O   O                             1                         0HTHHTTTJFTTTF   HTHHTJTF &T      O                 78986780qASFGHJKYTYKJHGFSAq900SFS7               1 O                     ",
"     O                  7689767800qASFGHJKYTYKJHGFSAq0090SFS77                                                        1                                                              @           0HTHHTTTJqqHqq7  HTHHTTTJFTTTF                        78986780qASFGHJKYTYKJHGFSAq090SFS7                                       ",
"                        7698678900qASFGHJKYTYKJHGFSAq0090SFS77                                                          O                                                   Pj                 0HTHHTTTJqqHqq7  HTHHTTTJqqHqA7                         78867890qASFGHJKYTYKJHGFSAq090SFS7                                       ",
"                        7698678000qASFGHJKYTYKJHGFSAq0090SFS07                                                                                                             jjjj              0HTHHTTTJqqHqq7  HTHHTTRHqqHqq7                           89867800qASFGHJKYTYKJHGFSAq090SFS7                                       ",
"                       &7698678000qASFGHJKYTYKJHGFSAq0090SFSq7&                                                                                        1           4AYYYYYYYYYYYYYYYA4     0HTHHTTTJqqHqq7  HTHHTTTJqqHqq7                            &89867800qASFGHJKYTYKJHGFSAq090SFS7&     1                       1        ",
"       1               47698678000qASFGHJKYTYKJHGFSAq0090qSFS74             1                                                             O                   4AYYYYYJJJJHJJJJJJJJJHYYYYFAHTHHTTTJqqHqq7 1HTHHTTTJqqHqq7O                             489867800qASFFHJKYTYKJHGFSAq090SFS74           1                          ",
"           1           57698678000qASFGHJKYTYKJHGFSAq00900SFS75                                                                                           4AYYYYJJJJHHHHHHHHHHHHHHHHJJFFHTHHTTTJqqHqq7  HTHHTTTHqqHqq7  QO                            589867800qASFHHJKYTYKJHGFSAq090SFS75                                      ",
"                       77698678000qASFGHJKYTYKJHGFSAq00900SFS76                                                                         O              4AYYYJJJJHHHHHFFFFFFFFFFFFFFFFFHTHHTTTJqqHqq7  HTHHTTRHqAHqq7                                  689867800qASFFHJKYTYKJHGFSAq090SFS76                                     N",
"                       77698678000qASFG074&$&547qFSAq00900SFS77                                         B   1  O                   O                 4AYYJJJHHHHFFFFFFFFFFFFFFFFFFFFHTHHTTTJqqHqq74 HTHHTTTJqqHqq7                     O              789867800qASFGHJKYTYKJHGFSAq090SFS77                                      ",
"                       77698678000qAS75#%855%#64%57Aq00900SFS77                                        NVN             1         1                 4AYYJHHHHFFFFFFFFFFFFFFFFFFFFFFHTHHTTRHqqHqqJJJHTHHTTTJqqHqq7      O                              1889867800qASFGHJKYTYKJHGFSAq090SFS77                           O          ",
"                       77698678000q94&$0#q&S4 q5$$45000900SFS77                                       BVQVB                                       AYYJJHFFFFFFFFFFFFFFFFFFFFFFFFF&HHTTTJqqHqqFFFHTHHTTTJqqHqq7                                      1 889867800qASFGHJKYTYKJHGFSAq090SFS77                                      ",
"                       776986780006%%5$TA     o&E9X%&80900SFS77                                        NVN                                      4AYJJHFFFFFFFFFFFFFFFFFFFFFFFFFFF&JTTJqqHqqFFFF&HHTTTJqqHqq7               1                          789867800qASFGHJKYTYKJHGFSAq090SFS77               Q                      ",
"                      &7769867800644%S9o$&8008%X9S445&9900SFS77                      1                  B                                      7YYJFFFFFFFFFFFFFAAAAAAAAAAAAAAAAA&AFFFHqqFFFFFF&HTTJqqHqq7                                            789867800qASFGHJKYTYKHHFFSAq090SFS77                  O                   ",
"         1            477698678084X9H#$7K^////~J% 9G#$&900SFS77      1       YY      HY                                                       7YJFFFFFFAAAAAAAAAqqqqqqqqqAqqqqqASF&AFqq&AAAAAAA&AFFFHqqFY7                                            789867800qASFG074&$&557qFSAq090SFS77       O                              ",
"                      5776986780&& .% H/^EREREE//Ao&  5&00SFS77             HHHY    YKHY                                                     7JFFFAAAAAqqqqqqAqqqqqqqqqqqAqqqqqASF8&&&&qAqqqqqqq&qFqq&AFFJ7                 O                         789867800qAS85#%855%#74%58Aq090SFS77                                      ",
"                      67769867865.   R/RR~^/RE/^^/K   o490SFS77             qKHHY   qYKHY                                                   7FqAAAqAqq0qqqqqqAqqqqqqqqqqqAqqqqqASFS8888qAqqqqqqq8&&&&qqAAqF7                                          789867800q94%$0#q&S4 q4$$450090SFS77                                      ",
"                      777698678&%   H/RR/KS0RTSqFDY9   4&0SFS77              qKHHY   qYKHY        1                    O                    F90qqqqAqq0qqqqqqAqqqqqqqqqqqAqqqqqASFS08880Aqqqqqqqq8888qqAq09F                 1              1         7898678007%%5$TA     o&E9X$&890SFS77                                      ",
"                      7776986764.  5/RR/Y  $^A 86  R&  #40SFS77               qKHHY   qYKHY                                        O        990qqqqAqq0qqqqqqAqqqqqqqqqqqAqqqqqASFSA8888Aqqqqqqqq08880qAq099                         O                78986780545%S9X$48909%.9D445&70SFSq7                                      ",
"   N                  77769867&%   J/R/Y  5//9&/9  EF   &6SFS77                qKHHY   qYKHY                                                990qqqqAqq0qqqqqq999999999999999999999998888999qqqqqqq8888qAq099      1                      N            789867884X9H#$7K^////~J% 9H#$&0qSFS7                                      ",
"                      777698674$  X~E/Y  6/~EK^/$ .~R   &4SFS77                 qKHHY   qYAAAAAAAAAAAAA4                                    990qqqqA999999999                              99999998888qAq099                                          7898678&& .% H/~EERERE//Ao&  540SFS7                         1         1  ",
"                      77769867$A. q~/Y  6/^ER^/& .R^E6 $q&SFS77                  qKHHYAAAA9999999999999AAAA4                                990q9999       5qHHHHHHHHHHHHHHHHHHHHHHHH0000HHq5        899q099      O               O  1                78986745    R/RR~//EE/^^/K   o48SFS7                                      ",
"            1         77769767$FS0H~Y  7/^E!!~4 oT/!TF0DA%SFS77     1             qKAA999999999999999999999AA4                              9999   5qHHHHHHHHGFFFFFFFFFFGHGFFGHJKTKJH8888qFHHHHHHHH00   9999       O                                 &789867&%   J/RR/KS0TTSqFSY9   44SFS7&                                     ",
"                      77689677$AKFS/$  %%###HH  A/FJEqJH9%SFS77                   4q9999997777777777777999999A4                             9  5qHHHHSASFFFFFGFFFFFFFFFFGHGFFGHJKTKJHq8888FFFFFFFFF8800q5  9           O                         O   47898654.  5/RR/Y  $/A 95  R&  #&AFS74      1                              ",
"                      77689677#qGFS~o       FH  FH HEAGF8&SFS77                  4A9997777             7777999A4                1            7HHGGFGFSASFFFFFGFFFFFFFFFFGHGFFFHJKTKJHG8888FFFFFFFFFq888qHH7                                          578986&%   J/R/Y  5//8&/9  EF   &9FS75                                     ",
"                      77689677$A96SYHASAF8  FKoo0#XEKq5S75SFS77                  A9977   600000000000006   7799A                           6SFSFGGFGFSASFFFFFGFFFFFFFFFFGHGFFGHJKTKJHG8888qFFFFFFFFF8888FSFS6                               1        678986&%  X~E/Y  5/~EK^/% .~R   &6FS76             1                       ",
"                      7768967746SFSD/^///J  9/EEYTE!SFDS%8SFS77                  997  600000FGHJKKJHGF00006  799                          0ASFSFGGFGFSASFFFFFGFFFFFFFFFFGHGFFGHJKTKJHFq8888FFFFFFFFF8888FSFSA0              O             O  1       778986$A. q~/Y  6/^ER//& .T^E6 $q4FS77                             O       ",
"          1        N  776896777#FF00T~RR/F  0/!!E!/J90HA#0SFS77                  97 00800qASFGHJKKJHGFSAq9000 79                 O       70ASFSFGGFGFSASFFFFFFFFFFFFFFFFGHGFFGHJKTKJHGF8888FFFFFFFFFq888q$$$$G$$                   O  O              878986#FS9H^K  7/^E!!!4 oT/!TG0DA4FS77                        1            ",
"                      776896778%0A5Sq~~RETKJTEEER~TqA5D560SFS77&     Q           7 986780qASFGHJKKJHGFSAq90SF0 7              N          70ASFSFGGFFFSASFFFFpoAAAAAAAAAAAAAAAAAAAAAAAAAAAAASFFFFFFFFF88$$GGGFFGGG$$                        O         878986$AKFS/$  &%#$#HH  S/FHEAJH9&FS77                                     ",
"                      7768967789#DHHAqE^RE~^!RRE^RqSHHqo00SFS774          1       8986780qASFFHJKKJHGFSAq90SFS7       O       O    --    70ASFSFG-SAAAA-AAAA;6&&&&&&&&&&&&&&&&&&&&&&&&&&&&60AAAAAAAAASqfggggGGGFG$G$$ F$$                            778986#qGFA~#       DH  FH H!qGF84FS77       2                             ",
"                      776896778055GG&7SK~~~!!~~EH060HD%700SFS775                 &8986780qASFGHJKKJHGFSAq90SFS7&                    lh   70ASAAAA;h6&jhh&&&-&&%%%%%%%%%%%%%%%%%%%%%%%%%%%%&&&&&&&&&&60A$fffgGGGFGFFFGGGF                             778986$A96STHASSF8  FKo#0#XEK05S77FS77      1c1                            ",
"                     &77689677800$9q7869FKYYYKJDq846q54900SFS076                 48986780qASFGHJKKJHGFSAq90SFS74                   -;h   ;oAo5&&&:h&%hs-0DGJKKKKKKKKKKKKKKKKKKKKYKKKKKKKKKKKJGS08%%%&&&$fffffggGGGHFFGGG$O     O                     778986&6SDSD/^///H  9/EEYTE!SFDD%qFS77     2cvc2                           ",
"                     4776896778000$7H765&66qA848%5A95&0900SFSq77                 58986780qASFGHJKKJHGFSAq90SFS75                    lo   ---h0SGK#:oK;oKKJGHJHGGGGGGGGGGHJHGHJKYR!~^~!EYK  GGGGJKKK  KKJffffffgGGGFGGGGF                           1 7789867#FF00T~RR/F  0/!!!E/J00HA#SFS77      1c1                            ",
"                     5776896778000q&59q657760G6040A45000900SFS77                 68986780qASFGHJKKJHGFSAq90SFS76                    ;h   ;o0hASAFoplhAAojpGHJHGGGGGGGGGGHJHGHHKYE!~^~EEYKJ GGGGgffffg 7$gfffffff$gG$$$$$$         O                  7789867$0q5Dq!~RETKJTERRR~RqA5F56SFS77       2    O                        ",
"                     6776896778000qA8&70FAF90HADq5%9q000900SFS77                 78986780qASFGHJKKJHGFSAq90SFS77                     o   50shh::#-djp-;ihhFHJHGGGGGGGGGGHJHGGHJKYE!~^~!EYK 77GG7777ffg=$GGgfffff$$$$$                                77898678#FHHSqE^RE~^!REE^TqDHHqo0SFS77                                     ",
"N                    7776896778000qASF8%&689976%%0SAq000900SFS77                 88986780qASFGHJKKJHGFSAq90SFS77                       o50o:khhssp;d;hshhhHsHGG--GGGGGGGHJHGGHJKYR!~^~! YKJ  77wett777$GGGGGGgfff$$w=                                7789867845FG&7SK!~~!!~~EJ060GS%80SFS77                                     ",
" 1                   7776896778000qASFG000qAAq00qFSAq000900SFS77                 88986780qASFGHJKKJHGFSAq90SFS77           Q           ;h--jlllhjdkjsjhhjhskhGplpGGGGGGGGHJHGHJKYEE~^~  YK =$$ttadduu7$GGGGGGgf$$uutw=                               778986780$9q7869FKYTKKJDq856A5&90SFS77                 1         N         ",
"                     7776896778000qASFFH00qAAq00GFSAq000900SFS77                 78986780qASFGHJKKJHGFSAq90SFS77                      5shjkjkjlLlLkljsjklhjhGGGGGGGGGGGGGHJHGHJKYEE~^~E YK7$G$$$hhhhddd$GGGGG$$q05dutw=     O                        7898678900$7H765&66qA848%4A85&090SFS77           O                         ",
"                     7776896778000qASFGH00qAAq0qGFSAq000900SFS77                 78986780qASFGHJKKJHGFSAq90SFSq7                     5ihhhLkhlLlLLLklklhhhkjGGGGGGGGGGGGGHJHGGHJKYE!~^~  Y7$GGG$$$$$khhhdd$k$FkAq05dut=                              7898678000q&59q55776qG5040A450090SFS77                                     ",
"               1     7776896778000qASFHHH0qAAq0HGFSAq000900SFS77             1   78986780qASFGHJKKJHGFSAq90qSFS7                    +-hslhhhkklLLLklkkhjjjkHsh-GGGGGGGGGGHJHGGHJKYE!~^~!$$$$GGGGGGg$$kklhhkx77zSAlk5dt=Q                            &7898678000qA8&70FAF90HSSA5&9q0090SFSq7&               1    O               ",
"                     7776896778000qASFFHJ0qAAqqHGFSAq000900SFS77                 78986780qASFGHJKKJHGFSAq900SFS7               O   5hjpsslLLLLLlllljjjjhkhHG:::;poGGGGGGGHJHGGHJKYE!~$$$JH$$GGGGGGG$$lll$$$$$7x7zll05t=               O             47898678000qASF9%&689975%%0SAq0090qSFS74                                    ",
"      O              7776896778000qASFGHJKqAAqJHGFSAq000900SFS77             1   78986780qASFGHJKKJHGFSAq900SFS7                  57shhhsjlLkllLLljhjjjjsi:hGG-:oGGGGGGGGHJHGGHJKYE!$EYKJHG$GGGGGG$$$$$$Ggff$$$$F$$$$5=                           1 57898678000qASFG000qAAq00qFSAq00900SFS75 O                           O      ",
"                     7776967789000qASFGHJKqAAqJHGFSAq000900SFS77                 78986780qASFGHJKKJHGFSAq900SFS7                 507hLjhhhjkklLLPA7kkhjjlhjkj-GGG.GGGGGGGHJHGGGHHKYEE$YKJHGGGGGGGG$$$GGGGgfff$f$fgGGG$5   1                         67898678000qASFGH00qAAq00GFSAq00900SFS76                                    ",
"                     7768967780000qASFGHJKYAAKJHGFSAq000900SFS77                 78986780qASFGHJKKJHGFSAq900SFS7               O50q77s hhkhhhLPLL7kllkkkLjkhhsGGGGGGGGGGGGHJHGGHJKYE!~$$$JHGfffffG$JHGGGGGgff$ffffgGGG$5                            77898678000qASFGH00qAAq0qGFSAq00900SFS77                                    ",
"           1         7768967780000qASFGHJKYTYKJHGFSAq000900SFS77                 78986780qASFGHJKKJHGFSAq090SFS7               50 A777ihhkhhlPPL7S7llllllhhsp:oGGGGGGGGGGGHHHGGHJKY !~ ~$$HGgffffg$JHGGGGGGg$gffffgGG$q05                           87898678000qASFGHH0qAAq0HGFSAq00900SFS77                                    ",
"                     7768967780000qASFGHJKYTYKJHGFSAq000900SFS77                 78867890qASFGHJKKJHGFSAq090SFS7          O   50  S7rsphhkjLPPPW7SF7lllllhhhppi:GGGGGGGGGGHJHGFGHJKYE!~~$JHGGfffff$KJHGGGGGg$GgffffgGG$$05             Q       O    87898678000qASFGHJ0qAAqqHGFSAq00900SFS77                                    ",
"                     7768967780000qASFGHJKYTYKJHGFSAq000900SFS77                 89867800qASFGHJKKJHFFSAq090SFS7             50qASrrrshihklllPPWSFGGlLLPllhhi--oGGGGGGGGGGHJHGHFHHKYE!~^$JHGG$$GGG$KJHGGG$G$$GGgffffgGGG$$5                         77898678000qASFGHJKqAAqJHGFSAq00900SFS77                                    ",
"       Q             7768967780000qASFGHJKYTYKJHGFSAq000900SFS77                &89867800qASFGHJKKJHGFDAq090SFS7&           50qASSD7rS:;s;jlllPPSFGGGLLLLlksoGGGGGGGGFHGGGHJHGGGHJKYE!~$YKJHGG$$G$YKJHGGG$$xx$$$ffffgGG$$G$$                 1      77898678000qASFGHJKqAAqJHGFSAq00900SFS77                   O    1           ",
"           1        &7768967780000qASFGHJKYTYKJHGFSAq000900SFS77                489867800qASFGHJKKJHGFSAq090SFS74          50qASSS   SGo-:plsqAPFGGGGHjhl;j-GGGGGGGGGGFGGGHJHGGGHJKYE!~^$$$$$$$$$$YKJHGGG$IIxx$GgffffgGGGGGF$                       77898678000qASFFHJKYAAKJHGFSAq00900SFS77                         O          ",
"                    47768967780000qASFGHJKY888JHGFSAq000900SFS77  N   1         589867800qASFGHJKKJHGFSAq090SFS75         50qASSS SA;GHGSSSSAqAlFGGGGHJpoLjk;-GGGGGGGGGGGGHJHGGGGHJKYR!~^~7 YKudh$EYKH$$$zzzzLL$GgffffgGGGGG$5      O               77898678000qASFHHJKYTYKJ888SAq00900SFS77         1                          ",
"           O        57768967780000qASFGHJK8***8HGFSAq000900SFS77                689867800qASFFHJKKJHGFSAq090SFS76        60qASSSSSASSGHGSSSAqASFPGGGGHJHGG:o-:GGGGGGGGGGGGHJHGGGGHJKYE!~^~ RYKJ7dh$$$$lkklLLLLLl$gffffgGGG$$q05                     77898678000qASFFHJKYTYK8yyy8Aq00900SFS77                                    ",
"                    67768967780000qASFGHJK8***8HGFSAq000900SFS77                789867800qASFGHJKKJHGFSAq090SFS77       50qASSSSSASSGHGSSSSAqASFPGGGHJHGGGG.GoGGGGGGGGGGGGGHJHGGGHJKYEE~ ~!EYK77adhkkhhhhhkkkkkkh$$$$$$$$$FSAq05                    77898678000qASFGHJKYTYK8yyy8Aq00900SFS77                                    ",
"                    77768967780000qASFGHJK88888HGFSAq000900SFS77         1      889867800qASFGHJKKHHGFSAq090SFS77      50qASSSSSSASGHGSSSSAqASF;GGGGHJHGGGGGGGGGGGGGGGGGGGGHJHGGGHJKYE!~^~!EYK7ttthkkkkkkkkkkkhttte    FGGGFSAq05                   77898678000qASFGHJKYTYK88888Aq00900SFS77                                    ",
"                    77768967780000qASFGHJK8***8HGFSAq000900SFS77         O      889867800qASFGHJKKJHGFSAq090SFS77     50qASSSSSSASSGHGSSSSAqAS GGGGHJHGGGGGGFGGGGGGGGGGGGGFHJHGGGGHJKYE!~^~!    ettttttttttttttte=   GG FGGGFSAq05                  77898678000qASFGHJKYTYK8yyy8Aq00900SFS77                                    ",
"                    77768967780000qASFGHJK8***8HGFSAq000900SFS77                789867800qASFGHJKKJHGFSAq090SFS77    50qASSSSSSASSGHGSSSSAqASFGGGGGHJHGGGGGGGGGGGGGGGGGGGGGHJHGGGGHJKYE!~^~EEYK H=eGGeeeeeGeGgff=fgG  GGGFGGGFSAq05                 77898678000qASFGHJKYTYK8yyy8Aq00000SFS77                                    ",
"                    77768967780000q/////////////////////////////////////////////////////////////////////////////////////////////////////////////////////////////////////////////////////////////////////////////////////////////////////////////////////////////////////////////////////FS77                                    ",
"                    77768967780000q/////////////////////////////////////////////////////////////////////////////////////////////////////////////////////////////////////////////////////////////////////////////////////////////////////////////////////////////////////////////////////FS77&                                   ",
"                    77768967780000q~TTTTTTTTTTTTTTTTTTTTTTTTTTTTTTTTTTTTTTTTTTTTTTTTTTTTTTTTTTTTTTTTTTTTTTTTTTTTTTTTTTTTTTTTTTTTTTTTTTTTTTTTTTTTTTTTTTTTTTTTTTTTTTTTTTTTTTTTTTTTTTTTTTTTTTTTTTTTTTTTTTTTTTTTTTTTTTTTTTTTTTTTTTTTTTTTTTTTTTTTTTTTTTTTTTTTTTTTTTTTTTTTTTTTTTTTTTTTTTTTTTT~FS774                                   ",
"                    77768967780000q~TTTTTTTTTTTTTTTTTTTTTTTTTTTTTTTTTTTTTTTTTTTTTTTTTTTTTTTTTTTTTTTTTTTTTTTTTTTTTTTTTTTTTTTTTTTTTTTTTTTTTTTTTTTTTTTTTTTTTTTTTTTTTTTTTTTTTTTTTTTTTTTTTTTTTTTTTTTTTTTTTTTTTTTTTTTTTTTTTTTTTTTTTTTTTTTTTTTTTTTTTTTTTTTTTTTTTTTTTTTTTTTTTTTTTTTTTTTTTTTTTTT~FS775      O                            ",
"                    77768967780000qSSSSSSSSSSSSSSSSDSSSSSSSSSSSSSSSSSSSSSSSSSSSSSSSSSSSSSSSSSSSSSSSSSSSSSSSSSSSSSSSSSSSSSSSSSSSSSSSSSSSSSSSSSSSSSSSSSSSSSSSSSSSSSSSSSSSSSSSSSSSSSDSSSSSSSSSSSSSSSSSSSSSSSSSSSSSSSSSSSSSSSSSSSSSSSSSSSSSSSSSSSSSSSSSSSSSSSSSSSSSSSSSSSSSSSSSSSSSSSSSSSSSSFS776                                   ",
"                    77768967780000qASFYH77777777777FJG77777777777GJG77777777777GJG77777777777GJG77777777777GJG77777777777GJG77777777777GJG77777777777GJG77777777777GJG77777777777GJF77777777777GJG77777777777GJG77777777777GJG77777777777GJG77777777777GJG77777777777GJG77777777777HY00SFS777      N                            ",
"                    77768967780000qASF~Y74444444447GYG74444444447GYG74444444447GYG74444444447GYG74444444447GYG74444444447GYG74444444447GYG74444444447GYF74444444447GYG74444444447GYG74444444447GYG74444444447GYG74444444447GYG74444444447GYG74444444447GYG74444444447GYG74444444447Y~00SFSq77          1                        ",
"                    77768967780000qASF~Y77777777777GYG77777777777GYG77777777777GYG77777777777GYG77777777777GYG77777777777GYG77777777777GYG77777777777GYG77777777777GYG77777777777GYG77777777777FYG77777777777GYG77777777777GYG77777777777GYG77777777777GYG77777777777GYG77777777777Y~00qSFS77                           Q       ",
"             N      77768967780000qASF~Y///////////YY////////////YY////////////YY////////////YY////////////YY////////////YY////////////YY////////////YY////////////YY////////////YY////////////YY////////////YY////////////YY////////////YY////////////YY////////////YY////////////Y~000SFS77                              1    ",
"                    77678967780000qASF~YYYYYYYYYYYYYYYYYYYYYYYYYYYYYYYYYYYYYYYYYYYYYYYYYYYYYYYYYYYYYYYYYYYYYYYYYYYYYYYYYYYYYYYYYYYYYYYYYYYYYYYYYYYYYYYYYYYYYYYYYYYYYYYYYYYYYYYYYYYYYYYYYYYYYYYYYYYYYYYYYYYYYYYYYYYYYYYYYYYYYYYYYYYYYYYYYYYYYYYYYYYYYYYYYYYYYYYYYYYYYYYYYYYYYYYYYYYYY~000SFS77                                   ",
"                   &77678967780000qASF~YYYYYYYYYYYYYYYYYYYYYYYYYYYYYYYYYYYYYYYYYYYYYYYYYYYYYYYYYYYYYYYYYYYYYYYYYYYYYYYYYYYYYYYYYYYYYYYYYYYYYYYYYYYYYYYYYYYYYYYYYYYYYYYYYYYYYYYYYYYYYYYYYYYYYYYYYYYYYYYYYYYYYYYYYYYYYYYYYYYYYYYYYYYYYYYYYYYYYYYYYYYYYYYYYYYYYYYYYYYYYYYYYYYYYYYYYYYYY~000SFS77                                   ",
"                   477678967780000qASF~YYYYYYYYYYYYYYYYYYYYYYYYYYYYYYYYYYYYYYYYYYYYYYYYYYYYYYYYYYYYYYYYYYYYYYYYYYYYYYYYYYYYYYYYYYYYYYYYYYYYYYYYYYYYYYYYYYYYYYYYYYYYYYYYYYYYYYYYYYYYYYYYYYYYYYYYYYYYYYYYYYYYYYYYYYYYYYYYYYYYYYYYYYYYYYYYYYYYYYYYYYYYYYYYYYYYYYYYYYYYYYYYYYYYYYYYYYYYY~900SFS77  O                                ",
"                   577678967780000qASD~YYYYYYYYYYYYYYYYYYYYYYYYYYYYYYYYYYYYYYYYYYKYYYYYYYYYYYYYYYYYYYYYYYYYYYYYKYYYYYYYYYYYYYYYYYYYYYYYYYYYYYYYYYYYYYYYYYYYYYYYYYYYYYYYYYYYYYYYYYYYYYYYYYYYYYYYYYYYYYYYYYYYYYYYYYYYYYYKYYYYYYYYYYYYYYYYYYYYYYYYYYYYYYYYYYYKYYYYYYYYYYYYYYYYYYYYYYYYY~000SFS77                                   ",
"&&&&&&&&&&&&&&&&&&&677689677800000qASD~~~~~~~~~~~~~~~~~~~~~~~~~~~~~~~~~~~~~~~~~~~~~~~~~~////////////////////////////////YJ~~~~~~~~~~~~~~~~~~~~~~~~~~~~~~~~~~~~~~~~~~~~~~~~~~~~~~~~~~~~~~~~~~~~~~~JY////////////////////////////////~~~~~~~~~~~~~~~~~~~~~~~~~~~~~~~~~~~~~~~~~~~~~~~~~~000SFS77&&&&&&&&&&&&&&&&&&&&&&&&&&&&&&&&&&&",
"&&&&&&&&&&&&&&&&&&&777689677800000qAS~!!!!!!!!!!!!!!!!E!!!!!!!!!!!!!!!!!!!!!!!!!!!!!!!!!////////////////////////////////HJ!!!!!!!!!!!!!!!!!!!!!!!!!!!!!!!!!!!!!!!!!!!!!!!!!!!!!!E!!!!!!!!!!!!!!!!JH////////////////////////////////!!!!!!!!!!!!!!!!!!!!!!!!!!!!!!!!!!!!!!!!!!!!!!!!!!~00SFS77&&&&&&&&&&&&&&&&&&&&&&&&&&&&&&&&&&&",
"&&&&&&&&&&&&&&&&&&&777689677800000qA~!!!!!!!!!!!!!!!!!!!!!!!!!!!!!!!!!!!!!!!!!!!!!!!!!!/////////////////////////////////GJ!!!!!!!!!!!!!!!!!!!!!!!!!!!!!!!!!!!!!!!!!!!!!!!!!!!!!!!!!!!!!!!!!!!!!!!JG/////////////////////////////////!!!!!!!!!!!!!!!!!!!!!!!!!!!!!!!!!!!!!!!!!!!!!!!!!!~0SFS77&&&&&4&&&&&&&&&&&&&&&&&&&&&&4&&&&&&",
"&&&&&&&4&&&&&&&4&&&777689677800000q~!!!!!!!!!!!!!!!!!!!!!!!!!!!!!E!!!!!!!!!!!!!!!!!!!!!/////////////////////////////////GJ!!!!!!!!!!!!!!!!!!!!!!!!!!!!!!!!!!!!!!!!!!!!!!!E!!!!!!!!!!!!!!!!!!!!!!!JG/////////////////////////////////!!!!!!!!!!!!!!!!!!!!!!!!!!!!!!!!!!!!!!!!!!!!!!!!!!!~SFS77&&&4&&&&&&&&4&&&&&&&&&4&&4&&&&4&&4&",
"&&&&44&&444&&&&&4&&777689677800000~!!!!!!!!!!!!!!!!!!!!!!!!!!!!!!!!!!!!!!!!!!!!!!!!!!!/////////////////////////////////TGJ!!!!!!!!!!!!!!!!!!!!!!!!!!!!!!!!!!!!!!!!!!!!!!!!!!!!!!!!!!!!!!!!!!!!!!!JGT/////////////////////////////////!!E!!!!!!!!!!!!!!!!!!!!!!!!!!!!!!!!!!!!!!!!!!!!!!!!~FS77&&4&4444&&4&&&&4&&&&4444&&&4&&&&44&",
"4&&&&4&4&44444&4&4&77768967780000~!!!!!!!!!!!!!!!!!!!!!!!!!!!!!!!!!!!!!!!!!!!!!!!!!!!!/////////////////////////////////HGJ!!!!!!!!!!E!!!!!!!!!!!!!!!!!!!!!!!!!!!!!!!!!!!!!!!!!!!!!!!!!!!!!!!!!!!!JGH/////////////////////////////////!!!!!!!!!!!!!!!!!!!!!!!!!!!!!!!!!!!!!!!!!!!!!!!!!!!!~S77&&4444444&4&&44&4&4&4454&4444&&4444",
"45&44444544444544457776896778000~!!!!!!!!!!!!!!!!!!!!!!!!!!!!!!!!!!!!!!!!!!!!!!!!!!!!//////////////////////////////////HGJ!!!!!!!!!!!!!!!!!!!!!!!!!!!!!!!!!!!!!!!!!!!!!!!!!!!!!!!!!!!!!!!!!!!!!!!JGH//////////////////////////////////!!!!!!!!!!!!!!!!!!!!!!!!!!!!!!E!!!!!!!!!!!!!!!!!!!!!~7754444444454544555&44455454&&4545544",
"4444455545444454445777689677809~!!!!!!!!!!!!!!!!!!!!!!!!!!!!!!!!!!!!!!!!!!!!!!!!!!!!!//////////////////////////////////GJE!!!!!!!!!!!!!!!!!!!!!!!!!!!!!!!!!!!!!!!!!!!!!!!!!!!!!!!!!!!!!!!!!!!!!!!!JG//////////////////////////////////!!!!!!!!!!!!!!!!!!!!!!!!!!!!!!!!!!!!!!!!!!!!!!!!!!!!!~744544545444544454445454545544445445",
"455445555554555555477768967780~!!!!!!!!!!!!!!!!!!!!!!!!!!!!!!!!!!!!!!!!!!!!!!!!!!!!!//////////////////////////////////TGJ!!!!!!!!!!!!!!!!!!!!!!!!!!!!!!!!!!!!!!!!!!!!!!!!!!!!!!!!!!!!!!!!!!!!!!!!!JGT//////////////////////////////////!!!!!!!!!!!!!!!!!!!!!!!!!!!!!!!!!!!!!!!!!!!!!!!!!!!!!~55544454445454445545554555444555544",
"54464555455555555657776896778~!!!!!!!!!!!!!!!!!!!!!!!!!!!!!!!!!!!!!!!!!!!!!!!!!!!!!!//////////////////////////////////HGJ!!!!!!!!!!!!!!!!!!!!!!!!!!!!!!!!!!!!!!!!!!!!!!!!!!!!!!!!!!!!!!!!!!!!!!!!!JFH//////////////////////////////////E!!!!!!!!!!!!!!!!!!!!!!!!!!!!!!!!!!!!!!!!!!!!!!!!!!!!!~4555555455655555455555456545655665",
"5556566555655655555777689677~!!!!!!!!!!!!!!!!!!!!!!!!!!!!!!!!!!!!!!!!!!!!!!!!!!!!!!///////////////////////////////////HGJ!!!!!!!!!!!!!!!!!!!!!!!!!!!!!!!!!!!!!!!!!!!!!!!!!!!!!!!!!!!!!!!!!!!!!!!!!JGH///////////////////////////////////!!!!!!!!!!!!!!!!!!!!!!!!!!!!!!!!!!!!!!!!!!!!!!!!!!!!!!~655555566555556555665665665555665",
"555565665656556565577768967~!!!!!!!!!!!!!!!!!!!!!!!!!!!!!!!!!!!!!!!!!!!!!!!!!!!!!!!///////////////////////////////////HGJ!!!!!!!!!!!!!!!!!!!!!!!!!!!!!!!!!!!!!!!!!!!!!!!!!!!!!!!!!!!!!!!!!!!!!!!!!JGH///////////////////////////////////!!!!!!!!!!!!!!!!!!!!!!!!!!!!!!!!!!!!!!!!!!!!!!!!!!!!!!!~66666655656655556566565566665565",
"55666656576666556677776896~!!!!!!!!!!!!!!!!!!!!!!!!!!!!!!!!!!!!!!!!!!!!!!!!!!!!!!!///////////////////////////////////THGJ!!!!!!!!!!!!!!!!!!!!!!!!!!!!!!!!!!!!!!!!!!!!!!!!!!!!!!!!!!!!!!!!!!!!!!!!!JGHT///////////////////////////////////!!!!!!!!!!!!!!!!!!!!!!E!!!!!!!!!!!!!!!!!!!!!!!!!!!!!!!!~6667666766666666656665566655666",
"6676676765676767756777689~!!!!!!!!!!!!!!!!!!!!!!!!!!!!!!!!!!!!E!!!!!!!!!!!!E!!!!!!///////////////////////////////////HHFJ!!!!!!!!!!!!!!!!E!!!!!!!!!!!!E!!!!!!!!!E!!!!!!!!!!!!!!!!!!!E!!!!!!!!!!!!!JGHH///////////////////////////////////!!!!!!!!!!!!!!!!!!!!!!!E!!!!!!!!!!!!!!!!!!!!!!!!!!!!!!!!~777566566767666757677567667666",
"767667677677676666777768~~~~~~~~~~~~~~~~~~~~~~~~~~~~~~~~~~~~~~~~~~~~~~~~~~~~~~~~~////////////////////////////////////HHGJ~~~~~~~~~~~~~~~~~~~~~~~~~~~~~~~~~~~~~~~~~~~~~~~~~~~~~~~~~~~~~~~~~~~~~~~~~JGHH////////////////////////////////////~~~~~~~~~~~~~~~~~~~~~~~~~~~~~~~~~~~~~~~~~~~~~~~~~~~~~~~~~77677767767676766666776676667",
"777776766767767766777768~YYYYYYYYYYYYYYYYYYYYYYYYYYYYYYYYYYYYYYYYYYYYYYYYYYYYYYYK////////////////////////////////////HHHGJYYYYYYYYYYYYYYYYYYYYYYY!33333333333333333333333!YYYYYYYYYYYYYYYYYYYYYYYJGHHH////////////////////////////////////YYYYYYYYYYYYYYYYYYYYYYYYYYYYYYYYYYYYYYYYYYYYYYYYYYYYYYYY~87677677777677877767776677668",
"786767877677867777777768~YYYYYYYYYYYYYYYYYYYYYYYYYYYYYYYYYYYYYYYYYYYYYYYYYYYYYYY////////////////////////////////////THHHGJYYYYYYYYYYYYYYYYYYYHq7Y!33333333333333333333333!YHq7YYYYYYYYYYYYYYYYYYYJGHHHT////////////////////////////////////YYYYYYYYYYYYYYYYYYYYYYYYYYYYYYYYYYYYYYYYYYYYYYYYYYYYYYY~87767777777778768887877777887",
"788787788877787888877678~YYYYYYYYYYYYYYYYYYYYYYYYYYYYYYYYYYYYYYYYYYYYYYYYYYYYYYY////////////////////////////////////HHHHGJYYYYYYYYYYYYYYYYYYYHq7Y!33bbbbbbbbbbbbbbbbbbb33!YHq7YYYYYYYYYYYYYYYYYYYJGHHHH////////////////////////////////////YYYYYYYYYYYYYYYYYYYYYYYYYYYYYYYYYYYYYYYYYYYYYYYYYYYYYYY~88887778887878788878887887887",
"887788888878788888777678~YYYYYYYYYYYYYYYYYYYYYYYYYYYYYYYYYYYYYYYYYYYYYYYYYYYYYY/////////////////////////////////////HHHHGJYYYYYYYYYYYYYYYYYYYHq7Y!33bmmmmmmmnbnmmmmmmmb33!YHq7YYYYYYYYYYYYYYYYYYYJGHHHH/////////////////////////////////////YYYYYYYYYYYYYYYYYYYYYYYYYYYYYYYYYYYYYYYYYYYYYYYYYYYYYY~88887888887887788888878888788",
"878999898898889888777678~YYYYYYYYYYYYYYYYYYYYYYYYYYYYYYYYYYYYYYYYYYYYYYYYYYYYYY/////////////////////////////////////HHHHGJYYYYYYYYYYYYYYYYYYY///Y!33bmmUUUUmnbnmUUUUmmb33!Y///YYYYYYYYYYYYYYYYYYYJGHHHH/////////////////////////////////////YYYYYYYYYYYYYYYYYYYYYYYYYYYYYYYYYYYYYYYYYYYYYYYYYYYYYY~88778788887888888988889878898",
"898888888999998889777678~YYYYYYYYYYYYYYYYYYYYYYYYYYYYYYYYYYYYYYYYYYYYYYYYYYYYY/////////////////////////////////////THHHHGJYYYYYYYYYYYYYYYYYY~^^^^!33bmmZZZZmnbnmZZZZmmb33!^^^^~YYYYYYYYYYYYYYYYYYJGHHHHT/////////////////////////////////////YYYYYYYYYYYYYYYYYYYYYYYYYYYYYYYYYYYYYYYYYYYYYYYYYYYYY~88899998889888888989898898888",
"889999899999888899777678~YYYYYYYYYYYYYYYYYYYYYYYYYYYYYYYYYYYYYYYYYYYYYYYYYYYYY/////////////////////////////////////HHHHHGJYYYYYYYYYYYYYYYYY^~~^~~!33bmmCCCCmnbnmCCCCmmb33!~~^~~^YYYYYYYYYYYYYYYYYJGHHHHH/////////////////////////////////////YYYYYYYYYYYYYYYYYYYYYYYYYYYYYYYYYYYYYYYYYYYYYYYYYYYYY~98999889999999989988989899898",
"098990999999909999777678f<<<<<<<<<<<<<<<<<<<<<<<<<<<<<<<<<<<<<<<<<<<<<<<<<<<<//////////////////////////////////////HHHH,>,<<<<<<<<<<<<<<<<fffffff!bbnmmMMMMmnbnmMMMMmmnbb!fffffff<<<<<<<<<<<<<<<<,>HHHHH//////////////////////////////////////<<<<<<<<<<<<<<<<<<<<<<<<<<<<<<<<<<<<<<<<<<<<<<<<<<<<g90999909999899909909899090989",
"999000999909999900777678f<<<<<<<<<<<<<<<<<<<<<<<<<<<<<<<<<<<<<<<<<<<<<<<<<<<<//////////////////////////////////////HH,,,>,<<<<<<<<<<<<<<<ffffffff!nnmmmmmmmmnbnmmmmmmmmnn!ffffffff<<<<<<<<<<<<<<<,>,,,HH//////////////////////////////////////<<<<<<<<<<<<<<<<<<<<<<<<<<<<<<<<<<<<<<<<<<<<<<<<<<<<g90009999990099990099999009990",
"909909990909909900777678f<<<<<<<<<<<<<<<<<<<<<<<<<<<<<<<<<<<<<<<<<<<<<<<<<<<ffffffffffffffffffffffffffffffffffffffg,,,,,>,<<<<<<<<<<<<<<fffffffff!mmmmmmmmmmnbnmmmmmmmmmm!fffffffff<<<<<<<<<<<<<<,>,,,,,gfffffffffffffffffffffffffffffffffffffg<<<<<<<<<<<<<<<<<<<<<<<<<<<<<<<<<<<<<<<<<<<<<<<<<<<g99999099990990009000009900099",
"900999900909900090777678~YYYYYYYYYYYYYYYYYYYYYYYYYYYYYYYYYYYYYYYYYYYYYYYYYYYfffffffffffffffffffffffffffffffffffffg,,,,,HGJYYYYYYYYYYYYYYYYYYYYYYY!mmmmmmmmmmnbnmmmmmmmmmm!YYYYYYYYYYYYYYYYYYYYYYYJG,,,,,,gffffffffffffffffffffffffffffffffffffgYYYYYYYYYYYYYYYYYYYYYYYYYYYYYYYYYYYYYYYYYYYYYYYYYYY~00900090900990099000000900000",
"000000000000090000777678~YYYYYYYYYYYYYYYYYYYYYYYYYYYYYYYYYYYYYYYYYYYYYYYYYYffffffffffffffffffffffffffffffffffffffg,,HHHHGJYYYYYYYYYYYYYYYYYYYYYYY!mmmmmmmmmmnbnmmmmmmmmmm!YYYYYYYYYYYYYYYYYYYYYYYJGHHHH,,gfffffffffffffffffffffffffffffffffffffgYYYYYYYYYYYYYYYYYYYYYYYYYYYYYYYYYYYYYYYYYYYYYYYYYY~00000000000009000000000000000",
"000000000000000000777678~YYYYYYYYYYYYYYYYYYYYYYYYYYYYYYYYYYYYYYYYYYYYYYYYYY///////////////////////////////////////HHHHHHGJYKYYYYYYYYYYYYYYYYYYYYY!mmmmmmmmmmnbnmmmmmmmmmm!YYYYYYYYYYYYYYYYYYYYYYYJGHHHHHH///////////////////////////////////////YYYYYYYYYYYYYYYYYYYYYYYYYYYYYYYYYYYYYYYYYYYYYYYYYY~00000000000000000000000000000",
"$###############################################################################################################################################################################################################################################################################################################################",
"################################################################################################################################################################################################################################################################################################################################",
"################################################################################################################################################################################################################################################################################################################################",
"################################################################################################################################################################################################################################################################################################################################",
"################################################################################################################################################################################################################################################################################################################################",
"################################################################################################################################################################################################################################################################################################################################",
"################################################################################################################################################################################################################################################################################################################################",
"################################################################################################################################################################################################################################################################################################################################",
"################################################################################################################################################################################################################################################################################################################################",
"################################################################################################################################################################################################################################################################################################################################",
"################################################################################################################################################################################################################################################################################################################################",
"################################################################################################################################################################################################################################################################################################################################",
"################################################################################################################################################################################################################################################################################################################################",
"################################################################################################################################################################################################################################################################################################################################",
"################################################################################################################################################################################################################################################################################################################################",
"################################################################################################################################################################################################################################################################################################################################",
"################################################################################################################################################################################################################################################################################################################################",
"################################################################################################################################################################################################################################################################################################################################",
"################################################################################################################################################################################################################################################################################################################################",
"################################################################################################################################################################################################################################################################################################################################",
"################################################################################################################################################################################################################################################################################################################################",
"################################################################################################################################################################################################################################################################################################################################",
"################################################################################################################################################################################################################################################################################################################################",
"################################################################################################################################################################################################################################################################################################################################",
"################################################################################################################################################################################################################################################################################################################################",
"################################################################################################################################################################################################################################################################################################################################",
"################################################################################################################################################################################################################################################################################################################################",
"################################################################################################################################################################################################################################################################################################################################",
"################################################################################################################################################################################################################################################################################################################################",
"################################################################################################################################################################################################################################################################################################################################",
"################################################################################################################################################################################################################################################################################################################################",
"################################################################################################################################################################################################################################################################################################################################",
"################################################################################################################################################################################################################################################################################################################################",
"################################################################################################################################################################################################################################################################################################################################",
"################################################################################################################################################################################################################################################################################################################################",
"################################################################################################################################################################################################################################################################################################################################",
"################################################################################################################################################################################################################################################################################################################################"
};
