/* XPM */
static char *throwing_f01[] = {
"64 64 19 1",
"a	c None",
"b	c #6C8C00",
"c	c #587400",
"d	c #445C00",
"e	c #344400",
"f	c #202C00",
"g	c #0C0C0C",
"h	c #747804",
"i	c #A4A814",
"j	c #7CA400",
"k	c #3C3C00",
"l	c #200000",
"m	c #480000",
"n	c #5C0000",
"o	c #505000",
"p	c #141414",
"q	c #000000",
"r	c #040404",
"s	c #2C2C2C",
"aaaaaaaaaaaaaaaaaaaaaaaaaaaaaaaaaaaaaaaaaaaaaaaaaaaaaaaaaaaaaaaa",
"aaaaaaaaaaaaaaaaaaaaaaaaaaaaaaaaaaaaaaaaaaaaaaaaaaaaaaaaaaaaaaaa",
"aaaaaaaaaaaaaaaaaaaaaaaaaaaaaaaaaaaaaaaaaaaaaaaaaaaaaaaaaaaaaaaa",
"aaaaaaaaaaaaaaaaaaaaaaaabbbbbaaaaaaaaaaaaaaaaaaaaaaaaaaaaaaaaaaa",
"aaaaaaaaaaaaaaaaaaaaabbbcccccbbbbaaaaaaabbbbbbbaaaaaaaaaaaaaaaaa",
"aaaaaaaaaaaaaaaaaaabbcccddddcdcccbbbbbbbcccccccbbaaaaaaaaaaaaaaa",
"aaaaaaaaaaaaaaaaaabdededdecdddddceccccccdcdddceccbaaaaaaaaaaaaaa",
"aaaaaaaaaaaaaaaaabdcedfecfeddecddfeddeddddcedefddcbaaaaaaaaaaaaa",
"aaaaaaaaaaaaaaaaaceefcdfeddddfeddedeeeeeeeefdddceddcaaaaaaaaaaaa",
"aaaaaaaaaacccccccdeededddecddeeeeeeeffeeeeeedceefdedaaaaaaaaaaaa",
"aaaaaaaaacdddddeefeceddddfeeeeefeffffgffffefeefedeedaaaaaaaaaaaa",
"aaaaaaaacdededeeegeffefeeeffffffffgggggggfffffeeeeedccaaaaaaaaaa",
"aaaaaaacdededeedffgffffeffffffggggffeeffggggggfffedfddccaaaaaaaa",
"aaaaaaacedeeeecefffggfffffggggffeeeeeeeeeffffgggfffgeeddcaaaaaaa",
"aaaaaaadfeeeefceeffffgggggfffeedddddededeeeeeffggggcceeedcaaaaaa",
"aaaaaaadffefefeddeeeffffffededdddcdcbcdcddedeeeeeeeecfeeecaaaaaa",
"aaaaaaadgfffffffffgggggggggggfeeeddddddddcdddedeeefedfefedaaaaaa",
"aaaaaaaaeggggggggggffffffghihggggggeeedddeeeffeeeeddefffedaaaaaa",
"aaaaaaaaagfeeeedeeedeeefffghihfffffgggggggggggggggggffgedaaaaaaa",
"aaaaaacccccddeeeedeefeffeffggggffeeeefffgghihggfffffggggaaaaaaaa",
"aaaacccdcdcbbcdeeeeeeeeefgfffffeededdefghiihgffggfffefeddaaaaaaa",
"aaaccdeeeeedccbbjjbeeeeeeeggfeeededdccdeggggffgeeedeeceeedaaaaaa",
"aacceecbbcbjjbcdcccbfeeeeeefgfeeeeeeeeeeeddefgedeeeefeeecedaaaaa",
"aacebcddbjccdcddedciigffeedefggfededcbbcdeffgfeeefggeeefeddaaaaa",
"acdcdddjcdcddeffgffkhigffeeeegkgggggggggggkgeeeefgfeddcdeeddaaaa",
"acddddccccdeddfgfgggkhfgfeeeedfglmnnnmlgkggfeeefgfeeegggdeedaaaa",
"adddecbcddddeeefgggfgkffgfeedddboghghgogfecedefgfeedcdeegeedaaaa",
"aedeedcdccddcceccefggggffgfeeedcffogogkfdcddefggegggggedeefdaaaa",
"aeedecbbdddbbccbdehiihkgffgfededcccbjjcccddefggggeeeeegggefeaaaa",
"afdefcdeefffefffdfgggggdeffgfeddeefffeeddddefgfeeeedddceegfeaaaa",
"afedfdcdddeefgegggggggfeedffgfedbddddddbddefggfeeedddecfeefeaaaa",
"aafeefdeeddccceceegggggeeedffgeedbcddddjdefgggffdeedececeeefeaaa",
"aagfffgeffefddbeffiihkgfededfgfeejddddddeefgggedcdddfefeecefeaaa",
"aaaggffgedceefggfgggggggeedeefgfeeededeeefgggfdeededdecefeffeaaa",
"aaaaagggggeccfffggggfffgfeedeefggceeeeefggfggfeffeedefefeefgaaaa",
"aaaaaaagfegggdeeiihkgefggedddeffgggggggggfgggfefeddeedddeefeaaaa",
"aaaaaaaageegfgggggggefefgeeddeefffgggggfefgfgfgedeefeeceeffeaaaa",
"aaaaaaagfeefgffffffefeffggeeddeeefffffedeggfgfeeefgedeefffgaaaaa",
"aaaaaaagfeffgfgggfffeeeffgfeddddeeeedddeeggfggffggeeefgffggaaaaa",
"aaaaaaagfffggggggggffeeefgfeedcdddddcddefgfffgggfeffggfeggaaaaaa",
"aaaaaaagffggggfgfgggffeeffgfedddcccdddeeggffeffgffggffgggaaaaaaa",
"aaaaaaaagfggggfffffggffeefgfeedddddddeefgffeffgggggggggaaaaaaaaa",
"aaaaaaaaaggggfgfffffgffeeffgfeeedddeeefgffeeffggfffffgfaaaaaaaaa",
"aaaaaaaaagfgfffffffffgffeeffgfeeeeeeefggfeeffgfefeeeefgaaaaaaaaa",
"aaaaaaaaafgfffefffffffgfedeffgfeeeeffgffeeefgeeeededeeffaaaaaaaa",
"aaaaaaaaagfffefefeffffgffeefffgggggggffedefgefeedeceecffaaaaaaaa",
"aaaaaaaaaffeeeeeeeefefggffeeffffffffffeeefgffeecefedfeeffaaaaaaa",
"aaaaaaaaafeeeceeeeeefefgffedefefffefeedefgffeffeddddeceefaaaaaaa",
"aaaaaaaaafeefeeeeceeeffggffedeeeeeeeddefgggffeededddfeeefaaaaaaa",
"aaaaaaaaaeeecdedfeeefefgggffeedcccddeefggggggfeedecddecefaaaaaaa",
"aaaaaaaaaeedfecdedeeeefggggffeedddeeefggggggggeeefeecfefffaaaaaa",
"aaaaaaaaadeedddeceeeeefggggffffeeeeffgegggggggfeeeefeeeeefaaaaaa",
"aaaaaaaaadeddddfedeeeffgggfaggfffffggafggggggggfeeeeeeecefaaaaaa",
"aaaaaaaaadeeddecddeeeegggfaaaagggggaaafggggggggfeeecefeeefaaaaaa",
"aaaaaaaaadeeddfedeceeffgfeaaaaaaaaaaafffgggggggfeefeeeeeeeeeaaaa",
"aaaaaaaaadeedecddedeefggggfaaaaaaaaafgggggggggggfeeeeeeeeeddeaaa",
"aaaaaaaaadeeefededeeefgggggaaaaaaaapfgggggggggggfddeeeddeedcdeaa",
"aaaaaaaddeeeeeeeeeeeefggggqaaaaaaaargggggggqqgggfcdeeedddeeddeaa",
"aaaaaaddcdfddeefefeeddfgqqqaaaaaaaaqrqggqqqqqqgfeddeeeedjdeeeeea",
"aaaaaafddefdddeefeedcddfgpaaaaaaaaaarrrrraaaqqqfeeeefeeedeffeefa",
"aaaaaageefdjdeffgfeedddfgaaaaaaaaaaaapppaaaaaaafeeeggfeeeefgggaa",
"aaaaaaaggfdddfggggfeedgpaaaaaaaaaaaaaaaaaaaaaaaagggsageeeegsaaaa",
"aaaaaaaaafedegqsasggggqaaaaaaaaaaaaaaaaaaaaaaaaaaaaaaaggggaaaaaa",
"aaaaaaaaaagggqaaaaaaaaaaaaaaaaaaaaaaaaaaaaaaaaaaaaaaaaaaaaaaaaaa"
};