/* XPM */
static char *throwing_f00[] = {
"64 64 21 1",
"a	c None",
"b	c #6C8C00",
"c	c #587400",
"d	c #445C00",
"e	c #344400",
"f	c #202C00",
"g	c #0C0C0C",
"h	c #747804",
"i	c #848808",
"j	c #A4A814",
"k	c #505000",
"l	c #3C3C00",
"m	c #200000",
"n	c #480000",
"o	c #5C0000",
"p	c #7CA400",
"q	c #98C010",
"r	c #000000",
"s	c #040404",
"t	c #141414",
"u	c #2C2C2C",
"aaaaaaaaaaaaaaaaaaaaaaaaaaaaaaaaaaaaaaaaaaaaaaaaaaaaaaaaaaaaaaaa",
"aaaaaaaaaaaaaaaaaaaaaaaaabbbbbbaaaaaaaaaaaaaaaaaaaaaaaaaaaaaaaaa",
"aaaaaaaaaaaaaaaaaaaaaabbbccccccbbbbaaaaaabbbbbbbbaaaaaaaaaaaaaaa",
"aaaaaaaaaaaaaaaaaaaabbccccddddcdcccbbbbbbbcccccccbbaaaaaaaaaaaaa",
"aaaaaaaaaaaaaaaaaaabcdededdecdddddceccccccdcdddceccbaaaaaaaaaaaa",
"aaaaaaaaaaaaaaaaaabcdcedfecfeddecddfeddeddddcedefddcbaaaaaaaaaaa",
"aaaaaaaaaaaaaaaaaacceefcdfeddddfeddedeeeeeeeefdddceddcaaaaaaaaaa",
"aaaaaaaaaaacccccccddeededddecddeeeeeeeffeeeeeedceefdedaaaaaaaaaa",
"aaaaaaaaaaccdcdddeefeceddddfeeeeefeffffgffffefeefedeedaaaaaaaaaa",
"aaaaaaaaacddddedeeegeffefeeeffffffffgggggggfffffeeeeedcaaaaaaaaa",
"aaaaaaaacddededeedffgffffeffffffggggffeeffggggggfffedfdccaaaaaaa",
"aaaaaaaacdeeeeeecefffggfffffggggffeeeeeeeeeffffgggfffgeddcaaaaaa",
"aaaaaaaadefeeeefceeffffgggggfffeedddddededeeeeeffggggcceedcaaaaa",
"aaaaaaaadfefefefeddeeeffffffededdddcdcbcdcddedeeeeeeeeceeecaaaaa",
"aaaaaaaadgffffffffffgggggggggggfeeeddddddddcdddedeeefedefedaaaaa",
"aaaaaaaaaeggggggggggffffffghijhggggggeeedddeeeffeeeeddeffedaaaaa",
"aaaaaaaaaaffeeeffeeedeeefffghijhffffgggggggggggggggggffgedaaaaaa",
"aaaaaaadddddddeeefdeefeffeffgggggfeeeefffgghijhgfffffggggaaaaaaa",
"aaaaaddccccdcdcdeffeeeeeefgfffffeededdefghijjhgfggfeeefedaaaaaaa",
"aaaadccddeeedddcdegfeeeefefggfeeeeeeeeeeegggggfggefdeeceedaaaaaa",
"aaadcddeddddefeddefgeeeeeeefggggfededcbbcdeffgggeeeeefeecedaaaaa",
"aaaddedccbccddefeefgffeeeeeefggfgggggggggggggggedeeffeefeddaaaaa",
"aadcddbbdcccbddegffggggfeeedefggghgkghgkgkgfggfeeefgddcdeeddaaaa",
"aadddcbcbccdccddfgfgfffgfeeeeeglgmnooonmggglgfeeefgeegggdeedaaaa",
"aaedebcbccbccdcdefgffeefgfeeeedfcgggggggglcgeeeefgedcdeegeedaaaa",
"aaddfcbcbdccbcdddeggggggggfgggddpkghghgkgfecedefgfggggfdeefdaaaa",
"aaedfdcdcccdcccdeeccfedcbggdcbgdcfckqkglcdcddefgggeeeegggefeaaaa",
"aafdeddccbccccdcccdedcccccdddcegdcpccppcpcddefgfeeeeddceegfeaaaa",
"aafededddccbcdbccddddddcdddeeeglgeqfffeeqdddefgfeeeddecfeefeaaaa",
"aaafdfeddddcdbcccddddedddefffefhgddddddddddefggffdeeececeeefeaaa",
"aaagfefeeddddbcddcdeededefgggffkhgqdddddddefgggedcddfefeecefeaaa",
"aaaaggffffeedcccddcddeeeeggdegggjgdddddddeefggfdeededecefeffeaaa",
"aaaaaagggggfecddcddedcddeefggefghgeededeeefgggfeffeeefefeefgaaaa",
"aaaaaaaaaaggeddedcddeedcddcdfgeglgfeeeeefggfggfgedeeeeceeffeaaaa",
"aaaaaaaaagfegeddddddefeecbbeelgfggggggggggfgfgfeeefgdeefffgeaaaa",
"aaaaaaaaageegfcdedcbdegedcddfhkgggggggggfeggfggffggeefgffggaaaaa",
"aaaaaaaagfeefgeddeccddeggfeeghjjjjhlgffeeeggffgggfefggfeggaaaaaa",
"aaaaaaaagfeffgfccfedccddggffglhhhllgdcddefgfffffgffgffgggaaaaaaa",
"aaaaaaaagfffgggedefedbbcdggggggggggcdddeeggffeffgggggggaaaaaaaaa",
"aaaaaaaagffgggggecefgcbcdeffgggdddddddeefgffeffgggggfaaaaaaaaaaa",
"aaaaaaaaagfggggggdccfgddeghhjjhggdddeeefgffeeffgfgfgfeaaaaaaaaaa",
"aaaaaaaaaagggggggdcbcfggfgekhjjhhlgeeefggfeeffgfgfgfgfaaaaaaaaaa",
"aaaaaaaaaagfgfgfggccdefggggggggggeeeffgffeeefgfffffffgfaaaaaaaaa",
"aaaaaaaaaaggffffffgdegkhhklggffgggggggffedefgffefeeeefgaaaaaaaaa",
"aaaaaaaaaggfffefeffgggglhjjjhlgffffffffeeefgfeeeededeeffaaaaaaaa",
"aaaaaaaaagfffefefefeffgggggggefefffefeedefgfefeedeceecffaaaaaaaa",
"aaaaaaaaaffeeeeeeeefeffgggffedeeeeeeeddefggffeecefedfeeffaaaaaaa",
"aaaaaaaaafeeeceeeeeefefggggffeedcccddeefggffeffeddddeceefaaaaaaa",
"aaaaaaaaafeefeeeeceeeffgggggffeedddeeefggggffeededddfeeefaaaaaaa",
"aaaaaaaaaeeecdedfeeefefggggggfffeeeeffgggggggfeedecddecefaaaaaaa",
"aaaaaaaaaeedfecdedeeeefggggfagfffffffgegggggggeeefeecfefffaaaaaa",
"aaaaaaaaadeedddeceeeeefggggfaaggfffggaegggggggfeeeefeeeeefaaaaaa",
"aaaaaaaaadeddddfedeeeffgggfaaaaagggaaafggggggggfeeeeeeecefaaaaaa",
"aaaaaaaaadeeddecddeeeegggfaaaaaaaaaaaafggggggggfeeecefeeefaaaaaa",
"aaaaaaaaadeeddfedeceeffgfeaaaaaaaaaaafffgggggggfeefeeeeeeeeeaaaa",
"aaaaaaaaadeedecddedeefggggfaaaaaaaaafgggggggggggfeeeeeeeeeddeaaa",
"aaaaaaaaadeeefededeeefgggggaaaaaaaaafgggggggggggfddeeeddeedcdeaa",
"aaaaaaaddeeeeeeeeeeeefggggraaaaaaaaagggggggrrgggfcdeeedddeeddeaa",
"aaaaaaddcdfddeefefeeddfgrrraaaaaaaaasrggrrrrrrgfeddeeeedpdeeeeea",
"aaaaaafddefdddeefeedcddfgtaaaaaaaaaasssssaatrrrfeeeefeeedeffeefa",
"aaaaaageefdpdeffgfeedddfgaaaaaaaaaaaatttaaaaaaafeeeggfeeeefgggaa",
"aaaaaaaggfdddfggggfeedgtaaaaaaaaaaaaaaaaaaaaaaaaggguageeeeguaaaa",
"aaaaaaaaafedegraaaggggraaaaaaaaaaaaaaaaaaaaaaaaaaaaaaaggggaaaaaa",
"aaaaaaaaaagggraaaaaaaaaaaaaaaaaaaaaaaaaaaaaaaaaaaaaaaaaaaaaaaaaa"
};