/* XPM */
static const char *enemy_floor3_blue_guard_walking_f06[] = {
/* columns rows colors chars-per-pixel */
"64 64 21 1",
"! c None",
"# c #000000",
"$ c #5C340C",
"% c #94602C",
"& c #684018",
"' c #A06C3C",
"( c #A8784C",
") c #4C78A8",
"* c #5884B0",
"+ c #6C90BC",
", c #3C6CA0",
"- c #346090",
". c #244870",
"/ c #2C5480",
"0 c #142840",
"1 c #183450",
"2 c #2C2C2C",
"3 c #3C3C3C",
"4 c #4C4C4C",
"5 c #980088",
"6 c #141414",
"!!!!!!!!!!!!!!!!!!!!!!!!!!!!!!!!!!!!!!!!!!!!!!!!!!!!!!!!!!!!!!!!",
"!!!!!!!!!!!!!!!!!!!!!!!!!!!!!!!!!!!!!!!!!!!!!!!!!!!!!!!!!!!!!!!!",
"!!!!!!!!!!!!!!!!!!!!!!!!!!!!!!!!!!!!!!!!!!!!!!!!!!!!!!!!!!!!!!!!",
"!!!!!!!!!!!!!!!!!!!!!!!!!!!!!!!!!!!!!!!!!!!!!!!!!!!!!!!!!!!!!!!!",
"!!!!!!!!!!!!!!!!!!!!!!!!!!!!!!!!!!!!!!!!!!!!!!!!!!!!!!!!!!!!!!!!",
"!!!!!!!!!!!!!!!!!!!!!!!!!!!!!!!!!!!!!!!!!!!!!!!!!!!!!!!!!!!!!!!!",
"!!!!!!!!!!!!!!!!!!!!!!!!!!!!!!!!!!!!!!!!!!!!!!!!!!!!!!!!!!!!!!!!",
"!!!!!!!!!!!!!!!!!!!!!!!!!!!!!!!!!!!!!!!!!!!!!!!!!!!!!!!!!!!!!!!!",
"!!!!!!!!!!!!!!!!!!!!!!!!!!!!!!!!!!!!!!!!!!!!!!!!!!!!!!!!!!!!!!!!",
"!!!!!!!!!!!!!!!!!!!!!!!!!!!!!!!!!!!!!!!!!!!!!!!!!!!!!!!!!!!!!!!!",
"!!!!!!!!!!!!!!!!!!!!!!!!!!!!!!!!!!!!!!!!!!!!!!!!!!!!!!!!!!!!!!!!",
"!!!!!!!!!!!!!!!!!!!!!!!!!!!!!!!!!!!!!!!!!!!!!!!!!!!!!!!!!!!!!!!!",
"!!!!!!!!!!!!!!!!!!!!!!!!!!!!!!!!!!!!!!!!!!!!!!!!!!!!!!!!!!!!!!!!",
"!!!!!!!!!!!!!!!!!!!!!!!!!!!!!!!!!#!!!!!!!!!!!!!!!!!!!!!!!!!!!!!!",
"!!!!!!!!!!!!!!!!!!!!!!!!!!!!!#$##$#$!!!!!!!!!!!!!!!!!!!!!!!!!!!!",
"!!!!!!!!!!!!!!!!!!!!!!!!!!!####$#####!!!!!!!!!!!!!!!!!!!!!!!!!!!",
"!!!!!!!!!!!!!!!!!!!!!!!!!!#$#######$##!!!!!!!!!!!!!!!!!!!!!!!!!!",
"!!!!!!!!!!!!!!!!!!!!!!!!!!!#######$###!!!!!!!!!!!!!!!!!!!!!!!!!!",
"!!!!!!!!!!!!!!!!!!!!!!!!!!#$#########$#!!!!!!!!!!!!!!!!!!!!!!!!!",
"!!!!!!!!!!!!!!!!!!!!!!!!!!$###########$!!!!!!!!!!!!!!!!!!!!!!!!!",
"!!!!!!!!!!!!!!!!!!!!!!!!!!%##$########%!!!!!!!!!!!!!!!!!!!!!!!!!",
"!!!!!!!!!!!!!!!!!!!!!!!!!!$&##$####$#&$!!!!!!!!!!!!!!!!!!!!!!!!!",
"!!!!!!!!!!!!!!!!!!!!!!!!!!!&'(('%'(('&!!!!!!!!!!!!!!!!!!!!!!!!!!",
"!!!!!!!!!!!!!!!!!!!!!!!!!!!%)**+++**)%!!!!!!!!!!!!!!!!!!!!!!!!!!",
"!!!!!!!!!!!!!!!!!!!!!!+*,!!)---------)!!,*+!!!!!!!!!!!!!!!!!!!!!",
"!!!!!!!!!!!!!!!!!!!!++*),.)--///.///--).,)*++!!!!!!!!!!!!!!!!!!!",
"!!!!!!!!!!!!!!!!!!!+*)),-0-,,-------,,-0-,))*+!!!!!!!!!!!!!!!!!!",
"!!!!!!!!!!!!!!!!!!*))),-/0--,,--/--,,--0/-,)))*!!!!!!!!!!!!!!!!!",
"!!!!!!!!!!!!!!!!!!/-,--/10------/------01/--,-/!!!!!!!!!!!!!!!!!",
"!!!!!!!!!!!!!!!!!!01./.10.-//---.---//-.01./.10!!!!!!!!!!!!!!!!!",
"!!!!!!!!!!!!!!!!!!!000000/-,----.------/000000!!!!!!!!!!!!!!!!!!",
"!!!!!!!!!!!!!!!!!!0.///.0/---//-0-//-///0.///.0!!!!!!!!!!!!!!!!!",
"!!!!!!!!!!!!!!!!!!0-,-,/0///----0---,-//0/,-,-0!!!!!!!!!!!!!!!!!",
"!!!!!!!!!!!!!!!!!!0/-/-.0.-,,--/0/-////.0.-/-/0!!!!!!!!!!!!!!!!!",
"!!!!!!!!!!!!!!!!!!0././00./----.0.-,,-/.00/./.0!!!!!!!!!!!!!!!!!",
"!!!!!!!!!!!!!!!!!!0----/0....//...//....0/----0!!!!!!!!!!!!!!!!!",
"!!!!!!!!!!!!!!!!!!0/--/.1##22334443322##1./--/0!!!!!!!!!!!!!!!!!",
"!!!!!!!!!!!!!!!!!!00//.10###############01.//00!!!!!!!!!!!!!!!!!",
"!!!!!!!!!!!!!!!!!!!#0000#11./////////.11#0000#!!!!!!!!!!!!!!!!!!",
"!!!!!!!!!!!!!!!!!!!#4332#./----,,,----/.#2334#!!!!!!!!!!!!!!!!!!",
"!!!!!!!!!!!!!!!!!!!!#322#1./---------/.1#223#!!!!!!!!!!!!!!!!!!!",
"!!!!!!!!!!!!!!!!!!!!#423#/---,,,,,,,---/#324#!!!!!!!!!!!!!!!!!!!",
"!!!!!!!!!!!!!!!!!!!!!####-/.100000001./-####!!!!!!!!!!!!!!!!!!!!",
"!!!!!!!!!!!!!!!!!!!!!!!!#0./-,-/./-,-/.0#!!!!!!!!!!!!!!!!!!!!!!!",
"!!!!!!!!!!!!!!!!!!!!!!!!01///////-----/10!!!!!!!!!!!!!!!!!!!!!!!",
"!!!!!!!!!!!!!!!!!!!!!!!!0..111000/---/.10!!!!!!!!!!!!!!!!!!!!!!!",
"!!!!!!!!!!!!!!!!!!!!!!!!0......10011..1/0!!!!!!!!!!!!!!!!!!!!!!!",
"!!!!!!!!!!!!!!!!!!!!!!!!0/......0/-----.0!!!!!!!!!!!!!!!!!!!!!!!",
"!!!!!!!!!!!!!!!!!!!!!!!!0./,,-/.0////..10!!!!!!!!!!!!!!!!!!!!!!!",
"!!!!!!!!!!!!!!!!!!!!!!!!0/--,,-/0/----/.0!!!!!!!!!!!!!!!!!!!!!!!",
"!!!!!!!!!!!!!!!!!!!!!!!!!0/-000/0/.0.//0!!!!!!!!!!!!!!!!!!!!!!!!",
"!!!!!!!!!!!!!!!!!!!!!!!!!#.####.0.-,,-/0!!!!!!!!!!!!!!!!!!!!!!!!",
"!!!!!!!!!!!!!!!!!!!!!!!!!##2432#0/,---.0!!!!!!!!!!!!!!!!!!!!!!!!",
"!!!!!!!!!!!!!!!!!!!!!!!!!#2####20/-/-/.0!!!!!!!!!!!!!!!!!!!!!!!!",
"!!!!!!!!!!!!!!!!!!!!!!!!!!#242##0.///.0!!!!!!!!!!!!!!!!!!!!!!!!!",
"!!!!!!!!!!!!!!!!!!!!!!!!!!######01...10!!!!!!!!!!!!!!!!!!!!!!!!!",
"!!!!!!!!!!!!!!!!!!!!!!!!!!#####5#0110#!!!!!!!!!!!!!!!!!!!!!!!!!!",
"!!!!!!!!!!!!!!!!!!!!!!!!!!#######2342#!!!!!!!!!!!!!!!!!!!!!!!!!!",
"!!!!!!!!!!!!!!!!!!!!!!!!!########2232#!!!!!!!!!!!!!!!!!!!!!!!!!!",
"!!!!!!!!!!!!!!!!!!!!!!!!!########2343##!!!!!!!!!!!!!!!!!!!!!!!!!",
"!!!!!!!!!!!!!!!!!!!!!!!!!!#####!#####22#!!!!!!!!!!!!!!!!!!!!!!!!",
"!!!!!!!!!!!!!!!!!!!!!!!!!!!666!!#24322##!!!!!!!!!!!!!!!!!!!!!!!!",
"!!!!!!!!!!!!!!!!!!!!!!!!!!!!!!!!######!!!!!!!!!!!!!!!!!!!!!!!!!!",
"!!!!!!!!!!!!!!!!!!!!!!!!!!!!!!!!!!!!!!!!!!!!!!!!!!!!!!!!!!!!!!!!"
};