/* XPM */
static const char *enemy_floor3_blue_guard_walking_f09[] = {
/* columns rows colors chars-per-pixel */
"64 64 26 1",
"! c None",
"# c #000000",
"$ c #5C340C",
"% c #A06C3C",
"& c #A8784C",
"' c #B08458",
"( c #94602C",
") c #805424",
"* c #C4A080",
"+ c #643000",
", c #684018",
"- c #4C78A8",
". c #346090",
"/ c #6C90BC",
"0 c #5884B0",
"1 c #3C6CA0",
"2 c #2C5480",
"3 c #244870",
"4 c #183450",
"5 c #142840",
"6 c #C4C824",
"7 c #2C2C2C",
"8 c #3C3C3C",
"9 c #4C4C4C",
": c #5C5C5C",
"; c #141414",
"!!!!!!!!!!!!!!!!!!!!!!!!!!!!!!!!!!!!!!!!!!!!!!!!!!!!!!!!!!!!!!!!",
"!!!!!!!!!!!!!!!!!!!!!!!!!!!!!!!!!!!!!!!!!!!!!!!!!!!!!!!!!!!!!!!!",
"!!!!!!!!!!!!!!!!!!!!!!!!!!!!!!!!!!!!!!!!!!!!!!!!!!!!!!!!!!!!!!!!",
"!!!!!!!!!!!!!!!!!!!!!!!!!!!!!!!!!!!!!!!!!!!!!!!!!!!!!!!!!!!!!!!!",
"!!!!!!!!!!!!!!!!!!!!!!!!!!!!!!!!!!!!!!!!!!!!!!!!!!!!!!!!!!!!!!!!",
"!!!!!!!!!!!!!!!!!!!!!!!!!!!!!!!!!!!!!!!!!!!!!!!!!!!!!!!!!!!!!!!!",
"!!!!!!!!!!!!!!!!!!!!!!!!!!!!!!!!!!!!!!!!!!!!!!!!!!!!!!!!!!!!!!!!",
"!!!!!!!!!!!!!!!!!!!!!!!!!!!!!!!!!!!!!!!!!!!!!!!!!!!!!!!!!!!!!!!!",
"!!!!!!!!!!!!!!!!!!!!!!!!!!!!!!!!!!!!!!!!!!!!!!!!!!!!!!!!!!!!!!!!",
"!!!!!!!!!!!!!!!!!!!!!!!!!!!!!!!!!!!!!!!!!!!!!!!!!!!!!!!!!!!!!!!!",
"!!!!!!!!!!!!!!!!!!!!!!!!!!!!!!!!!!!!!!!!!!!!!!!!!!!!!!!!!!!!!!!!",
"!!!!!!!!!!!!!!!!!!!!!!!!!!!!!!!!!!!!!!!!!!!!!!!!!!!!!!!!!!!!!!!!",
"!!!!!!!!!!!!!!!!!!!!!!!!!!!!!!!!!!!!!!!!!!!!!!!!!!!!!!!!!!!!!!!!",
"!!!!!!!!!!!!!!!!!!!!!!!!!!!!!!!!!!!!!!!!!!!!!!!!!!!!!!!!!!!!!!!!",
"!!!!!!!!!!!!!!!!!!!!!!!!!!!!!#!!!!!!!!!!!!!!!!!!!!!!!!!!!!!!!!!!",
"!!!!!!!!!!!!!!!!!!!!!!!!!!$#$#####!!!!!!!!!!!!!!!!!!!!!!!!!!!!!!",
"!!!!!!!!!!!!!!!!!!!!!!!!!##$########!!!!!!!!!!!!!!!!!!!!!!!!!!!!",
"!!!!!!!!!!!!!!!!!!!!!!!!!%##%#####$##!!!!!!!!!!!!!!!!!!!!!!!!!!!",
"!!!!!!!!!!!!!!!!!!!!!!!!%&#'&%%####$#!!!!!!!!!!!!!!!!!!!!!!!!!!!",
"!!!!!!!!!!!!!!!!!!!!!!!!$#'$#$(%)$###!!!!!!!!!!!!!!!!!!!!!!!!!!!",
"!!!!!!!!!!!!!!!!!!!!!!!!%$%)$)(()##)#!!!!!!!!!!!!!!!!!!!!!!!!!!!",
"!!!!!!!!!!!!!!!!!!!!!!!!*'*%(*&(##$)#!!!!!!!!!!!!!!!!!!!!!!!!!!!",
"!!!!!!!!!!!!!!!!!!!!!!!!(#)#$'%))%%#!!!!!!!!!!!!!!!!!!!!!!!!!!!!",
"!!!!!!!!!!!!!!!!!!!!!!!!)+++)%&&%%$(!!!!!!!!!!!!!!!!!!!!!!!!!!!!",
"!!!!!!!!!!!!!!!!!!!!!!!!!)'(),)%$$(-.-/////!!!!!!!!!!!!!!!!!!!!!",
"!!!!!!!!!!!!!!!!!!!!!!!!!$,,,$$$---.-.-0000/!!!!!!!!!!!!!!!!!!!!",
"!!!!!!!!!!!!!!!!!!!!!///--)%()--1.2342..1-00/!!!!!!!!!!!!!!!!!!!",
"!!!!!!!!!!!!!!!!!!!!/-..2.----1..--5432...1--!!!!!!!!!!!!!!!!!!!",
"!!!!!!!!!!!!!!!!!!!/-..322.....--1.25433222.2!!!!!!!!!!!!!!!!!!!",
"!!!!!!!!!!!!!!!!!!!-.345.1-----1.2..2455555455!!!!!!!!!!!!!!!!!!",
"!!!!!!!!!!!!!!!!!!!554535........666.2352.12.25!!!!!!!!!!!!!!!!!",
"!!!!!!!!!!!!!!!!!!!422525%21%22.4666..235324..4!!!!!!!!!!!!!!!!!",
"!!!!!!!!!!!!!!!!!!52..4352....11444...23454.124!!!!!!!!!!!!!!!!!",
"!!!!!!!!!!!!!!!!!!5.1124532............235###35!!!!!!!!!!!!!!!!!",
"!!!!!!!!!!!!!!!!!!5.####55%21%22.......23#789#5!!!!!!!!!!!!!!!!!",
"!!!!!!!!!!!!!!!!!!5#7897#552..........22#78988#!!!!!!!!!!!!!!!!!",
"!!!!!!!!!!!!!!!!!!!#888#8#35%21%22...223##8:87!!!!!!!!!!!!!!!!!!",
"!!!!!!!!!!!!!!!!!!!#78#7#542532....22234#7778#!!!!!!!!!!!!!!!!!!",
"!!!!!!!!!!!!!!!!!!!!####!55435543222345######!!!!!!!!!!!!!!!!!!!",
"!!!!!!!!!!!!!!!!!!!!!!!!!!!5555555555###35!!!!!!!!!!!!!!!!!!!!!!",
"!!!!!!!!!!!!!!!!!!!!!!!!!!!!##:##:####32.5!!!!!!!!!!!!!!!!!!!!!!",
"!!!!!!!!!!!!!!!!!!!!!!!!!!!53.1252.1111.25!!!!!!!!!!!!!!!!!!!!!!",
"!!!!!!!!!!!!!!!!!!!!!!!!!!!52.253522.1.255!!!!!!!!!!!!!!!!!!!!!!",
"!!!!!!!!!!!!!!!!!!!!!!!!!!!!55532355555535!!!!!!!!!!!!!!!!!!!!!!",
"!!!!!!!!!!!!!!!!!!!!!!!!!!!!5323552.1.2345!!!!!!!!!!!!!!!!!!!!!!",
"!!!!!!!!!!!!!!!!!!!!!!!!!!!!54352....1.25!!!!!!!!!!!!!!!!!!!!!!!",
"!!!!!!!!!!!!!!!!!!!!!!!!!!!!!552.11....35!!!!!!!!!!!!!!!!!!!!!!!",
"!!!!!!!!!!!!!!!!!!!!!!!!!!!!!52....12.25!!!!!!!!!!!!!!!!!!!!!!!!",
"!!!!!!!!!!!!!!!!!!!!!!!!!!!!53...22..255!!!!!!!!!!!!!!!!!!!!!!!!",
"!!!!!!!!!!!!!!!!!!!!!!!!!!!!52....1325235!!!!!!!!!!!!!!!!!!!!!!!",
"!!!!!!!!!!!!!!!!!!!!!!!!!!!53.11.3.1351.5!!!!!!!!!!!!!!!!!!!!!!!",
"!!!!!!!!!!!!!!!!!!!!!!!!!!!52....25252.25#!!!!!!!!!!!!!!!!!!!!!!",
"!!!!!!!!!!!!!!!!!!!!!!!!!!!5322.1.35432589#!!!!!!!!!!!!!!!!!!!!!",
"!!!!!!!!!!!!!!!!!!!!!!!!!!!52.11..355557787#!!!!!!!!!!!!!!!!!!!!",
"!!!!!!!!!!!!!!!!!!!!!!!!!!!532...25!!!#77789#!!!!!!!!!!!!!!!!!!!",
"!!!!!!!!!!!!!!!!!!!!!!!!!!!54322345!!!!#8877#!!!!!!!!!!!!!!!!!!!",
"!!!!!!!!!!!!!!!!!!!!!!!!!!!!555555!!!!!!#787#!!!!!!!!!!!!!!!!!!!",
"!!!!!!!!!!!!!!!!!!!!!!!!!!!!#8987#!!!!!!#77#!!!!!!!!!!!!!!!!!!!!",
"!!!!!!!!!!!!!!!!!!!!!!!!!!!!#7877#!!!!!#787#!!!!!!!!!!!!!!!!!!!!",
"!!!!!!!!!!!!!!!!!!!!!!!!!!!!#8:87#!!!!!####!!!!!!!!!!!!!!!!!!!!!",
"!!!!!!!!!!!!!!!!!!!!!!!!!!!!#787#!!!!!!!!!!!!!!!!!!!!!!!!!!!!!!!",
"!!!!!!!!!!!!!!!!!!!!!!!!!!!#78987#!!!!!!!!!!!!!!!!!!!!!!!!!!!!!!",
"!!!!!!!!!!!!!!!!!!!!!!!!!!#7897###!!!!!!!!!!!!!!!!!!!!!!!!!!!!!!",
"!!!!!!!!!!!!!!!!!!!!!!!!!######;;!!!!!!!!!!!!!!!!!!!!!!!!!!!!!!!"
};