/* XPM */
static const char *enemy_floor3_blue_guard_walking_f03[] = {
/* columns rows colors chars-per-pixel */
"64 64 28 1",
"! c None",
"# c #000000",
"$ c #5C340C",
"% c #805424",
"& c #A06C3C",
"' c #A8784C",
"( c #B08458",
") c #94602C",
"* c #402810",
"+ c #C4A080",
", c #684018",
"- c #643000",
". c #6C90BC",
"/ c #5884B0",
"0 c #3C6CA0",
"1 c #4C78A8",
"2 c #244870",
"3 c #346090",
"4 c #142840",
"5 c #2C5480",
"6 c #183450",
"7 c #0C1C30",
"8 c #C4C824",
"9 c #5C5C5C",
": c #4C4C4C",
"; c #3C3C3C",
"< c #2C2C2C",
"= c #7C7C7C",
"!!!!!!!!!!!!!!!!!!!!!!!!!!!!!!!!!!!!!!!!!!!!!!!!!!!!!!!!!!!!!!!!",
"!!!!!!!!!!!!!!!!!!!!!!!!!!!!!!!!!!!!!!!!!!!!!!!!!!!!!!!!!!!!!!!!",
"!!!!!!!!!!!!!!!!!!!!!!!!!!!!!!!!!!!!!!!!!!!!!!!!!!!!!!!!!!!!!!!!",
"!!!!!!!!!!!!!!!!!!!!!!!!!!!!!!!!!!!!!!!!!!!!!!!!!!!!!!!!!!!!!!!!",
"!!!!!!!!!!!!!!!!!!!!!!!!!!!!!!!!!!!!!!!!!!!!!!!!!!!!!!!!!!!!!!!!",
"!!!!!!!!!!!!!!!!!!!!!!!!!!!!!!!!!!!!!!!!!!!!!!!!!!!!!!!!!!!!!!!!",
"!!!!!!!!!!!!!!!!!!!!!!!!!!!!!!!!!!!!!!!!!!!!!!!!!!!!!!!!!!!!!!!!",
"!!!!!!!!!!!!!!!!!!!!!!!!!!!!!!!!!!!!!!!!!!!!!!!!!!!!!!!!!!!!!!!!",
"!!!!!!!!!!!!!!!!!!!!!!!!!!!!!!!!!!!!!!!!!!!!!!!!!!!!!!!!!!!!!!!!",
"!!!!!!!!!!!!!!!!!!!!!!!!!!!!!!!!!!!!!!!!!!!!!!!!!!!!!!!!!!!!!!!!",
"!!!!!!!!!!!!!!!!!!!!!!!!!!!!!!!!!!!!!!!!!!!!!!!!!!!!!!!!!!!!!!!!",
"!!!!!!!!!!!!!!!!!!!!!!!!!!!!!!!!!!!!!!!!!!!!!!!!!!!!!!!!!!!!!!!!",
"!!!!!!!!!!!!!!!!!!!!!!!!!!!!!!!!!!!!!!!!!!!!!!!!!!!!!!!!!!!!!!!!",
"!!!!!!!!!!!!!!!!!!!!!!!!!!!!!!!#!!!!!!!!!!!!!!!!!!!!!!!!!!!!!!!!",
"!!!!!!!!!!!!!!!!!!!!!!!!!!!!!##$##$#!!!!!!!!!!!!!!!!!!!!!!!!!!!!",
"!!!!!!!!!!!!!!!!!!!!!!!!!!!!##$##$####!!!!!!!!!!!!!!!!!!!!!!!!!!",
"!!!!!!!!!!!!!!!!!!!!!!!!!!!##%&&##&##$#!!!!!!!!!!!!!!!!!!!!!!!!!",
"!!!!!!!!!!!!!!!!!!!!!!!!!!!#%&'(#('&%#!!!!!!!!!!!!!!!!!!!!!!!!!!",
"!!!!!!!!!!!!!!!!!!!!!!!!!!##&$#$($#$&$#!!!!!!!!!!!!!!!!!!!!!!!!!",
"!!!!!!!!!!!!!!!!!!!!!!!!!!#$)%*%&%*%)#$!!!!!!!!!!!!!!!!!!!!!!!!!",
"!!!!!!!!!!!!!!!!!!!!!!!!!!&#'+(&+&(+'#&!!!!!!!!!!!!!!!!!!!!!!!!!",
"!!!!!!!!!!!!!!!!!!!!!!!!!!,$&($#%#$(&$,!!!!!!!!!!!!!!!!!!!!!!!!!",
"!!!!!!!!!!!!!!!!!!!!!!!!!!!,%'%---%'%,!!!!!!!!!!!!!!!!!!!!!!!!!!",
"!!!!!!!!!!!!!!!!!!!!!!./0!!!,%&'('&%,!!!!!!!!!!!!!!!!!!!!!!!!!!!",
"!!!!!!!!!!!!!!!!!!!!../102330$,%)%,$0!!!!!!!!!!!!!!!!!!!!!!!!!!!",
"!!!!!!!!!!!!!!!!!!!./110343015%)&)%510!!0/.!!!!!!!!!!!!!!!!!!!!!",
"!!!!!!!!!!!!!!!!!!/11103543101111111333201/..!!!!!!!!!!!!!!!!!!!",
"!!!!!!!!!!!!!!!!!!25333242353333333013343011/.!!!!!!!!!!!!!!!!!!",
"!!!!!!!!!!!!!!!!!!!264422333011111113534530111/!!!!!!!!!!!!!!!!!",
"!!!!!!!!!!!!!!!!!!42527533323333333553324233352!!!!!!!!!!!!!!!!!",
"!!!!!!!!!!!!!!!!!!430545333432&252&22388824462!!!!!!!!!!!!!!!!!!",
"!!!!!!!!!!!!!!!!!!45354533243553000336888535454!!!!!!!!!!!!!!!!!",
"!!!!!!!!!!!!!!!!!!42524533243533333336663503234!!!!!!!!!!!!!!!!!",
"!!!!!!!!!!!!!!!!!!632472332432&###&223335433534!!!!!!!!!!!!!!!!!",
"!!!!!!!!!!!!!!!!!!653546532435#9:;#####44425554!!!!!!!!!!!!!!!!!",
"!!!!!!!!!!!!!!!!!!4#;<<6252423#<;;;:;<;#333254!!!!!!!!!!!!!!!!!!",
"!!!!!!!!!!!!!!!!!!!#:;<4622242#:;;<;:;:#003354!!!!!!!!!!!!!!!!!!",
"!!!!!!!!!!!!!!!!!!!#:<#<466242#;;<<;<;;#33354!!!!!!!!!!!!!!!!!!!",
"!!!!!!!!!!!!!!!!!!!#;;<#####242####<<<<#5564!!!!!!!!!!!!!!!!!!!!",
"!!!!!!!!!!!!!!!!!!!!####422####=#######444!!!!!!!!!!!!!!!!!!!!!!",
"!!!!!!!!!!!!!!!!!!!!!!!!73522##9###9#4224!!!!!!!!!!!!!!!!!!!!!!!",
"!!!!!!!!!!!!!!!!!!!!!!!!44355522545553527!!!!!!!!!!!!!!!!!!!!!!!",
"!!!!!!!!!!!!!!!!!!!!!!!!42445335424335444!!!!!!!!!!!!!!!!!!!!!!!",
"!!!!!!!!!!!!!!!!!!!!!!!!45354444252444624!!!!!!!!!!!!!!!!!!!!!!!",
"!!!!!!!!!!!!!!!!!!!!!!!!45303326742533554!!!!!!!!!!!!!!!!!!!!!!!",
"!!!!!!!!!!!!!!!!!!!!!!!!42255552765303354!!!!!!!!!!!!!!!!!!!!!!!",
"!!!!!!!!!!!!!!!!!!!!!!!!45303535465333354!!!!!!!!!!!!!!!!!!!!!!!",
"!!!!!!!!!!!!!!!!!!!!!!!!45303355462533324!!!!!!!!!!!!!!!!!!!!!!!",
"!!!!!!!!!!!!!!!!!!!!!!!465533352465333554!!!!!!!!!!!!!!!!!!!!!!!",
"!!!!!!!!!!!!!!!!!!!!!!!425330332725553524!!!!!!!!!!!!!!!!!!!!!!!",
"!!!!!!!!!!!!!!!!!!!!!!!422533335462533564!!!!!!!!!!!!!!!!!!!!!!!",
"!!!!!!!!!!!!!!!!!!!!!!!465530035274255247!!!!!!!!!!!!!!!!!!!!!!!",
"!!!!!!!!!!!!!!!!!!!!!!!!4255335224<44477!!!!!!!!!!!!!!!!!!!!!!!!",
"!!!!!!!!!!!!!!!!!!!!!!!!!425522524<<<<#!!!!!!!!!!!!!!!!!!!!!!!!!",
"!!!!!!!!!!!!!!!!!!!!!!!!!46255524#####!!!!!!!!!!!!!!!!!!!!!!!!!!",
"!!!!!!!!!!!!!!!!!!!!!!!!!!444444#<<<<#!!!!!!!!!!!!!!!!!!!!!!!!!!",
"!!!!!!!!!!!!!!!!!!!!!!!!!!#<<<<<#<:;<#!!!!!!!!!!!!!!!!!!!!!!!!!!",
"!!!!!!!!!!!!!!!!!!!!!!!!!!#<;:;<#<;<<#!!!!!!!!!!!!!!!!!!!!!!!!!!",
"!!!!!!!!!!!!!!!!!!!!!!!!!!#<<<<<#####!!!!!!!!!!!!!!!!!!!!!!!!!!!",
"!!!!!!!!!!!!!!!!!!!!!!!!!!#<;;<#!!!!!!!!!!!!!!!!!!!!!!!!!!!!!!!!",
"!!!!!!!!!!!!!!!!!!!!!!!!!!!#<<<#!!!!!!!!!!!!!!!!!!!!!!!!!!!!!!!!",
"!!!!!!!!!!!!!!!!!!!!!!!!!!#<<;<<#!!!!!!!!!!!!!!!!!!!!!!!!!!!!!!!",
"!!!!!!!!!!!!!!!!!!!!!!!!!!#<;9;<#!!!!!!!!!!!!!!!!!!!!!!!!!!!!!!!",
"!!!!!!!!!!!!!!!!!!!!!!!!!!!#####!!!!!!!!!!!!!!!!!!!!!!!!!!!!!!!!"
};