/* XPM */
static const char *enemy_floor3_blue_guard_walking_f29[] = {
/* columns rows colors chars-per-pixel */
"64 64 27 1",
"! c None",
"# c #000000",
"$ c #5C340C",
"% c #A06C3C",
"& c #A8784C",
"' c #B08458",
"( c #805424",
") c #94602C",
"* c #C4A080",
"+ c #643000",
", c #6C90BC",
"- c #4C78A8",
". c #346090",
"/ c #684018",
"0 c #5884B0",
"1 c #3C6CA0",
"2 c #2C5480",
"3 c #183450",
"4 c #244870",
"5 c #142840",
"6 c #C4C824",
"7 c #A4A814",
"8 c #4C4C4C",
"9 c #3C3C3C",
": c #2C2C2C",
"; c #5C5C5C",
"< c #141414",
"!!!!!!!!!!!!!!!!!!!!!!!!!!!!!!!!!!!!!!!!!!!!!!!!!!!!!!!!!!!!!!!!",
"!!!!!!!!!!!!!!!!!!!!!!!!!!!!!!!!!!!!!!!!!!!!!!!!!!!!!!!!!!!!!!!!",
"!!!!!!!!!!!!!!!!!!!!!!!!!!!!!!!!!!!!!!!!!!!!!!!!!!!!!!!!!!!!!!!!",
"!!!!!!!!!!!!!!!!!!!!!!!!!!!!!!!!!!!!!!!!!!!!!!!!!!!!!!!!!!!!!!!!",
"!!!!!!!!!!!!!!!!!!!!!!!!!!!!!!!!!!!!!!!!!!!!!!!!!!!!!!!!!!!!!!!!",
"!!!!!!!!!!!!!!!!!!!!!!!!!!!!!!!!!!!!!!!!!!!!!!!!!!!!!!!!!!!!!!!!",
"!!!!!!!!!!!!!!!!!!!!!!!!!!!!!!!!!!!!!!!!!!!!!!!!!!!!!!!!!!!!!!!!",
"!!!!!!!!!!!!!!!!!!!!!!!!!!!!!!!!!!!!!!!!!!!!!!!!!!!!!!!!!!!!!!!!",
"!!!!!!!!!!!!!!!!!!!!!!!!!!!!!!!!!!!!!!!!!!!!!!!!!!!!!!!!!!!!!!!!",
"!!!!!!!!!!!!!!!!!!!!!!!!!!!!!!!!!!!!!!!!!!!!!!!!!!!!!!!!!!!!!!!!",
"!!!!!!!!!!!!!!!!!!!!!!!!!!!!!!!!!!!!!!!!!!!!!!!!!!!!!!!!!!!!!!!!",
"!!!!!!!!!!!!!!!!!!!!!!!!!!!!!!!!!!!!!!!!!!!!!!!!!!!!!!!!!!!!!!!!",
"!!!!!!!!!!!!!!!!!!!!!!!!!!!!!!!!!!!!!!!!!!!!!!!!!!!!!!!!!!!!!!!!",
"!!!!!!!!!!!!!!!!!!!!!!!!!!!!!!!!!!!!!!!!!!!!!!!!!!!!!!!!!!!!!!!!",
"!!!!!!!!!!!!!!!!!!!!!!!!!!!!!!!!!!!#!!!!!!!!!!!!!!!!!!!!!!!!!!!!",
"!!!!!!!!!!!!!!!!!!!!!!!!!!!!!!!#####$#$!!!!!!!!!!!!!!!!!!!!!!!!!",
"!!!!!!!!!!!!!!!!!!!!!!!!!!!!!########$##!!!!!!!!!!!!!!!!!!!!!!!!",
"!!!!!!!!!!!!!!!!!!!!!!!!!!!!##$#####%##%!!!!!!!!!!!!!!!!!!!!!!!!",
"!!!!!!!!!!!!!!!!!!!!!!!!!!!!#$####%%&'#&%!!!!!!!!!!!!!!!!!!!!!!!",
"!!!!!!!!!!!!!!!!!!!!!!!!!!!!###$(%)$#$'#$!!!!!!!!!!!!!!!!!!!!!!!",
"!!!!!!!!!!!!!!!!!!!!!!!!!!!!#(##())($(%$%!!!!!!!!!!!!!!!!!!!!!!!",
"!!!!!!!!!!!!!!!!!!!!!!!!!!!!#($##)&*)%*'*!!!!!!!!!!!!!!!!!!!!!!!",
"!!!!!!!!!!!!!!!!!!!!!!!!!!!!!#%%((%'$#(#)!!!!!!!!!!!!!!!!!!!!!!!",
"!!!!!!!!!!!!!!!!!!!!!!!!!!!!!)$%%&&%(+++(!!!!!!!!!!!!!!!!!!!!!!!",
"!!!!!!!!!!!!!!!!!!!!!!,,,,,-.-)$$%(/()'(!!!!!!!!!!!!!!!!!!!!!!!!",
"!!!!!!!!!!!!!!!!!!!!!,0000-.-.---$$$///$!!!!!!!!!!!!!!!!!!!!!!!!",
"!!!!!!!!!!!!!!!!!!!!,00-1..2342.1--()%(--,,,!!!!!!!!!!!!!!!!!!!!",
"!!!!!!!!!!!!!!!!!!!!--1...2435--..1----.2..-,!!!!!!!!!!!!!!!!!!!",
"!!!!!!!!!!!!!!!!!!!!2.22244352.1-......224..-,!!!!!!!!!!!!!!!!!!",
"!!!!!!!!!!!!!!!!!!!5535555532..2.1-----1.534.-!!!!!!!!!!!!!!!!!!",
"!!!!!!!!!!!!!!!!!!52.21.2542.1..4.1.....545355!!!!!!!!!!!!!!!!!!",
"!!!!!!!!!!!!!!!!!!3..324542....44122%12%675223!!!!!!!!!!!!!!!!!!",
"!!!!!!!!!!!!!!!!!!321.35342....5.1.....2673..25!!!!!!!!!!!!!!!!!",
"!!!!!!!!!!!!!!!!!!54###542.1..441.....2433211.5!!!!!!!!!!!!!!!!!",
"!!!!!!!!!!!!!!!!!!5#89:#42.11.5.122%12%35####.5!!!!!!!!!!!!!!!!!",
"!!!!!!!!!!!!!!!!!!#9989:#22.1.51.....225#:89:#5!!!!!!!!!!!!!!!!!",
"!!!!!!!!!!!!!!!!!!!:9;9##422..5.2%12%24#9#999#!!!!!!!!!!!!!!!!!!",
"!!!!!!!!!!!!!!!!!!!#9:::#34222451.222235#:#9:#!!!!!!!!!!!!!!!!!!",
"!!!!!!!!!!!!!!!!!!!!######53422454224355!####!!!!!!!!!!!!!!!!!!!",
"!!!!!!!!!!!!!!!!!!!!!!!54###55555555555!!!!!!!!!!!!!!!!!!!!!!!!!",
"!!!!!!!!!!!!!!!!!!!!!!!5.24####;##;##!!!!!!!!!!!!!!!!!!!!!!!!!!!",
"!!!!!!!!!!!!!!!!!!!!!!!52.1111.2521.45!!!!!!!!!!!!!!!!!!!!!!!!!!",
"!!!!!!!!!!!!!!!!!!!!!!!552.1.225452.25!!!!!!!!!!!!!!!!!!!!!!!!!!",
"!!!!!!!!!!!!!!!!!!!!!!!54555555424555!!!!!!!!!!!!!!!!!!!!!!!!!!!",
"!!!!!!!!!!!!!!!!!!!!!!!5342.1.2554245!!!!!!!!!!!!!!!!!!!!!!!!!!!",
"!!!!!!!!!!!!!!!!!!!!!!!!52.1....25435!!!!!!!!!!!!!!!!!!!!!!!!!!!",
"!!!!!!!!!!!!!!!!!!!!!!!!54....11.255!!!!!!!!!!!!!!!!!!!!!!!!!!!!",
"!!!!!!!!!!!!!!!!!!!!!!!!!52.21....25!!!!!!!!!!!!!!!!!!!!!!!!!!!!",
"!!!!!!!!!!!!!!!!!!!!!!!!!552..22...45!!!!!!!!!!!!!!!!!!!!!!!!!!!",
"!!!!!!!!!!!!!!!!!!!!!!!!5425241....25!!!!!!!!!!!!!!!!!!!!!!!!!!!",
"!!!!!!!!!!!!!!!!!!!!!!!!5.1541.4.11.45!!!!!!!!!!!!!!!!!!!!!!!!!!",
"!!!!!!!!!!!!!!!!!!!!!!!#52.25252....25!!!!!!!!!!!!!!!!!!!!!!!!!!",
"!!!!!!!!!!!!!!!!!!!!!!#89524354.1.2245!!!!!!!!!!!!!!!!!!!!!!!!!!",
"!!!!!!!!!!!!!!!!!!!!!#:9::55554..11.25!!!!!!!!!!!!!!!!!!!!!!!!!!",
"!!!!!!!!!!!!!!!!!!!!#89:::#!!!52...245!!!!!!!!!!!!!!!!!!!!!!!!!!",
"!!!!!!!!!!!!!!!!!!!!#::99#!!!!53422435!!!!!!!!!!!!!!!!!!!!!!!!!!",
"!!!!!!!!!!!!!!!!!!!!#:9:#!!!!!!555555!!!!!!!!!!!!!!!!!!!!!!!!!!!",
"!!!!!!!!!!!!!!!!!!!!!#::#!!!!!!#:989#!!!!!!!!!!!!!!!!!!!!!!!!!!!",
"!!!!!!!!!!!!!!!!!!!!!#:9:#!!!!!#::9:#!!!!!!!!!!!!!!!!!!!!!!!!!!!",
"!!!!!!!!!!!!!!!!!!!!!!####!!!!!#:9;9#!!!!!!!!!!!!!!!!!!!!!!!!!!!",
"!!!!!!!!!!!!!!!!!!!!!!!!!!!!!!!!#:9:#!!!!!!!!!!!!!!!!!!!!!!!!!!!",
"!!!!!!!!!!!!!!!!!!!!!!!!!!!!!!!#:989:#!!!!!!!!!!!!!!!!!!!!!!!!!!",
"!!!!!!!!!!!!!!!!!!!!!!!!!!!!!!!###:89:#!!!!!!!!!!!!!!!!!!!!!!!!!",
"!!!!!!!!!!!!!!!!!!!!!!!!!!!!!!!!<<######!!!!!!!!!!!!!!!!!!!!!!!!"
};