/* XPM */
static const char *enemy_floor3_blue_guard_walking_f02[] = {
/* columns rows colors chars-per-pixel */
"64 64 28 1",
"! c None",
"# c #000000",
"$ c #5C340C",
"% c #805424",
"& c #A06C3C",
"' c #A8784C",
"( c #B08458",
") c #94602C",
"* c #402810",
"+ c #C4A080",
", c #684018",
"- c #643000",
". c #3C6CA0",
"/ c #6C90BC",
"0 c #5884B0",
"1 c #4C78A8",
"2 c #2C5480",
"3 c #244870",
"4 c #346090",
"5 c #142840",
"6 c #183450",
"7 c #C4C824",
"8 c #3C3C3C",
"9 c #4C4C4C",
": c #2C2C2C",
"; c #5C5C5C",
"< c #0C1C30",
"= c #7C7C7C",
"!!!!!!!!!!!!!!!!!!!!!!!!!!!!!!!!!!!!!!!!!!!!!!!!!!!!!!!!!!!!!!!!",
"!!!!!!!!!!!!!!!!!!!!!!!!!!!!!!!!!!!!!!!!!!!!!!!!!!!!!!!!!!!!!!!!",
"!!!!!!!!!!!!!!!!!!!!!!!!!!!!!!!!!!!!!!!!!!!!!!!!!!!!!!!!!!!!!!!!",
"!!!!!!!!!!!!!!!!!!!!!!!!!!!!!!!!!!!!!!!!!!!!!!!!!!!!!!!!!!!!!!!!",
"!!!!!!!!!!!!!!!!!!!!!!!!!!!!!!!!!!!!!!!!!!!!!!!!!!!!!!!!!!!!!!!!",
"!!!!!!!!!!!!!!!!!!!!!!!!!!!!!!!!!!!!!!!!!!!!!!!!!!!!!!!!!!!!!!!!",
"!!!!!!!!!!!!!!!!!!!!!!!!!!!!!!!!!!!!!!!!!!!!!!!!!!!!!!!!!!!!!!!!",
"!!!!!!!!!!!!!!!!!!!!!!!!!!!!!!!!!!!!!!!!!!!!!!!!!!!!!!!!!!!!!!!!",
"!!!!!!!!!!!!!!!!!!!!!!!!!!!!!!!!!!!!!!!!!!!!!!!!!!!!!!!!!!!!!!!!",
"!!!!!!!!!!!!!!!!!!!!!!!!!!!!!!!!!!!!!!!!!!!!!!!!!!!!!!!!!!!!!!!!",
"!!!!!!!!!!!!!!!!!!!!!!!!!!!!!!!!!!!!!!!!!!!!!!!!!!!!!!!!!!!!!!!!",
"!!!!!!!!!!!!!!!!!!!!!!!!!!!!!!!!!!!!!!!!!!!!!!!!!!!!!!!!!!!!!!!!",
"!!!!!!!!!!!!!!!!!!!!!!!!!!!!!!!#!!!!!!!!!!!!!!!!!!!!!!!!!!!!!!!!",
"!!!!!!!!!!!!!!!!!!!!!!!!!!!!!##$##$#!!!!!!!!!!!!!!!!!!!!!!!!!!!!",
"!!!!!!!!!!!!!!!!!!!!!!!!!!!!##$##$####!!!!!!!!!!!!!!!!!!!!!!!!!!",
"!!!!!!!!!!!!!!!!!!!!!!!!!!!##%&&##&##$#!!!!!!!!!!!!!!!!!!!!!!!!!",
"!!!!!!!!!!!!!!!!!!!!!!!!!!!#%&'(#('&%#!!!!!!!!!!!!!!!!!!!!!!!!!!",
"!!!!!!!!!!!!!!!!!!!!!!!!!!##&$#$($#$&$#!!!!!!!!!!!!!!!!!!!!!!!!!",
"!!!!!!!!!!!!!!!!!!!!!!!!!!#$)%*%&%*%)#$!!!!!!!!!!!!!!!!!!!!!!!!!",
"!!!!!!!!!!!!!!!!!!!!!!!!!!&#'+(&+&(+'#&!!!!!!!!!!!!!!!!!!!!!!!!!",
"!!!!!!!!!!!!!!!!!!!!!!!!!!,$&($#%#$(&$,!!!!!!!!!!!!!!!!!!!!!!!!!",
"!!!!!!!!!!!!!!!!!!!!!!!!!!!,%'%---%'%,!!!!!!!!!!!!!!!!!!!!!!!!!!",
"!!!!!!!!!!!!!!!!!!!!!!!!!!!!,%&'('&%,!!!!!!!!!!!!!!!!!!!!!!!!!!!",
"!!!!!!!!!!!!!!!!!!!!!!!!!!!!.$,%)%,$.!!!!!!!!!!!!!!!!!!!!!!!!!!!",
"!!!!!!!!!!!!!!!!!!!!!!/0.!!.12%)&)%21.!!.0/!!!!!!!!!!!!!!!!!!!!!",
"!!!!!!!!!!!!!!!!!!!!//01.34441111111.143.10//!!!!!!!!!!!!!!!!!!!",
"!!!!!!!!!!!!!!!!!!!/011.45424444444.14454.110/!!!!!!!!!!!!!!!!!!",
"!!!!!!!!!!!!!!!!!!0111.42544.1111111424524.1110!!!!!!!!!!!!!!!!!",
"!!!!!!!!!!!!!!!!!!32444353434444444224435344423!!!!!!!!!!!!!!!!!",
"!!!!!!!!!!!!!!!!!!!36553244543&323&33477755563!!!!!!!!!!!!!!!!!!",
"!!!!!!!!!!!!!!!!!!52425224354224...446777532235!!!!!!!!!!!!!!!!!",
"!!!!!!!!!!!!!!!!!!52355244354244444446662524445!!!!!!!!!!!!!!!!!",
"!!!!!!!!!!!!!!!!!!344262443543&343&3344425532425!!!!!!!!!!!!!!!!",
"!!!!!!!!!!!!!!!!!5244253443542444..4444426244445!!!!!!!!!!!!!!!!",
"!!!!!!!!!!!!!!!!!32###362435344444444442###84425!!!!!!!!!!!!!!!!",
"!!!!!!!!!!!!!!!!!3#998#6323353&343&45####:89;25!!!!!!!!!!!!!!!!!",
"!!!!!!!!!!!!!!!!!3#898#5633353244443#8#98#:98#5!!!!!!!!!!!!!!!!!",
"!!!!!!!!!!!!!!!!!5#8:#8#566335333335##::###8:#!!!!!!!!!!!!!!!!!!",
"!!!!!!!!!!!!!!!!!!#;98#9###<55<55555<#899##:#!!!!!!!!!!!!!!!!!!!",
"!!!!!!!!!!!!!!!!!!#88:#:#6####=###=###:88###!!!!!!!!!!!!!!!!!!!!",
"!!!!!!!!!!!!!!!!!!#98:##6323##;###;##3####!!!!!!!!!!!!!!!!!!!!!!",
"!!!!!!!!!!!!!!!!!!!###!!533222335332223355!!!!!!!!!!!!!!!!!!!!!!",
"!!!!!!!!!!!!!!!!!!!!!!!!553244253524442535!!!!!!!!!!!!!!!!!!!!!!",
"!!!!!!!!!!!!!!!!!!!!!!!!532555532355555425!!!!!!!!!!!!!!!!!!!!!!",
"!!!!!!!!!!!!!!!!!!!!!!!!544..423553224.425!!!!!!!!!!!!!!!!!!!!!!",
"!!!!!!!!!!!!!!!!!!!!!!!!23224442534444.435!!!!!!!!!!!!!!!!!!!!!!",
"!!!!!!!!!!!!!!!!!!!!!!!!54..4.24534.442265!!!!!!!!!!!!!!!!!!!!!!",
"!!!!!!!!!!!!!!!!!!!!!!!!3.....42524..4425!!!!!!!!!!!!!!!!!!!!!!!",
"!!!!!!!!!!!!!!!!!!!!!!!54244..45322442235!!!!!!!!!!!!!!!!!!!!!!!",
"!!!!!!!!!!!!!!!!!!!!!!!5244..4235634.4265!!!!!!!!!!!!!!!!!!!!!!!",
"!!!!!!!!!!!!!!!!!!!!!!!!3241.4235363223235!!!!!!!!!!!!!!!!!!!!!!",
"!!!!!!!!!!!!!!!!!!!!!!!!532442365324222365!!!!!!!!!!!!!!!!!!!!!!",
"!!!!!!!!!!!!!!!!!!!!!!!!55322365!53244235!!!!!!!!!!!!!!!!!!!!!!!",
"!!!!!!!!!!!!!!!!!!!!!!!!!#5555:#!#533335#!!!!!!!!!!!!!!!!!!!!!!!",
"!!!!!!!!!!!!!!!!!!!!!!!!!#:8:::#!#:5555:#!!!!!!!!!!!!!!!!!!!!!!!",
"!!!!!!!!!!!!!!!!!!!!!!!!!!#####!!#:::::#!!!!!!!!!!!!!!!!!!!!!!!!",
"!!!!!!!!!!!!!!!!!!!!!!!!!!#:8:#!#8:::::#!!!!!!!!!!!!!!!!!!!!!!!!",
"!!!!!!!!!!!!!!!!!!!!!!!!!!#898#!#:898##!!!!!!!!!!!!!!!!!!!!!!!!!",
"!!!!!!!!!!!!!!!!!!!!!!!!!!#888#!#::::#!!!!!!!!!!!!!!!!!!!!!!!!!!",
"!!!!!!!!!!!!!!!!!!!!!!!!!!!###!!!#:88#!!!!!!!!!!!!!!!!!!!!!!!!!!",
"!!!!!!!!!!!!!!!!!!!!!!!!!!!!!!!!!#::::#!!!!!!!!!!!!!!!!!!!!!!!!!",
"!!!!!!!!!!!!!!!!!!!!!!!!!!!!!!!!!#8;98#!!!!!!!!!!!!!!!!!!!!!!!!!",
"!!!!!!!!!!!!!!!!!!!!!!!!!!!!!!!!!!####!!!!!!!!!!!!!!!!!!!!!!!!!!",
"!!!!!!!!!!!!!!!!!!!!!!!!!!!!!!!!!!!!!!!!!!!!!!!!!!!!!!!!!!!!!!!!"
};