/* XPM */
static const char *enemy_floor3_blue_guard_walking_f01[] = {
/* columns rows colors chars-per-pixel */
"64 64 28 1",
"! c None",
"# c #000000",
"$ c #5C340C",
"% c #805424",
"& c #A06C3C",
"' c #A8784C",
"( c #B08458",
") c #94602C",
"* c #402810",
"+ c #C4A080",
", c #684018",
"- c #643000",
". c #3C6CA0",
"/ c #5884B0",
"0 c #6C90BC",
"1 c #346090",
"2 c #244870",
"3 c #4C78A8",
"4 c #2C5480",
"5 c #142840",
"6 c #C4C824",
"7 c #183450",
"8 c #0C1C30",
"9 c #3C3C3C",
": c #4C4C4C",
"; c #5C5C5C",
"< c #2C2C2C",
"= c #7C7C7C",
"!!!!!!!!!!!!!!!!!!!!!!!!!!!!!!!!!!!!!!!!!!!!!!!!!!!!!!!!!!!!!!!!",
"!!!!!!!!!!!!!!!!!!!!!!!!!!!!!!!!!!!!!!!!!!!!!!!!!!!!!!!!!!!!!!!!",
"!!!!!!!!!!!!!!!!!!!!!!!!!!!!!!!!!!!!!!!!!!!!!!!!!!!!!!!!!!!!!!!!",
"!!!!!!!!!!!!!!!!!!!!!!!!!!!!!!!!!!!!!!!!!!!!!!!!!!!!!!!!!!!!!!!!",
"!!!!!!!!!!!!!!!!!!!!!!!!!!!!!!!!!!!!!!!!!!!!!!!!!!!!!!!!!!!!!!!!",
"!!!!!!!!!!!!!!!!!!!!!!!!!!!!!!!!!!!!!!!!!!!!!!!!!!!!!!!!!!!!!!!!",
"!!!!!!!!!!!!!!!!!!!!!!!!!!!!!!!!!!!!!!!!!!!!!!!!!!!!!!!!!!!!!!!!",
"!!!!!!!!!!!!!!!!!!!!!!!!!!!!!!!!!!!!!!!!!!!!!!!!!!!!!!!!!!!!!!!!",
"!!!!!!!!!!!!!!!!!!!!!!!!!!!!!!!!!!!!!!!!!!!!!!!!!!!!!!!!!!!!!!!!",
"!!!!!!!!!!!!!!!!!!!!!!!!!!!!!!!!!!!!!!!!!!!!!!!!!!!!!!!!!!!!!!!!",
"!!!!!!!!!!!!!!!!!!!!!!!!!!!!!!!!!!!!!!!!!!!!!!!!!!!!!!!!!!!!!!!!",
"!!!!!!!!!!!!!!!!!!!!!!!!!!!!!!!!!!!!!!!!!!!!!!!!!!!!!!!!!!!!!!!!",
"!!!!!!!!!!!!!!!!!!!!!!!!!!!!!!!!!!!!!!!!!!!!!!!!!!!!!!!!!!!!!!!!",
"!!!!!!!!!!!!!!!!!!!!!!!!!!!!!!!#!!!!!!!!!!!!!!!!!!!!!!!!!!!!!!!!",
"!!!!!!!!!!!!!!!!!!!!!!!!!!!!!##$##$#!!!!!!!!!!!!!!!!!!!!!!!!!!!!",
"!!!!!!!!!!!!!!!!!!!!!!!!!!!!##$##$####!!!!!!!!!!!!!!!!!!!!!!!!!!",
"!!!!!!!!!!!!!!!!!!!!!!!!!!!##%&&##&##$#!!!!!!!!!!!!!!!!!!!!!!!!!",
"!!!!!!!!!!!!!!!!!!!!!!!!!!!#%&'(#('&%#!!!!!!!!!!!!!!!!!!!!!!!!!!",
"!!!!!!!!!!!!!!!!!!!!!!!!!!##&$#$($#$&$#!!!!!!!!!!!!!!!!!!!!!!!!!",
"!!!!!!!!!!!!!!!!!!!!!!!!!!#$)%*%&%*%)#$!!!!!!!!!!!!!!!!!!!!!!!!!",
"!!!!!!!!!!!!!!!!!!!!!!!!!!&#'+(&+&(+'#&!!!!!!!!!!!!!!!!!!!!!!!!!",
"!!!!!!!!!!!!!!!!!!!!!!!!!!,$&($#%#$(&$,!!!!!!!!!!!!!!!!!!!!!!!!!",
"!!!!!!!!!!!!!!!!!!!!!!!!!!!,%'%---%'%,!!!!!!!!!!!!!!!!!!!!!!!!!!",
"!!!!!!!!!!!!!!!!!!!!!!!!!!!!,%&'('&%,!!!./0!!!!!!!!!!!!!!!!!!!!!",
"!!!!!!!!!!!!!!!!!!!!!!!!!!!!.$,%)%,$.112.3/00!!!!!!!!!!!!!!!!!!!",
"!!!!!!!!!!!!!!!!!!!!!!0/.!!.34%)&)%43.151.33/0!!!!!!!!!!!!!!!!!!",
"!!!!!!!!!!!!!!!!!!!!00/3.21113333333.31541.333/!!!!!!!!!!!!!!!!!",
"!!!!!!!!!!!!!!!!!!!0/33.15141111111.31125211142!!!!!!!!!!!!!!!!!",
"!!!!!!!!!!!!!!!!!!/333.14511.33333331466625572!!!!!!!!!!!!!!!!!!",
"!!!!!!!!!!!!!!!!!!24111252121111111447666482425!!!!!!!!!!!!!!!!!",
"!!!!!!!!!!!!!!!!!!!27555241512&242&227771454.15!!!!!!!!!!!!!!!!!",
"!!!!!!!!!!!!!!!!!!54541454251441...111111454145!!!!!!!!!!!!!!!!!",
"!!!!!!!!!!!!!!!!!!5121.1542514111111111.1452425!!!!!!!!!!!!!!!!!",
"!!!!!!!!!!!!!!!!!!514114542512&###&221.11285217!!!!!!!!!!!!!!!!!",
"!!!!!!!!!!!!!!!!!!54442555#####9:;#111114754147!!!!!!!!!!!!!!!!!",
"!!!!!!!!!!!!!!!!!!!542111#9<9:999<#1111427<<9#5!!!!!!!!!!!!!!!!!",
"!!!!!!!!!!!!!!!!!!!5411..#:9:9<99:#2242275<9:#!!!!!!!!!!!!!!!!!!",
"!!!!!!!!!!!!!!!!!!!!54111#99<9<<99#142775<#<:#!!!!!!!!!!!!!!!!!!",
"!!!!!!!!!!!!!!!!!!!!!5744#<<<<####2225####<99#!!!!!!!!!!!!!!!!!!",
"!!!!!!!!!!!!!!!!!!!!!!!555#######=####225####!!!!!!!!!!!!!!!!!!!",
"!!!!!!!!!!!!!!!!!!!!!!!!5225#;###;##22418!!!!!!!!!!!!!!!!!!!!!!!",
"!!!!!!!!!!!!!!!!!!!!!!!!82414445422444155!!!!!!!!!!!!!!!!!!!!!!!",
"!!!!!!!!!!!!!!!!!!!!!!!!55541152541145525!!!!!!!!!!!!!!!!!!!!!!!",
"!!!!!!!!!!!!!!!!!!!!!!!!52755524255554145!!!!!!!!!!!!!!!!!!!!!!!",
"!!!!!!!!!!!!!!!!!!!!!!!!5441142587211.145!!!!!!!!!!!!!!!!!!!!!!!",
"!!!!!!!!!!!!!!!!!!!!!!!!5411.147824444225!!!!!!!!!!!!!!!!!!!!!!!",
"!!!!!!!!!!!!!!!!!!!!!!!!5411114754141.145!!!!!!!!!!!!!!!!!!!!!!!",
"!!!!!!!!!!!!!!!!!!!!!!!!5211142754411.145!!!!!!!!!!!!!!!!!!!!!!!",
"!!!!!!!!!!!!!!!!!!!!!!!!544111475241114475!!!!!!!!!!!!!!!!!!!!!!",
"!!!!!!!!!!!!!!!!!!!!!!!!524144428211.11425!!!!!!!!!!!!!!!!!!!!!!",
"!!!!!!!!!!!!!!!!!!!!!!!!574114275411114225!!!!!!!!!!!!!!!!!!!!!!",
"!!!!!!!!!!!!!!!!!!!!!!!!85244258241..14475!!!!!!!!!!!!!!!!!!!!!!",
"!!!!!!!!!!!!!!!!!!!!!!!!!88555<5224114425!!!!!!!!!!!!!!!!!!!!!!!",
"!!!!!!!!!!!!!!!!!!!!!!!!!!#<<<<524224425!!!!!!!!!!!!!!!!!!!!!!!!",
"!!!!!!!!!!!!!!!!!!!!!!!!!!!#####52444275!!!!!!!!!!!!!!!!!!!!!!!!",
"!!!!!!!!!!!!!!!!!!!!!!!!!!!#<<<<#555555!!!!!!!!!!!!!!!!!!!!!!!!!",
"!!!!!!!!!!!!!!!!!!!!!!!!!!!#<9:<#<<<<<#!!!!!!!!!!!!!!!!!!!!!!!!!",
"!!!!!!!!!!!!!!!!!!!!!!!!!!!#<<9<#<9:9<#!!!!!!!!!!!!!!!!!!!!!!!!!",
"!!!!!!!!!!!!!!!!!!!!!!!!!!!!#####<<<<<#!!!!!!!!!!!!!!!!!!!!!!!!!",
"!!!!!!!!!!!!!!!!!!!!!!!!!!!!!!!!!#<99<#!!!!!!!!!!!!!!!!!!!!!!!!!",
"!!!!!!!!!!!!!!!!!!!!!!!!!!!!!!!!!#<<<#!!!!!!!!!!!!!!!!!!!!!!!!!!",
"!!!!!!!!!!!!!!!!!!!!!!!!!!!!!!!!#<<9<<#!!!!!!!!!!!!!!!!!!!!!!!!!",
"!!!!!!!!!!!!!!!!!!!!!!!!!!!!!!!!#<9;9<#!!!!!!!!!!!!!!!!!!!!!!!!!",
"!!!!!!!!!!!!!!!!!!!!!!!!!!!!!!!!!#####!!!!!!!!!!!!!!!!!!!!!!!!!!"
};