/* XPM */
static const char *boss_floor2_firing_f00[] = {
/* columns rows colors chars-per-pixel */
"64 64 43 1",
"! c None",
"# c #000000",
"$ c #A8784C",
"% c #D0B094",
"& c #E4C098",
"' c #684018",
"( c #C4A080",
") c #A06C3C",
"* c #5C340C",
"+ c #94602C",
", c #002850",
"- c #805424",
". c #884404",
"/ c #643000",
"0 c #6C6C6C",
"1 c #8C8C8C",
"2 c #A0A0A0",
"3 c #D8D8D8",
"4 c #BCBCBC",
"5 c #FCFCFC",
"6 c #E8E8E8",
"7 c #C01010",
"8 c #4C4C4C",
"9 c #CCCCCC",
": c #008C8C",
"; c #98084C",
"< c #3C001C",
"= c #640030",
"> c #500024",
"? c #D8F4F4",
"@ c #00BCBC",
"A c #98E4E4",
"B c #B0D040",
"C c #AC0C58",
"D c #7C7C7C",
"E c #005C5C",
"F c #E49898",
"G c #700404",
"H c #D05050",
"I c #141414",
"J c #2C2C2C",
"K c #3C3C3C",
"L c #5C5C5C",
"!!!!!!!!!!!!!!!!!!!!!!!!!!!!!!!!!!!!!!!!!!!!!!!!!!!!!!!!!!!!!!!!",
"!!!!!!!!!!!!!!!!!!!!!!!!!!!!!!!!!!!!!!!!!!!!!!!!!!!!!!!!!!!!!!!!",
"!!!!!!!!!!!!!!!!!!!!!!!!!!!!!!!!!!!!!!!!!!!!!!!!!!!!!!!!!!!!!!!!",
"!!!!!!!!!!!!!!!!!!!!!!!!!!!!!!!!!!!!!!!!!!!!!!!!!!!!!!!!!!!!!!!!",
"!!!!!!!!!!!!!!!!!!!!!!!!!!!!!!!!!!!!!!!!!!!!!!!!!!!!!!!!!!!!!!!!",
"!!!!!!!!!!!!!!!!!!!!!!!!!!!!!!!!!!!!!!!!!!!!!!!!!!!!!!!!!!!!!!!!",
"!!!!!!!!!!!!!!!!!!!!!!!!!!!!!!!!!!!!!!!!!!!!!!!!!!!!!!!!!!!!!!!!",
"!!!!!!!!!!!!!!!!!!!!!!!!!!!!!!!!!!!!!!!!!!!!!!!!!!!!!!!!!!!!!!!!",
"!!!!!!!!!!!!!!!!!!!!!!!!!!!!!!!!!!!!!!!!!!!!!!!!!!!!!!!!!!!!!!!!",
"!!!!!!!!!!!!!!!!!!!!!!!!!!!!!!!!!!!!!!!!!!!!!!!!!!!!!!!!!!!!!!!!",
"!!!!!!!!!!!!!!!!!!!!!!!!!!!!!!!!!!!!!!!!!!!!!!!!!!!!!!!!!!!!!!!!",
"!!!!!!!!!!!!!!!!!!!!!!!!!!!!!!!!!!!!!!!!!!!!!!!!!!!!!!!!!!!!!!!!",
"!!!!!!!!!!!!!!!!!!!!!!!!!!!!!!!!!!!!!!!!!!!!!!!!!!!!!!!!!!!!!!!!",
"!!!!!!!!!!!!!!!!!!!!!!!!!!!!!!!!!!!!!!!!!!!!!!!!!!!!!!!!!!!!!!!!",
"!!!!!!!!!!!!!!!!!!!!!!!!!!!!!#######!!!!!!!!!!!!!!!!!!!!!!!!!!!!",
"!!!!!!!!!!!!!!!!!!!!!!!!!!!!#$%%&%%$#!!!!!!!!!!!!!!!!!!!!!!!!!!!",
"!!!!!!!!!!!!!!!!!!!!!!!!!!!#'(%%%%%('#!!!!!!!!!!!!!!!!!!!!!!!!!!",
"!!!!!!!!!!!!!!!!!!!!!!!!!!!#$%%%%%%%$#!!!!!!!!!!!!!!!!!!!!!!!!!!",
"!!!!!!!!!!!!!!!!!!!!!!!!!!!#)*'+(+'*)#!!!!!!!!!!!!!!!!!!!!!!!!!!",
"!!!!!!!!!!!!!!!!!!!!!!!!!!!$(+,$($,+($!!!!!!!!!!!!!!!!!!!!!!!!!!",
"!!!!!!!!!!!!!!!!!!!!!!!!!!!-&%((&((%&-!!!!!!!!!!!!!!!!!!!!!!!!!!",
"!!!!!!!!!!!!!!!!!!!!!!!!!!!-%(($-$((%-!!!!!!!!!!!!!!!!!!!!!!!!!!",
"!!!!!!!!!!!!!!!!!!!!!!!!!!!-$(../..($-!!!!!!!!!!!!!!!!!!!!!!!!!!",
"!!!!!!!!!!!!!!!!!!!!!!!!!!!!-$((%(($-!!!!!!!!!!!!!!!!!!!!!!!!!!!",
"!!!!!!!!!!!!!!!!!!!!!!!!!001-+-----+-100!!!!!!!!!!!!!!!!!!!!!!!!",
"!!!!!!!!!!!!!!!!!!!!!!0023431$((((($134000!!!!!!!!!!!!!!!!!!!!!!",
"!!!!!!!!!!!!!!!!!!!!!02322351#'''''#1532150!!!!!!!!!!!!!!!!!!!!!",
"!!!!!!!!!!!!!!!!!!!!0233331030#####030133650!!!!!!!!!!!!!!!!!!!!",
"!!!!!!!!!!!!!!!!!!!!03303613030###0303143360!!!!!!!!!!!!!!!!!!!!",
"!!!!!!!!!!!!!!!!!!!0236203333133#331737114330!!!!!!!!!!!!!!!!!!!",
"!!!!!!!!!!!!!!!!!!!0353083133343#341777043348!!!!!!!!!!!!!!!!!!!",
"!!!!!!!!!!!!!!!!!!03002203655633#331113145530!!!!!!!!!!!!!!!!!!!",
"!!!!!!!!!!!!!!!!!!03550883333333#3933321814200!!!!!!!!!!!!!!!!!!",
"!!!!!!!!!!!!!!!!!!0333308233334303436531!45538!!!!!!!!!!!!!!!!!!",
"!!!!!!!!!!!!!!!!!!02365303:;<33434333320!44340!!!!!!!!!!!!!!!!!!",
"!!!!!!!!!!!!!!!!!!!0236532=>??3434393331!43320!!!!!!!!!!!!!!!!!!",
"!!!!!!!!!!!!!!!!!!!!023+#$<@AB=3#3693330!14640!!!!!!!!!!!!!!!!!!",
"!!!!!!!!!!!!!!!!!!!!!02#(($@BC=B34343410!D4640!!!!!!!!!!!!!!!!!!",
"!!!!!!!!!!!!!!!!!!!!!!-((((E==C?73343330!!8#'#!!!!!!!!!!!!!!!!!!",
"!!!!!!!!!!!!!!!!!!!!!!0-($-$EB@F7G643330!!-$($!!!!!!!!!!!!!!!!!!",
"!!!!!!!!!!!!!!!!!!!!!!02--##EE77H3694108!!$-$(!!!!!!!!!!!!!!!!!!",
"!!!!!!!!!!!!!!!!!!!!!!098##I##EG473323320!!!-(!!!!!!!!!!!!!!!!!!",
"!!!!!!!!!!!!!!!!!!!!!0238###J####03623630!!-$!!!!!!!!!!!!!!!!!!!",
"!!!!!!!!!!!!!!!!!!!!!093J##III#IIJ3529630!!!!!!!!!!!!!!!!!!!!!!!",
"!!!!!!!!!!!!!!!!!!!!!033###IJI##I#3592630!!!!!!!!!!!!!!!!!!!!!!!",
"!!!!!!!!!!!!!!!!!!!!!063##IJJI####2632360!!!!!!!!!!!!!!!!!!!!!!!",
"!!!!!!!!!!!!!!!!!!!!02630#IIJI####0362360!!!!!!!!!!!!!!!!!!!!!!!",
"!!!!!!!!!!!!!!!!!!!!02632#IJIJ##K#J3529620!!!!!!!!!!!!!!!!!!!!!!",
"!!!!!!!!!!!!!!!!!!!!09639JIIJJ##8##3592320!!!!!!!!!!!!!!!!!!!!!!",
"!!!!!!!!!!!!!!!!!!!!033630#JJI##L##3532330!!!!!!!!!!!!!!!!!!!!!!",
"!!!!!!!!!!!!!!!!!!!!023632#IJ##KL##2632960!!!!!!!!!!!!!!!!!!!!!!",
"!!!!!!!!!!!!!!!!!!!!!03639J#I##8L8#0369260!!!!!!!!!!!!!!!!!!!!!!",
"!!!!!!!!!!!!!!!!!!!!!023630####8LL#J353260!!!!!!!!!!!!!!!!!!!!!!",
"!!!!!!!!!!!!!!!!!!!!!!02332####8L0##353230!!!!!!!!!!!!!!!!!!!!!!",
"!!!!!!!!!!!!!!!!!!!!!!!0023J##88L0##363290!!!!!!!!!!!!!!!!!!!!!!",
"!!!!!!!!!!!!!!!!!!!!!!!!#000##L8L0##236920!!!!!!!!!!!!!!!!!!!!!!",
"!!!!!!!!!!!!!!!!!!!!!!!!######08L0##035320!!!!!!!!!!!!!!!!!!!!!!",
"!!!!!!!!!!!!!!!!!!!!!!!!#####808L0##J3630!!!!!!!!!!!!!!!!!!!!!!!",
"!!!!!!!!!!!!!!!!!!!!!!!!#####L08L08##320!!!!!!!!!!!!!!!!!!!!!!!!",
"!!!!!!!!!!!!!!!!!!!!!!!!!JJJJ#0!!0L#####!!!!!!!!!!!!!!!!!!!!!!!!",
"!!!!!!!!!!!!!!!!!!!!!!!!#JJJJ#!!!!!#KK#!!!!!!!!!!!!!!!!!!!!!!!!!",
"!!!!!!!!!!!!!!!!!!!!!!!#JKKKK#!!!!!JKKK#!!!!!!!!!!!!!!!!!!!!!!!!",
"!!!!!!!!!!!!!!!!!!!!!!!#K88KJ#!!!!!JK88K#!!!!!!!!!!!!!!!!!!!!!!!",
"!!!!!!!!!!!!!!!!!!!!!!!!#####!!!!!!######!!!!!!!!!!!!!!!!!!!!!!!"
};