/* XPM */
static char *weapon_03_rapid_assault_weapon[] = {
/* Values */
"129 64 475 2",
/* Colors */
"!! c #06516E",
"!# c #4C2E74",
"!$ c #6B1A76",
"!% c #671778",
"!& c None",
"!' c #68177E",
"!( c #681B81",
"!) c #601E80",
"!* c #611E7F",
"!+ c #6B1880",
"!, c #681A80",
"!- c #671B7F",
"!. c #6B197F",
"!/ c #6A1A7D",
"!0 c #6B197D",
"!1 c #6A197F",
"!2 c #681A7F",
"!3 c #661C7F",
"!4 c #641C7F",
"!5 c #6B1882",
"!6 c #641C80",
"!7 c #681982",
"!8 c #661B82",
"!9 c #661B80",
"!: c #89349B",
"!; c #67197F",
"!< c #6A157D",
"!= c #6A1980",
"!> c #671A80",
"!? c #4C307A",
"!@ c #104C71",
"!A c #60086E",
"!B c #5A1D7A",
"!C c #6B4195",
"!D c #5E1972",
"!E c #5A2279",
"!F c #4D1870",
"!G c #602380",
"!H c #57066C",
"!I c #60569F",
"!J c #A8BCF7",
"!K c #ECDDFF",
"!L c #BDB9F4",
"!M c #85BFE5",
"!N c #5AADCD",
"!O c #5BA3CB",
"!P c #8CD1FB",
"!Q c #3C89B3",
"!R c #345290",
"!S c #6B1578",
"!T c #43669E",
"!U c #AFECFF",
"!V c #322864",
"!W c #373A6D",
"!X c #006076",
"!Y c #005362",
"!Z c #004B6C",
"![ c #4694B8",
"!] c #003D6A",
"!^ c #5F1F7F",
"!_ c #581974",
"!` c #135C87",
"!a c #8AD4F9",
"!b c #64266F",
"!c c #651963",
"!d c #DAFCFF",
"!e c #1F4D71",
"!f c #512E72",
"!g c #A68BD0",
"!h c #074872",
"!i c #28578B",
"!j c #5E237F",
"!k c #0A6487",
"!l c #72D6EE",
"!m c #442560",
"!n c #FFD0FF",
"!o c #BCDCFF",
"!p c #C4E8FF",
"!q c #582E6E",
"!r c #A282C1",
"!s c #347094",
"!t c #163B70",
"!u c #611881",
"!v c #2EB9BE",
"!w c #075A68",
"!x c #9ADFEF",
"!y c #74D0DD",
"!z c #80D8E6",
"!{ c #255E71",
"!| c #85C4D6",
"!} c #00626B",
"!~ c #224C7E",
"#! c #CF1EB7",
"## c #FFA5FF",
"#$ c #FFACFF",
"#% c #FF93FF",
"#& c #FC60F2",
"#' c #FF73FF",
"#( c #D54ACB",
"#) c #FDA1FF",
"#* c #9D47B4",
"#+ c #1C6284",
"#, c #30BCB9",
"#- c #55D6D1",
"#. c #66DDDB",
"#/ c #3CA5A9",
"#0 c #6ED1D7",
"#1 c #66CCCE",
"#2 c #80EEEB",
"#3 c #053961",
"#4 c #DDADF7",
"#5 c #704386",
"#6 c #5E146D",
"#7 c #627DB4",
"#8 c #4E6BA5",
"#9 c #621E85",
"#: c #843D9B",
"#; c #356283",
"#< c #268E8F",
"#= c #71D9DA",
"#> c #85E2E7",
"#? c #B5F8FF",
"#@ c #9EE1F2",
"#A c #74D1D9",
"#B c #387891",
"#C c #6B1F8C",
"#D c #BDC2FA",
"#E c #1B2C58",
"#F c #712D82",
"#G c #FFC2FF",
"#H c #641564",
"#I c #4F4176",
"#J c #5EBBCC",
"#K c #025170",
"#L c #592381",
"#M c #8F6BB1",
"#N c #5A899B",
"#O c #39948F",
"#P c #3D9D9C",
"#Q c #63B8BF",
"#R c #A5DEEF",
"#S c #7AB5C7",
"#T c #449BAC",
"#U c #328C8D",
"#V c #55468B",
"#W c #691881",
"#X c #9DD4FD",
"#Y c #00596A",
"#Z c #C6D0FF",
"#[ c #F0D9FF",
"#] c #DAD9FB",
"#^ c #194353",
"#_ c #4CB9B6",
"#` c #2C6F89",
"#a c #654994",
"#b c #3C5A7C",
"#c c #55B3B5",
"#d c #A1ECF2",
"#e c #69B1BF",
"#f c #0A5F74",
"#g c #393A73",
"#h c #45A9C1",
"#i c #8FDDF3",
"#j c #A3D5EC",
"#k c #9CDCDE",
"#l c #00544B",
"#m c #72E0D3",
"#n c #21556D",
"#o c #2E255E",
"#p c #062D3E",
"#q c #001A0F",
"#r c #001904",
"#s c #3EAFA9",
"#t c #A9FAFD",
"#u c #44949D",
"#v c #002A31",
"#w c #002D16",
"#x c #002A0C",
"#y c #005143",
"#z c #273E5E",
"#{ c #5A4290",
"#| c #2AB3BD",
"#} c #33F3E4",
"#~ c #5CEAEB",
"$! c #249A9A",
"$# c #55CEBB",
"$$ c #70E4CD",
"$% c #81E5D9",
"$& c #3B5674",
"$' c #21002E",
"$( c #433849",
"$) c #3F1C22",
"$* c #0C160E",
"$+ c #38AF9C",
"$, c #4DDBCB",
"$- c #A6F7F8",
"$. c #70C5CC",
"$/ c #2AC1C8",
"$0 c #003037",
"$1 c #3C2431",
"$2 c #672C32",
"$3 c #10160C",
"$4 c #40304A",
"$5 c #82409A",
"$6 c #5072A2",
"$7 c #62FFFD",
"$8 c #77FFFE",
"$9 c #74FFEC",
"$: c #58DCC4",
"$; c #29998B",
"$< c #326C82",
"$= c #7D5EAE",
"$> c #690E85",
"$? c #1B0019",
"$@ c #543F48",
"$A c #5E252B",
"$B c #4D4542",
"$C c #3BBAA5",
"$D c #5BFAE4",
"$E c #318C87",
"$F c #95F0F3",
"$G c #521F32",
"$H c #9B3A45",
"$I c #160000",
"$J c #562B3E",
"$K c #903290",
"$L c #506B98",
"$M c #309AA7",
"$N c #46C8D5",
"$O c #7EF7FF",
"$P c #53CCC5",
"$Q c #29AC9C",
"$R c #269CB8",
"$S c #2A4F96",
"$T c #0D000C",
"$U c #333B2E",
"$V c #100200",
"$W c #618071",
"$X c #46D0B9",
"$Y c #6CFFFC",
"$Z c #94F8F8",
"$[ c #51D1DE",
"$] c #2A8C99",
"$^ c #000205",
"$_ c #644238",
"$` c #1E0300",
"$a c #5D242D",
"$b c #416F87",
"$c c #005F66",
"$d c #39B1C1",
"$e c #72F5FF",
"$f c #2AB2B0",
"$g c #2B6499",
"$h c #45002A",
"$i c #441827",
"$j c #59493C",
"$k c #0B0000",
"$l c #76948C",
"$m c #6BDFD4",
"$n c #79FFFD",
"$o c #2FA398",
"$p c #88F1ED",
"$q c #6ED9E9",
"$r c #58A9BA",
"$s c #00070B",
"$t c #402921",
"$u c #511701",
"$v c #460000",
"$w c #271E3B",
"$x c #012933",
"$y c #000920",
"$z c #39778E",
"${ c #32B0BC",
"$| c #77FFFF",
"$} c #001227",
"$~ c #00193C",
"%! c #021B43",
"%# c #3B1E5E",
"%$ c #4D0017",
"%% c #91213A",
"%& c #8F343D",
"%' c #2E0000",
"%( c #B3A8B9",
"%) c #9ED9E7",
"%* c #98FBFF",
"%+ c #8BF4EF",
"%, c #A2FFFF",
"%- c #89EBF6",
"%. c #71AFC4",
"%/ c #141027",
"%0 c #723243",
"%1 c #9A1E20",
"%2 c #5F0000",
"%3 c #6E002F",
"%4 c #590B33",
"%5 c #48283F",
"%6 c #120B2A",
"%7 c #5D829D",
"%8 c #5FC5D1",
"%9 c #6CFFFF",
"%: c #35E6DE",
"%; c #001B32",
"%< c #2E2E54",
"%= c #441F4B",
"%> c #480031",
"%? c #77025A",
"%@ c #57001A",
"%A c #990F28",
"%B c #7C0717",
"%C c #693E51",
"%D c #BDC5DC",
"%E c #BCE4FE",
"%F c #3F8B9B",
"%G c #23988F",
"%H c #90EBF0",
"%I c #A5E0F2",
"%J c #344E67",
"%K c #47243A",
"%L c #9E1F26",
"%M c #690000",
"%N c #6B1147",
"%O c #6B1673",
"%P c #6F0015",
"%Q c #BD1E54",
"%R c #6E0226",
"%S c #53415B",
"%T c #7396AA",
"%U c #AFE2F3",
"%V c #3D8996",
"%W c #89F3FF",
"%X c #39AEB7",
"%Y c #0C404B",
"%Z c #7C4A67",
"%[ c #4A0009",
"%] c #970C4D",
"%^ c #36002A",
"%_ c #5B1A2E",
"%` c #850914",
"%a c #3E0000",
"%b c #679094",
"%c c #88E2ED",
"%d c #C0F7FF",
"%e c #529AB0",
"%f c #1FAE9C",
"%g c #A3F7F7",
"%h c #A2EBF4",
"%i c #001217",
"%j c #6D2622",
"%k c #78090F",
"%l c #2F0014",
"%m c #631F68",
"%n c #660013",
"%o c #B60637",
"%p c #510000",
"%q c #5E6C75",
"%r c #81C5C6",
"%s c #BFEAF0",
"%t c #27515D",
"%u c #A6EAFD",
"%v c #5CC1CB",
"%w c #001910",
"%x c #6C2739",
"%y c #5A0000",
"%z c #7A062B",
"%{ c #8A1856",
"%| c #140013",
"%} c #522F2D",
"%~ c #94171B",
"&! c #390000",
"&# c #4DA7A5",
"&$ c #60F4F8",
"&% c #8FE9FF",
"&& c #93EBFF",
"&' c #89FFFF",
"&( c #73FFF4",
"&) c #96FBED",
"&* c #83EAE6",
"&+ c #003036",
"&, c #632D2D",
"&- c #8A2125",
"&. c #220002",
"&/ c #662663",
"&0 c #2C0028",
"&1 c #4B0023",
"&2 c #93142F",
"&3 c #350000",
"&4 c #50A995",
"&5 c #5CE7C8",
"&6 c #9EEBD9",
"&7 c #578C86",
"&8 c #ACECF6",
"&9 c #84E5EB",
"&: c #001D07",
"&; c #7A1F28",
"&< c #9C091B",
"&= c #470000",
"&> c #662346",
"&? c #6B0769",
"&@ c #0B0213",
"&A c #4E3729",
"&B c #A9181F",
"&C c #480000",
"&D c #3AA2A3",
"&E c #4DFFFF",
"&F c #5DF2DC",
"&G c #001930",
"&H c #762939",
"&I c #991624",
"&J c #370006",
"&K c #5A144A",
"&L c #03536E",
"&M c #493074",
"&N c #681B79",
"&O c #65177C",
"&P c #6B1582",
"&Q c #6B197B",
"&R c #681A7D",
"&S c #671A84",
"&T c #6A1886",
"&U c #6A1B77",
"&V c #641E74",
"&W c #611F79",
"&X c #641B87",
"&Y c #4C1B76",
"&Z c #010630",
"&[ c #333A4C",
"&] c #835764",
"&^ c #040000",
"&_ c #62DAC1",
"&` c #65FFE1",
"&a c #A8FFF3",
"&b c #93DCD3",
"&c c #ADFFFF",
"&d c #6CDEDE",
"&e c #55EED9",
"&f c #002A16",
"&g c #6B3A3E",
"&h c #79232C",
"&i c #070000",
"&j c #323443",
"&k c #612D78",
"&l c #660F80",
"&m c #53207C",
"&n c #57277B",
"&o c #641D7D",
"&p c #87359B",
"&q c #69187E",
"&r c #6B1D82",
"&s c #67167D",
"&t c #6A1C82",
"&u c #671790",
"&v c #631897",
"&w c #67188F",
"&x c #681986",
"&y c #661C7D",
"&z c #641A7D",
"&{ c #120033",
"&| c #093037",
"&} c #344B3B",
"&~ c #6E1B23",
"'! c #270000",
"'# c #2B9EA1",
"'$ c #4EFFFF",
"'% c #22BBC1",
"'& c #1F9C9E",
"'' c #1EB396",
"'( c #68FFF1",
"') c #001A33",
"'* c #563045",
"'+ c #671A2A",
"', c #35232F",
"'- c #19092E",
"'. c #58136E",
"'/ c #5F136B",
"'0 c #6A1A7B",
/* Pixels */
"!&!&!&!&!&!&!&!&!&!&!&!&!&!&!&!&!&!&!&!&!&!&!&!&!&!&!&!&!&!&!&!&!&!&!&!&!&!&!&!&!&!&!&!&!&!&!&!&!&!&!&!&!&!&!&!&!&!&!&!&!&!&!&!&!&!&!&!&!&!&!&!&!&!&!&!&!&!&!&!&!&!&!&!&!&!&!&!&!&!&!&!&!&!&!&!&!&!&!&!&!&!&!&!&!&!&!&!&!&!&!&!&!&!&!&!&!&!&!&!&!&!&!&!&!&!&!&!&!&",
"!&!&!&!&!&!&!&!&!&!&!&!&!&!&!&!&!&!&!&!&!&!&!&!&!&!&!&!&!&!&!&!&!&!&!&!&!&!&!&!&!&!&!&!&!&!&!&!&!&!&!&!&!&!&!&!&!&!&!&!&!&!&!&!&!&!&!&!&!&!&!&!&!&!&!&!&!&!&!&!&!&!&!&!&!&!&!&!&!&!&!&!&!&!&!&!&!&!&!&!&!&!&!&!&!&!&!&!&!&!&!&!&!&!&!&!&!&!&!&!&!&!&!&!&!&!&!&!&!&",
"!&!&!&!&!&!&!&!&!&!&!&!&!&!&!&!&!&!&!&!&!&!&!&!&!&!&!&!&!&!&!&!&!&!&!&!&!&!&!&!&!&!&!&!&!&!&!&!&!&!&!&!&!&!&!&!&!&!&!&!&!&!&!&!&!&!&!&!&!&!&!&!&!&!&!&!&!&!&!&!&!&!&!&!&!&!&!&!&!&!&!&!&!&!&!&!&!&!&!&!&!&!&!&!&!&!&!&!&!&!&!&!&!&!&!&!&!&!&!&!&!&!&!&!&!&!&!&!&!&",
"!&!&!&!&!&!&!&!&!&!&!&!&!&!&!&!&!&!&!&!&!&!&!&!&!&!&!&!&!&!&!&!&!&!&!&!&!&!&!&!&!&!&!&!&!&!&!&!&!&!&!&!&!&!&!&!&!&!&!&!&!&!&!&!&!&!&!&!&!&!&!&!&!&!&!&!&!&!&!&!&!&!&!&!&!&!&!&!&!&!&!&!&!&!&!&!&!&!&!&!&!&!&!&!&!&!&!&!&!&!&!&!&!&!&!&!&!&!&!&!&!&!&!&!&!&!&!&!&!&",
"!&!&!&!&!&!&!&!&!&!&!&!&!&!&!&!&!&!&!&!&!&!&!&!&!&!&!&!&!&!&!&!&!&!&!&!&!&!&!&!&!&!&!&!&!&!&!&!&!&!&!&!&!&!&!&!&!&!&!&!&!&!&!&!&!&!&!&!&!&!&!&!&!&!&!&!&!&!&!&!&!&!&!&!&!&!&!&!&!&!&!&!&!&!&!&!&!&!&!&!&!&!&!&!&!&!&!&!&!&!&!&!&!&!&!&!&!&!&!&!&!&!&!&!&!&!&!&!&!&",
"!&!&!&!&!&!&!&!&!&!&!&!&!&!&!&!&!&!&!&!&!&!&!&!&!&!&!&!&!&!&!&!&!&!&!&!&!&!&!&!&!&!&!&!&!&!&!&!&!&!&!&!&!&!&!&!&!&!&!&!&!&!&!&!&!&!&!&!&!&!&!&!&!&!&!&!&!&!&!&!&!&!&!&!&!&!&!&!&!&!&!&!&!&!&!&!&!&!&!&!&!&!&!&!&!&!&!&!&!&!&!&!&!&!&!&!&!&!&!&!&!&!&!&!&!&!&!&!&!&",
"!&!&!&!&!&!&!&!&!&!&!&!&!&!&!&!&!&!&!&!&!&!&!&!&!&!&!&!&!&!&!&!&!&!&!&!&!&!&!&!&!&!&!&!&!&!&!&!&!&!&!&!&!&!&!&!&!&!&!&!&!&!&!&!&!&!&!&!&!&!&!&!&!&!&!&!&!&!&!&!&!&!&!&!&!&!&!&!&!&!&!&!&!&!&!&!&!&!&!&!&!&!&!&!&!&!&!&!&!&!&!&!&!&!&!&!&!&!&!&!&!&!&!&!&!&!&!&!&!&",
"!&!&!&!&!&!&!&!&!&!&!&!&!&!&!&!&!&!&!&!&!&!&!&!&!&!&!&!&!&!&!&!&!&!&!&!&!&!&!&!&!&!&!&!&!&!&!&!&!&!&!&!&!&!&!&!&!&!&!&!&!&!&!&!&!&!&!&!&!&!&!&!&!&!&!&!&!&!&!&!&!&!&!&!&!&!&!&!&!&!&!&!&!&!&!&!&!&!&!&!&!&!&!&!&!&!&!&!&!&!&!&!&!&!&!&!&!&!&!&!&!&!&!&!&!&!&!&!&!&",
"!&!&!&!&!&!&!&!&!&!&!&!&!&!&!&!&!&!&!&!&!&!&!&!&!&!&!&!&!&!&!&!&!&!&!&!&!&!&!&!&!&!&!&!&!&!&!&!&!&!&!&!&!&!&!&!&!&!&!&!&!&!&!&!&!&!&!&!&!&!&!&!&!&!&!&!&!&!&!&!&!&!&!&!&!&!&!&!&!&!&!&!&!&!&!&!&!&!&!&!&!&!&!&!&!&!&!&!&!&!&!&!&!&!&!&!&!&!&!&!&!&!&!&!&!&!&!&!&!&",
"!&!&!&!&!&!&!&!&!&!&!&!&!&!&!&!&!&!&!&!&!&!&!&!&!&!&!&!&!&!&!&!&!&!&!&!&!&!&!&!&!&!&!&!&!&!&!&!&!&!&!&!&!&!&!&!&!&!&!&!&!&!&!&!&!&!&!&!&!&!&!&!&!&!&!&!&!&!&!&!&!&!&!&!&!&!&!&!&!&!&!&!&!&!&!&!&!&!&!&!&!&!&!&!&!&!&!&!&!&!&!&!&!&!&!&!&!&!&!&!&!&!&!&!&!&!&!&!&!&",
"!&!&!&!&!&!&!&!&!&!&!&!&!&!&!&!&!&!&!&!&!&!&!&!&!&!&!&!&!&!&!&!&!&!&!&!&!&!&!&!&!&!&!&!&!&!&!&!&!&!&!&!&!&!&!&!&!&!&!&!&!&!&!&!&!&!&!&!&!&!&!&!&!&!&!&!&!&!&!&!&!&!&!&!&!&!&!&!&!&!&!&!&!&!&!&!&!&!&!&!&!&!&!&!&!&!&!&!&!&!&!&!&!&!&!&!&!&!&!&!&!&!&!&!&!&!&!&!&!&",
"!&!&!&!&!&!&!&!&!&!&!&!&!&!&!&!&!&!&!&!&!&!&!&!&!&!&!&!&!&!&!&!&!&!&!&!&!&!&!&!&!&!&!&!&!&!&!&!&!&!&!&!&!&!&!&!&!&!&!&!&!&!&!&!&!&!&!&!&!&!&!&!&!&!&!&!&!&!&!&!&!&!&!&!&!&!&!&!&!&!&!&!&!&!&!&!&!&!&!&!&!&!&!&!&!&!&!&!&!&!&!&!&!&!&!&!&!&!&!&!&!&!&!&!&!&!&!&!&!&",
"!&!&!&!&!&!&!&!&!&!&!&!&!&!&!&!&!&!&!&!&!&!&!&!&!&!&!&!&!&!&!&!&!&!&!&!&!&!&!&!&!&!&!&!&!&!&!&!&!&!&!&!&!&!&!&!&!&!&!&!&!&!&!&!&!&!&!&!&!&!&!&!&!&!&!&!&!&!&!&!&!&!&!&!&!&!&!&!&!&!&!&!&!&!&!&!&!&!&!&!&!&!&!&!&!&!&!&!&!&!&!&!&!&!&!&!&!&!&!&!&!&!&!&!&!&!&!&!&!&",
"!&!&!&!&!&!&!&!&!&!&!&!&!&!&!&!&!&!&!&!&!&!&!&!&!&!&!&!&!&!&!&!&!&!&!&!&!&!&!&!&!&!&!&!&!&!&!&!&!&!&!&!&!&!&!&!&!&!&!&!&!&!&!&!&!&!&!&!&!&!&!&!&!&!&!&!&!&!&!&!&!&!&!&!&!&!&!&!&!&!&!&!&!&!&!&!&!&!&!&!&!&!&!&!&!&!&!&!&!&!&!&!&!&!&!&!&!&!&!&!&!&!&!&!&!&!&!&!&!&",
"!&!&!&!&!&!&!&!&!&!&!&!&!&!&!&!&!&!&!&!&!&!&!&!&!&!&!&!&!&!&!&!&!&!&!&!&!&!&!&!&!&!&!&!&!&!&!&!&!&!&!&!&!&!&!&!&!&!&!&!&!&!&!&!&!&!&!&!&!&!&!&!&!&!&!&!&!&!&!&!&!&!&!&!&!&!&!&!&!&!&!&!&!&!&!&!&!&!&!&!&!&!&!&!&!&!&!&!&!&!&!&!&!&!&!&!&!&!&!&!&!&!&!&!&!&!&!&!&!&",
"!&!&!&!&!&!&!&!&!&!&!&!&!&!&!&!&!&!&!&!&!&!&!&!&!&!&!&!&!&!&!&!&!&!&!&!&!&!&!&!&!&!&!&!&!&!&!&!&!&!&!&!&!&!&!&!&!&!&!&!&!&!&!&!&!&!&!&!&!&!&!&!&!&!&!&!&!&!&!&!&!&!&!&!&!&!&!&!&!&!&!&!&!&!&!&!&!&!&!&!&!&!&!&!&!&!&!&!&!&!&!&!&!&!&!&!&!&!&!&!&!&!&!&!&!&!&!&!&!&",
"!&!&!&!&!&!&!&!&!&!&!&!&!&!&!&!&!&!&!&!&!&!&!&!&!&!&!&!&!&!&!&!&!&!&!&!&!&!&!&!&!&!&!&!&!&!&!&!&!&!&!&!&!&!&!&!&!&!&!&!&!&!&!&!&!&!&!&!&!&!&!&!&!&!&!&!&!&!&!&!&!&!&!&!&!&!&!&!&!&!&!&!&!&!&!&!&!&!&!&!&!&!&!&!&!&!&!&!&!&!&!&!&!&!&!&!&!&!&!&!&!&!&!&!&!&!&!&!&!&",
"!&!&!&!&!&!&!&!&!&!&!&!&!&!&!&!&!&!&!&!&!&!&!&!&!&!&!&!&!&!&!&!&!&!&!&!&!&!&!&!&!&!&!&!&!&!&!&!&!&!&!&!&!&!&!&!&!&!&!&!&!&!&!&!&!&!&!&!&!&!&!&!&!&!&!&!&!&!&!&!&!&!&!&!&!&!&!&!&!&!&!&!&!&!&!&!&!&!&!&!&!&!&!&!&!&!&!&!&!&!&!&!&!&!&!&!&!&!&!&!&!&!&!&!&!&!&!&!&!&",
"!&!&!&!&!&!&!&!&!&!&!&!&!&!&!&!&!&!&!&!&!&!&!&!&!&!&!&!&!&!&!&!&!&!&!&!&!&!&!&!&!&!&!&!&!&!&!&!&!&!&!&!&!&!&!&!&!&!&!&!&!&!&!&!&!&!&!&!&!&!&!&!&!&!&!&!&!&!&!&!&!&!&!&!&!&!&!&!&!&!&!&!&!&!&!&!&!&!&!&!&!&!&!&!&!&!&!&!&!&!&!&!&!&!&!&!&!&!&!&!&!&!&!&!&!&!&!&!&!&",
"!&!&!&!&!&!&!&!&!&!&!&!&!&!&!&!&!&!&!&!&!&!&!&!&!&!&!&!&!&!&!&!&!&!&!&!&!&!&!&!&!&!&!&!&!&!&!&!&!&!&!&!&!&!&!&!&!&!&!&!&!&!&!&!&!&!&!&!&!&!&!&!&!&!&!&!&!&!&!&!&!&!&!&!&!&!&!&!&!&!&!&!&!&!&!&!&!&!&!&!&!&!&!&!&!&!&!&!&!&!&!&!&!&!&!&!&!&!&!&!&!&!&!&!&!&!&!&!&!&",
"!&!&!&!&!&!&!&!&!&!&!&!&!&!&!&!&!&!&!&!&!&!&!&!&!&!&!&!&!&!&!&!&!&!&!&!&!&!&!&!&!&!&!&!&!&!&!&!&!&!&!&!&!&!&!&!&!&!&!&!&!&!&!&!&!&!&!&!&!&!&!&!&!&!&!&!&!&!&!&!&!&!&!&!&!&!&!&!&!&!&!&!&!&!&!&!&!&!&!&!&!&!&!&!&!&!&!&!&!&!&!&!&!&!&!&!&!&!&!&!&!&!&!&!&!&!&!&!&!&",
"!&!&!&!&!&!&!&!&!&!&!&!&!&!&!&!&!&!&!&!&!&!&!&!&!&!&!&!&!&!&!&!&!&!&!&!&!&!&!&!&!&!&!&!&!&!&!&!&!&!&!&!&!&!&!&!&!&!&!&!&!&!&!&!&!&!&!&!&!&!&!&!&!&!&!&!&!&!&!&!&!&!&!&!&!&!&!&!&!&!&!&!&!&!&!&!&!&!&!&!&!&!&!&!&!&!&!&!&!&!&!&!&!&!&!&!&!&!&!&!&!&!&!&!&!&!&!&!&!&",
"!&!&!&!&!&!&!&!&!&!&!&!&!&!&!&!&!&!&!&!&!&!&!&!&!&!&!&!&!&!&!&!&!&!&!&!&!&!&!&!&!&!&!&!&!&!&!&!&!&!&!&!&!&!&!&!&!&!&!&!&!&!&!&!&!&!&!&!&!&!&!&!&!&!&!&!&!&!&!&!&!&!&!&!&!&!&!&!&!&!&!&!&!&!&!&!&!&!&!&!&!&!&!&!&!&!&!&!&!&!&!&!&!&!&!&!&!&!&!&!&!&!&!&!&!&!&!&!&!&",
"!&!&!&!&!&!&!&!&!&!&!&!&!&!&!&!&!&!&!&!&!&!&!&!&!&!&!&!&!&!&!&!&!&!&!&!&!&!&!&!&!&!&!&!&!&!&!&!&!&!&!&!&!&!&!&!&!&!&!&!&!&!&!&!&!&!&!&!&!&!&!&!&!&!&!&!&!&!&!&!&!&!&!&!&!&!&!&!&!&!&!&!&!&!&!&!&!&!&!&!&!&!&!&!&!&!&!&!&!&!&!&!&!&!&!&!&!&!&!&!&!&!&!&!&!&!&!&!&!&",
"!&!&!&!&!&!&!&!&!&!&!&!&!&!&!&!&!&!&!&!&!&!&!&!&!&!&!&!&!&!&!&!&!&!&!&!&!&!&!&!&!&!&!&!&!&!&!&!&!&!&!&!&!&!&!&!&!&!&!&!&!&!&!&!&!&!&!&!&!&!&!&!&!&!&!&!&!&!&!&!&!&!&!&!&!&!&!&!&!&!&!&!&!&!&!&!&!&!&!&!&!&!&!&!&!&!&!&!&!&!&!&!&!&!&!&!&!&!&!&!&!&!&!&!&!&!&!&!&!&",
"!&!&!&!&!&!&!&!&!&!&!&!&!&!&!&!&!&!&!&!&!&!&!&!&!&!&!&!&!&!&!&!&!&!&!&!&!&!&!&!&!&!&!&!&!&!&!&!&!&!&!&!&!&!&!&!&!&!&!&!&!&!&!&!&!&!&!&!&!&!&!&!&!&!&!&!&!&!&!&!&!&!&!&!&!&!&!&!&!&!&!&!&!&!&!&!&!&!&!&!&!&!&!&!&!&!&!&!&!&!&!&!&!&!&!&!&!&!&!&!&!&!&!&!&!&!&!&!&!&",
"!&!&!&!&!&!&!&!&!&!&!&!&!&!&!&!&!&!&!&!&!&!&!&!&!&!&!&!&!&!&!&!&!&!&!&!&!&!&!&!&!&!&!&!&!&!&!&!&!&!&!&!&!&!&!&!&!&!&!&!&!&!&!&!&!&!&!&!&!&!&!&!&!&!&!&!&!&!&!&!&!&!&!&!&!&!&!&!&!&!&!&!&!&!&!&!&!&!&!&!&!&!&!&!&!&!&!&!&!&!&!&!&!&!&!&!&!&!&!&!&!&!&!&!&!&!&!&!&!&",
"!&!&!&!&!&!&!&!&!&!&!&!&!&!&!&!&!&!&!&!&!&!&!&!&!&!&!&!&!&!&!&!&!&!&!&!&!&!&!&!&!&!&!&!&!&!&!&!&!&!&!&!&!&!&!&!&!&!&!&!&!&!&!&!&!&!&!&!&!&!&!&!&!&!&!&!&!&!&!&!&!&!&!&!&!&!&!&!&!&!&!&!&!&!&!&!&!&!&!&!&!&!&!&!&!&!&!&!&!&!&!&!&!&!&!&!&!&!&!&!&!&!&!&!&!&!&!&!&!&",
"!&!&!&!&!&!&!&!&!&!&!&!&!&!&!&!&!&!&!&!&!&!&!&!&!&!&!&!&!&!&!&!&!&!&!&!&!&!&!&!&!&!&!&!&!&!&!&!&!&!&!&!&!&!&!&!&!&!&!&!&!&!&!&!&!&!&!&!&!&!&!&!&!&!&!&!&!&!&!&!&!&!&!&!&!&!&!&!&!&!&!&!&!&!&!&!&!&!&!&!&!&!&!&!&!&!&!&!&!&!&!&!&!&!&!&!&!&!&!&!&!&!&!&!&!&!&!&!&!&",
"!&!&!&!&!&!&!&!&!&!&!&!&!&!&!&!&!&!&!&!&!&!&!&!&!&!&!&!&!&!&!&!&!&!&!&!&!&!&!&!&!&!&!&!&!&!&!&!&!&!&!&!&!&!&!&!&!&!&!&!&!&!&!&!&!&!&!&!&!&!&!&!&!&!&!&!&!&!&!&!&!&!&!&!&!&!&!&!&!&!&!&!&!&!&!&!&!&!&!&!&!&!&!&!&!&!&!&!&!&!&!&!&!&!&!&!&!&!&!&!&!&!&!&!&!&!&!&!&!&",
"!&!&!&!&!&!&!&!&!&!&!&!&!&!&!&!&!&!&!&!&!&!&!&!&!&!&!&!&!&!&!&!&!&!&!&!&!&!&!&!&!&!&!&!&!&!&!&!&!&!&!&!&!&!&!&!&!&!&!&!&!&!&!&!&!&!&!&!&!&!&!&!&!&!&!&!&!&!&!&!&!&!&!&!&!&!&!&!&!&!&!&!&!&!&!&!&!&!&!&!&!&!&!&!&!&!&!&!&!&!&!&!&!&!&!&!&!&!&!&!&!&!&!&!&!&!&!&!&!&",
"!&!&!&!&!&!&!&!&!&!&!&!&!&!&!&!&!&!&!&!&!&!&!&!&!&!&!&!&!&!&!&!&!&!&!&!&!&!&!&!&!&!&!&!&!&!&!&!&!&!&!&!&!&!&!&!&!&!&!&!&!&!&!&!&!&!&!&!&!&!&!&!&!&!&!&!&!&!&!&!&!&!&!&!&!&!&!&!&!&!&!&!&!&!&!&!&!&!&!&!&!&!&!&!&!&!&!&!&!&!&!&!&!&!&!&!&!&!&!&!&!&!&!&!&!&!&!&!&!&",
"!&!&!&!&!&!&!&!&!&!&!&!&!&!&!&!&!&!&!&!&!&!&!&!&!&!&!&!&!&!&!&!&!&!&!&!&!&!&!&!&!&!&!&!&!&!&!&!&!&!&!&!&!&!&!&!&!&!&!&!&!&!&!&!&!&!&!&!&!&!&!&!&!&!&!&!&!&!&!&!&!&!&!&!&!&!&!&!&!&!&!&!&!&!&!&!&!&!&!&!&!&!&!&!&!&!&!&!&!&!&!&!&!&!&!&!&!&!&!&!&!&!&!&!&!&!&!&!&!&",
"!&!&!&!&!&!&!&!&!&!&!&!&!&!&!&!&!&!&!&!&!&!&!&!&!&!&!&!&!&!&!&!&!&!&!&!&!&!&!&!&!&!&!&!&!&!&!&!&!&!&!&!&!&!&!&!&!&!&!&!&!&!&!&!&!&!&!&!&!&!&!&!&!&!&!&!&!&!&!&!&!&!&!&!&!&!&!&!&!&!&!&!&!&!&!&!&!&!&!&!&!&!&!&!&!&!&!&!&!&!&!&!&!&!&!&!&!&!&!&!&!&!&!&!&!&!&!&!&!&",
"!&!&!&!&!&!&!&!&!&!&!&!&!&!&!&!&!&!&!&!&!&!&!&!&!&!&!&!&!&!&!&!&!&!&!&!&!&!&!&!&!&!&!&!&!&!&!&!&!&!&!&!&!&!&!&!&!&!&!&!&!&!&!&!&!&!&!&!&!&!&!&!&!&!&!&!&!&!&!&!&!&!&!&!&!&!&!&!&!&!&!&!&!&!&!&!&!&!&!&!&!&!&!&!&!&!&!&!&!&!&!&!&!&!&!&!&!&!&!&!&!&!&!&!&!&!&!&!&!&",
"!&!&!&!&!&!&!&!&!&!&!&!&!&!&!&!&!&!&!&!&!&!&!&!&!&!&!&!&!&!&!&!&!&!&!&!&!&!&!&!&!&!&!&!&!&!&!&!&!&!&!&!&!&!&!&!&!&!&!&!&!&!&!&!&!&!&!&!&!&!&!&!&!&!&!&!&!&!&!&!&!&!&!&!&!&!&!&!&!&!&!&!&!&!&!&!&!&!&!&!&!&!&!&!&!&!&!&!&!&!&!&!&!&!&!&!&!&!&!&!&!&!&!&!&!&!&!&!&!&",
"!&!&!&!&!&!&!&!&!&!&!&!&!&!&!&!&!&!&!&!&!&!&!&!&!&!&!&!&!&!&!&!&!&!&!&!&!&!&!&!&!&!&!&!&!&!&!&!&!&!&!&!&!&!&!&!&!&!&!&!&!&!&!&!&!&!&!&!&!&!&!&!&!&!&!&!&!&!&!&!&!&!&!&!&!&!&!&!&!&!&!&!&!&!&!&!&!&!&!&!&!&!&!&!&!&!&!&!&!&!&!&!&!&!&!&!&!&!&!&!&!&!&!&!&!&!&!&!&!&",
"!&!&!&!&!&!&!&!&!&!&!&!&!&!&!&!&!&!&!&!&!&!&!&!&!&!&!&!&!&!&!&!&!&!&!&!&!&!&!&!&!&!&!&!&!&!&!&!&!&!&!&!&!&!&!&!&!&!&!&!&!&!&!&!&!&!&!&!&!&!&!&!&!&!&!&!&!&!&!&!&!&!&!&!&!&!&!&!&!&!&!&!&!&!&!&!&!&!&!&!&!&!&!&!&!&!&!&!&!&!&!&!&!&!&!&!&!&!&!&!&!&!&!&!&!&!&!&!&!&",
"!&!&!&!&!&!&!&!&!&!&!&!&!&!&!&!&!&!&!&!&!&!&!&!&!&!&!&!&!&!&!&!&!&!&!&!&!&!&!&!&!&!&!&!&!&!&!&!&!&!&!&!&!&!&!&!&!&!&!&!&!&!&!&!&!&!&!&!&!&!&!&!&!&!&!&!&!&!&!&!&!&!&!&!&!&!&!&!&!&!&!&!&!&!&!&!&!&!&!&!&!&!&!&!&!&!&!&!&!&!&!&!&!&!&!&!&!&!&!&!&!&!&!&!&!&!&!&!&!&",
"!&!&!&!&!&!&!&!&!&!&!&!&!&!&!&!&!&!&!&!&!&!&!&!&!&!&!&!&!&!&!&!&!&!&!&!&!&!&!&!&!&!&!&!&!&!&!&!&!&!&!&!&!&!&!&!&!&!&!&!&!&!&!&!&!&!&!&!&!&!&!&!&!&!&!&!&!&!&!&!&!&!&!&!&!&!&!&!&!&!&!&!&!&!&!&!&!&!&!&!&!&!&!&!&!&!&!&!&!&!&!&!&!&!&!&!&!&!&!&!&!&!&!&!&!&!&!&!&!&",
"!&!&!&!&!&!&!&!&!&!&!&!&!&!&!&!&!&!&!&!&!&!&!&!&!&!&!&!&!&!&!&!&!&!&!&!&!&!&!&!&!&!&!&!&!&!&!&!&!&!&!&!&!&!&!&!&!&!&!&!&!&!&!&!&!&!&!&!&!&!&!&!&!&!&!&!&!&!&!&!&!&!&!&!&!&!&!&!&!&!&!&!&!&!&!&!&!&!&!&!&!&!&!&!&!&!&!&!&!&!&!&!&!&!&!&!&!&!&!&!&!&!&!&!&!&!&!&!&!&",
"!&!&!&!&!&!&!&!&!&!&!&!&!&!&!&!&!&!&!&!&!&!&!&!&!&!&!&!&!&!&!&!&!&!&!&!&!&!&!&!&!&!&!&!&!&!&!&!&!&!&!&!&!&!&!&!&!&!&!&!&!&!&!&!&!&!&!&!&!&!&!&!&!&!&!&!&!&!&!&!&!&!&!&!&!&!&!&!&!&!&!&!&!&!&!&!&!&!&!&!&!&!&!&!&!&!&!&!&!&!&!&!&!&!&!&!&!&!&!&!&!&!&!&!&!&!&!&!&!&",
"!&!&!&!&!&!&!&!&!&!&!&!&!&!&!&!&!&!&!&!&!&!&!&!&!&!&!&!&!&!&!&!&!&!&!&!&!&!&!&!&!&!&!&!&!&!&!&!&!&!&!&!&!&!&!&!&!&!&!&!&!&!&!&!&!&!&!&!&!&!&!&!&!&!&!&!&!&!&!&!&!&!&!&!&!&!&!&!&!&!&!&!&!&!&!&!&!&!&!&!&!&!&!&!&!&!&!&!&!&!&!&!&!&!&!&!&!&!&!&!&!&!&!&!&!&!&!&!&!&",
"!&!&!&!&!&!&!&!&!&!&!&!&!&!&!&!&!&!&!&!&!&!&!&!&!&!&!&!&!&!&!&!&!&!&!&!&!&!&!&!&!&!&!&!&!&!&!&!&!&!&!&!&!&!&!&!&!&!&!&!&!&!&!&!&!&!&!&!&!&!&!&!&!&!&!&!&!&!&!&!&!&!&!&!&!&!&!&!&!&!&!&!&!&!&!&!&!&!&!&!&!&!&!&!&!&!&!&!&!&!&!&!&!&!&!&!&!&!&!&!&!&!&!&!&!&!&!&!&!&",
"!&!&!&!&!&!&!&!&!&!&!&!&!&!&!&!&!&!&!&!&!&!&!&!&!&!&!&!&!&!&!&!&!&!&!&!&!&!&!&!&!&!&!&!&!&!&!&!&!&!&!&!&!&!&!&!&!&!&!&!&!&!&!&!&!&!&!&!&!&!&!&!&!&!&!&!&!&!&!&!&!&!&!&!&!&!&!&!&!&!&!&!&!&!&!J!K!L!M!N!O!P!Q!&!&!&!&!&!&!&!&!&!&!&!&!&!&!&!&!&!&!&!&!&!&!&!&!&!&!&",
"!&!&!&!&!&!&!&!&!&!&!&!&!&!&!&!&!&!&!&!&!&!&!&!&!&!&!&!&!&!&!&!&!&!&!&!&!&!&!&!&!&!&!&!&!&!&!&!&!&!&!&!&!&!&!&!&!&!&!&!&!&!&!&!&!&!&!&!&!&!&!&!&!&!&!&!&!&!&!&!&!&!&!&!&!&!&!&!&!&!&!&!&!&!T!U!V!W!X!Y!Z![!&!&!&!&!&!&!&!&!&!&!&!&!&!&!&!&!&!&!&!&!&!&!&!&!&!&!&!&",
"!&!&!&!&!&!&!&!&!&!&!&!&!&!&!&!&!&!&!&!&!&!&!&!&!&!&!&!&!&!&!&!&!&!&!&!&!&!&!&!&!&!&!&!&!&!&!&!&!&!&!&!&!&!&!&!&!&!&!&!&!&!&!&!&!&!&!&!&!&!&!&!&!&!&!&!&!&!&!&!&!&!&!&!&!&!&!&!&!&!&!&!&!&!&!a!b!c!d!e!f!g!&!&!&!&!&!&!&!&!&!&!&!&!&!&!&!&!&!&!&!&!&!&!&!&!&!&!&!&",
"!&!&!&!&!&!&!&!&!&!&!&!&!&!&!&!&!&!&!&!&!&!&!&!&!&!&!&!&!&!&!&!&!&!&!&!&!&!&!&!&!&!&!&!&!&!&!&!&!&!&!&!&!&!&!&!&!&!&!&!&!&!&!&!&!&!&!&!&!&!&!&!&!&!&!&!&!&!&!&!&!&!&!&!&!&!&!&!&!&!&!&!&!&!k!l!m!n!o!p!q!r!s!&!&!&!&!&!&!&!&!&!&!&!&!&!&!&!&!&!&!&!&!&!&!&!&!&!&!&",
"!&!&!&!&!&!&!&!&!&!&!&!&!&!&!&!&!&!&!&!&!&!&!&!&!&!&!&!&!&!&!&!&!&!&!&!&!&!&!&!&!&!&!&!&!&!&!&!&!&!&!&!&!&!&!&!&!&!&!&!&!&!&!&!&!&!&!&!&!&!&!&!&!&!&!&!&!&!&!&!&!&!&!&!&!&!&!&!&!&!&!&!&!&!&!v!w!x!y!z!{!|!}!&!&!&!&!&!&!&!&!&!&!&!&!&!&!&!&!&!&!&!&!&!&!&!&!&!&!&",
"!&!&!&!&!&!&!&!&!&!&!&!&!&!&!&!&!&!&!&!&!&!&!&!&!&!&!&!&!&###$#%#&#'!&#)!&!&!&!&!&!&!&!&!&!&!&!&!&!&!&!&!&!&!&!&!&!&!&!&!&!&!&!&!&!&!&!&!&!&!&!&!&!&!&!&!&!&!&!&!&!&!&!&!&!&!&!&!&!&!&!&!&#+#,#-#.#/#0#1#2!&!&!&!&!&!&!&!&!&!&!&!&!&!&!&!&!&!&!&!&!&!&!&!&!&!&!&!&",
"!&!&!&!&!&!&!&!&!&!&!&!&!&!&!&!&!&!&!&!&!&!&!&!&!&!&!&!&!&#4!&!&!&!&!&#7#8!&!&!&!&!&!&!&!&!&!&!&!&!&!&!&!&!&!&!&!&!&!&!&!&!&!&!&!&!&!&!&!&!&!&!&!&!&!&!&!&!&!&!&!&!&!&!&!&!&!&!&!&!&!&!&!&#;#<#=#>#?#@#A!&!&#B!&!&!&!&!&!&!&!&!&!&!&!&!&!&!&!&!&!&!&!&!&!&!&!&!&!&",
"!&!&!&!&!&!&!&!&!&!&!&!&!&!&!&!&!&!&!&!&!&!&!&!&!&!&!&!&!&#D!&!&#G!&!&#J!&!&!&!&!&!&!&!&!&!&!&!&!&!&!&!&!&!&!&!&!&!&!&!&!&!&!&!&!&!&!&!&!&!&!&!&!&!&!&!&!&!&!&!&!&!&!&!&!&!&!&!&!&!&!&!&#M#N#O#P#Q#R#S#T!&!&#U!&!&!&!&!&!&!&!&!&!&!&!&!&!&!&!&!&!&!&!&!&!&!&!&!&!&",
"!&!&!&!&!&!&!&!&!&!&!&!&!&!&!&!&!&!&!&!&!&!&!&!&!&!&!&!&!&#X!&#Z#[#]#^#_#`!&!&!&!&!&!&!&!&!&!&!&!&!&!&!&!&!&!&!&!&!&!&!&!&!&!&!&!&!&!&!&!&!&!&!&!&!&!&!&!&!&!&!&!&!&!&!&!&!&!&!&!&!&!&!&!&!&!&!&#c#d#e!&!&!&!&!&!&!&!&!&!&!&!&!&!&!&!&!&!&!&!&!&!&!&!&!&!&!&!&!&!&",
"!&!&!&!&!&!&!&!&!&!&!&!&!&!&!&!&!&!&!&!&!&!&!&!&!&!&!&!&!&#h!&#i#j#k#l#m!&!&!&!&!&!&!&!&!&!&!&!&!&!&!&!&!&!&!&!&!&!&!&!&!&!&!&!&!&!&!&!&!&!&!&!&!&!&!&!&!&!&!&!&!&!&!&!&!&!&!&!&!&!&!&!&#p!&!&!&#s#t#u!&!&!&!&#y!&!&!&!&!&!&!&!&!&!&!&!&!&!&!&!&!&!&!&!&!&!&!&!&!&",
"!&!&!&!&!&!&!&!&!&!&!&!&!&!&!&!&!&!&!&!&!&!&!&!&!&!&!&!&!&#|#}#~$!$#$$$%!&!&!&!&!&!&!&!&!&!&!&!&!&!&!&!&!&!&!&!&!&!&!&!&!&!&!&!&!&!&!&!&!&!&!&!&!&!&!&!&!&!&!&!&!&!&!&!&!&!&!&!&!&!&!&!&$($)!&$+$,$-$.$/!&$1$2$3$4!&!&!&!&!&!&!&!&!&!&!&!&!&!&!&!&!&!&!&!&!&!&!&!&",
"!&!&!&!&!&!&!&!&!&!&!&!&!&!&!&!&!&!&!&!&!&!&!&!&!&!&!&!&$6!&#}$7$8$9$:$;$<$=!&!&!&!&!&!&!&!&!&!&!&!&!&!&!&!&!&!&!&!&!&!&!&!&!&!&!&!&!&!&!&!&!&!&!&!&!&!&!&!&!&!&!&!&!&!&!&!&!&!&!&!&!&!&$@$A$B$C$D$E$F!&!&$G$H$I$J!&!&!&!&!&!&!&!&!&!&!&!&!&!&!&!&!&!&!&!&!&!&!&!&",
"!&!&!&!&!&!&!&!&!&!&!&!&!&!&!&!&!&!&!&!&!&!&!&!&!&!&!&$L$M!&!&$N$O$P$Q!&!&$R!&!&!&!&!&!&!&!&!&!&!&!&!&!&!&!&!&!&!&!&!&!&!&!&!&!&!&!&!&!&!&!&!&!&!&!&!&!&!&!&!&!&!&!&!&!&!&!&!&!&!&!&!&!&$U$V$W$X$Y!&$Z$[$]$^$_$`$a!&!&!&!&!&!&!&!&!&!&!&!&!&!&!&!&!&!&!&!&!&!&!&!&",
"!&!&!&!&!&!&!&!&!&!&!&!&!&!&!&!&!&!&!&!&!&!&!&!&!&!&!&$b!&$c!&$d$e$f!&!&!&!&$g!&!&!&!&!&!&!&!&!&!&!&!&!&!&!&!&!&!&!&!&!&!&!&!&!&!&!&!&!&!&!&!&!&!&!&!&!&!&!&!&!&!&!&!&!&!&!&!&!&!&!&$h$i$j$k$l$m$n$o$p$q$r$s$t$u$v!&!&!&!&!&!&!&!&!&!&!&!&!&!&!&!&!&!&!&!&!&!&!&!&",
"!&!&!&!&!&!&!&!&!&!&!&!&!&!&!&!&!&!&!&!&!&!&!&!&!&!&!&$w$x$y$z${$|!&!&$}$~%!!&!&!&!&!&!&!&!&!&!&!&!&!&!&!&!&!&!&!&!&!&!&!&!&!&!&!&!&!&!&!&!&!&!&!&!&!&!&!&!&!&!&!&!&!&!&!&!&!&!&!&!&%$%%%&%'%(%)%*%+%,%-%.%/%0%1%2!&!&!&!&!&!&!&!&!&!&!&!&!&!&!&!&!&!&!&!&!&!&!&!&",
"!&!&!&!&!&!&!&!&!&!&!&!&!&!&!&!&!&!&!&!&!&!&!&!&!&!&%3%4%5%6%7%8%9%:!&%;%<%=%>!&!&!&!&!&!&!&!&!&!&!&!&!&!&!&!&!&!&!&!&!&!&!&!&!&!&!&!&!&!&!&!&!&!&!&!&!&!&!&!&!&!&!&!&!&!&!&!&!&!&!&%@%A%B%C%D%E%F!&%G%H%I%J%K%L%M%N!&!&!&!&!&!&!&!&!&!&!&!&!&!&!&!&!&!&!&!&!&!&!&",
"!&!&!&!&!&!&!&!&!&!&!&!&!&!&!&!&!&!&!&!&!&!&!&!&!&!&%P%Q%R%S%T%U%V%W%X!&%Y%Z%[%]!&!&!&!&!&!&!&!&!&!&!&!&!&!&!&!&!&!&!&!&!&!&!&!&!&!&!&!&!&!&!&!&!&!&!&!&!&!&!&!&!&!&!&!&!&!&!&!&!&!&%_%`%a%b%c%d%e!&%f%g%h!&%i%j%k!&!&!&!&!&!&!&!&!&!&!&!&!&!&!&!&!&!&!&!&!&!&!&!&",
"!&!&!&!&!&!&!&!&!&!&!&!&!&!&!&!&!&!&!&!&!&!&!&!&!&!&%n%o%p%q%r%s%t%u%v!&%w%x%y%z!&!&!&!&!&!&!&!&!&!&!&!&!&!&!&!&!&!&!&!&!&!&!&!&!&!&!&!&!&!&!&!&!&!&!&!&!&!&!&!&!&!&!&!&!&!&!&!&!&!&%}%~&!&#&$&%&&&'&(&)&*!&&+&,&-!&!&!&!&!&!&!&!&!&!&!&!&!&!&!&!&!&!&!&!&!&!&!&!&",
"!&!&!&!&!&!&!&!&!&!&!&!&!&!&!&!&!&!&!&!&!&!&!&!&!&!&&1&2&3&4&5&6&7&8&9!&&:&;&<&=&>!&!&!&!&!&!&!&!&!&!&!&!&!&!&!&!&!&!&!&!&!&!&!&!&!&!&!&!&!&!&!&!&!&!&!&!&!&!&!&!&!&!&!&!&!&!&!&!&!&&A&B&C&D&E!&!&!&!&!&&F!&&G&H&I!&&K!&!&!&!&!&!&!&!&!&!&!&!&!&!&!&!&!&!&!&!&!&!&",
"!&!&!&!&!&!&!&!&!&!&!&!&!&!&!&!&!&!&!&!&!&!&!&!&!&!&&[&]&^&_&`&a&b&c&d&e&f&g&h&i&j!&!&!&!&!&!&!&!&!&!&!&!&!&!&!&!&!&!&!&!&!&!&!&!&!&!&!&!&!&!&!&!&!&!&!&!&!&!&!&!&!&!&!&!&!&!&!&!&!&&}&~'!'#'$'%!&'&!&'''(!&')'*'+!&!&!&!&!&!&!&!&!&!&!&!&!&!&!&!&!&!&!&!&!&!&!&!&"
};
