/* XPM */
static char *weapon_02_slow_fire_protector[] = {
/* Values */
"129 64 725 2",
/* Colors */
"!! c #055270",
"!# c #4C2E76",
"!$ c None",
"!% c #651880",
"!& c #671C83",
"!' c #671A80",
"!( c #6A1A7D",
"!) c #6A197F",
"!* c #641C82",
"!+ c #631C82",
"!, c #641C80",
"!- c #641C7F",
"!. c #631D7F",
"!/ c #671B7F",
"!0 c #681A7F",
"!1 c #6B197F",
"!2 c #6B197D",
"!3 c #681A7D",
"!4 c #681A80",
"!5 c #671B7D",
"!6 c #661C7F",
"!7 c #6B1880",
"!8 c #6A1980",
"!9 c #87359B",
"!: c #68167C",
"!; c #661B80",
"!< c #4C307A",
"!= c #104C71",
"!> c #A5081D",
"!? c #AF0F27",
"!@ c #75005A",
"!A c #871843",
"!B c #FF8D7C",
"!C c #931509",
"!D c #93134E",
"!E c #820031",
"!F c #8A2930",
"!G c #FDD3BA",
"!H c #65311C",
"!I c #911328",
"!J c #A0003A",
"!K c #C34FB0",
"!L c #7E0B50",
"!M c #FFA9BC",
"!N c #EB8579",
"!O c #CFA58F",
"!P c #C39480",
"!Q c #C14A44",
"!R c #A31023",
"!S c #C0407B",
"!T c #A6598F",
"!U c #414840",
"!V c #FFFFE4",
"!W c #B05543",
"!X c #99160E",
"!Y c #9E2824",
"!Z c #8C1D14",
"![ c #841502",
"!] c #8E4326",
"!^ c #595935",
"!_ c #7D7781",
"!` c #A04D91",
"!a c #68556B",
"!b c #A8FCCB",
"!c c #246928",
"!d c #F8B89D",
"!e c #FF8582",
"!f c #FD686A",
"!g c #FF9190",
"!h c #B7493C",
"!i c #380A00",
"!j c #1E4F17",
"!k c #347557",
"!l c #4C4A7B",
"!m c #5F2885",
"!n c #53205B",
"!o c #57486F",
"!p c #0F3741",
"!q c #53C3AA",
"!r c #BBFFED",
"!s c #C6988B",
"!t c #C74F4E",
"!u c #CD443E",
"!v c #750000",
"!w c #861622",
"!x c #884C56",
"!y c #1B312E",
"!z c #125E42",
"!{ c #1F8345",
"!| c #245D34",
"!} c #60264E",
"!~ c #5C2163",
"#! c #947AA9",
"## c #C8D4EA",
"#$ c #4B807A",
"#% c #6A887C",
"#& c #A06466",
"#' c #8C272D",
"#( c #BC615E",
"#) c #6E1615",
"#* c #6D0C1D",
"#+ c #41000B",
"#, c #372630",
"#- c #24412F",
"#. c #3E7E42",
"#/ c #345027",
"#0 c #6B1F45",
"#1 c #830052",
"#2 c #E681BB",
"#3 c #872A35",
"#4 c #822321",
"#5 c #9E3345",
"#6 c #FFDBF0",
"#7 c #C0B4BE",
"#8 c #635F60",
"#9 c #440807",
"#: c #67140C",
"#; c #581100",
"#< c #601013",
"#= c #9D2D65",
"#> c #870949",
"#? c #951D4A",
"#@ c #FD82B8",
"#A c #961858",
"#B c #830350",
"#C c #FF78C9",
"#D c #BD1931",
"#E c #C42A2C",
"#F c #E06176",
"#G c #CF91AA",
"#H c #66909E",
"#I c #588B8C",
"#J c #674335",
"#K c #600A00",
"#L c #5E0000",
"#M c #7E0011",
"#N c #7F062F",
"#O c #8A1B2B",
"#P c #FFADC7",
"#Q c #9C254F",
"#R c #750035",
"#S c #FF68C4",
"#T c #A3031F",
"#U c #9E0809",
"#V c #720005",
"#W c #885566",
"#X c #4B8F9A",
"#Y c #236F6D",
"#Z c #2C1100",
"#[ c #610F00",
"#] c #6A0E01",
"#^ c #921A3E",
"#_ c #9C3892",
"#` c #802358",
"#a c #FFA5B1",
"#b c #FF908E",
"#c c #FE808B",
"#d c #F8768E",
"#e c #C54369",
"#f c #8E1D48",
"#g c #A05478",
"#h c #6E2459",
"#i c #CD41A1",
"#j c #7D0123",
"#k c #780709",
"#l c #6F0706",
"#m c #410D0F",
"#n c #285761",
"#o c #00272C",
"#p c #50291A",
"#q c #5A0F00",
"#r c #713831",
"#s c #96506A",
"#t c #A757B0",
"#u c #5B5F5E",
"#v c #E6E8C3",
"#w c #B8614D",
"#x c #A21710",
"#y c #BA2126",
"#z c #B61826",
"#{ c #91000D",
"#| c #8F3C2E",
"#} c #2E5409",
"#~ c #66975F",
"$! c #6F3764",
"$# c #AC3E97",
"$$ c #4F1A44",
"$% c #270004",
"$& c #560E00",
"$' c #581600",
"$( c #2B0F1D",
"$) c #3F2236",
"$* c #5D1310",
"$+ c #2F0000",
"$, c #1C231C",
"$- c #627369",
"$. c #4A2F1A",
"$/ c #722839",
"$0 c #B167B6",
"$1 c #5A506B",
"$2 c #95E1B2",
"$3 c #3C7934",
"$4 c #F8C09F",
"$5 c #FF7A73",
"$6 c #FF6872",
"$7 c #FF6E7B",
"$8 c #E34947",
"$9 c #581000",
"$: c #226C09",
"$; c #187A23",
"$< c #5B5B5B",
"$= c #C440A5",
"$> c #C0609D",
"$? c #46263E",
"$@ c #8F7E76",
"$A c #AF7C51",
"$B c #C8875F",
"$C c #C38681",
"$D c #8C434A",
"$E c #460000",
"$F c #783A2D",
"$G c #365A56",
"$H c #4F8D76",
"$I c #56611D",
"$J c #5E2B0C",
"$K c #611369",
"$L c #475546",
"$M c #004205",
"$N c #6FDFAF",
"$O c #BBFFE8",
"$P c #B19F89",
"$Q c #B04C4A",
"$R c #D12A44",
"$S c #B70118",
"$T c #880000",
"$U c #853B18",
"$V c #2B4923",
"$W c #00421B",
"$X c #437B58",
"$Y c #533F58",
"$Z c #BC3997",
"$[ c #FD85B3",
"$] c #E2828D",
"$^ c #D59C8B",
"$_ c #A9825B",
"$` c #DAAF7A",
"$a c #F0BF87",
"$b c #AB7149",
"$c c #B46441",
"$d c #B54321",
"$e c #5E1200",
"$f c #3A5A59",
"$g c #2D6759",
"$h c #4F4F11",
"$i c #6B2609",
"$j c #631674",
"$k c #809181",
"$l c #B2EDB3",
"$m c #497B5E",
"$n c #738577",
"$o c #976D61",
"$p c #883235",
"$q c #E06F8D",
"$r c #730011",
"$s c #6F0400",
"$t c #661F01",
"$u c #291A15",
"$v c #394C4A",
"$w c #4B6B56",
"$x c #543B51",
"$y c #B33189",
"$z c #AE375F",
"${ c #D96C69",
"$| c #C36647",
"$} c #BD794C",
"$~ c #C48C51",
"%! c #DAA45A",
"%# c #A1691E",
"%$ c #B27536",
"%% c #A2531A",
"%& c #B64B15",
"%' c #9F542D",
"%( c #36433A",
"%) c #3F5E4F",
"%* c #7B5F2F",
"%+ c #9B4A2F",
"%, c #850238",
"%- c #C784A7",
"%. c #9C3236",
"%/ c #92130C",
"%0 c #BB3639",
"%1 c #FFC3CE",
"%2 c #B8B4C5",
"%3 c #5A6970",
"%4 c #230300",
"%5 c #531700",
"%6 c #4F0911",
"%7 c #5B122F",
"%8 c #793159",
"%9 c #CA5282",
"%: c #9D3528",
"%; c #A94917",
"%< c #AF5C1A",
"%= c #B8763C",
"%> c #AC6923",
"%? c #D07A15",
"%@ c #A64F00",
"%A c #A55D13",
"%B c #8B4507",
"%C c #BA7029",
"%D c #E0A569",
"%E c #BEA98A",
"%F c #977E68",
"%G c #9D5636",
"%H c #9D422D",
"%I c #741D25",
"%J c #EB59BB",
"%K c #D92548",
"%L c #DC2529",
"%M c #F04F54",
"%N c #F8A9AF",
"%O c #5E97A2",
"%P c #35898B",
"%Q c #615F50",
"%R c #3E0000",
"%S c #720812",
"%T c #8A0D35",
"%U c #AF2D9A",
"%V c #FF91A1",
"%W c #CB6C3E",
"%X c #A34C00",
"%Y c #974A00",
"%Z c #A56327",
"%[ c #9A510D",
"%] c #A94600",
"%^ c #B14D00",
"%_ c #AC5B0C",
"%` c #CE8B47",
"%a c #DA9C51",
"%b c #EBB672",
"%c c #ECC290",
"%d c #C68E69",
"%e c #D37553",
"%f c #A64727",
"%g c #733818",
"%h c #601C29",
"%i c #FF73F3",
"%j c #A30039",
"%k c #8F0009",
"%l c #7E0000",
"%m c #844F47",
"%n c #327B81",
"%o c #35262B",
"%p c #6A1417",
"%q c #730000",
"%r c #89001F",
"%s c #B9408F",
"%t c #FB948D",
"%u c #D88041",
"%v c #9F4F00",
"%w c #793100",
"%x c #662300",
"%y c #8C430E",
"%z c #C4660F",
"%{ c #E27F21",
"%| c #CD7827",
"%} c #FBB168",
"%~ c #EDAA66",
"&! c #DEA263",
"&# c #DBA569",
"&$ c #BC7A3E",
"&% c #BF5C21",
"&& c #A94C11",
"&' c #89581D",
"&( c #6B3221",
"&) c #CB30A6",
"&* c #6A0032",
"&+ c #661118",
"&, c #600D00",
"&- c #3E1500",
"&. c #2E5857",
"&/ c #06313A",
"&0 c #370C16",
"&1 c #680E18",
"&2 c #9B373F",
"&3 c #A44058",
"&4 c #BC4B77",
"&5 c #D17158",
"&6 c #CE7B35",
"&7 c #C87C26",
"&8 c #B97222",
"&9 c #B97A45",
"&: c #C48051",
"&; c #E2924D",
"&< c #E99243",
"&= c #EC9649",
"&> c #E08E44",
"&? c #C57A37",
"&@ c #CC8849",
"&A c #B77E3B",
"&B c #C5823C",
"&C c #C1631D",
"&D c #C36B21",
"&E c #794A00",
"&F c #632904",
"&G c #840C49",
"&H c #AD5194",
"&I c #2F2233",
"&J c #0B1401",
"&K c #412704",
"&L c #491E00",
"&M c #2D0600",
"&N c #511C22",
"&O c #600A0D",
"&P c #4A0005",
"&Q c #35192F",
"&R c #6B6070",
"&S c #563B32",
"&T c #6A213C",
"&U c #A83169",
"&V c #B1484F",
"&W c #C26843",
"&X c #EA9957",
"&Y c #C37827",
"&Z c #E6A355",
"&[ c #D99E64",
"&] c #EEB685",
"&^ c #EDB17D",
"&_ c #D89358",
"&` c #D5803D",
"&a c #D47932",
"&b c #C56F26",
"&c c #B26821",
"&d c #925916",
"&e c #894E0C",
"&f c #B25F19",
"&g c #BB6A19",
"&h c #AA7414",
"&i c #7C3605",
"&j c #8D0F4E",
"&k c #CE5598",
"&l c #9F5E72",
"&m c #313C2C",
"&n c #738C65",
"&o c #836E41",
"&p c #C79069",
"&q c #DC8A74",
"&r c #963628",
"&s c #5A0000",
"&t c #4D0F10",
"&u c #384C64",
"&v c #7A9FA5",
"&w c #564D16",
"&x c #732A17",
"&y c #A73453",
"&z c #AA4730",
"&{ c #C56D3F",
"&| c #CF803E",
"&} c #CA8132",
"&~ c #D79849",
"'! c #E9B875",
"'# c #E8BA7F",
"'$ c #D5A06C",
"'% c #C2814B",
"'& c #C57339",
"'' c #BE6724",
"'( c #A45105",
"') c #8C4000",
"'* c #844500",
"'+ c #7D3C00",
"', c #9A4A0D",
"'- c #9F520C",
"'. c #975F08",
"'/ c #7A2F08",
"'0 c #940B59",
"'1 c #D931A2",
"'2 c #F584A0",
"'3 c #D58F76",
"'4 c #BE9569",
"'5 c #BD9561",
"'6 c #F9B588",
"'7 c #FEAC7D",
"'8 c #C46E3D",
"'9 c #A65021",
"': c #A24826",
"'; c #683A2D",
"'< c #315C6D",
"'= c #1E4844",
"'> c #7E5003",
"'? c #952A00",
"'@ c #A93B44",
"'A c #AA4E1F",
"'B c #C9743B",
"'C c #B86B27",
"'D c #CF8838",
"'E c #C38B36",
"'F c #D1AC5C",
"'G c #CCA55A",
"'H c #C5863F",
"'I c #B76D2C",
"'J c #AF622C",
"'K c #9D5218",
"'L c #803E00",
"'M c #753300",
"'N c #863900",
"'O c #833000",
"'P c #893507",
"'Q c #80370C",
"'R c #77460E",
"'S c #722721",
"'T c #D5268F",
"'U c #C5316B",
"'V c #C1675C",
"'W c #B67744",
"'X c #CD884D",
"'Y c #C2763A",
"'Z c #E28853",
"'[ c #B95E25",
"'] c #C77732",
"'^ c #AA5C1C",
"'_ c #AC5B2E",
"'` c #7B4B34",
"'a c #2B4343",
"'b c #485946",
"'c c #9E5705",
"'d c #A53400",
"'e c #86154B",
"'f c #B0453B",
"'g c #B75D1E",
"'h c #C77432",
"'i c #BD7028",
"'j c #C98534",
"'k c #BE8430",
"'l c #B28530",
"'m c #B78934",
"'n c #BC7827",
"'o c #B0631D",
"'p c #98531A",
"'q c #7D3F04",
"'r c #733900",
"'s c #844100",
"'t c #9B4200",
"'u c #983A00",
"'v c #883405",
"'w c #742A0F",
"'x c #682C24",
"'y c #751D47",
"'z c #E96E73",
"'{ c #983D10",
"'| c #7B4612",
"'} c #91622A",
"'~ c #BC743A",
"(! c #C26E2E",
"(# c #B56119",
"($ c #B06116",
"(% c #8D4800",
"(& c #975211",
"(' c #C97C50",
"(( c #C98767",
"() c #D5B095",
"(* c #A97F55",
"(+ c #B15E18",
"(, c #A1430D",
"(- c #772A34",
"(. c #721856",
"(/ c #A12959",
"(0 c #B44F31",
"(1 c #BF671F",
"(2 c #BA681C",
"(3 c #D08436",
"(4 c #C78234",
"(5 c #CE8B3A",
"(6 c #BD7B24",
"(7 c #BF7C25",
"(8 c #B5691D",
"(9 c #9A540C",
"(: c #7C4600",
"(; c #6A3700",
"(< c #773900",
"(= c #994E0B",
"(> c #B25303",
"(? c #AD4E00",
"(@ c #8F4000",
"(A c #792B15",
"(B c #701550",
"(C c #F59980",
"(D c #A96719",
"(E c #85550D",
"(F c #885714",
"(G c #985312",
"(H c #AB5814",
"(I c #A34D00",
"(J c #A14C00",
"(K c #C67A2F",
"(L c #BA7637",
"(M c #D19364",
"(N c #FBC193",
"(O c #F2B77F",
"(P c #E8A465",
"(Q c #B96624",
"(R c #A1501B",
"(S c #79391E",
"(T c #732137",
"(U c #AA393B",
"(V c #B55324",
"(W c #C06A1D",
"(X c #B36210",
"(Y c #D88D3A",
"(Z c #CE8840",
"([ c #DD9048",
"(] c #D87E28",
"(^ c #CB6F1A",
"(_ c #A5510B",
"(` c #813D00",
"(a c #6D4000",
"(b c #6F4400",
"(c c #894B0E",
"(d c #AC5B19",
"(e c #C15C0C",
"(f c #BE5907",
"(g c #984800",
"(h c #883221",
"(i c #CA5DA1",
"(j c #F8A7B0",
"(k c #B6704C",
"(l c #B86E27",
"(m c #7E3600",
"(n c #5B1900",
"(o c #A55B10",
"(p c #C1610B",
"(q c #D26916",
"(r c #D67435",
"(s c #F0A770",
"(t c #D3AF75",
"(u c #BFA761",
"(v c #CDA14A",
"(w c #BB7F29",
"(x c #B86E2D",
"(y c #A55822",
"(z c #88400E",
"({ c #82231F",
"(| c #AF383A",
"(} c #B64D1D",
"(~ c #B85919",
")! c #C56F22",
")# c #C07017",
")$ c #CE842F",
")% c #DF9558",
")& c #D68045",
")' c #DA691D",
")( c #CF590F",
")) c #9F3E07",
")* c #783201",
")+ c #6C4411",
"), c #7A561A",
")- c #9A5E15",
"). c #BC6716",
")/ c #CD5F10",
")0 c #CC5D15",
")1 c #A44C0D",
")2 c #973B30",
")3 c #035273",
")4 c #492F78",
")5 c #6A1A79",
")6 c #6B1580",
")7 c #661B82",
")8 c #6B1786",
")9 c #642168",
"): c #661E72",
"); c #7B3B87",
")< c #784A79",
")= c #A3879D",
")> c #A88D82",
")? c #A27C4B",
")@ c #997835",
")A c #A09458",
")B c #918146",
")C c #D4A869",
")D c #CF9B61",
")E c #C99E73",
")F c #C3AD86",
")G c #889569",
")H c #8CA168",
")I c #939349",
")J c #988E46",
")K c #8D814F",
")L c #7C6D42",
")M c #685324",
")N c #603429",
")O c #701A59",
")P c #651F77",
")Q c #601E76",
")R c #89349B",
")S c #6A177F",
")T c #68157D",
")U c #6B1988",
")V c #691785",
")W c #6A157D",
")X c #6B1280",
")Y c #6A2288",
")Z c #692E64",
")[ c #7F4C37",
")] c #966731",
")^ c #996938",
")_ c #AC814C",
")` c #B4914F",
")a c #9E8243",
")b c #C4AB82",
")c c #9C7951",
")d c #9F622C",
")e c #A2602C",
")f c #7E522D",
")g c #5C4728",
")h c #535434",
")i c #5D643A",
")j c #786D2F",
")k c #917430",
")l c #A47638",
")m c #A1743D",
")n c #7D6132",
")o c #76534D",
")p c #602460",
")q c #65207B",
")r c #551971",
")s c #61227D",
/* Pixels */
"!$!$!$!$!$!$!$!$!$!$!$!$!$!$!$!$!$!$!$!$!$!$!$!$!$!$!$!$!$!$!$!$!$!$!$!$!$!$!$!$!$!$!$!$!$!$!$!$!$!$!$!$!$!$!$!$!$!$!$!$!$!$!$!$!$!$!$!$!$!$!$!$!$!$!$!$!$!$!$!$!$!$!$!$!$!$!$!$!$!$!$!$!$!$!$!$!$!$!$!$!$!$!$!$!$!$!$!$!$!$!$!$!$!$!$!$!$!$!$!$!$!$!$!$!$!$!$!$!$",
"!$!$!$!$!$!$!$!$!$!$!$!$!$!$!$!$!$!$!$!$!$!$!$!$!$!$!$!$!$!$!$!$!$!$!$!$!$!$!$!$!$!$!$!$!$!$!$!$!$!$!$!$!$!$!$!$!$!$!$!$!$!$!$!$!$!$!$!$!$!$!$!$!$!$!$!$!$!$!$!$!$!$!$!$!$!$!$!$!$!$!$!$!$!$!$!$!$!$!$!$!$!$!$!$!$!$!$!$!$!$!$!$!$!$!$!$!$!$!$!$!$!$!$!$!$!$!$!$!$",
"!$!$!$!$!$!$!$!$!$!$!$!$!$!$!$!$!$!$!$!$!$!$!$!$!$!$!$!$!$!$!$!$!$!$!$!$!$!$!$!$!$!$!$!$!$!$!$!$!$!$!$!$!$!$!$!$!$!$!$!$!$!$!$!$!$!$!$!$!$!$!$!$!$!$!$!$!$!$!$!$!$!$!$!$!$!$!$!$!$!$!$!$!$!$!$!$!$!$!$!$!$!$!$!$!$!$!$!$!$!$!$!$!$!$!$!$!$!$!$!$!$!$!$!$!$!$!$!$!$",
"!$!$!$!$!$!$!$!$!$!$!$!$!$!$!$!$!$!$!$!$!$!$!$!$!$!$!$!$!$!$!$!$!$!$!$!$!$!$!$!$!$!$!$!$!$!$!$!$!$!$!$!$!$!$!$!$!$!$!$!$!$!$!$!$!$!$!$!$!$!$!$!$!$!$!$!$!$!$!$!$!$!$!$!$!$!$!$!$!$!$!$!$!$!$!$!$!$!$!$!$!$!$!$!$!$!$!$!$!$!$!$!$!$!$!$!$!$!$!$!$!$!$!$!$!$!$!$!$!$",
"!$!$!$!$!$!$!$!$!$!$!$!$!$!$!$!$!$!$!$!$!$!$!$!$!$!$!$!$!$!$!$!$!$!$!$!$!$!$!$!$!$!$!$!$!$!$!$!$!$!$!$!$!$!$!$!$!$!$!$!$!$!$!$!$!$!$!$!$!$!$!$!$!$!$!$!$!$!$!$!$!$!$!$!$!$!$!$!$!$!$!$!$!$!$!$!$!$!$!$!$!$!$!$!$!$!$!$!$!$!$!$!$!$!$!$!$!$!$!$!$!$!$!$!$!$!$!$!$!$",
"!$!$!$!$!$!$!$!$!$!$!$!$!$!$!$!$!$!$!$!$!$!$!$!$!$!$!$!$!$!$!$!$!$!$!$!$!$!$!$!$!$!$!$!$!$!$!$!$!$!$!$!$!$!$!$!$!$!$!$!$!$!$!$!$!$!$!$!$!$!$!$!$!$!$!$!$!$!$!$!$!$!$!$!$!$!$!$!$!$!$!$!$!$!$!$!$!$!$!$!$!$!$!$!$!$!$!$!$!$!$!$!$!$!$!$!$!$!$!$!$!$!$!$!$!$!$!$!$!$",
"!$!$!$!$!$!$!$!$!$!$!$!$!$!$!$!$!$!$!$!$!$!$!$!$!$!$!$!$!$!$!$!$!$!$!$!$!$!$!$!$!$!$!$!$!$!$!$!$!$!$!$!$!$!$!$!$!$!$!$!$!$!$!$!$!$!$!$!$!$!$!$!$!$!$!$!$!$!$!$!$!$!$!$!$!$!$!$!$!$!$!$!$!$!$!$!$!$!$!$!$!$!$!$!$!$!$!$!$!$!$!$!$!$!$!$!$!$!$!$!$!$!$!$!$!$!$!$!$!$",
"!$!$!$!$!$!$!$!$!$!$!$!$!$!$!$!$!$!$!$!$!$!$!$!$!$!$!$!$!$!$!$!$!$!$!$!$!$!$!$!$!$!$!$!$!$!$!$!$!$!$!$!$!$!$!$!$!$!$!$!$!$!$!$!$!$!$!$!$!$!$!$!$!$!$!$!$!$!$!$!$!$!$!$!$!$!$!$!$!$!$!$!$!$!$!$!$!$!$!$!$!$!$!$!$!$!$!$!$!$!$!$!$!$!$!$!$!$!$!$!$!$!$!$!$!$!$!$!$!$",
"!$!$!$!$!$!$!$!$!$!$!$!$!$!$!$!$!$!$!$!$!$!$!$!$!$!$!$!$!$!$!$!$!$!$!$!$!$!$!$!$!$!$!$!$!$!$!$!$!$!$!$!$!$!$!$!$!$!$!$!$!$!$!$!$!$!$!$!$!$!$!$!$!$!$!$!$!$!$!$!$!$!$!$!$!$!$!$!$!$!$!$!$!$!$!$!$!$!$!$!$!$!$!$!$!$!$!$!$!$!$!$!$!$!$!$!$!$!$!$!$!$!$!$!$!$!$!$!$!$",
"!$!$!$!$!$!$!$!$!$!$!$!$!$!$!$!$!$!$!$!$!$!$!$!$!$!$!$!$!$!$!$!$!$!$!$!$!$!$!$!$!$!$!$!$!$!$!$!$!$!$!$!$!$!$!$!$!$!$!$!$!$!$!$!$!$!$!$!$!$!$!$!$!$!$!$!$!$!$!$!$!$!$!$!$!$!$!$!$!$!$!$!$!$!$!$!$!$!$!$!$!$!$!$!$!$!$!$!$!$!$!$!$!$!$!$!$!$!$!$!$!$!$!$!$!$!$!$!$!$",
"!$!$!$!$!$!$!$!$!$!$!$!$!$!$!$!$!$!$!$!$!$!$!$!$!$!$!$!$!$!$!$!$!$!$!$!$!$!$!$!$!$!$!$!$!$!$!$!$!$!$!$!$!$!$!$!$!$!$!$!$!$!$!$!$!$!$!$!$!$!$!$!$!$!$!$!$!$!$!$!$!$!$!$!$!$!$!$!$!$!$!$!$!$!$!$!$!$!$!$!$!$!$!$!$!$!$!$!$!$!$!$!$!$!$!$!$!$!$!$!$!$!$!$!$!$!$!$!$!$",
"!$!$!$!$!$!$!$!$!$!$!$!$!$!$!$!$!$!$!$!$!$!$!$!$!$!$!$!$!$!$!$!$!$!$!$!$!$!$!$!$!$!$!$!$!$!$!$!$!$!$!$!$!$!$!$!$!$!$!$!$!$!$!$!$!$!$!$!$!$!$!$!$!$!$!$!$!$!$!$!$!$!$!$!$!$!$!$!$!$!$!$!$!$!$!$!$!$!$!$!$!$!$!$!$!$!$!$!$!$!$!$!$!$!$!$!$!$!$!$!$!$!$!$!$!$!$!$!$!$",
"!$!$!$!$!$!$!$!$!$!$!$!$!$!$!$!$!$!$!$!$!$!$!$!$!$!$!$!$!$!$!$!$!$!$!$!$!$!$!$!$!$!$!$!$!$!$!$!$!$!$!$!$!$!$!$!$!$!$!$!$!$!$!$!$!$!$!$!$!$!$!$!$!$!$!$!$!$!$!$!$!$!$!$!$!$!$!$!$!$!$!$!$!$!$!$!$!$!$!$!$!$!$!$!$!$!$!$!$!$!$!$!$!$!$!$!$!$!$!$!$!$!$!$!$!$!$!$!$!$",
"!$!$!$!$!$!$!$!$!$!$!$!$!$!$!$!$!$!$!$!$!$!$!$!$!$!$!$!$!$!$!$!$!$!$!$!$!$!$!$!$!$!$!$!$!$!$!$!$!$!$!$!$!$!$!$!$!$!$!$!$!$!$!$!$!$!$!$!$!$!$!$!$!$!$!$!$!$!$!$!$!$!$!$!$!$!$!$!$!$!$!$!$!$!$!$!$!$!$!$!$!$!$!$!$!$!$!$!$!$!$!$!$!$!$!$!$!$!$!$!$!$!$!$!$!$!$!$!$!$",
"!$!$!$!$!$!$!$!$!$!$!$!$!$!$!$!$!$!$!$!$!$!$!$!$!$!$!$!$!$!$!$!$!$!$!$!$!$!$!$!$!$!$!$!$!$!$!$!$!$!$!$!$!$!$!$!$!$!$!$!$!$!$!$!$!$!$!$!$!$!$!$!$!$!$!$!$!$!$!$!$!$!$!$!$!$!$!$!$!$!$!$!$!$!$!$!$!$!$!$!$!$!$!$!$!$!$!$!$!$!$!$!$!$!$!$!$!$!$!$!$!$!$!$!$!$!$!$!$!$",
"!$!$!$!$!$!$!$!$!$!$!$!$!$!$!$!$!$!$!$!$!$!$!$!$!$!$!$!$!$!$!$!$!$!$!$!$!$!$!$!$!$!$!$!$!$!$!$!$!$!$!$!$!$!$!$!$!$!$!$!$!$!$!$!$!$!$!$!$!$!$!$!$!$!$!$!$!$!$!$!$!$!$!$!$!$!$!$!$!$!$!$!$!$!$!$!$!$!$!$!$!$!$!$!$!$!$!$!$!$!$!$!$!$!$!$!$!$!$!$!$!$!$!$!$!$!$!$!$!$",
"!$!$!$!$!$!$!$!$!$!$!$!$!$!$!$!$!$!$!$!$!$!$!$!$!$!$!$!$!$!$!$!$!$!$!$!$!$!$!$!$!$!$!$!$!$!$!$!$!$!$!$!$!$!$!$!$!$!$!$!$!$!$!$!$!$!$!$!$!$!$!$!$!$!$!$!$!$!$!$!$!$!$!$!$!$!$!$!$!$!$!$!$!$!$!$!$!$!$!$!$!$!$!$!$!$!$!$!$!$!$!$!$!$!$!$!$!$!$!$!$!$!$!$!$!$!$!$!$!$",
"!$!$!$!$!$!$!$!$!$!$!$!$!$!$!$!$!$!$!$!$!$!$!$!$!$!$!$!$!$!$!$!$!$!$!$!$!$!$!$!$!$!$!$!$!$!$!$!$!$!$!$!$!$!$!$!$!$!$!$!$!$!$!$!$!$!$!$!$!$!$!$!$!$!$!$!$!$!$!$!$!$!$!$!$!$!$!$!$!$!$!$!$!$!$!$!$!$!$!$!$!$!$!$!$!$!$!$!$!$!$!$!$!$!$!$!$!$!$!$!$!$!$!$!$!$!$!$!$!$",
"!$!$!$!$!$!$!$!$!$!$!$!$!$!$!$!$!$!$!$!$!$!$!$!$!$!$!$!$!$!$!$!$!$!$!$!$!$!$!$!$!$!$!$!$!$!$!$!$!$!$!$!$!$!$!$!$!$!$!$!$!$!$!$!$!$!$!$!$!$!$!$!$!$!$!$!$!$!$!$!$!$!$!$!$!$!$!$!$!$!$!$!$!$!$!$!$!$!$!$!$!$!$!$!$!$!$!$!$!$!$!$!$!$!$!$!$!$!$!$!$!$!$!$!$!$!$!$!$!$",
"!$!$!$!$!$!$!$!$!$!$!$!$!$!$!$!$!$!$!$!$!$!$!$!$!$!$!$!$!$!$!$!$!$!$!$!$!$!$!$!$!$!$!$!$!$!$!$!$!$!$!$!$!$!$!$!$!$!$!$!$!$!$!$!$!$!$!$!$!$!$!$!$!$!$!$!$!$!$!$!$!$!$!$!$!$!$!$!$!$!$!$!$!$!$!$!$!$!$!$!$!$!$!$!$!$!$!$!$!$!$!$!$!$!$!$!$!$!$!$!$!$!$!$!$!$!$!$!$!$",
"!$!$!$!$!$!$!$!$!$!$!$!$!$!$!$!$!$!$!$!$!$!$!$!$!$!$!$!$!$!$!$!$!$!$!$!$!$!$!$!$!$!$!$!$!$!$!$!$!$!$!$!$!$!$!$!$!$!$!$!$!$!$!$!$!$!$!$!$!$!$!$!$!$!$!$!$!$!$!$!$!$!$!$!$!$!$!$!$!$!$!$!$!$!$!$!$!$!$!$!$!$!$!$!$!$!$!$!$!$!$!$!$!$!$!$!$!$!$!$!$!$!$!$!$!$!$!$!$!$",
"!$!$!$!$!$!$!$!$!$!$!$!$!$!$!$!$!$!$!$!$!$!$!$!$!$!$!$!$!$!$!$!$!$!$!$!$!$!$!$!$!$!$!$!$!$!$!$!$!$!$!$!$!$!$!$!$!$!$!$!$!$!$!$!$!$!$!$!$!$!$!$!$!$!$!$!$!$!$!$!$!$!$!$!$!$!$!$!$!$!$!$!$!$!$!$!$!$!$!$!$!$!$!$!$!$!$!$!$!$!$!$!$!$!$!$!$!$!$!$!$!$!$!$!$!$!$!$!$!$",
"!$!$!$!$!$!$!$!$!$!$!$!$!$!$!$!$!$!$!$!$!$!$!$!$!$!$!$!$!$!$!$!$!$!$!$!$!$!$!$!$!$!$!$!$!$!$!$!$!$!$!$!$!$!$!$!$!$!$!$!$!$!$!$!$!$!$!$!$!$!$!$!$!$!$!$!$!$!$!$!$!$!$!$!$!$!$!$!$!$!$!$!$!$!$!$!$!$!$!$!$!$!$!$!$!$!$!$!$!$!$!$!$!$!$!$!$!$!$!$!$!$!$!$!$!$!$!$!$!$",
"!$!$!$!$!$!$!$!$!$!$!$!$!$!$!$!$!$!$!$!$!$!$!$!$!$!$!$!$!$!$!$!$!$!$!$!$!$!$!$!$!$!$!$!$!$!$!$!$!$!$!$!$!$!$!$!$!$!$!$!$!$!$!$!$!$!$!$!$!$!$!$!$!$!$!$!$!$!$!$!$!$!$!$!$!$!$!$!$!$!$!$!$!$!$!$!$!$!$!$!$!$!$!$!$!$!$!$!$!$!$!$!$!$!$!$!$!$!$!$!$!$!$!$!$!$!$!$!$!$",
"!$!$!$!$!$!$!$!$!$!$!$!$!$!$!$!$!$!$!$!$!$!$!$!$!$!$!$!$!$!$!$!$!$!$!$!$!$!$!$!$!$!$!$!$!$!$!$!$!$!$!$!$!$!$!$!$!$!$!$!$!$!$!$!$!$!$!$!$!$!$!$!$!$!$!$!$!$!$!$!$!$!$!$!$!$!$!$!$!$!$!$!$!$!$!$!$!$!$!$!$!$!$!$!$!$!$!$!$!$!$!$!$!$!$!$!$!$!$!$!$!$!$!$!$!$!$!$!$!$",
"!$!$!$!$!$!$!$!$!$!$!$!$!$!$!$!$!$!$!$!$!$!$!$!$!$!$!$!$!$!$!$!$!$!$!$!$!$!$!$!$!$!$!$!$!$!$!$!$!$!$!$!$!$!$!$!$!$!$!$!$!$!$!$!$!$!$!$!$!$!$!$!$!$!$!$!$!$!$!$!$!$!$!$!$!$!$!$!$!$!$!$!$!$!$!$!$!$!$!$!$!$!$!$!$!$!$!$!$!$!$!$!$!$!$!$!$!$!$!$!$!$!$!$!$!$!$!$!$!$",
"!$!$!$!$!$!$!$!$!$!$!$!$!$!$!$!$!$!$!$!$!$!$!$!$!$!$!$!$!$!$!$!$!$!$!$!$!$!$!$!$!$!$!$!$!$!$!$!$!$!$!$!$!$!$!$!$!$!$!$!$!$!$!$!$!$!$!$!$!$!$!$!$!$!$!$!$!$!$!$!$!$!$!$!$!$!$!$!$!$!$!$!$!$!$!$!$!$!$!$!$!$!$!$!$!$!$!$!$!$!$!$!$!$!$!$!$!$!$!$!$!$!$!$!$!$!$!$!$!$",
"!$!$!$!$!$!$!$!$!$!$!$!$!$!$!$!$!$!$!$!$!$!$!$!$!$!$!$!$!$!$!$!$!$!$!$!$!$!$!$!$!$!$!$!$!$!$!$!$!$!$!$!$!$!$!$!$!$!$!$!$!$!$!$!$!$!$!$!$!$!$!$!$!$!$!$!$!$!$!$!$!$!$!$!$!$!$!$!$!$!$!$!$!$!$!$!$!$!$!$!$!$!$!$!$!$!$!$!$!$!$!$!$!$!$!$!$!$!$!$!$!$!$!$!$!$!$!$!$!$",
"!$!$!$!$!$!$!$!$!$!$!$!$!$!$!$!$!$!$!$!$!$!$!$!$!$!$!$!$!$!$!$!$!$!$!$!$!$!$!$!$!$!$!$!$!$!$!$!$!$!$!$!$!$!$!$!$!$!$!$!$!$!$!$!$!$!$!$!$!$!$!$!$!$!$!$!$!$!$!$!$!$!$!$!$!$!$!$!$!$!$!$!$!$!$!$!$!$!$!$!$!$!$!$!$!$!$!$!$!$!$!$!$!$!$!$!$!$!$!$!$!$!$!$!$!$!$!$!$!$",
"!$!$!$!$!$!$!$!$!$!$!$!$!$!$!$!$!$!$!$!$!$!$!$!$!$!$!$!$!$!$!$!$!$!$!$!$!$!$!$!$!$!$!$!$!$!$!$!$!$!$!$!$!$!$!$!$!$!$!$!$!$!$!$!$!$!$!$!$!$!$!$!$!$!$!$!$!$!$!$!$!$!$!$!$!$!$!$!$!$!$!$!$!$!$!$!$!$!$!$!$!$!$!$!$!$!$!$!$!$!$!$!$!$!$!$!$!$!$!$!$!$!$!$!$!$!$!$!$!$",
"!$!$!$!$!$!$!$!$!$!$!$!$!$!$!$!$!$!$!$!$!$!$!$!$!$!$!$!$!$!$!$!$!$!$!$!$!$!$!$!$!$!$!$!$!$!$!$!$!$!$!$!$!$!$!$!$!$!$!$!$!$!$!$!$!$!$!$!$!$!$!$!$!$!$!$!$!$!$!$!$!$!$!$!$!$!$!$!$!$!$!$!$!$!$!$!$!$!$!$!$!$!$!$!$!$!$!$!$!$!$!$!$!$!$!$!$!$!$!$!$!$!$!$!$!$!$!$!$!$",
"!$!$!$!$!$!$!$!$!$!$!$!$!$!$!$!$!$!$!$!$!$!$!$!$!$!$!$!$!$!$!$!$!$!$!$!$!$!$!$!$!$!$!$!$!$!$!$!$!$!$!$!$!$!$!$!$!$!$!$!$!$!$!$!$!$!$!$!$!$!$!$!$!$!$!$!$!$!$!$!$!$!$!$!$!$!$!$!$!$!$!$!$!$!$!$!$!$!$!$!$!$!$!$!$!$!$!$!$!$!$!$!$!$!$!$!$!$!$!$!$!$!$!$!$!$!$!$!$!$",
"!$!$!$!$!$!$!$!$!$!$!$!$!$!$!$!$!$!$!$!$!$!$!$!$!$!$!$!$!$!$!$!$!$!$!$!$!$!$!$!$!$!$!$!$!$!$!$!$!$!$!$!$!$!$!$!$!$!$!$!$!$!$!$!$!$!$!$!$!$!$!$!$!$!$!$!$!$!$!$!$!$!$!$!$!$!$!$!$!$!$!$!$!$!$!$!$!$!$!$!$!$!$!$!$!$!$!$!$!$!$!$!$!$!$!$!$!$!$!$!$!$!$!$!$!$!$!$!$!$",
"!$!$!$!$!$!$!$!$!$!$!$!$!$!$!$!$!$!$!$!$!$!$!$!$!$!$!$!$!$!$!$!$!$!$!$!$!$!$!$!$!$!$!$!$!$!$!$!$!$!$!$!$!$!$!$!$!$!$!$!$!$!$!$!$!$!$!$!$!$!$!$!$!$!$!$!$!$!$!$!$!$!$!$!$!$!$!$!$!$!$!$!$!$!$!$!$!$!$!$!$!$!$!$!$!$!$!$!$!$!$!$!$!$!$!$!$!$!$!$!$!$!$!$!$!$!$!$!$!$",
"!$!$!$!$!$!$!$!$!$!$!$!$!$!$!$!$!$!$!$!$!$!$!$!$!$!$!$!$!$!$!$!$!$!$!$!$!$!$!$!$!$!$!$!$!$!$!$!$!$!$!$!$!$!$!$!$!$!$!$!$!$!$!$!$!$!$!$!$!$!$!$!$!$!$!$!$!$!$!$!$!$!$!$!$!$!$!$!$!$!$!$!$!$!$!$!$!$!$!$!$!$!$!$!$!$!$!$!$!$!$!$!$!$!$!$!$!$!$!$!$!$!$!$!$!$!$!$!$!$",
"!$!$!$!$!$!$!$!$!$!$!$!$!$!$!$!$!$!$!$!$!$!$!$!$!$!$!$!$!$!$!$!$!$!$!$!$!$!$!$!$!$!$!$!$!$!$!$!$!$!$!$!$!$!$!$!$!$!$!$!$!$!$!$!$!$!$!$!$!$!$!$!$!$!$!$!$!$!$!$!$!$!$!$!$!$!$!$!$!$!$!$!$!$!$!$!$!$!$!$!$!$!$!$!$!$!$!$!$!$!$!$!$!$!$!$!$!$!$!$!$!$!$!$!$!$!$!$!$!$",
"!$!$!$!$!$!$!$!$!$!$!$!$!$!$!$!$!$!$!$!$!$!$!$!$!$!$!$!$!$!$!$!$!$!$!$!$!$!$!$!$!$!$!$!$!$!$!$!$!$!$!$!$!$!$!$!$!$!$!$!$!$!$!$!$!$!$!$!$!$!$!$!$!$!$!$!$!$!$!$!$!$!$!$!$!$!$!$!$!$!$!$!$!$!$!$!$!$!$!$!>!?!$!$!$!$!$!$!$!$!$!$!$!$!$!$!$!$!$!$!$!$!$!$!$!$!$!$!$!$",
"!$!$!$!$!$!$!$!$!$!$!$!$!$!$!$!$!$!$!$!$!$!$!$!$!$!$!$!$!$!$!$!$!$!$!$!$!$!$!$!$!$!$!$!$!$!$!$!$!$!$!$!$!$!$!$!$!$!$!$!$!$!$!$!$!$!$!$!$!$!$!$!$!$!$!$!$!$!$!$!$!$!$!$!$!$!$!$!$!$!$!$!$!$!$!$!$!$!$!A!B!C!D!$!$!$!$!$!$!$!$!$!$!$!$!$!$!$!$!$!$!$!$!$!$!$!$!$!$!$",
"!$!$!$!$!$!$!$!$!$!$!$!$!$!$!$!$!$!$!$!$!$!$!$!$!$!$!$!$!$!$!$!$!$!$!$!$!$!$!$!$!$!$!$!$!$!$!$!$!$!$!$!$!$!$!$!$!$!$!$!$!$!$!$!$!$!$!$!$!$!$!$!$!$!$!$!$!$!$!$!$!$!$!$!$!$!$!$!$!$!$!$!$!$!$!$!$!$!E!F!G!H!I!J!$!$!$!$!$!$!$!$!$!$!$!$!$!$!$!$!$!$!$!$!$!$!$!$!$!$",
"!$!$!$!$!$!$!$!$!$!$!$!$!$!$!$!$!$!$!$!$!$!$!$!$!$!$!$!$!$!$!$!$!$!$!$!$!$!$!$!$!$!$!$!$!$!$!$!$!$!$!$!$!$!$!$!$!$!$!$!$!$!$!$!$!$!$!$!$!$!$!$!$!$!$!$!$!$!$!$!$!$!$!$!$!$!$!$!$!$!$!$!$!$!$!$!$!L!M!N!O!P!Q!R!$!$!$!$!$!$!$!$!$!$!$!$!$!$!$!$!$!$!$!$!$!$!$!$!$!$",
"!$!$!$!$!$!$!$!$!$!$!$!$!$!$!$!$!$!$!$!$!$!$!$!$!$!$!$!$!$!$!$!$!$!$!$!$!$!$!$!$!$!$!$!$!$!$!$!$!$!$!$!$!$!$!$!$!$!$!$!$!$!$!$!$!$!$!$!$!$!$!$!$!$!$!$!$!$!$!$!$!$!$!$!$!$!$!$!$!$!$!$!$!$!$!$!U!V!W!X!Y!Z![!]!^!_!$!$!$!$!$!$!$!$!$!$!$!$!$!$!$!$!$!$!$!$!$!$!$!$",
"!$!$!$!$!$!$!$!$!$!$!$!$!$!$!$!$!$!$!$!$!$!$!$!$!$!$!$!$!$!$!$!$!$!$!$!$!$!$!$!$!$!$!$!$!$!$!$!$!$!$!$!$!$!$!$!$!$!$!$!$!$!$!$!$!$!$!$!$!$!$!$!$!$!$!$!$!$!$!$!$!$!$!$!$!$!$!$!$!$!$!$!$!$!$!$!b!c!d!e!f!g!h!i!j!k!$!$!$!$!$!$!$!$!$!$!$!$!$!$!$!$!$!$!$!$!$!$!$!$",
"!$!$!$!$!$!$!$!$!$!$!$!$!$!$!$!$!$!$!$!$!$!$!$!$!$!$!$!$!$!$!$!$!$!$!$!$!$!$!$!$!$!$!$!$!$!$!$!$!$!$!$!$!$!$!$!$!$!$!$!$!$!$!$!$!$!$!$!$!$!$!$!$!$!$!$!$!$!$!$!$!$!$!$!$!$!$!$!$!$!$!$!$!$!$!p!q!r!s!t!u!v!w!x!y!z!{!|!}!$!$!$!$!$!$!$!$!$!$!$!$!$!$!$!$!$!$!$!$!$",
"!$!$!$!$!$!$!$!$!$!$!$!$!$!$!$!$!$!$!$!$!$!$!$!$!$!$!$!$!$!$!$!$!$!$!$!$!$!$!$!$!$!$!$!$!$!$!$!$!$!$!$!$!$!$!$!$!$!$!$!$!$!$!$!$!$!$!$!$!$!$!$!$!$!$!$!$!$!$!$!$!$!$!$!$!$!$!$!$!$!$!$!$!$#!###$#%#&#'#(#)#*#+#,#-#.#/#0!$!$!$!$!$!$!$!$!$!$!$!$!$!$!$!$!$!$!$!$!$",
"!$!$!$!$!$!$!$!$!$!$!$!$!$!$!$!$!$!$!$!$!$!$!$!$!$!$!$!$!$!$!$!$!$#1!$!$!$!$!$!$!$!$!$!$!$!$!$!$!$!$!$!$!$!$!$!$!$!$!$!$!$!$!$!$!$!$!$!$!$!$!$!$!$!$!$!$!$!$!$!$!$!$!$!$!$!$!$!$!$!$!$!$!$!$#2#3#4#5#6#7#8#9#:#;#<!$!$!$!$!$!$!$!$!$!$!$!$!$!$!$!$!$!$!$!$!$!$!$!$",
"!$!$!$!$!$!$!$!$!$!$!$!$!$!$!$!$!$!$!$!$!$!$!$!$!$!$!$!$!$!$!$#>#?#@!$#B!$!$!$!$!$!$!$!$!$!$!$!$!$!$!$!$!$!$!$!$!$!$!$!$!$!$!$!$!$!$!$!$!$!$!$!$!$!$!$!$!$!$!$!$!$!$!$!$!$!$!$!$!$!$!$!$!$!$#C#D#E#F#G#H#I#J#K#L#M!$!$!$!$!$!$!$!$!$!$!$!$!$!$!$!$!$!$!$!$!$!$!$!$",
"!$!$!$!$!$!$!$!$!$!$!$!$!$!$!$!$!$!$!$!$!$!$!$!$!$!$!$!$!$!$!$#N#O#P#Q#R!$!$!$!$!$!$!$!$!$!$!$!$!$!$!$!$!$!$!$!$!$!$!$!$!$!$!$!$!$!$!$!$!$!$!$!$!$!$!$!$!$!$!$!$!$!$!$!$!$!$!$!$!$!$!$!$!$!$#S#T#U#V#W#X#Y#Z#[#]#^!$!$!$!$!$!$!$!$!$!$!$!$!$!$!$!$!$!$!$!$!$!$!$!$",
"!$!$!$!$!$!$!$!$!$!$!$!$!$!$!$!$!$!$!$!$!$!$!$!$!$!$!$!$!$!$!$#a#b#c#d#e#f!$!$!$!$!$!$!$!$!$!$!$!$!$!$!$!$!$!$!$!$!$!$!$!$!$!$!$!$!$!$!$!$!$!$!$!$!$!$!$!$!$!$!$!$!$!$!$!$!$!$!$!$!$!$!$!$!$!$#j#k#l#m#n#o#p#q#r!$!$!$!$!$!$!$!$!$!$!$!$!$!$!$!$!$!$!$!$!$!$!$!$!$",
"!$!$!$!$!$!$!$!$!$!$!$!$!$!$!$!$!$!$!$!$!$!$!$!$!$!$!$!$!$!$#v#w#x#y#z#{#|#}#~!$!$!$!$!$!$!$!$!$!$!$!$!$!$!$!$!$!$!$!$!$!$!$!$!$!$!$!$!$!$!$!$!$!$!$!$!$!$!$!$!$!$!$!$!$!$!$!$!$!$!$!$!$!$!$!$$$$%$&$'$($)$*$+$,$-$.$/!$!$!$!$!$!$!$!$!$!$!$!$!$!$!$!$!$!$!$!$!$!$",
"!$!$!$!$!$!$!$!$!$!$!$!$!$!$!$!$!$!$!$!$!$!$!$!$!$!$!$$0!$$2$3$4$5$6$7$8$9$:$;!$!$!$!$!$!$!$!$!$!$!$!$!$!$!$!$!$!$!$!$!$!$!$!$!$!$!$!$!$!$!$!$!$!$!$!$!$!$!$!$!$!$!$!$!$!$!$!$!$!$!$!$!$!$!$$>$?$@$A$B$C$D$E$F$G$H$I$J!$!$!$!$!$!$!$!$!$!$!$!$!$!$!$!$!$!$!$!$!$!$",
"!$!$!$!$!$!$!$!$!$!$!$!$!$!$!$!$!$!$!$!$!$!$!$!$!$!$!$$L$M$N$O$P$Q$R$S$T$U$V$W$X!$!$!$!$!$!$!$!$!$!$!$!$!$!$!$!$!$!$!$!$!$!$!$!$!$!$!$!$!$!$!$!$!$!$!$!$!$!$!$!$!$!$!$!$!$!$!$!$!$!$!$!$!$$[$]$^$_$`$a$b$c$d$e$f$g$h$i!$!$!$!$!$!$!$!$!$!$!$!$!$!$!$!$!$!$!$!$!$!$",
"!$!$!$!$!$!$!$!$!$!$!$!$!$!$!$!$!$!$!$!$!$!$!$!$!$!$!$$k$l$m$n$o$p$q$r$s$t$u$v$w$x!$!$!$!$!$!$!$!$!$!$!$!$!$!$!$!$!$!$!$!$!$!$!$!$!$!$!$!$!$!$!$!$!$!$!$!$!$!$!$!$!$!$!$!$!$!$!$!$!$!$!$!$${$|$}$~%!%#%$%%%&%'%(%)%*%+%,!$!$!$!$!$!$!$!$!$!$!$!$!$!$!$!$!$!$!$!$!$",
"!$!$!$!$!$!$!$!$!$!$!$!$!$!$!$!$!$!$!$!$!$!$!$!$!$!$!$!$%-%.%/%0%1%2%3%4%5%6%7!$!$!$!$!$!$!$!$!$!$!$!$!$!$!$!$!$!$!$!$!$!$!$!$!$!$!$!$!$!$!$!$!$!$!$!$!$!$!$!$!$!$!$!$!$!$!$!$!$!$!$!$!$%:%;%<%=%>%?%@%A%B%C%D%E%F%G%H%I!$!$!$!$!$!$!$!$!$!$!$!$!$!$!$!$!$!$!$!$!$",
"!$!$!$!$!$!$!$!$!$!$!$!$!$!$!$!$!$!$!$!$!$!$!$!$!$!$!$!$!$%K%L%M%N%O%P%Q%R%S%T!$!$!$!$!$!$!$!$!$!$!$!$!$!$!$!$!$!$!$!$!$!$!$!$!$!$!$!$!$!$!$!$!$!$!$!$!$!$!$!$!$!$!$!$!$!$!$!$!$!$!$!$%V%W%X%Y%Z%[%]%^%_%`%a%b%c%d%e%f%g%h!$!$!$!$!$!$!$!$!$!$!$!$!$!$!$!$!$!$!$!$",
"!$!$!$!$!$!$!$!$!$!$!$!$!$!$!$!$!$!$!$!$!$!$!$!$!$!$!$!$%i%j%k%l%m%n!$%o%p%q%r!$!$!$!$!$!$!$!$!$!$!$!$!$!$!$!$!$!$!$!$!$!$!$!$!$!$!$!$!$!$!$!$!$!$!$!$!$!$!$!$!$!$!$!$!$!$!$!$!$!$!$!$%t%u%v%w%x%y%z%{%|%}%~&!&#&$&%&&&'&(!$!$!$!$!$!$!$!$!$!$!$!$!$!$!$!$!$!$!$!$",
"!$!$!$!$!$!$!$!$!$!$!$!$!$!$!$!$!$!$!$!$!$!$!$!$!$!$!$!$!$&*&+&,&-&.&/&0&1&2!$!$!$!$!$!$!$!$!$!$!$!$!$!$!$!$!$!$!$!$!$!$!$!$!$!$!$!$!$!$!$!$!$!$!$!$!$!$!$!$!$!$!$!$!$!$!$!$!$!$!$!$!$&5&6&7&8&9&:&;&<&=&>&?&@&A&B&C&D&E&F&G!$!$!$!$!$!$!$!$!$!$!$!$!$!$!$!$!$!$!$",
"!$!$!$!$!$!$!$!$!$!$!$!$!$!$!$!$!$!$!$!$!$!$!$!$!$!$!$!$!$!$!$&K&L&M&N&O&P&Q&R&S&T!$!$!$!$!$!$!$!$!$!$!$!$!$!$!$!$!$!$!$!$!$!$!$!$!$!$!$!$!$!$!$!$!$!$!$!$!$!$!$!$!$!$!$!$!$!$!$!$!$&V&W&X&Y&Z&[&]&^&_&`&a&b&c&d&e&f&g&h&i&j!$!$!$!$!$!$!$!$!$!$!$!$!$!$!$!$!$!$!$",
"!$!$!$!$!$!$!$!$!$!$!$!$!$!$!$!$!$!$!$!$!$!$!$!$!$!$!$!$&l&m&n&o&p&q&r&s&t&u&v&w&x!$!$!$!$!$!$!$!$!$!$!$!$!$!$!$!$!$!$!$!$!$!$!$!$!$!$!$!$!$!$!$!$!$!$!$!$!$!$!$!$!$!$!$!$!$!$!$!$&y&z&{&|&}&~'!'#'$'%'&'''(')'*'+','-'.'/!$!$!$!$!$!$!$!$!$!$!$!$!$!$!$!$!$!$!$!$",
"!$!$!$!$!$!$!$!$!$!$!$!$!$!$!$!$!$!$!$!$!$!$!$!$!$!$!$'2'3'4'5'6'7'8'9':';'<'='>'?!$!$!$!$!$!$!$!$!$!$!$!$!$!$!$!$!$!$!$!$!$!$!$!$!$!$!$!$!$!$!$!$!$!$!$!$!$!$!$!$!$!$!$!$!$!$!$!$'@'A'B'C'D'E'F'G'H'I'J'K'L'M'N'O'P'Q'R'S!$!$!$!$!$!$!$!$!$!$!$!$!$!$!$!$!$!$!$!$",
"!$!$!$!$!$!$!$!$!$!$!$!$!$!$!$!$!$!$!$!$!$!$!$!$!$!$!$'V'W'X'Y'Z'[']'^'_'`'a'b'c'd'e!$!$!$!$!$!$!$!$!$!$!$!$!$!$!$!$!$!$!$!$!$!$!$!$!$!$!$!$!$!$!$!$!$!$!$!$!$!$!$!$!$!$!$!$!$!$!$'f'g'h'i'j'k'l'm'n'o'p'q'r's't'u'v'w'x'y!$!$!$!$!$!$!$!$!$!$!$!$!$!$!$!$!$!$!$!$",
"!$!$!$!$!$!$!$!$!$!$!$!$!$!$!$!$!$!$!$!$!$!$!$!$!$'z'{'|'}'~(!(#($(%(&('((()(*(+(,(-!$!$!$!$!$!$!$!$!$!$!$!$!$!$!$!$!$!$!$!$!$!$!$!$!$!$!$!$!$!$!$!$!$!$!$!$!$!$!$!$!$!$!$!$!$!$!$(0(1(2(3(4(5(6(7(8(9(:(;(<(=(>(?(@(A(B!$!$!$!$!$!$!$!$!$!$!$!$!$!$!$!$!$!$!$!$!$",
"!$!$!$!$!$!$!$!$!$!$!$!$!$!$!$!$!$!$!$!$!$!$!$!$!$(C(D(E(F(G(H(I(J(K(L(M(N(O(P(Q(R(S(T!$!$!$!$!$!$!$!$!$!$!$!$!$!$!$!$!$!$!$!$!$!$!$!$!$!$!$!$!$!$!$!$!$!$!$!$!$!$!$!$!$!$!$!$!$(U(V(W(X(Y(Z([(](^(_(`(a(b(c(d(e(f(g(h!$!$!$!$!$!$!$!$!$!$!$!$!$!$!$!$!$!$!$!$!$!$",
"!$!$!$!$!$!$!$!$!$!$!$!$!$!$!$!$!$!$!$!$!$!$!$!$(i(j(k(l(m(n(o(p(q(r(s(t(u(v(w(x(y(z({!$!$!$!$!$!$!$!$!$!$!$!$!$!$!$!$!$!$!$!$!$!$!$!$!$!$!$!$!$!$!$!$!$!$!$!$!$!$!$!$!$!$!$!$(|(}(~)!)#)$)%)&)')()))*)+),)-).)/)0)1)2!$!$!$!$!$!$!$!$!$!$!$!$!$!$!$!$!$!$!$!$!$!$",
"!$!$!$!$!$!$!$!$!$!$!$!$!$!$!$!$!$!$!$!$!$!$!$!$!$)=)>)?)@)A)B)C)D)E)F)G)H)I)J)K)L)M)N!$!$!$!$!$!$!$!$!$!$!$!$!$!$!$!$!$!$!$!$!$!$!$!$!$!$!$!$!$!$!$!$!$!$!$!$!$!$!$!$!$!$!$!$)[)])^)_)`)a)b)c)d)e)f)g)h)i)j)k)l)m)n)o!$!$!$!$!$!$!$!$!$!$!$!$!$!$!$!$!$!$!$!$!$!$"
};
