/* XPM */
static const char *cyborg_boss_firing_sheet[] = {
/* columns rows colors chars-per-pixel */
"192 64 100 2",
"!! c None",
"!# c #60401C",
"!$ c #704820",
"!% c #805424",
"!& c #94602C",
"!' c #A06C3C",
"!( c #D0B094",
"!) c #BC906C",
"!* c #B08458",
"!+ c #A8784C",
"!, c #C4A080",
"!- c #503418",
"!. c #402810",
"!/ c #301C0C",
"!0 c #005C5C",
"!1 c #004444",
"!2 c #840404",
"!3 c #C4701C",
"!4 c #E49898",
"!5 c #007474",
"!6 c #884404",
"!7 c #AC0C0C",
"!8 c #008C8C",
"!9 c #00A4A4",
"!: c #10C0C0",
"!; c #78E0E0",
"!< c #5CD8D8",
"!= c #00BCBC",
"!> c #984C08",
"!? c #D8BCA8",
"!@ c #98E4E4",
"!A c #D8F4F4",
"!B c #B4ECEC",
"!C c #CC8038",
"!D c #E4D0C0",
"!E c #28C8C8",
"!F c #AC580C",
"!G c #40D0D0",
"!H c #DCAC7C",
"!I c #C06410",
"!J c #ECD0B4",
"!K c #D09050",
"!L c #A0A0A0",
"!M c #848484",
"!N c #747474",
"!O c #A8A8A8",
"!P c #6C6C6C",
"!Q c #E4C098",
"!R c #8C8C8C",
"!S c #002C2C",
"!T c #4C4C4C",
"!U c #BCBCBC",
"!V c #5C5C5C",
"!W c #444444",
"!X c #D89C64",
"!Y c #743804",
"!Z c #C4C4C4",
"![ c #545454",
"!] c #989898",
"!^ c #001414",
"!_ c #CC3838",
"!` c #700404",
"!a c #643000",
"!b c #CCCCCC",
"!c c #2C2C2C",
"!d c #98084C",
"!e c #242424",
"!f c #D0D450",
"!g c #AC0C58",
"!h c #000000",
"!i c #D8D868",
"!j c #C01010",
"!k c #980088",
"!l c #E0E0E0",
"!m c #E4E49C",
"!n c #C03014",
"!o c #D8D8D8",
"!p c #646464",
"!q c #3C3C3C",
"!r c #343434",
"!s c #201408",
"!t c #7C7C7C",
"!u c #C45018",
"!v c #F0F0F0",
"!w c #C47024",
"!x c #C89020",
"!y c #7CACDC",
"!z c #502400",
"!{ c #C8B024",
"!| c #B4D0EC",
"!} c #2474C4",
"!~ c #C8CC28",
"#! c #5090D0",
"## c #00142C",
"#$ c #0C5CAC",
"#% c #B0B0B0",
"#& c #1068C0",
"#' c #085098",
"#( c #3C1C00",
"#) c #1C1C1C",
"!!!!!!!!!!!!!!!!!!!!!!!!!!!!!!!!!!!!!!!!!!!!!!!!!!!!!!!!!!!!!#!#!#!#!#!#!#!#!!!!!!!!!!!!!!!!!!!!!!!!!!!!!!!!!!!!!!!!!!!!!!!!!!!!!!!!!!!!!!!!!!!!!!!!!!!!!!!!!!!!!!!!!!!!!!!!!!!!!!!!!!!!!!!!!!!!!!!!!!!!!!!!!!!!!!!!!!!!!!!!!!!!!!!!!!!!!!!!!!!!!!!!!!!!!!!!!!!!!!!!!!!!!!!!!!!!!!!!!!!!!!!!!!!!!!!!!!!!!!!!!!!!!!!!!!!!!#!#!#!#!#!#!#!#!!!!!!!!!!!!!!!!!!!!!!!!!!!!!!!!!!!!!!!!!!!!!!!!!!!!!!!!",
"!!!!!!!!!!!!!!!!!!!!!!!!!!!!!!!!!!!!!!!!!!!!!!!!!!!!!!!!!!!#!#!$!$!%!%!%!$!$!#!!!!!!!!!!!!!!!!!!!!!!!!!!!!!!!!!!!!!!!!!!!!!!!!!!!!!!!!!!!!!!!!!!!!!!!!!!!!!!!!!!!!!!!!!!!!!!!!!!!!!!!!!!!!!!!#!#!#!#!#!#!#!#!!!!!!!!!!!!!!!!!!!!!!!!!!!!!!!!!!!!!!!!!!!!!!!!!!!!!!!!!!!!!!!!!!!!!!!!!!!!!!!!!!!!!!!!!!!!!!!!!!!!!!!!!!!#!#!$!$!%!%!%!$!$!#!!!!!!!!!!!!!!!!!!!!!!!!!!!!!!!!!!!!!!!!!!!!!!!!!!!!!!",
"!!!!!!!!!!!!!!!!!!!!!!!!!!!!!!!!!!!!!!!!!!!!!!!!!!!!!!!!!!!#!$!%!&!'!'!'!&!%!$!#!!!!!!!!!!!!!!!!!!!!!!!!!!!!!!!!!!!!!!!!!!!!!!!!!!!!!!!!!!!!!!!!!!!!!!!!!!!!!!!!!!!!!!!!!!!!!!!!!!!!!!!!!!!#!#!$!$!%!%!%!$!$!#!!!!!!!!!!!!!!!!!!!!!!!!!!!!!!!!!!!!!!!!!!!!!!!!!!!!!!!!!!!!!!!!!!!!!!!!!!!!!!!!!!!!!!!!!!!!!!!!!!!!!!!!!#!$!%!&!'!'!'!&!%!$!#!!!!!!!!!!!!!!!!!!!!!!!!!!!!!!!!!!!!!!!!!!!!!!!!!!!!",
"!!!!!!!!!!!!!!!!!!!!!!!!!!!!!!!!!!!!!!!!!!!!!!!!!!!!!!!!!#!#!$!%!(!%!)!*!+!&!$!#!!!!!!!!!!!!!!!!!!!!!!!!!!!!!!!!!!!!!!!!!!!!!!!!!!!!!!!!!!!!!!!!!!!!!!!!!!!!!!!!!!!!!!!!!!!!!!!!!!!!!!!!!!!#!$!%!&!'!'!'!&!%!$!#!!!!!!!!!!!!!!!!!!!!!!!!!!!!!!!!!!!!!!!!!!!!!!!!!!!!!!!!!!!!!!!!!!!!!!!!!!!!!!!!!!!!!!!!!!!!!!!!!!!!!#!#!$!%!(!%!)!*!+!&!$!#!!!!!!!!!!!!!!!!!!!!!!!!!!!!!!!!!!!!!!!!!!!!!!!!!!!!",
"!!!!!!!!!!!!!!!!!!!!!!!!!!!!!!!!!!!!!!!!!!!!!!!!!!!!!!!!!#!$!%!'!%!$!'!*!(!&!&!$!#!!!!!!!!!!!!!!!!!!!!!!!!!!!!!!!!!!!!!!!!!!!!!!!!!!!!!!!!!!!!!!!!!!!!!!!!!!!!!!!!!!!!!!!!!!!!!!!!!!!!!!!#!#!$!%!(!%!)!*!+!&!$!#!!!!!!!!!!!!!!!!!!!!!!!!!!!!!!!!!!!!!!!!!!!!!!!!!!!!!!!!!!!!!!!!!!!!!!!!!!!!!!!!!!!!!!!!!!!!!!!!!!!!!#!$!%!'!%!$!'!*!(!&!&!$!#!!!!!!!!!!!!!!!!!!!!!!!!!!!!!!!!!!!!!!!!!!!!!!!!!!",
"!!!!!!!!!!!!!!!!!!!!!!!!!!!!!!!!!!!!!!!!!!!!!!!!!!!!!!!!!#!%!'!*!'!'!'!*!&!%!#!%!#!!!!!!!!!!!!!!!!!!!!!!!!!!!!!!!!!!!!!!!!!!!!!!!!!!!!!!!!!!!!!!!!!!!!!!!!!!!!!!!!!!!!!!!!!!!!!!!!!!!!!!!#!$!%!'!%!$!'!*!(!&!&!$!#!!!!!!!!!!!!!!!!!!!!!!!!!!!!!!!!!!!!!!!!!!!!!!!!!!!!!!!!!!!!!!!!!!!!!!!!!!!!!!!!!!!!!!!!!!!!!!!!!!!#!%!'!*!'!'!'!*!&!%!#!%!#!!!!!!!!!!!!!!!!!!!!!!!!!!!!!!!!!!!!!!!!!!!!!!!!!!",
"!!!!!!!!!!!!!!!!!!!!!!!!!!!!!!!!!!!!!!!!!!!!!!!!!!!!!!!#!$!&!*!)!*!+!*!+!&!#!#!&!$!#!!!!!!!!!!!!!!!!!!!!!!!!!!!!!!!!!!!!!!!!!!!!!!!!!!!!!!!!!!!!!!!!!!!!!!!!!!!!!!!!!!!!!!!!!!!!!!!!!!!#!$!&!*!)!*!'!'!*!&!%!#!&!#!#!!!!!!!!!!!!!!!!!!!!!!!!!!!!!!!!!!!!!!!!!!!!!!!!!!!!!!!!!!!!!!!!!!!!!!!!!!!!!!!!!!!!!!!!!!!!!!!#!$!&!*!)!*!+!*!+!&!#!#!&!$!#!!!!!!!!!!!!!!!!!!!!!!!!!!!!!!!!!!!!!!!!!!!!!!!!",
"!!!!!!!!!!!!!!!!!!!!!!!!!!!!!!!!!!!!!!!!!!!!!!!!!!!!!!!#!%!+!)!(!%!&!*!+!+!&!&!&!%!#!#!!!!!!!!!!!!!!!!!!!!!!!!!!!!!!!!!!!!!!!!!!!!!!!!!!!!!!!!!!!!!!!!!!!!!!!!!!!!!!!!!!!!!!!!!!!!!!!!!#!+!)!(!+!#!%!*!+!&!'!+!)!+!#!#!!!!!!!!!!!!!!!!!!!!!!!!!!!!!!!!!!!!!!!!!!!!!!!!!!!!!!!!!!!!!!!!!!!!!!!!!!!!!!!!!!!!!!!!!!!!!#!%!+!)!(!%!&!*!+!+!&!&!&!%!#!#!!!!!!!!!!!!!!!!!!!!!!!!!!!!!!!!!!!!!!!!!!!!!!",
"!!!!!!!!!!!!!!!!!!!!!!!!!!!!!!!!!!!!!!!!!!!!!!!!!!!!!#!%!+!*!+!'!&!%!*!'!&!'!+!*!+!%!#!!!!!!!!!!!!!!!!!!!!!!!!!!!!!!!!!!!!!!!!!!!!!!!!!!!!!!!!!!!!!!!!!!!!!!!!!!!!!!!!!!!!!!!!!!!!!!!#!$!%!*!*!&!$!$!&!$!$!&!,!*!%!$!#!!!!!!!!!!!!!!!!!!!!!!!!!!!!!!!!!!!!!!!!!!!!!!!!!!!!!!!!!!!!!!!!!!!!!!!!!!!!!!!!!!!!!!!!!!!#!$!+!)!(!+!#!%!*!'!&!'!+!)!+!$!#!!!!!!!!!!!!!!!!!!!!!!!!!!!!!!!!!!!!!!!!!!!!!!",
"!!!!!!!!!!!!!!!!!!!!!!!!!!!!!!!!!!!!!!!!!!!!!!!!!!!#!-!'!(!,!*!&!$!$!&!$!$!&!*!,!(!'!-!#!!!!!!!!!!!!!!!!!!!!!!!!!!!!!!!!!!!!!!!!!!!!!!!!!!!!!!!!!!!!!!!!!!!!!!!!!!!!!!!!!!!!!!!!!!!#!-!$!-!#!%!*!&!%!&!%!&!(!'!#!-!%!-!#!!!!!!!!!!!!!!!!!!!!!!!!!!!!!!!!!!!!!!!!!!!!!!!!!!!!!!!!!!!!!!!!!!!!!!!!!!!!!!!!!!!!!!!#!-!%!%!*!*!&!$!$!&!$!$!&!,!*!%!%!-!#!!!!!!!!!!!!!!!!!!!!!!!!!!!!!!!!!!!!!!!!!!!!",
"!!!!!!!!!!!!!!!!!!!!!!!!!!!!!!!!!!!!!!!!!!!!!!!!!!!-!$!%!&!*!(!)!'!%!&!%!'!)!(!*!&!%!$!-!!!!!!!!!!!!!!!!!!!!!!!!!!!!!!!!!!!!!!!!!!!!!!!!!!!!!!!!!!!!!!!!!!!!!!!!!!!!!!!!!!!!!!!!!!!-!$!-!.!.!.!%!'!#!'!#!*!%!.!.!.!-!$!-!!!!!!!!!!!!!!!!!!!!!!!!!!!!!!!!!!!!!!!!!!!!!!!!!!!!!!!!!!!!!!!!!!!!!!!!!!!!!!!!!!!!!!!-!$!$!-!#!%!*!&!%!&!%!&!(!'!#!-!$!$!-!!!!!!!!!!!!!!!!!!!!!!!!!!!!!!!!!!!!!!!!!!!!",
"!!!!!!!!!!!!!!!!!!!!!!!!!!!!!!!!!!!!!!!!!!!!!!!!!!!.!$!-!.!#!$!&!*!#!'!'!*!&!$!#!.!-!$!.!!!!!!!!!!!!!!!!!!!!!!!!!!!!!!!!!!!!!!!!!!!!!!!!!!!!!!!!!!!!!!!!!!!!!!!!!!!!!!!!!!!!!!!!!!!.!$!.!.!.!/!/!%!%!'!%!%!/!/!.!.!.!$!.!!!!!!!!!!!!!!!!!!!!!!!!!!!!!!!!!!!!!!!!!!!!!!!!!!!!!!!!!!!!!!!!!!!!!!!!!!!!!!!!!!!!!!!.!&!-!.!.!.!%!'!#!'!#!*!%!.!.!.!-!$!.!!!!!!!!!!!!!!!!!!!!!!!!!!!!!!!!!!!!!!!!!!!!",
"!!!!!!!!!!!!!!!!!!!!!!!!!!!!!!!!!!!!!!!!!!!!!!!!!.!#!$!.!.!.!/!/!%!%!'!%!%!/!/!.!.!.!$!#!.!!!!!!!!!!!!!!!0!0!0!1!!!!!!!!!!!!!!!!!!!!!!!!!!!!!!!!!!!!!!!!!!!!!!!!!!!!!!!!!!!!!!!!!.!#!$!-!2!3!4!-!/!&!)!&!/!-!4!3!2!-!$!#!.!!!!!!!!!!!!!!!0!0!0!1!!!!!!!!!!!!!!!!!!!!!!!!!!!!!!!!!!!!!!!!!!!!!!!!!!!!!!!!!!!!!.!#!*!.!.!.!/!/!%!%!'!%!%!/!/!.!.!.!$!#!.!!!!!!!!!!!!!!!!!!!!!!!!!!!!!!!!!!!!!!!!!!",
"!!!!!!!!!!!!!!!!!!!!!!!!!!!!!!!!!!!0!0!0!0!0!0!0!.!-!#!-!2!3!4!-!/!&!)!&!/!-!4!3!2!-!#!-!.!0!0!0!0!0!0!0!5!5!5!5!0!6!6!!!!!!!!!!!!!!!!!!!!!!!!!!!!!!!!!!!!!!!!!!!!!0!0!0!0!0!0!0!.!#!#!-!-!7!3!2!-!)!(!*!-!2!3!7!-!-!#!-!.!0!0!0!0!0!0!0!5!5!5!5!0!6!6!!!!!!!!!!!!!!!!!!!!!!!!!!!!!0!5!0!0!0!0!0!0!0!0!0!0!0!.!-!(!%!2!3!4!-!/!&!)!&!/!-!4!3!2!-!#!-!.!0!0!0!0!0!0!0!0!0!0!1!1!!!!!!!!!!!!!!!!!!",
"!!!!!!!!!!!!!!!!!!!!!0!5!0!0!0!0!0!5!5!5!5!5!5!.!-!$!#!-!-!7!3!2!-!)!(!*!-!2!3!7!-!-!#!$!-!.!5!5!5!8!9!:!;!;!<!:!=!8!>!>!!!!!!!!!!!!!!!!!!!!!!!!!!!!!0!5!0!0!0!0!0!5!5!5!5!5!5!.!$!%!$!#!$!%!$!&!+!(!?!(!+!%!$!%!$!#!$!%!$!.!5!5!5!8!9!:!;!;!<!:!=!8!>!>!!!!!!!!!!!!!!!!!>!>!>!>!>!=!5!5!5!8!9!8!8!5!5!5!5!.!-!$!*!(!-!7!3!2!-!)!(!*!-!2!3!7!-!-!#!$!-!.!5!5!5!8!9!:!5!5!5!5!0!0!>!>!>!>!>!!!!!!",
"!!!!!!!!!>!>!>!>!>!0!@!<!5!5!8!9!:!<!=!9!8!8!8!.!-!$!$!#!$!%!$!&!+!(!?!(!+!%!$!%!$!#!$!$!-!.!8!8!8!9!=!<!A!B!@!;!<!8!:!C!>!!!!!!!!!!!!!!!>!>!>!>!>!0!@!<!5!5!8!9!:!<!=!9!8!8!8!.!$!&!&!%!$!&!*!,!(!(!D!(!(!,!*!&!$!%!&!&!$!.!8!8!8!9!=!<!A!B!@!;!<!8!:!C!>!!!!!!!!!!!!!!!C!C!C!C!C!B!E!E!:!<!;!<!=!9!8!8!8!.!%!&!%!+!)!%!$!&!+!(!?!(!+!%!$!%!$!#!$!$!-!.!8!8!8!9!=!<!;!;!<!:!=!8!C!C!C!C!C!!!!!!",
"!!!!!!!>!F!C!C!C!C!C!8!B!;!:!<!;!;!B!@!<!G!E!:!.!-!%!$!#!$!&!*!,!(!(!D!(!,!+!'!%!$!#!$!%!-!.!9!E!G!<!@!B!;!;!<!:!=!=!8!H!I!!!!!!!!!!!!!>!F!C!C!C!C!C!8!B!;!:!<!;!;!B!@!<!G!E!:!.!%!+!'!%!$!+!,!*!+!+!*!+!'!*!,!+!$!%!'!+!%!.!9!E!G!<!@!B!;!;!<!:!=!=!8!H!I!!!!!!!!!!!!!!!C!H!H!H!H!A!@!@!;!@!B!B!@!<!G!E!:!.!'!,!'!&!%!'!*!,!(!(!D!(!,!+!'!%!$!#!$!%!-!.!9!E!G!<!@!B!A!B!@!;!<!:!C!H!H!H!H!!!!!!",
"!!!!!!!C!H!C!H!H!H!H!:!A!@!;!@!B!A!<!=!9!8!8!8!.!#!&!%!#!$!&!,!*!*!)!(!,!*!,!'!&!$!#!%!&!#!.!8!8!8!8!8!8!8!8!8!8!8!8!5!J!K!!!!!!!!!!!!!C!H!C!H!H!H!H!:!A!@!;!@!B!A!<!=!9!8!8!8!.!&!*!'!$!&!%!&!*!*!)!(!)!*!&!&!*!&!$!'!*!&!.!8!8!8!8!8!8!8!8!8!8!8!8!5!J!K!!!!!!!!!!!!!!!H!L!M!L!J!B!:!:!E!<!;!<!=!9!8!8!8!.!*!?!+!#!&!'!,!*!*!)!(!,!*!,!'!&!$!#!%!&!#!.!8!8!8!9!9!=!;!;!<!:!=!G!H!J!J!J!J!!!!!!",
"!!!!!!!K!J!H!J!J!J!J!8!A!@!5!5!5!5!5!5!5!5!5!5!.!#!%!%!$!#!+!%!&!(!D!?!?!)!'!*!%!#!$!%!%!#!.!0!0!0!0!0!0!0!0!0!5!5!5!0!H!>!!!!!!!!!!!!!K!J!H!J!J!J!J!8!A!@!5!5!5!5!5!5!5!5!5!5!.!%!+!&!$!%!&!%!&!(!D!?!D!(!&!%!&!&!$!&!+!%!.!0!0!0!0!0!0!0!0!0!5!5!5!0!H!>!!!!!!!!!!!!!!!L!N!O!P!L!@!8!8!9!9!9!9!9!5!5!5!5!.!%!,!*!&!'!)!*!&!(!D!?!?!)!'!*!%!#!$!%!%!#!.!5!5!5!5!5!5!9!9!8!8!9!;!C!H!H!H!H!!!!!!",
"!!!!!!!H!Q!C!R!N!R!H!5!B!@!0!0!0!0!0!0!0!0!0!0!.!-!#!$!$!#!%!#!?!,!+!'!+!*!+!%!$!#!$!$!#!-!.!S!S!S!S!S!S!S!1!1!0!5!5!1!I!6!!!!!!!!!!!!!H!Q!C!R!N!R!H!5!B!@!0!0!0!0!0!0!0!0!0!0!.!-!%!%!#!#!-!'!)!)!*!+!*!)!)!'!-!'!#!%!%!-!.!S!S!S!S!S!S!S!1!1!0!5!5!1!I!6!!!!!!!!!!!!!!!T!N!U!V!W!G!5!5!5!5!5!5!0!0!0!0!0!.!-!+!,!+!'!)!*!?!,!+!'!+!*!+!%!$!#!$!$!#!-!.!0!0!0!0!0!0!0!0!0!5!8!B!F!I!I!I!F!!!!!!",
"!!!!!!!C!X!N!N!V!P!F!=!@!E!0!0!0!0!1!1!1!S!S!S!S!.!-!#!$!#!#!+!)!%!,!)!+!*!'!'!%!#!$!#!-!.!S!S!S!S!S!S!S!1!1!0!5!5!0!S!>!Y!!!!!!!!!!!!!C!X!N!N!V!P!F!=!@!E!0!0!0!0!1!1!1!S!S!S!S!.!-!#!#!-!$!+!$!$!&!)!&!$!$!+!$!-!$!#!-!.!S!S!S!S!S!S!S!1!1!0!5!5!0!S!>!Y!!!!!!!!!!!!!!!V!N!Z![!T!=!9!8!5!5!0!0!5!5!0!0!S!S!.!-!%!*!%!+!+!)!%!,!)!+!*!'!'!%!#!$!#!-!.!S!S!1!1!0!0!1!0!0!8!0!5!G!Y!6!6!6!6!!!!!!",
"!!!!!!!F!>!V!]!N!V!S!@!<!9!0!0!1!1!1!S!S!S!S!^!^!^!.!-!#!$!$!&!%!(!*!'!&!'!'!+!$!$!#!-!.!S!S!S!_!`!_!S!1!1!0!8!5!0!0!S!a!!!!!!!!!!!!!!!F!>!V!]!N!V!S!@!<!9!0!0!1!1!1!S!S!S!S!^!^!^!.!-!#!-!&!$!.!-!#!*!#!-!.!$!&!-!#!-!.!S!S!S!_!`!_!S!1!1!0!8!5!0!0!S!a!!!!!!!!!!!!!!!!!T!M!b!T!c!d!@!<!5!5!8!8!8!8!5!0!0!S!S!.!-!%!+!'!&!%!(!*!'!&!'!'!+!$!$!#!-!.!S!S!S!S!S!S!S!S!5!:!5!5!8!E!e!W!P!T!c!!!!!!",
"!!!!!!!>!Y!T!O!R!T!c!G!9!8!0!0!0!0!1!1!1!1!S!S!S!^!^!.!-!#!-!'!)!)!*!+!+!+!)!)!&!$!-!.!S!S!S!S!S!S!S!S!0!0!9!5!0!0!1!S!!!!!!!!!!!!!!!!!>!Y!T!O!R!T!c!G!9!8!0!0!0!0!1!1!1!1!S!S!S!^!.!-!-!-!$!#!-!%!&!'!&!%!-!#!$!-!#!#!.!S!S!S!S!S!S!S!0!0!9!5!0!0!1!S!!!!!!!!!!!!!!!!!!!T!U!f![!c!g!;!?!<!8!8!9!9!8!5!5!0!0!S!S!.!-!#!-!'!)!)!*!+!+!+!)!)!&!$!-!.!S!S!S!_!`!_!S!S!5!@!:!5!5!8!9!e!W!P!T!c!!!!!!",
"!!!!!!!]!W!T!U!O![!c!S!5!5!0!0!0!0!0!0!0!1!1!1!S!S!^!^!.!h!'!+!$!$!&!)!)!*!$!-!+!%!.!S!S!S!S!S!S!S!S!1!0!=!5!5!0!1!S!!!!!!!!!!!!!!!!!!!]!W!T!U!O![!c!S!5!5!0!0!0!0!0!0!0!1!1!1!S!S!.!.!-!.!#!$!&!#!-!$!-!#!&!$!#!.!-!.!S!S!S!S!S!S!S!1!0!=!5!5!0!1!S!!!!!!!!!!!!!!!!!d!!!W!b!i!V!c!j!9!<!D!:!9!9!d!9!8!8!5!0!0!S!S!.!h!'!+!$!$!&!)!)!*!$!-!+!%!.!S!S!S!S!S!S!S!S!S!@!:!8!5!8!9!5!e!W!P![!c!!!!!!",
"!!!!!!!U![!W!b!U!V!c!!!S!5!5!0!0!0!5!5!0!0!1!1!S!^!^!^!^!h!&!$!.!-!#!*!*!$!-!.!$!&!S!S!S!S!S!S!S!1!1!0!8!5!5!0!1!S!!!!!!!!!!!!!!!!!!!!!U![!W!b!U!V!c!!!S!5!5!0!0!0!5!5!0!0!1!1!S!^!^!.!.!.!.!-!.!.!/!-!/!.!.!-!.!.!-!.!S!S!S!S!S!1!1!0!8!5!5!0!1!S!!!!!!!!!!!!!!!!!!!!!g!d!l!m!V!c!n!0!9!;!D!d!g!8!8!8!5!5!5!0!0!S!S!h!&!$!.!-!#!*!*!$!-!.!$!&!S!S!S!S!S!S!S!S!S!8!:!8!5!8!8!5!S!e!W!P!V!c!!!!!!",
"!!!!!!!o!p!q!l!U!V!c!!!S!0!5!5!5!5!5!0!1!1!1!S!S!^!^!^!^!h!#!#!-!#!$!'!'!'!#!-!#!#!S!S!S!S!S!1!1!0!0!5!5!5!0!1!S!F!>!!!!!!!!!!!!!!!!!!!o!p!q!l!U!V!c!!!S!0!5!5!5!5!5!0!1!1!1!S!S!^!^!.!.!r!V!/!M!r!h!s!s!T!t!W!V!-!$!.!S!S!S!1!1!0!0!5!5!5!0!1!S!F!>!!!!!!!!!!!!!!!!!!!d!j!g!m!T!g!u!g!0!9!g!j!d!5!8!5!0!0!0!0!0!S!S!h!#!#!-!#!$!%!%!%!#!-!#!#!S!S!1!1!1!1!1!0!5!9!8!5!5!5!5!S!!!F!V!N!q!>!!!!!!",
"!!!!!!!v!N!r!b!L!T!c!!!!!S!0!0!0!5!0!0!1!S!S!S!^!^!^!^!^!h!^!#!$!#!-!$!#!%!&!$!#!0!S!S!S!S!S!S!1!1!0!0!0!0!1!S!K!C!w!!!!!!!!!!!!!!!!!!!v!N!r!b!L!T!c!!!d!S!0!0!0!5!0!0!1!S!S!S!^!^!^!^!.!-!r!V!W!s!s!s!s!s!s!V!-!$!-!S!S!S!S!S!1!1!0!0!0!0!1!S!K!C!w!!!!!!!!!!!!!!!!!!!!!g!3!u!T!n!3!n!!!u!3!g!5!1!5!0!0!S!S!S!S!S!S!S!^!#!$!#!-!-!#!%!&!$!#!0!S!S!S!S!S!S!1!1!0!5!5!0!0!0!S!!!!!H!N!t!N!K!!!!!!",
"!!!!!!!I!w!F!F!F!F!>!!!!!!!S!1!0!0!1!1!1!1!1!S!S!^!^!^!^!h!S!-!.!.!s!s!s!.!#!$!S!S!0!0!1!1!1!1!S!1!1!1!1!1!S!Y!6!>!>!!!!!!!!!!!!!!!!!!!I!w!F!F!F!F!>!!!g!!!S!1!0!0!1!1!1!1!1!S!S!^!^!^!^!.!-!r!q!V!s!s![!c![!q!$!-!0!0!1!1!1!1!S!1!1!1!1!1!S!Y!6!>!>!!!!!!!!!!!!!!!!!!!!!6!u!x!3!u!3!u!3!x!u!5!1!1!0!0!S!1!1!1!1!0!0!0!S!-!.!.!s!s!s!.!#!$!S!S!1!1!1!1!1!1!S!1!1!0!0!0!0!S!!!!!!!F!F!F!F!F!!!!!!",
"!!!!!!!C!H!H!H!H!X!H!!!y!!!!!1!1!1!1!S!S!S!S!S!S!S!S!S!S!h!h!-!.!h!h!s!h!h!-!-!!!!!S!1!1!S!S!S!S!S!S!S!S!S!a!z!z!z!!!!!!!!!!!!!!!!!!!!!C!H!H!H!H!X!H!!!j!!!!!1!1!1!1!S!S!S!S!S!S!S!S!S!S!h!.!s!q!t!T!T!t!T!q!-!-!S!S!1!1!S!S!S!S!S!S!S!S!S!a!z!z!z!!!!!!!!!!!!!!!!!!!!!!!I!p!3!{!x!x!x!{!3!!!1!S!^!S!S!S!S!S!S!1!1!S!S!h!-!.!h!h!s!h!h!-!-!S!S!S!S!1!S!S!S!S!S!S!S!S!0!S!!!!!!!!!Y!Y!Y!Y!Y!!!!!!",
"!!!!!!!X!Q!F!F!F!F!F!|!y!}!!!!!S!S!S!^!^!^!^!^!^!^!^!^!^!^!!!#!$!$!#!-!#!$!$!#!!!!!!!^!^!^!^!^!^!^!!!!!!!V!t!V!^!!!!!!!!!!!!!!!!!!!!!!!X!Q!F!F!F!F!F!n!u!n!!!!!S!S!S!^!^!^!^!^!^!^!^!^!^!^!!!#!-!.!h!s!.!-!#!$!!!!!!!^!^!^!^!^!^!^!!!!!!!V!t!V!^!!!!!!!!!!!!!!!!!!!!!!!!!g!n!u!x!~!{!~!x!u!n!g!!!S!^!^!^!^!^!^!^!S!!!!!!!#!$!$!#!-!#!$!$!#!!!!!!!!!^!^!^!^!^!^!^!S!1!1!!!!!!!!!!!r!N!W!c!!!!!!!!",
"!!!!!!!Q!J!>!>!P!>!|#!!}!y!}!!!!!!!^!^!^!^!^!!!!!!!!!!!!!!!!!S!#!$!%!&!%!$!#!S!!!!!!!!!!!!!!!!!!!!!!!!!!!V!M!V!^!!!!!!!!!!!!!!!!!!!!!!!Q!J!>!>!P!>!n!u!x!u!n!!!!!!!^!^!^!^!^!!!!!!!!!!!!!!!!!#!$!$!#!-!#!$!%!.!!!!!!!!!!!!!!!!!!!!!!!!!!!V!M!V!^!!!!!!!!!!!!!!!!!!!g!j!n!u!3!3!x!{!~!{!x!3!3!u!n!j!g!d!!!!!!!!!!!!!!!!!!!S!#!$!%!&!%!$!#!S!!!!!!!!!!!!!!!!!!!!!!!!!!!!!!!!!!!!!!!r!N!V!c!!!!!!!!",
"!!!!!!!X!H!6!]!R!|#!######!y#$!!!!!!!!!!!!!!!!!!!!!!!!!!!!!!!!!^!S!1!S!^!^!S!!!!!!!!!!!!!!!!!!!!!!!!!!!!!V!R!V!^!!!!!!!!!!!!!!!!!!!!!!!X!H!6!d!g!j!u!x!~!x!u!j!g!d!!!!!!!!!!!!!!!!!!!!!!!!!!!S!#!$!%!&!'!&!#!S!!!!!!!!!!!!!!!!!!!!!!!!!!!V!R!V!^!!!!!!!!!!!!!!!!!!!!!!!!!g!n!u!x!~!{!~!x!u!n!g!!!!!!!!!!!!!!!!!!!!!!!!!!!!!^!S!1!S!^!^!S!!!!!!!!!!!!!!!!!!!!!!!!!!!!!!!!!!!!!!!!!r!N!V!c!!!!!!!!",
"!!!!!!!I!K!a#%!R#!#&#######!!!!!!!!!!!!!!!!!!!!!!!!!!!!!!!!!!!!1!0!8!5!0!1!S!!!!!!!!!!!!!!!!!!!!!!!!!!!!!V!]!V!^!!!!!!!!!!!!!!!!!!!!!!!I!K!a#%!R#!!n!u!x!u!n!!!!!!!!!!!!!!!!!!!!!!!!!!!!!!!!!!!1!0!8!5!0!1!S!!!!!!!!!!!!!!!!!!!!!!!!!!!!!V!]!V!^!!!!!!!!!!!!!!!!!!!!!!!!!!!N!3!{!x!x!x!{!3!!!!!!!!!!!!!!!!!!!!!!!!!!!!!!!!!1!0!8!5!0!1!S!!!!!!!!!!!!!!!!!!!!!!!!!!!!!!!!!!!!!!!!!r!N!V!c!!!!!!!!",
"!!!!!!!!!I!z!R!U!R#!#&!}#!!!!0!!!!!!!!!!!!!!!!!!!!!!!!!!!!!!!!!1!1!0!1!S!^!S!!!!!!!!!!!!!!!!!!!!!!!!!!!!!V!R!V!^!!!!!!!!!!!!!!!!!!!!!!!!!I!z!R!U!R#!!n!u!n!!!0!!!!!!!!!!!!!!!!!!!!!!!!!!!!!!!!!1!1!0!1!S!^!S!!!!!!!!!!!!!!!!!!!!!!!!!!!!!V!R!V!^!!!!!!!!!!!!!!!!!!!!!!!!!!!u!x!3!u!3!u!3!x!u!!!!!!!!!!!!!!!!!!!!!!!!!!!!!!!1!1!0!1!S!^!S!!!!!!!!!!!!!!!!!!!!!!!!!!!!!!!!!!!!!!!!!r!N!V!c!!!!!!!!",
"!!!!!!!!!!!!!p!L!9!1!!!!!!!S!9!0!!!!!!!!!!!!!!!!!!!!!!!!!!!!!!!5!E!@!E!8!1!S!!!!!!!!!!!!!!!!!!!!!!!!!!!!!V!R!V!^!!!!!!!!!!!!!!!!!!!!!!!!!!!!!p!L!9!1!!!j!!!S!9!0!!!!!!!!!!!!!!!!!!!!!!!!!!!!!!!5!E!@!E!8!1!S!!!!!!!!!!!!!!!!!!!!!!!!!!!!!V!R!V!^!!!!!!!!!!!!!!!!!!!!!!!!!g!3!u!B!n!3!n!1!u!3!g!!!!!!!!!!!!!!!!!!!!!!!!!!!!!E!@!A!E!8!1!S!!!!!!!!!!!!!!!!!!!!!!!!!!!!!!!!!!!!!!!!!r!N!V!c!!!!!!!!",
"!!!!!!!!!!!!!!!=!B!B!9!5!0!1!1!0!!!!!!!!!!!!!!!!!!!!!!!!!!!!!S!1!5!9!1!S!^!S!S!!!!!!!!!!!!!!!!!!!!!!!!!!!V!M!V!^!!!!!!!!!!!!!!!!!!!!!!!!!!!!!!!=!B!B!9!g!0!1!1!0!!!!!!!!!!!!!!!!!!!!!!!!!!!!!S!1!5!9!1!S!^!S!S!!!!!!!!!!!!!!!!!!!!!!!!!!!V!M!V!^!!!!!!!!!!!!!!!!!!!!!!!d!j!g!5!5!g!u!g!S!0!g!j!d!!!!!!!!!!!!!!!!!!!!!!!!!S!1!5!9!1!S!^!S!S!!!!!!!!!!!!!!!!!!!!!!!!!!!!!!!!!!!!!!!r!N!V!c!!!!!!!!",
"!!!!!!!!!!!!!!!=!5!5!0!1!S!S!0!!!!!!!!!>!>!>!>!>!>!Y!5!0!0!0!S!0!=!A!=!0!0!0!S!0!0!0!1!>!>!>!>!>!>!>!!!1!5!8!8!5!1!!!!!!!!!!!!!!!!!!!!!!!!!!!!!=!5!5!0!d!S!S!0!!!!!!!!!>!>!>!>!>!>!Y!8!0!0!0!S!0!=!A!=!0!0!0!S!0!0!0!1!>!>!>!>!>!>!>!!!1!5!8!8!5!1!!!!!!!!!!!!!!!!!!!!!g!d!<!B!B!9!n!0!1!1!!!d!g!!!>!>!>!>!>!>!Y!:!0!0!0!5!E!B!A!=!0!0!0!S!0!0!0!1!>!>!>!>!>!>!>!!!!!!!!!!!!!!!1!5!8!V!5!1!!!!!!",
"!!!!!!!!!!!!!!!<!B!B!9!8!0!1!1!!!!!!!!!w!w!w!w!w!w!>!8!5!5!0!S!1!5!9!1!S!^!^!S!0!5!5!0!w!w!K!X!X!K!w!1!9!9!:!=!9!8!^!!!!!!!!!!!!!!!!!!!!!!!!!!!<!B!B!9!8!0!1!1!!!!!!!!!w!w!w!w!w!w!>!:!5!5!0!S!1!5!9!1!S!^!^!S!0!5!5!0!w!w!K!X!X!K!w!1!9!9!:!=!9!8!^!!!!!!!!!!!!!!!!!d!!!!!!!5!5!0!j!S!^!!!!!!!!!d!w!C!K!X!K!C!>!;!5!5!0!S!1!5!9!1!S!^!^!S!0!5!5!0!w!w!K!X!X!K!w!!!!!!!!!!!!!=!9!9!:!=!9!8!^!!!!",
"!!!!!!!!!!!!!!!!!5!5!0!1!S!^!!!!!!!!!!!J!H!H!H!H!H!I!B!G!G!5!S!1!5!8!5!5!0!1!S!5!G!G!9!J!H!Q!J!J!Q!H!S!1!1!8!0!^!1!^!!!!!!!!!!!!!!!!!!!!!!!!!!!!!5!5!0!1!S!^!!!!!!!!!!!J!H!H!H!H!H!I!A!G!G!5!S!1!5!8!5!5!0!1!S!5!G!G!9!J!H!Q!J!J!Q!H!S!1!1!8!0!^!1!^!!!!!!!!!!!!!!!!!!!!!!!!!5!B!B!g!8!0!!!!!!!!!!!J!H!Q!J!Q!H!I!A!G!G!5!S!1!5!8!5!5!0!1!S!5!G!G!9!J!H!Q!J!J!Q!H!!!!!!!!!!!=!5!1!1!8!0!^!1!^!!!!",
"!!!!!!!!!!!!!!!!!5!B!B!8!8!0!!!!!!!!!!!Q!K!K!K!K!K!>!@!:!9!8!0!S!1!1!1!0!1!S!0!8!9!9!8!Q!K!K!K!K!K!K!^!^!^!5!1!^!^!1!^!!!!!!!!!!!!!!!!!!!!!!!!!!!5!B!B!8!8!0!!!!!!!!!!!Q!K!K!K!K!K!>!B!:!9!8!0!S!1!1!1!0!1!S!0!8!9!9!8!Q!K!K!K!K!K!K!^!^!^!5!1!^!^!1!^!!!!!!!!!!!!!!!!!!!!!!!1!1!1!d!1!!!!!!!!!!!!!Q!K!K!K!K!K!>!B!:!9!8!0!S!1!1!1!0!1!S!0!8!9!9!8!Q!K!K!K!K!K!K!!!!!!!!!!!9!0!^!^!5!1!^!^!1!^!!",
"!!!!!!!!!!!!!!!!!1!1!1!1!1!!!!!!!!!!!!!K!I!I!I!I!I!6!;!8!8!8!5!0!S!S!S!S!S!0!5!8!8!8!5!K!5!1!1!1!0!I!^!^!!!0!1!^!^!0!1!!!!!!!!!!!!!!!!!!!!!!!!!!!1!1!1!1!1!!!!!!!!!!!!!K!I!I!I!I!I!6!;!8!8!8!5!0!S!S!S!S!S!0!5!8!8!8!5!K!5!1!1!1!0!I!^!^!!!0!1!^!^!0!1!!!!!!!!!!!!!!!!!!!!!!!!!!!!!!!!!!!!!!!!!!!!!K!I!I!I!I!I!6!;!8!8!8!5!0!S!S!S!S!S!0!5!8!8!8!5!K!5!1!1!1!0!I!!!!!!!!!!!9!^!^!!!0!1!^!^!0!1!!",
"!!!!!!!!!!!!!!!!!!!!!!!!!!!!!!!!!!!!!!!I!>!>!>!>!>!Y!G!5!5!5!5!5!5!5!5!5!5!5!5!5!5!5!0!I!1!T!M!W!1!>!^!!!!!0!S!^!!!0!1!!!!!!!!!!!!!!!!!!!!!!!!!!!!!!!!!!!!!!!!!!!!!!!!!I!>!>!>!>!>!Y!G!5!5!5!5!5!5!5!5!5!5!5!5!5!5!5!0!I!1!T!M!W!1!>!^!!!!!0!S!^!!!0!1!!!!!!!!!!!!!!!!!!!!!!!!!!!!!!!!!!!!!!!!!!!!!I!>!>!>!>!>!Y!G!5!5!5!5!5!5!5!5!5!5!5!5!5!5!5!0!I!1!T!M!W!1!>!!!!!!!!!!!9!^!!!!!0!S!^!!!0!1!!",
"!!!!!!!!!!!!!!!!!!!!!!!!!!!!!!!!!!!!!!!>!Y!Y!Y!Y!Y!a!8!0!0!0!0!0!0!0!0!0!0!0!0!0!0!0!1!>!0!V!]!T!1!Y!^!!!!!1!S!^!!!0!1!!!!!!!!!!!!!!!!!!!!!!!!!!!!!!!!!!!!!!!!!!!!!!!!!>!Y!Y!Y!Y!Y!a!8!0!0!0!0!0!0!0!0!0!0!0!0!0!0!0!1!>!0!V!]!T!1!Y!^!!!!!1!S!^!!!0!1!!!!!!!!!!!!!!!!!!!!!!!!!!!!!!!!!!!!!!!!!!!!!>!Y!Y!Y!Y!Y!a!8!0!0!0!0!0!0!0!0!0!0!0!0!0!0!0!1!>!0!V!]!T!1!Y!!!!!!!!!!!5!^!!!!!1!S!^!!!0!1!!",
"!!!!!!!!!!!!!!!!!!!!!!!!!!!!!!!!!!!!!!!6!z!z!z!z!z!z!0!1!1!1!1!1!1!1!1!1!1!1!1!1!1!1!S!6!1!N!O![!1!z!^!!!!!^!^!!!!!^!!!!!!!!!!!!!!!!!!!!!!!!!!!!!!!!!!!!!!!!!!!!!!!!!!!6!z!z!z!z!z!z!0!1!1!1!1!1!1!1!1!1!1!1!1!1!1!1!S!6!1!N!O![!1!z!^!!!!!^!^!!!!!^!!!!!!!!!!!!!!!!!!!!!!!!!!!!!!!!!!!!!!!!!!!!!!!6!z!z!z!z!z!z!0!1!1!1!1!1!1!1!1!1!1!1!1!1!1!1!S!6!1!N!O![!1!z!!!!!!!!!!!0!^!!!!!^!^!!!!!^!!!!",
"!!!!!!!!!!!!!!!!!!!!!!!!!!!!!!!!!!!!!!!F!Y!Y!Y!Y!Y!a!1!5!5!5!5!8!8!9!9!9!8!8!8!5!5!5!S!F!1!M!U!V!1!Y!^!!!!!^!^!!!^!!!!!!!!!!!!!!!!!!!!!!!!!!!!!!!!!!!!!!!!!!!!!!!!!!!!!F!Y!Y!Y!Y!Y!a!1!5!5!5!5!8!8!9!9!9!8!8!8!5!5!5!S!F!1!M!U!V!1!Y!^!!!!!^!^!!!^!!!!!!!!!!!!!!!!!!!!!!!!!!!!!!!!!!!!!!!!!!!!!!!!!F!Y!Y!Y!Y!Y!a!1!5!5!5!5!8!8!9!9!9!8!8!8!5!5!5!S!F!1!M!U!V!1!Y!!!!!!!!!!!1!^!!!!!^!^!!!^!!!!!!",
"!!!!!!!!!!!!!!!!!!!!!!!!!!!!!!!!!!!!!!!!!r!W!V!W!c!!!!!!!!!!!!!!!!!!!!!!!!!!!!!!!!!!!!!!!1!O!b!N!1!!!!!^!!!^!!!!!!!!!!!!!!!!!!!!!!!!!!!!!!!!!!!!!!!!!!!!!!!!!!!!!!!!!!!!!r!W!V!W!c!!!!!!!!!!!!!!!!!!!!!!!!!!!!!!!!!!!!!!!1!O!b!N!1!!!!!^!!!^!!!!!!!!!!!!!!!!!!!!!!!!!!!!!!!!!!!!!!!!!!!!!!!!!!!!!!!!!r!W!V!W!c!!!!!!!!!!!!!!!!!!!!!!!!!!!!!!!!!!!!!!!1!O!b!N!1!!!!!!!!!!!!!!!1!^!!!^!!!!!!!!!!!!",
"!!!!!!!!!!!!!!!!!!!!!!!!!!!!!!!!!!!!!!!!!r!W!V!W!c!!!!!!!!!!!!!!!!!!!!!!!!!!!!!!!!!!!!!F!6!6!6!6!6!>!!!!!!!!!!!!!!!!!!!!!!!!!!!!!!!!!!!!!!!!!!!!!!!!!!!!!!!!!!!!!!!!!!!!!r!W!V!W!c!!!!!!!!!!!!!!!!!!!!!!!!!!!!!!!!!!!!!F!6!6!6!6!6!>!!!!!!!!!!!!!!!!!!!!!!!!!!!!!!!!!!!!!!!!!!!!!!!!!!!!!!!!!!!!!!!!!r!W!V!W!c!!!!!!!!!!!!!!!!!!!!!!!!!!!!!!!!!!!!!F!6!6!6!6!6!>!!!!!!!!!!!!!!!!!!!!!!!!!!!!!!!!",
"!!!!!!!!!!!!!!!!!!!!!!!!!!!!!!!!!!!!!!!!!r!W!V!W!c!!!!!!!!!!!!!!!!!!!!!!!!!!!!!!!!!!!!!w!w!C!K!C!w!F!!!!!!!!!!!!!!!!!!!!!!!!!!!!!!!!!!!!!!!!!!!!!!!!!!!!!!!!!!!!!!!!!!!!!r!W!V!W!c!!!!!!!!!!!!!!!!!!!!!!!!!!!!!!!!!!!!!w!w!C!K!C!w!F!!!!!!!!!!!!!!!!!!!!!!!!!!!!!!!!!!!!!!!!!!!!!!!!!!!!!!!!!!!!!!!!!r!W!V!W!c!!!!!!!!!!!!!!!!!!!!!!!!!!!!!!!!!!!!!w!w!C!K!C!w!F!!!!!!!!!!!!!!!!!!!!!!!!!!!!!!!!",
"!!!!!!!!!!!!!!!!!!!!!!!!!!!!!!!!!!!!!!#(!r!W!V!W!c#(!!!!!!!!!!!!!!!!!!!!!!!!!!!!!!!!!!!X!K!H!J!H!K!w!!!!!!!!!!!!!!!!!!!!!!!!!!!!!!!!!!!!!!!!!!!!!!!!!!!!!!!!!!!!!!!!!!#(!r!W!V!W!c#(!!!!!!!!!!!!!!!!!!!!!!!!!!!!!!!!!!!X!K!H!J!H!K!w!!!!!!!!!!!!!!!!!!!!!!!!!!!!!!!!!!!!!!!!!!!!!!!!!!!!!!!!!!!!!!#(!r!W!V!W!c#(!!!!!!!!!!!!!!!!!!!!!!!!!!!!!!!!!!!X!K!H!J!H!K!w!!!!!!!!!!!!!!!!!!!!!!!!!!!!!!!!",
"!!!!!!!!!!!!!!!!!!!!!!!!!!!!!!!!!!!!!!!z!z!q!V!q!z!z!!!!!!!!!!!!!!!!!!!!!!!!!!!!!!!!!!!H!w!K!X!C!I!F!!!!!!!!!!!!!!!!!!!!!!!!!!!!!!!!!!!!!!!!!!!!!!!!!!!!!!!!!!!!!!!!!!!z!z!q!V!q!z!z!!!!!!!!!!!!!!!!!!!!!!!!!!!!!!!!!!!H!w!K!X!C!I!F!!!!!!!!!!!!!!!!!!!!!!!!!!!!!!!!!!!!!!!!!!!!!!!!!!!!!!!!!!!!!!!z!z!q!V!q!z!z!!!!!!!!!!!!!!!!!!!!!!!!!!!!!!!!!!!H!w!K!X!C!I!F!!!!!!!!!!!!!!!!!!!!!!!!!!!!!!!!",
"!!!!!!!!!!!!!!!!!!!!!!!!!!!!!!!!!!!!!!!6!6!6!6!6!6!6!!!!!!!!!!!!!!!!!!!!!!!!!!!!!!!!!!!C!F!I!I!I!I!I!!!!!!!!!!!!!!!!!!!!!!!!!!!!!!!!!!!!!!!!!!!!!!!!!!!!!!!!!!!!!!!!!!!6!6!6!6!6!6!6!!!!!!!!!!!!!!!!!!!!!!!!!!!!!!!!!!!C!F!I!I!I!I!I!!!!!!!!!!!!!!!!!!!!!!!!!!!!!!!!!!!!!!!!!!!!!!!!!!!!!!!!!!!!!!!6!6!6!6!6!6!6!!!!!!!!!!!!!!!!!!!!!!!!!!!!!!!!!!!C!F!I!I!I!I!I!!!!!!!!!!!!!!!!!!!!!!!!!!!!!!!!",
"!!!!!!!!!!!!!!!!!!!!!!!!!!!!!!!!!!!!!!!a!a!a!a!a!a!a!!!!!!!!!!!!!!!!!!!!!!!!!!!!!!!!!!!I!>!1!N!1!>!>!!!!!!!!!!!!!!!!!!!!!!!!!!!!!!!!!!!!!!!!!!!!!!!!!!!!!!!!!!!!!!!!!!!a!a!a!a!a!a!a!!!!!!!!!!!!!!!!!!!!!!!!!!!!!!!!!!!I!>!1!N!1!>!>!!!!!!!!!!!!!!!!!!!!!!!!!!!!!!!!!!!!!!!!!!!!!!!!!!!!!!!!!!!!!!!a!a!a!a!a!a!a!!!!!!!!!!!!!!!!!!!!!!!!!!!!!!!!!!!I!>!1!N!1!>!>!!!!!!!!!!!!!!!!!!!!!!!!!!!!!!!!",
"!!!!!!!!!!!!!!!!!!!!!!!!!!!!!!!!!!!!!!#(#(#(#(#(#(#(!!!!!!!!!!!!!!!!!!!!!!!!!!!!!!!!!!!6!S!t!R!T!Y!Y!!!!!!!!!!!!!!!!!!!!!!!!!!!!!!!!!!!!!!!!!!!!!!!!!!!!!!!!!!!!!!!!!!#(#(#(#(#(#(#(!!!!!!!!!!!!!!!!!!!!!!!!!!!!!!!!!!!6!S!t!R!T!Y!Y!!!!!!!!!!!!!!!!!!!!!!!!!!!!!!!!!!!!!!!!!!!!!!!!!!!!!!!!!!!!!!#(#(#(#(#(#(#(!!!!!!!!!!!!!!!!!!!!!!!!!!!!!!!!!!!6!S!t!R!T!Y!Y!!!!!!!!!!!!!!!!!!!!!!!!!!!!!!!!",
"!!!!!!!!!!!!!!!!!!!!!!!!!!!!!!!!!!!!!!!!!1!R!L!N!S!!!!!!!!!!!!!!!!!!!!!!!!!!!!!!!!!!!!!!!1!N#%!V!S!!!!!!!!!!!!!!!!!!!!!!!!!!!!!!!!!!!!!!!!!!!!!!!!!!!!!!!!!!!!!!!!!!!!!!!1!R!L!N!S!!!!!!!!!!!!!!!!!!!!!!!!!!!!!!!!!!!!!!!1!N#%!V!S!!!!!!!!!!!!!!!!!!!!!!!!!!!!!!!!!!!!!!!!!!!!!!!!!!!!!!!!!!!!!!!!!!!1!R!L!N!S!!!!!!!!!!!!!!!!!!!!!!!!!!!!!!!!!!!!!!!1!N#%!V!S!!!!!!!!!!!!!!!!!!!!!!!!!!!!!!!!!!",
"!!!!!!!!!!!!!!!!!!!!!!!!!!!!!!!!!!!!!!!1!1!R!L!V!S!S!!!!!!!!!!!!!!!!!!!!!!!!!!!!!!!!!!!!!1!R#%!N!S!!!!!!!!!!!!!!!!!!!!!!!!!!!!!!!!!!!!!!!!!!!!!!!!!!!!!!!!!!!!!!!!!!!!!1!1!R!L!V!S!S!!!!!!!!!!!!!!!!!!!!!!!!!!!!!!!!!!!!!1!R#%!N!S!!!!!!!!!!!!!!!!!!!!!!!!!!!!!!!!!!!!!!!!!!!!!!!!!!!!!!!!!!!!!!!!!1!1!R!L!V!S!S!!!!!!!!!!!!!!!!!!!!!!!!!!!!!!!!!!!!!1!R#%!N!S!!!!!!!!!!!!!!!!!!!!!!!!!!!!!!!!!!",
"!!!!!!!!!!!!!!!!!!!!!!!!!!!!!!!!!!!!!1!5!5!0!9!0!0!1!S!!!!!!!!!!!!!!!!!!!!!!!!!!!!!!!!!!!1!R#%!N!S!!!!!!!!!!!!!!!!!!!!!!!!!!!!!!!!!!!!!!!!!!!!!!!!!!!!!!!!!!!!!!!!!!!1!5!5!0!9!0!0!1!S!!!!!!!!!!!!!!!!!!!!!!!!!!!!!!!!!!!1!R#%!N!S!!!!!!!!!!!!!!!!!!!!!!!!!!!!!!!!!!!!!!!!!!!!!!!!!!!!!!!!!!!!!!!1!5!5!0!9!0!0!1!S!!!!!!!!!!!!!!!!!!!!!!!!!!!!!!!!!!!1!R#%!N!S!!!!!!!!!!!!!!!!!!!!!!!!!!!!!!!!!!",
"!!!!!!!!!!!!!!!!!!!!!!!!!!!!!!!!!!!1!8!1!1!5!8!S!S!1!S!!!!!!!!!!!!!!!!!!!!!!!!!!!!!!!!!1!1!R#%!V!S!S!!!!!!!!!!!!!!!!!!!!!!!!!!!!!!!!!!!!!!!!!!!!!!!!!!!!!!!!!!!!!!!1!8!1!1!5!8!S!S!1!S!!!!!!!!!!!!!!!!!!!!!!!!!!!!!!!!!1!1!R#%!V!S!S!!!!!!!!!!!!!!!!!!!!!!!!!!!!!!!!!!!!!!!!!!!!!!!!!!!!!!!!!!!1!8!1!1!5!8!S!S!1!S!!!!!!!!!!!!!!!!!!!!!!!!!!!!!!!!!1!1!R#%!V!S!S!!!!!!!!!!!!!!!!!!!!!!!!!!!!!!!!",
"!!!!!!!!!!!!!!!!!!!!!!!!!!!!!!!!!0!9!1!S!S!8!5!S!0!0!1!S!!!!!!!!!!!!!!!!!!!!!!!!!!!!!1!5!5!E!9!0!0!5!1!!!!!!!!!!!!!!!!!!!!!!!!!!!!!!!!!!!!!!!!!!!!!!!!!!!!!!!!!!!0!9!1!S!S!8!5!S!0!0!1!S!!!!!!!!!!!!!!!!!!!!!!!!!!!!!1!5!5!E!9!0!0!5!1!!!!!!!!!!!!!!!!!!!!!!!!!!!!!!!!!!!!!!!!!!!!!!!!!!!!!!!0!9!1!S!S!8!5!S!0!0!1!S!!!!!!!!!!!!!!!!!!!!!!!!!!!!!1!5!5!E!9!0!0!5!1!!!!!!!!!!!!!!!!!!!!!!!!!!!!!!",
"!!!!!!!!!!!!!!!!!!!!!!!!!!!!!!!!!5!1!S!!!!!8!0!!!!!!!0!1!!!!!!!!!!!!!!!!!!!!!!!!!!!1!8!0!1!@!8!1!=!9!S!!!!!!!!!!!!!!!!!!!!!!!!!!!!!!!!!!!!!!!!!!!!!!!!!!!!!!!!!!!5!1!S!!!!!8!0!!!!!!!0!1!!!!!!!!!!!!!!!!!!!!!!!!!!!1!8!0!1!@!8!1!=!9!S!!!!!!!!!!!!!!!!!!!!!!!!!!!!!!!!!!!!!!!!!!!!!!!!!!!!!!!5!1!S!!!!!8!0!!!!!!!0!1!!!!!!!!!!!!!!!!!!!!!!!!!!!1!8!0!1!@!8!1!=!9!S!!!!!!!!!!!!!!!!!!!!!!!!!!!!!!",
"!!!!!!!!!!!!!!!!!!!!!!!!!!!!!!!!!0!1!e!!!!!8!0!!!!!!!0!1!!!!!!!!!!!!!!!!!!!!!!!!!0!@!0!S!S!;!5!1!8!@!=!S!!!!!!!!!!!!!!!!!!!!!!!!!!!!!!!!!!!!!!!!!!!!!!!!!!!!!!!!!0!1!e!!!!!8!0!!!!!!!0!1!!!!!!!!!!!!!!!!!!!!!!!!!0!@!0!S!S!;!5!1!8!@!=!S!!!!!!!!!!!!!!!!!!!!!!!!!!!!!!!!!!!!!!!!!!!!!!!!!!!!!0!1!e!!!!!8!0!!!!!!!0!1!!!!!!!!!!!!!!!!!!!!!!!!!0!@!0!S!S!;!5!1!8!@!=!S!!!!!!!!!!!!!!!!!!!!!!!!!!!!",
"!!!!!!!!!!!!!!!!!!!!!!!!!!!!!!!!!0#)!!!!!!!8!0!!!!!!!0!0!!!!!!!!!!!!!!!!!!!!!!!!!@!5!S!!!!!E!0!!!!!!!:!1!!!!!!!!!!!!!!!!!!!!!!!!!!!!!!!!!!!!!!!!!!!!!!!!!!!!!!!!!0#)!!!!!!!8!0!!!!!!!0!0!!!!!!!!!!!!!!!!!!!!!!!!!@!5!S!!!!!E!0!!!!!!!:!1!!!!!!!!!!!!!!!!!!!!!!!!!!!!!!!!!!!!!!!!!!!!!!!!!!!!!0#)!!!!!!!8!0!!!!!!!0!0!!!!!!!!!!!!!!!!!!!!!!!!!@!5!S!!!!!E!0!!!!!!!:!1!!!!!!!!!!!!!!!!!!!!!!!!!!!!",
"!!!!!!!!!!!!!!!!!!!!!!!!!!!!!!!!!!!!!!!!!!!!!!!!!!!!!!!!!!!!!!!!!!!!!!!!!!!!!!!!!=!1!!!!!!!=!0!!!!!!!9!1!!!!!!!!!!!!!!!!!!!!!!!!!!!!!!!!!!!!!!!!!!!!!!!!!!!!!!!!!!!!!!!!!!!!!!!!!!!!!!!!!!!!!!!!!!!!!!!!!!!!!!!!!=!1!!!!!!!=!0!!!!!!!9!1!!!!!!!!!!!!!!!!!!!!!!!!!!!!!!!!!!!!!!!!!!!!!!!!!!!!!!!!!!!!!!!!!!!!!!!!!!!!!!!!!!!!!!!!!!!!!!!!!!!!!=!1!!!!!!!=!0!!!!!!!9!1!!!!!!!!!!!!!!!!!!!!!!!!!!!!",
"!!!!!!!!!!!!!!!!!!!!!!!!!!!!!!!!!!!!!!!!!!!!!!!!!!!!!!!!!!!!!!!!!!!!!!!!!!!!!!!!!5#)!!!!!!!8!0!!!!!!!5!0!!!!!!!!!!!!!!!!!!!!!!!!!!!!!!!!!!!!!!!!!!!!!!!!!!!!!!!!!!!!!!!!!!!!!!!!!!!!!!!!!!!!!!!!!!!!!!!!!!!!!!!!!5#)!!!!!!!8!0!!!!!!!5!0!!!!!!!!!!!!!!!!!!!!!!!!!!!!!!!!!!!!!!!!!!!!!!!!!!!!!!!!!!!!!!!!!!!!!!!!!!!!!!!!!!!!!!!!!!!!!!!!!!!!!5#)!!!!!!!8!0!!!!!!!5!0!!!!!!!!!!!!!!!!!!!!!!!!!!!!",
"!!!!!!!!!!!!!!!!!!!!!!!!!!!!!!!!!!!!!!!!!!!!!!!!!!!!!!!!!!!!!!!!!!!!!!!!!!!!!!!!!!!!!!!!!!!!!!!!!!!!!!!!!!!!!!!!!!!!!!!!!!!!!!!!!!!!!!!!!!!!!!!!!!!!!!!!!!!!!!!!!!!!!!!!!!!!!!!!!!!!!!!!!!!!!!!!!!!!!!!!!!!!!!!!!!!!!!!!!!!!!!!!!!!!!!!!!!!!!!!!!!!!!!!!!!!!!!!!!!!!!!!!!!!!!!!!!!!!!!!!!!!!!!!!!!!!!!!!!!!!!!!!!!!!!!!!!!!!!!!!!!!!!!!!!!!!!!!!!!!!!!!!!!!!!!!!!!!!!!!!!!!!!!!!!!!!!!!!!!!!!!!!"
};