/* XPM */
static const char *cyborg_boss_firing_f01[] = {
/* columns rows colors chars-per-pixel */
"64 64 89 1",
"! c None",
"# c #60401C",
"$ c #704820",
"% c #805424",
"& c #94602C",
"' c #A06C3C",
"( c #D0B094",
") c #BC906C",
"* c #B08458",
"+ c #A8784C",
", c #C4A080",
"- c #503418",
". c #402810",
"/ c #301C0C",
"0 c #840404",
"1 c #C4701C",
"2 c #E49898",
"3 c #005C5C",
"4 c #004444",
"5 c #AC0C0C",
"6 c #007474",
"7 c #884404",
"8 c #D8BCA8",
"9 c #008C8C",
": c #00A4A4",
"; c #10C0C0",
"< c #78E0E0",
"= c #5CD8D8",
"> c #00BCBC",
"? c #984C08",
"@ c #98E4E4",
"A c #E4D0C0",
"B c #D8F4F4",
"C c #B4ECEC",
"D c #CC8038",
"E c #AC580C",
"F c #40D0D0",
"G c #28C8C8",
"H c #DCAC7C",
"I c #C06410",
"J c #ECD0B4",
"K c #D09050",
"L c #E4C098",
"M c #8C8C8C",
"N c #747474",
"O c #002C2C",
"P c #D89C64",
"Q c #5C5C5C",
"R c #6C6C6C",
"S c #743804",
"T c #989898",
"U c #001414",
"V c #CC3838",
"W c #700404",
"X c #643000",
"Y c #4C4C4C",
"Z c #A8A8A8",
"[ c #2C2C2C",
"] c #444444",
"^ c #BCBCBC",
"_ c #545454",
"` c #CCCCCC",
"a c #980088",
"b c #D8D8D8",
"c c #646464",
"d c #3C3C3C",
"e c #E0E0E0",
"f c #343434",
"g c #848484",
"h c #000000",
"i c #201408",
"j c #7C7C7C",
"k c #F0F0F0",
"l c #A0A0A0",
"m c #98084C",
"n c #C47024",
"o c #AC0C58",
"p c #C01010",
"q c #502400",
"r c #C03014",
"s c #C45018",
"t c #C89020",
"u c #C8CC28",
"v c #B0B0B0",
"w c #5090D0",
"x c #085098",
"y c #3C1C00",
"z c #242424",
"{ c #1C1C1C",
"!!!!!!!!!!!!!!!!!!!!!!!!!!!!!!!!!!!!!!!!!!!!!!!!!!!!!!!!!!!!!!!!",
"!!!!!!!!!!!!!!!!!!!!!!!!!!!!!!########!!!!!!!!!!!!!!!!!!!!!!!!!!",
"!!!!!!!!!!!!!!!!!!!!!!!!!!!!!##$$%%%$$#!!!!!!!!!!!!!!!!!!!!!!!!!",
"!!!!!!!!!!!!!!!!!!!!!!!!!!!!!#$%&'''&%$#!!!!!!!!!!!!!!!!!!!!!!!!",
"!!!!!!!!!!!!!!!!!!!!!!!!!!!!##$%(%)*+&$#!!!!!!!!!!!!!!!!!!!!!!!!",
"!!!!!!!!!!!!!!!!!!!!!!!!!!!!#$%'%$'*(&&$#!!!!!!!!!!!!!!!!!!!!!!!",
"!!!!!!!!!!!!!!!!!!!!!!!!!!!#$&*)*''*&%#&##!!!!!!!!!!!!!!!!!!!!!!",
"!!!!!!!!!!!!!!!!!!!!!!!!!!!#+)(+#%*+&'+)+##!!!!!!!!!!!!!!!!!!!!!",
"!!!!!!!!!!!!!!!!!!!!!!!!!!#$%**&$$&$$&,*%$#!!!!!!!!!!!!!!!!!!!!!",
"!!!!!!!!!!!!!!!!!!!!!!!!!#-$-#%*&%&%&('#-%-#!!!!!!!!!!!!!!!!!!!!",
"!!!!!!!!!!!!!!!!!!!!!!!!!-$-...%'#'#*%...-$-!!!!!!!!!!!!!!!!!!!!",
"!!!!!!!!!!!!!!!!!!!!!!!!!.$...//%%'%%//...$.!!!!!!!!!!!!!!!!!!!!",
"!!!!!!!!!!!!!!!!!!!!!!!!.#$-012-/&)&/-210-$#.!!!!!!!3334!!!!!!!!",
"!!!!!!!!!!!!!!!!!3333333.##--510-)(*-015--#-.33333336666377!!!!!",
"!!!!!!!!!!3633333666666.$%$#$%$&+(8(+%$%$#$%$.6669:;<<=;>9??!!!!",
"!!!!?????3@=669:;=>:999.$&&%$&*,((A((,*&$%&&$.999:>=BC@<=9;D?!!!",
"!!!?EDDDDD9C<;=<<C@=FG;.%+'%$+,*++*+'*,+$%'+%.:GF=@C<<=;>>9HI!!!",
"!!!DHDHHHH;B@<@CB=>:999.&*'$&%&**)()*&&*&$'*&.9999999999996JK!!!",
"!!!KJHJJJJ9B@6666666666.%+&$%&%&(A8A(&%&&$&+%.3333333336663H?!!!",
"!!!HLDMNMH6C@3333333333.-%%##-'))*+*))'-'#%%-.OOOOOOO443664I7!!!",
"!!!DPNNQRE>@G3333444OOOO.-##-$+$$&)&$$+$-$#-.OOOOOOO443663O?S!!!",
"!!!E?QTNQO@=:33444OOOOUUU.-#-&$.-#*#-.$&-#-.OOOVWVO4439633OX!!!!",
"!!!?SYZMY[F:933334444OOOU.---$#-%&'&%-#$-##.OOOOOOO33:6334O!!!!!",
"!!!T]Y^Z_[O663333333444OO..-.#$&#-$-#&$#.-.OOOOOOO43>6634O!!!!!!",
"!!!^_]`^Q[!O66333663344OUU....-../-/..-..-.OOOOO44396634O!!!!!!!",
"!!!bcde^Q[!O3666663444OOUU..fQ/gfhiiYj]Q-$.OOO443366634OE?!!!!!!",
"!!!kNf`lY[!mO3336334OOOUUUU.-fQ]iiiiiiQ-$-OOOOO4433334OKDn!!!!!!",
"!!!InEEEE?!o!O43344444OOUUUU.-fdQii_[_d$-334444O44444OS7??!!!!!!",
"!!!DHHHHPH!p!!4444OOOOOOOOOOh.idjYYjYd--OO44OOOOOOOOOXqqq!!!!!!!",
"!!!PLEEEEErsr!!OOOUUUUUUUUUUU!#-.hi.-#$!!!UUUUUUU!!!QjQU!!!!!!!!",
"!!!LJ??R?rstsr!!!UUUUU!!!!!!!!#$$#-#$%.!!!!!!!!!!!!!QgQU!!!!!!!!",
"!!!PH7mopstutspom!!!!!!!!!!!!!O#$%&'&#O!!!!!!!!!!!!!QMQU!!!!!!!!",
"!!!IKXvMwrstsr!!!!!!!!!!!!!!!!!439634O!!!!!!!!!!!!!!QTQU!!!!!!!!",
"!!!!IqM^Mwrsr!3!!!!!!!!!!!!!!!!4434OUO!!!!!!!!!!!!!!QMQU!!!!!!!!",
"!!!!!!cl:4!p!O:3!!!!!!!!!!!!!!!6G@G94O!!!!!!!!!!!!!!QMQU!!!!!!!!",
"!!!!!!!>CC:o3443!!!!!!!!!!!!!!O46:4OUOO!!!!!!!!!!!!!QgQU!!!!!!!!",
"!!!!!!!>663mOO3!!!!??????S9333O3>B>333O3334???????!469964!!!!!!!",
"!!!!!!!=CC:9344!!!!nnnnnn?;663O46:4OUUO3663nnKPPKn4::;>:9U!!!!!!",
"!!!!!!!!6634OU!!!!!JHHHHHIBFF6O4696634O6FF:JHLJJLHO4493U4U!!!!!!",
"!!!!!!!!6CC993!!!!!LKKKKK?C;:93O44434O39::9LKKKKKKUUU64UU4U!!!!!",
"!!!!!!!!44444!!!!!!KIIIII7<99963OOOOO369996K64443IUU!34UU34!!!!!",
"!!!!!!!!!!!!!!!!!!!I?????SF6666666666666663I4Yg]4?U!!3OU!34!!!!!",
"!!!!!!!!!!!!!!!!!!!?SSSSSX93333333333333334?3QTY4SU!!4OU!34!!!!!",
"!!!!!!!!!!!!!!!!!!!7qqqqqq3444444444444444O74NZ_4qU!!UU!!U!!!!!!",
"!!!!!!!!!!!!!!!!!!!ESSSSSX4666699:::999666OE4g^Q4SU!!UU!U!!!!!!!",
"!!!!!!!!!!!!!!!!!!!!f]Q][!!!!!!!!!!!!!!!!!!!4Z`N4!!U!U!!!!!!!!!!",
"!!!!!!!!!!!!!!!!!!!!f]Q][!!!!!!!!!!!!!!!!!!E77777?!!!!!!!!!!!!!!",
"!!!!!!!!!!!!!!!!!!!!f]Q][!!!!!!!!!!!!!!!!!!nnDKDnE!!!!!!!!!!!!!!",
"!!!!!!!!!!!!!!!!!!!yf]Q][y!!!!!!!!!!!!!!!!!PKHJHKn!!!!!!!!!!!!!!",
"!!!!!!!!!!!!!!!!!!!qqdQdqq!!!!!!!!!!!!!!!!!HnKPDIE!!!!!!!!!!!!!!",
"!!!!!!!!!!!!!!!!!!!7777777!!!!!!!!!!!!!!!!!DEIIIII!!!!!!!!!!!!!!",
"!!!!!!!!!!!!!!!!!!!XXXXXXX!!!!!!!!!!!!!!!!!I?4N4??!!!!!!!!!!!!!!",
"!!!!!!!!!!!!!!!!!!!yyyyyyy!!!!!!!!!!!!!!!!!7OjMYSS!!!!!!!!!!!!!!",
"!!!!!!!!!!!!!!!!!!!!4MlNO!!!!!!!!!!!!!!!!!!!4NvQO!!!!!!!!!!!!!!!",
"!!!!!!!!!!!!!!!!!!!44MlQOO!!!!!!!!!!!!!!!!!!4MvNO!!!!!!!!!!!!!!!",
"!!!!!!!!!!!!!!!!!!4663:334O!!!!!!!!!!!!!!!!!4MvNO!!!!!!!!!!!!!!!",
"!!!!!!!!!!!!!!!!!494469OO4O!!!!!!!!!!!!!!!!44MvQOO!!!!!!!!!!!!!!",
"!!!!!!!!!!!!!!!!3:4OO96O334O!!!!!!!!!!!!!!466G:3364!!!!!!!!!!!!!",
"!!!!!!!!!!!!!!!!64O!!93!!!34!!!!!!!!!!!!!4934@94>:O!!!!!!!!!!!!!",
"!!!!!!!!!!!!!!!!34z!!93!!!34!!!!!!!!!!!!3@3OO<649@>O!!!!!!!!!!!!",
"!!!!!!!!!!!!!!!!3{!!!93!!!33!!!!!!!!!!!!@6O!!G3!!!;4!!!!!!!!!!!!",
"!!!!!!!!!!!!!!!!!!!!!!!!!!!!!!!!!!!!!!!!>4!!!>3!!!:4!!!!!!!!!!!!",
"!!!!!!!!!!!!!!!!!!!!!!!!!!!!!!!!!!!!!!!!6{!!!93!!!63!!!!!!!!!!!!",
"!!!!!!!!!!!!!!!!!!!!!!!!!!!!!!!!!!!!!!!!!!!!!!!!!!!!!!!!!!!!!!!!"
};