/* XPM */
static char *walking_f01[] = {
"64 64 15 1",
"a	c None",
"b	c #6C8C00",
"c	c #587400",
"d	c #445C00",
"e	c #344400",
"f	c #202C00",
"g	c #0C0C0C",
"h	c #747804",
"i	c #A4A814",
"j	c #3C3C00",
"k	c #505000",
"l	c #7CA400",
"m	c #000000",
"n	c #141414",
"o	c #040404",
"aaaaaaaaaaaaaaaaaaaaaaaaaaaaaaaaaaaaaaaaaaaaaaaaaaaaaaaaaaaaaaaa",
"aaaaaaaaaaaaaaaaaaaaaaaaaaaaaaaaaaaaaaaaaaaaaaaaaaaaaaaaaaaaaaaa",
"aaaaaaaaaaaaaaaaaaaaaaaaaaaaaaaaaaaabbbbbaaaaaaaaaaaaaaaaaaaaaaa",
"aaaaaaaaaaaaaaaaaabbbbbbbaaaaaaabbbbcccccbbbaaaaaaaaaaaaaaaaaaaa",
"aaaaaaaaaaaaaaaabbcccccccbbbbbbbcccdcddddcccbbaaaaaaaaaaaaaaaaaa",
"aaaaaaaaaaaaaaabccecdddcdccccceccdddddecddededbaaaaaaaaaaaaaaaaa",
"aaaaaaaaaaaaaaccddfedecddddeddfeddecddfeecfdecdbaaaaaaaaaaaaaaaa",
"aaaaaaaaaaaaacddecdddfeeeeeeeededdfeddddfedcfeecaaaaaaaaaaaaaaaa",
"aaaaaaaaaaaaadedfeecdeeeeeeffeeeeeeeddecdddedeedcccccccaaaaaaaaa",
"aaaaaaaaaaaaadeedefeefeffffgffffefeeeefeddddecefeedddddcaaaaaaaa",
"aaaaaaaaaaaccdeeeeefffffgggggggffffffffeeececfegeeedededcaaaaaaa",
"aaaaaaaaaccddfdefffggggggffeeffggggfffffffefefgffdeedededcaaaaaa",
"aaaaaaaacddeegfffgggffffeeeeeeeeeffggggfffffggfffeceeeedecaaaaaa",
"aaaaaaacdeeeccggggffeeeeeeeeeeddcceefffgggggffffeecfeeeefdaaaaaa",
"aaaaaaaceeefceeeeeeeeeeeedeedddcdddeeeeffffffeeeddefefeffdaaaaaa",
"aaaaaaadefefdefeeeeeededdedddcdddeeffggggggggggfffffffffgdaaaaaa",
"aaaaaaadefffeddeeeefffeeddddddddeefghihgffffffggggggggggeaaaaaaa",
"aaaaaaaadegffgggggggggggeeddddeeeffhihgffeeeedeeedefggfgaaaaaaaa",
"aaaaaaaaaggggfffffgghihggffeeeeffgggggfeeffefeedeeedddgfgaaaaaaa",
"aaaaaaaaddefefffggffghiihggffffggffeddegfeeeeeeeeeeceedggaaaaaaa",
"aaaaaaadeeeecedeeegfegggggfggggfffeefggeeeeeefgfeefeeeedfgaaaaaa",
"aaaaaadeecefeeeeedegfeddefffffffeefggfeeeeefggggfeedcdeedfaaaaaa",
"aaaaaaddfeeeeggfeeefgffeddddddeefgjgfedeefgggffggedeeeddedaaaaaa",
"aaaaaddeedcddefgfeeeefggggggggggggfdeeeefggfffffgefggfeeddeaaaaa",
"aaaaadeedgggeeefgfeeeecefgkghghgkgdedeefgffffeffgfeedcdeeedaaaaa",
"aaaaadeegeedcdeefgfedeeccgjgkgkgfcdeeefgfffeeffggeegggfdeedaaaaa",
"aaaaadfeedegggggeggeeddedccllccccdedefgffeeeefgggfgeecefeeeaaaaa",
"aaaaaefegggeeeeegggfeeddcdeefffeeddefgffeeeefggfgfeefeeeeeeaaaaa",
"aaaaaefgeecdddeeeefgfeeddddccccdddeegffeedefggfgeeedddecefeaaaaa",
"aaaaaefeefeedddeeefggfeedddddddddeefffedeefggfgeeeddcdfeeegaaaaa",
"aaaaefeeeececdeedffgggfeedddddddeefgfedeeeggfgeededdecdeeegaaaaa",
"aaaaefecefefedddcdeggggfeeededeeefgfededefgfgfddedddfeecefgaaaaa",
"aaaaeffefeceddedeedfggfggfeeeeefggfeeedeegffgdeeddcedeeefegaaaaa",
"aaaaagfeefefedeeffefgggfgggggggggffeedeefgfgfegfdddeeeceefgaaaaa",
"aaaaaefeedddeeddefefgggfffgggggfffeedddeggfgegfeddfddfeeegaaaaaa",
"aaaaaeffeeecefeedegfgfgfeeffffffeeeeddeegffgfgedeegdcdeefgaaaaaa",
"aaaaaagffffedegfeeefgfggedeeeeeeeeeddeeggfffgfffegeddeeefgaaaaaa",
"aaaaaaggffgfeeeggffggfggeedddeeeeddddefgfffffggggedeefefgaaaaaaa",
"aaaaaaaggefggffefgggfffgfeddcdddddcdeefgffeffgffffeggefgaaaaaaaa",
"aaaaaaaagggffggffgffeffggeedddcccdddefgffeeffggggggfffggeaaaaaaa",
"aaaaaaaaaagggggggggffeffgfeedddddddeefgfeeffgggggfffgggggeaaaaaa",
"aaaaaaaaaaaefgfgfggffeeffgfeeedddeeefgffefffgfgfggggfgfggfaaaaaa",
"aaaaaaaaaaafgfgfgfggffeefggfeeeeeeefgffeeffgffffffffffffgfaaaaaa",
"aaaaaaaaaafgffffffffgfeeeffgffeeeefgffedffgffefefffffffffgaaaaaa",
"aaaaaaaaaagfeeeefefffgfedeffgggggggfffeeffgfefefefefeceffgaaaaaa",
"aaaaaaaaaffeededeeeeffgfeeeffffffffffeeffggffeeeeceefeeefgaaaaaa",
"aaaaaaaaaffeceecdeefeffgfedeefefffefedeffggfefeefededeceegaaaaaa",
"aaaaaaaaffefedfeeceeffgfgfeddeeeeeeedeffgggffeeeededcfedeeaaaaaa",
"aaaaaaaafeeecdddfeffeffgggfeeddcccdeeffgggggfeeeeeecdddeedaaaaaa",
"aaaaaaaafeefedddedeeffgggggfeeedddeeffggggggffeeedfeddddedaaaaaa",
"aaaaaaaafeecddecdeefggggggggffeeeefffggggggggfeeeeddecddeedaaaaa",
"aaaaaaaffffeecfeeeegggggggeggfffffffgafggggggffeecedfeddeedaaaaa",
"aaaaaaafeeeefeeeeefgggggggeaaggfffggaafggggggffefeeddecdeedaaaaa",
"aaaaaaafeeceeeeeefggggggggfaaaagggaaaaafggggggfeeededfeeeedaaaaa",
"aaaaaaafefefeeceefggggggggfaaaaaaaaaaaaafgggggfeeeeeeeeeeeeddaaa",
"aaaaaeeeeeeeefeeefgggggggfffaaaaaaaaaaaaefgggfddeefefeeddfdcddaa",
"aaaaeddeeeeeeeeefgggggggggggaaaaaaaaaaafggggfddcdeefeedddfeddfaa",
"aaaedcdeeddeeeddfgggggggggggaaaaaaaaaaagggggfdddeefgffedldfeegaa",
"aaaeddeedddeeedcfgggmmgggggggaaaaaaaaaamggggngdeefggggfdddfggaaa",
"aaeeeeedldeeeeddefgmmmmmmggmoaaaaaaaaaammmmmmmggggmmmmgedefaaaaa",
"aafeeffedeeefeeeefmmmnnnooooaaaaaaaaaaaannmnmmmmmmaaaamggggaaaaa",
"aaagggfeeeefggeeefaaaaaaaaaaaaaaaaaaaaaaaaaaaaaaaaaaaaaaaaaaaaaa",
"aaaaaageeeegaagggaaaaaaaaaaaaaaaaaaaaaaaaaaaaaaaaaaaaaaaaaaaaaaa",
"aaaaaaaggggaaaaaaaaaaaaaaaaaaaaaaaaaaaaaaaaaaaaaaaaaaaaaaaaaaaaa"
};