/* XPM */
static char *walking_f00[] = {
"64 64 15 1",
"a	c None",
"b	c #6C8C00",
"c	c #587400",
"d	c #445C00",
"e	c #344400",
"f	c #202C00",
"g	c #0C0C0C",
"h	c #747804",
"i	c #505000",
"j	c #A4A814",
"k	c #3C3C00",
"l	c #7CA400",
"m	c #000000",
"n	c #141414",
"o	c #040404",
"aaaaaaaaaaaaaaaaaaaaaaaaaaaaaaaaaaaaaaaaaaaaaaaaaaaaaaaaaaaaaaaa",
"aaaaaaaaaaaaaaaaaaaaaaaaaaaaaaaaaaaaaaaaaaaaaaaaaaaaaaaaaaaaaaaa",
"aaaaaaaaaaaaaaaaaaaaaaaaaaaaaaaaaaaaaaaaaaaaaaaaaaaaaaaaaaaaaaaa",
"aaaaaaaaaaaaaaaaaaaaaaaaaaaaaaaaaaaaaaaaaaaaaaaaaaaaaaaaaaaaaaaa",
"aaaaaaaaaaaaaaaaaaaabbbbbbbaaaaaaaaaaabbbbbaaaaaaaaaaaaaaaaaaaaa",
"aaaaaaaaaaaaaaaaabbbcccccccbbbaaaaabbbcccccbbbbaaaaaaaaaaaaaaaaa",
"aaaaaaaaaaaaaaabbccccdcdcdccccbbbbbccccdcddccccbbaaaaaaaaaaaaaaa",
"aaaaaaaaaaaaaabccdcddddddecddcccccccddddecdddcdccbaaaaaaaaaaaaaa",
"aaaaaaaaaaaaabccddecdddddfedddddecddddddfeddecddccbaaaaaaaaaaaaa",
"aaaaaaaaaaaaacddddfeddecedeeceddfeedecdedecdfeddddcaaaaaaaaaaaaa",
"aaaaaaaaaaccceedecdedefeeeefeeeeeeeefeeeefededecdeecccaaaaaaaaaa",
"aaaaaaaaccdddefefeeeceeeeefeffggggffefeeeeeeeefeefedddccaaaaaaaa",
"aaaaaaacddededgfefefefefffggggffffggggfffefeeefefgdededdcaaaaaaa",
"aaaaaacdeeeedefggffffffgggffeeeeeeeeffgggffffffggfedeeeedcaaaaaa",
"aaaaaaceeeeecefefggggggfeeeeeedededeeeeefggggggfefeceeeeecaaaaaa",
"aaaaaadefeeeceedeefffeedeededdcdcdcdedeedeeefffedeeceeefedaaaaaa",
"aaaaaadeefefeddffffeeffeededdcdcdcdddedeeffeeefffddefefeedaaaaaa",
"aaaaaaaefefffgggggggggggfeeeddddddddeeefgggggggggggfffefeaaaaaaa",
"aaaaaaaaeffggfffffgfgghiggfeeeededeeefggihggfgfffffggffeaaaaaaaa",
"aaaaaaaadddeedeeedefffghjhggffeeeeefgghjhgfffeeeedeeeggggaaaaaaa",
"aaaaaaddeeceeeeeffeeeffghjjhggffffgghjjhgffeeffefeedeeeddddaaaaa",
"aaaaadecefeddefeeefggedeggggffggggffggggedegfedeeeeeeeceeeddaaaa",
"aaaadefeeeeeeeceedeeeggfeeeffffffffffeeefggeeeeefggfffedcdeedaaa",
"aaadeedccdeeeeefeeeedefgfeddeeeeeeeddefggfeeeefggffgeeefgggedaaa",
"aaadddefggfdeffgggfeeeefgffedddccddefgkgfedefggffgggggfeeefgedaa",
"aaddeeeceeefgfggffgfeedeefggggggggggggfdeeefgfgggeeeeegggeecfdaa",
"aadeeefeeeeefggggfegfeeeeecefgighghgigdedefgfgffeeedddceegfeedaa",
"aaeeeeeeeeeffgffggfegfeedeeccgkgigigfcdeefgeegfeeedddecfeefeecda",
"adeeeceefeceegffeggfegfeeddedccccclccdedfgdefgffdeedececeeeffeea",
"adeffeeeeeefeefgfeggfegfeeddcdeefffeeddfgeefgfedcdddfefeecefefea",
"aeeeeefeecdddeeegfeggeegfeeddddccccdddegeeegfedeededdecefefffefa",
"afefegeefedcddeeegffgfedgfeedddddddddefedefgfeeffeddefefeefgefaa",
"aafefgeeedecddedeegefgeedgfeedddddddefgdeeggfefgeedeedddeefgfgaa",
"aagffgfecefedddeddfgfgfeedgfeeededeefgdeefgggfgfedefedceefgfgaaa",
"aaagfgefeeedecddeedgfggedddggfeeeefggdddegggggeeefgedeefffggaaaa",
"aaaaggfeeeceedddfgefgfgfeddeggggggggeddefgffgeffggeeefgffggaaaaa",
"aaaaaggeefeddfddefgegfggeeddeeggggeeddeeggffgfggfeffggfeggaaaaaa",
"aaaaaagfeedcdgeedegfggfgfeddddeeeeddddefgfeffgffffggffgggaaaaaaa",
"aaaaaagfeeeddegefffgffggfeedcddddddcdeefgefefggggggggggaaaaaaaaa",
"aaaaaaagfefeedeggggffffggfedddccccdddefgffeffgfgffgfgfgaaaaaaaaa",
"aaaaaaaagfeggeffffgfffffgfeeddddddddeefgfefefgffffffffffaaaaaaaa",
"aaaaaaaaggfffgggggfffeffggfeeeddddeeefgfeeefgfffefefeffgaaaaaaaa",
"aaaaaaaageggfffgffefefefgggfeeeeeeeefgfdefefgffefeededeffaaaaaaa",
"aaaaaaaaagffgggffefeeeffgfggfeeeeeefgfeeeefggfefecdeceeffaaaaaaa",
"aaaaaaaaagefffffeeecdeefgfffggggggggfeeeefggfffefeefedfefaaaaaaa",
"aaaaaaaaafeedefdeddefefggffeefefffefedeefggggfeeeddddfeefaaaaaaa",
"aaaaaaaaafeeecedddedeefgggffedeeeeeedeefggggfafefeecddcefaaaaaaa",
"aaaaaaaaafeedefdcedeeeggggffeedcccdeeefggggggaafeefeeceffaaaaaaa",
"aaaaaaaafeeecededfeeefgggggffeedddeeefgggggggfaffeefefeefaaaaaaa",
"aaaaaaaafeefefcfeedefgggggggffeeeeeffggggggggfaafeeeeeeefaaaaaaa",
"aaaaaaaafeeedeeedeeefggggggggfffffffggggggggggaafffefecefaaaaaaa",
"aaaaaaaffeeceedeeeffgggaaggggggfffggggggggggggfaffefcfefffaaaaaa",
"aaaaaaafefedccfefeefggaaaaggggggggagggggggggggfaffffffffeeaaaaaa",
"aaaafedcdeddddfedccfggaaaaaagggaaaaggggggggggggafefffffeedeaaaaa",
"aaafedddfdldeefeddcdfggaaaaaaaaaaaaagggggggggggffddeeddeeddeaaaa",
"aaafedeefedeeeffeddefggaaaaaaaaaaaafgggggggggggfeddfeedldecdeaaa",
"aaafeeffgfeeefggfeeefgmmaaaaaaaaaaaggmmggggggggfeeffeedeffeefaaa",
"aaaffffgggfffgmggffffmmmaaaaaaaaaanmmmmmmmmmmmmgffgffeeffgfffaaa",
"aaaagggggggggggmmmggnmmmaaaaaaaaaaommmmmmmmmmmomggmgffffgmggaaaa",
"aaaaaaaggmmmmmmmggnnmmmaaaaaaaaaaaaommmmmmmmmmooooooggggnaaaaaaa",
"aaaaaaaaagggggggnmmmmaaaaaaaaaaaaaaaooooooooonnnaaaaaaaaaaaaaaaa",
"aaaaaaaaaaaaaaaaaaaaaaaaaaaaaaaaaaaaaaaaaaaaaaaaaaaaaaaaaaaaaaaa",
"aaaaaaaaaaaaaaaaaaaaaaaaaaaaaaaaaaaaaaaaaaaaaaaaaaaaaaaaaaaaaaaa",
"aaaaaaaaaaaaaaaaaaaaaaaaaaaaaaaaaaaaaaaaaaaaaaaaaaaaaaaaaaaaaaaa"
};