/* XPM */
static char *walking_f02[] = {
"64 64 15 1",
"a	c None",
"b	c #6C8C00",
"c	c #587400",
"d	c #445C00",
"e	c #344400",
"f	c #202C00",
"g	c #0C0C0C",
"h	c #747804",
"i	c #505000",
"j	c #A4A814",
"k	c #3C3C00",
"l	c #7CA400",
"m	c #000000",
"n	c #040404",
"o	c #141414",
"aaaaaaaaaaaaaaaaaaaaaaaaaaaaaaaaaaaaaaaaaaaaaaaaaaaaaaaaaaaaaaaa",
"aaaaaaaaaaaaaaaaaaaaaaaaaaaaaaaaaaaaaaaaaaaaaaaaaaaaaaaaaaaaaaaa",
"aaaaaaaaaaaaaaaaaaaaaaaaaaaaaaaaaaaaaaaaaaaaaaaaaaaaaaaaaaaaaaaa",
"aaaaaaaaaaaaaaaaaaaaaaaaaaaaaaaaaaaaaaaaaaaaaaaaaaaaaaaaaaaaaaaa",
"aaaaaaaaaaaaaaaaaaaabbbbbbbaaaaaaaaaaabbbbbaaaaaaaaaaaaaaaaaaaaa",
"aaaaaaaaaaaaaaaaabbbbcccccbbbbaaaaabbcccccccbbbaaaaaaaaaaaaaaaaa",
"aaaaaaaaaaaaaaabbccccddcdccccbbbbbccccdcdcdccccbbaaaaaaaaaaaaaaa",
"aaaaaaaaaaaaaabccdcdddecddddcccccccddecddddddcdccbaaaaaaaaaaaaaa",
"aaaaaaaaaaaaabccddecddfeddddddecdddddfedddddecddccbaaaaaaaaaaaaa",
"aaaaaaaaaaaaacddddfedecdedecdefeddeecedeecddfeddddcaaaaaaaaaaaaa",
"aaaaaaaaaaccceedecdedfeeeefeeeeeeeefeeeefeededecdeecccaaaaaaaaaa",
"aaaaaaaaccdddefefeeeeeeeeefeffggggffefeeeeeceefeefedddccaaaaaaaa",
"aaaaaaacddededgfefeeefefffggggffffggggfffefefefefgdededdcaaaaaaa",
"aaaaaacdeeeedefggffffffgggffeeeeeeeeffgggffffffggfedeeeedcaaaaaa",
"aaaaaaceeeeecefefggggggfeeeeedededeeeeeefggggggfefeceeeeecaaaaaa",
"aaaaaadefeeeceedefffeeedeededcdcdcddedeedeefffeedeeceeefedaaaaaa",
"aaaaaadeefefeddfffeeeffeededddcdcdcddedeeffeeffffddefefeedaaaaaa",
"aaaaaaaefefffgggggggggggfeeeddddddddeeefgggggggggggfffefeaaaaaaa",
"aaaaaaaaeffggfffffgfgghiggfeeededeeeefggihggfgfffffggffeaaaaaaaa",
"aaaaaaaggggeeedeeeefffghjhggfeeeeeffgghjhgfffedeeedeedddaaaaaaaa",
"aaaaaddddeeedeefeffeeffghjjhggffffgghjjhgffeeeffeeeeeeceddaaaaaa",
"aaaaddeeeceeeeeeedefgedeggggffggggffggggedeggfeeefeddfeeecdaaaaa",
"aaadeedcdefffggfeeeeeggfeeeffffffffffeeefggeeedeeceeeeeefeedaaaa",
"aaadegggfeeegffggfeeeefggfeddeeeeeeeddefgfedeeeefeeeeedccdeedaaa",
"aadegfeeefgggggffggfedefgkgfeddccdddeffgfeeeefgggffedfggfedddaaa",
"aadfceegggeeeeegggfgfeeedfggggggggggggfeedeefgffggfgfeeeeceeddaa",
"aadeefgeecdddeeeffgfgfededgighghgigfeceeeeefgefggggfeeeefeeeedaa",
"adceefeefcedddeeefgeegfeedcfgigigkgcceedeefgefggffgffeeeeeeeeeaa",
"aeeffeeececedeedffgfedgfdedcclcccccdeddeefgefggeffgeecefeeeceeda",
"aefefeceefefdddcdefgfeegfddeefffeedcddeefgefggefgfeefeeeeefefeda",
"afefffefeceddedeedefgeeegedddccccddddeefgeeggefgeeedddecefeeeeea",
"aafegfeefefeddeffeefgfedefedddddddddeefgdefgffgeeeddcdfeeegefefa",
"aagfgfeedddeedeegfefggeedgfedddddddeefgdeegfegeededdcedeeegfefaa",
"aaagfgfeecdefedefgfgggfeedgfeededeeefgdeefgfgfddedddefeecfgffgaa",
"aaaaggfffeedegfeeegggggedddggfeeeefggdddeggfgdeeddcedeefeegfgaaa",
"aaaaaggffgfeeeggffegffgfeddeggggggggeddefgfgfegfdddeeeceefggaaaa",
"aaaaaaggefggffefggfgffggeeddeeggggeeddeeggfgegfeddfddfeeeggaaaaa",
"aaaaaaagggffggffffgffefgfeddddeeeeddddefgfggfgedeegdcdeefgaaaaaa",
"aaaaaaaaaggggggggggfefegfeedcddddddcdeefggffgfffegeddeeefgaaaaaa",
"aaaaaaaaagfgfgffgfgffeffgfedddccccdddefggffffggggedeefefgaaaaaaa",
"aaaaaaaaffffffffffgfefefgfeeddddddddeefgfffffgffffeggefgaaaaaaaa",
"aaaaaaaagffefefefffgfeeefgfeeeddddeeefggffefffgggggfffggaaaaaaaa",
"aaaaaaaffededeefeffgfefedfgfeeeeeeeefgggfefefeffgfffggegaaaaaaaa",
"aaaaaaaffeeecdecfefggfeeeefgfeeeeeefggfgffeeefeffgggffgaaaaaaaaa",
"aaaaaaafefdfeefeefffggfeeeefggggggggfffgfeeeceeefffffegaaaaaaaaa",
"aaaaaaafeefddddeeefggggfeedefefffefeeffggfefeddedfedeefaaaaaaaaa",
"aaaaaaafecddecefefafggggfeedeeeeeedeffgggfeededddeceeefaaaaaaaaa",
"aaaaaaaffeecfeeefaaggggggfeeedcccdeeffggggeeedecdfedeefaaaaaaaaa",
"aaaaaaafeefefeeffafgggggggfeeedddeeffgggggfeeefeedeeceefaaaaaaaa",
"aaaaaaafeeeeeeefaafggggggggffeeeeeffgggggggfedeefcffeeefaaaaaaaa",
"aaaaaaafeecfefffaaggggggggggfffffffggggggggfeeedeeedeeefaaaaaaaa",
"aaaaaaffffecfeffafggggggggggggfffggggggaagggffeeedeeceeffaaaaaaa",
"aaaaaaeeffffffffafgggggggggggaggggggggaaaaggfeefefccdefefaaaaaaa",
"aaaaaedeefffffefaggggggggggggaaaagggaaaaaaggfccdefddddedcdefaaaa",
"aaaaeddeeddeeddffgggggggggggaaaaaaaaaaaaaggfdcddefeedldfdddefaaa",
"aaaedcedldeefddefgggggggggggfaaaaaaaaaaaaggfeddeffeeedefeedefaaa",
"aaafeeffedeeffeefggggggggmmggaaaaaaaaaaammgfeeefggfeeefgffeefaaa",
"aaafffgffeeffgffgmmmmmmmmmmmmaaaaaaaaaaammmffffggmgfffgggffffaaa",
"aaaaggmgffffgmggmnmmmmmmmmmmmaaaaaaaaaaaammoggmmmgggggggggggaaaa",
"aaaaaaaoggggnnnnnnmmmmmmmmmmnaaaaaaaaaaaammmooggmmmmmmmggaaaaaaa",
"aaaaaaaaaaaaaaaaooonnnnnnnnnaaaaaaaaaaaaaaammmmogggggggaaaaaaaaa",
"aaaaaaaaaaaaaaaaaaaaaaaaaaaaaaaaaaaaaaaaaaaaaaaaaaaaaaaaaaaaaaaa",
"aaaaaaaaaaaaaaaaaaaaaaaaaaaaaaaaaaaaaaaaaaaaaaaaaaaaaaaaaaaaaaaa",
"aaaaaaaaaaaaaaaaaaaaaaaaaaaaaaaaaaaaaaaaaaaaaaaaaaaaaaaaaaaaaaaa"
};