/* XPM */
static char *enemy_floor1_clean_sheet[] = {
"384 280 70 1",
"a	c None",
"b	c #6C6C6C",
"c	c #005C00",
"d	c #2C2C2C",
"e	c #007400",
"f	c #008C00",
"g	c #00A400",
"h	c #000000",
"i	c #C01010",
"j	c #4C4C4C",
"k	c #004400",
"l	c #002C00",
"m	c #747804",
"n	c #C4C824",
"o	c #A4A814",
"p	c #00140C",
"q	c #5C0000",
"r	c #200000",
"s	c #480000",
"t	c #700404",
"u	c #5C340C",
"v	c #840404",
"w	c #980808",
"x	c #684018",
"y	c #94602C",
"z	c #3C3C00",
"A	c #502400",
"B	c #344400",
"C	c #64A0D8",
"D	c #3884CC",
"E	c #402810",
"F	c #2474C4",
"G	c #AC0C0C",
"H	c #587400",
"I	c #7CA400",
"J	c #00C000",
"K	c #001400",
"L	c #505000",
"M	c #C06410",
"N	c #CC8038",
"O	c #5CD8D8",
"P	c #C42424",
"Q	c #10C0C0",
"R	c #D05050",
"S	c #FCFCFC",
"T	c #CC3838",
"U	c #DC7C7C",
"V	c #E49898",
"W	c #005C5C",
"X	c #008C8C",
"Y	c #00BCBC",
"Z	c #007474",
"0	c #500024",
"1	c #3C001C",
"2	c #98084C",
"3	c #AC0C58",
"4	c #640030",
"5	c #B0D040",
"6	c #00A4A4",
"7	c #880444",
"8	c #28C8C8",
"9	c #004444",
"!	c #003064",
"#	c #043C74",
"$	c #98E4E4",
"%	c #98C010",
"&	c #6C8C00",
"(	c #085098",
")	c #3C3C3C",
"*	c #141414",
"aaaaaaaaaaaaaaaaaaaaaaaaaaaaaaaaaaaaaaaaaaaaaaaaaaaaaaaaaaaaaaaaaaaaaaaaaaaaaaaaaaaaaaaaaaaaaaaaaaaaaaaaaaaaaaaaaaaaaaaaaaaaaaaaaaaaaaaaaaaaaaaaaaaaaaaaaaaaaaaaaaaaaaaaaaaaaaaaaaaaaaaaaaaaaaaaaaaaaaaaaaaaaaaaaaaaaaaaaaaaaaaaaaaaaaaaaaaaaaaaaaaaaaaaaaaaaaaaaaaaaaaaaaaaaaaaaaaaaaaaaaaaaaaaaaaaaaaaaaaaaaaaaaaaaaaaaaaaaaaaaaaaaaaaaaaaaaaaaaaaaaaaaaaaaaaaaaaaaaaaaaaaaaaaaaaaaaaaaaaaaaaa",
"aaaaaaaaaaaaaaaaaaaaaaaaaaaaaaaaaaaaaaaabaaaaaaaaaaaaaaaaaaaaaaaaaaaaaaaaaaaaaaaaaaaaaaaaaaaaaaaaaaaaaaaaaaaaaaaaaaaaaaaaaaaaaaaaaaaaaaaaaaaaaaaaaaaaaaaaaaaaaaaaaaaaaaabaaaaaaaaaaaaaaaaaaaaaaaaaaaaaaaaaaaaaaaaaaaaaaaaaaaaaaaaaaaaaaaaaaaaaaaaaaaaaaaaaaaaaaaaaaaaaaaaaaaaaaaaaaaaaaaaaaaaaaaaaaaaaaaaaaaaaaaaaaaaaaaaaaaaaaaaaaaaaaaaaaaaaaaaaaaaaaaaaaaaaaaaaaaaaaaaaaaaaaaaaaaaaaaaaaaaaaa",
"aaaaaaaaaaaaaaaaaaaaaaaaaaaaaacccccccaaadaaaaaaaaaaaaaaaaaaaaaaaaaaaaaaaaaaaaaaaaaaaaaaaaaaaaaaaaaaaaaaabaaaaaaaaaaaaaaaaaaaaaaaaaaaaaaaaaaaaaaaaaaaaaaaaaaaaacccccccaaadaaaaaaaaaaaaaaaaaaaaaaaaaaaaaaaaaaaaaaaaaaaaaaaaaaaaaaaaaaaaaaabaaaaaaaaaaaaaaaaaaaaaaaaaaaaaaaaaaaaaaaaaaaaaaaaaaaaaaaaaaaaaaaaaaaaaaaaaaaaaaaaaaaaaaaaaaaaaaaaaaaaaaaaaaaaaaaaaaaaaaaaaaaaaaaaaaaaaaaaaaaaaaaaaaaaaaa",
"aaaaaaaaaaaaaaaaaaaaaaaaaaaacceeeeeeeccadaaaaaaaaaaaaaaaaaaaaaaaaaaaaaaaaaaaaaaaaaaaaaaaaaaaaacccccccaaadaaaaaaaaaaaaaaaaaaaaaaaaaaaaaaaaaaaaaaaaaaaaaaaaaaacceeeeeeeccadaaaaaaaaaaaaaaaaaaaaaaaaaaaaaaaaaaaaaaaaaaaaaaaaaaaaacccccccaaadaaaaaaaaaaaaaaaaaaaaaaaaaaaaaaaaaaaaaaaaaaaaaaaaaaaaaaaaaaaaaaaaaaaaaaaaaaaaaaaaaaaaaaaaaaaaaaaaaaaaaaaaaaaaaaaaaaaaaaaaaaaaaaaaaaaaaaaaaaaaaaaaaaaaaaa",
"aaaaaaaaaaaaaaaaaaaaaaaaaaaceeefffffeeecdaaaaaaaaaaaaaaaaaaaaaaaaaaaaaaaaaaaaaaaaaaaaaaaaaaacceeeeeeeccadaaaaaaaaaaaaaaaaaaaaaaaaaaaaaaaaaaaaaaaaaaaaaaaaaaceeefffffeeecdaaaaaaaaaaaaaaaaaaaaaaaaaaaaaaaaaaaaaaaaaaaaaaaaaaacceeeeeeeccadaaaaaaaaaaaaaaaaaaaaaaaaaaaaaaaaaaaaaaaaaaaaaaaaaaaaaaaaaaaaaaaaaaaaaaaaaaaaaaaaaaaaaaaaaaaaaaaaaaaaaaaaaaaaaaaaaaaaaaaaaaaaaaaaaaaaaaaaaaaaaaaaaaaaaaa",
"aaaaaaaaaaaaaaaaaaaaaaaaaaaceeffgggffeecdaaaaaaaaaaaaaaaaaaaaaaaaaaaaaaaaaaaaaaaaaaaaaaaaaaceeefffffeeecdaaaaaaaaaaaaaaaaaaaaaaaaaaaaaaaaaaaaaaaaaaaaaaaaaaceeffgggffeecdaaaaaaaaaaaaaaaaaaaaaaaaaaaaaaaaaaaaaaaaaaaaaaaaaaceeefffffeeecdaaaaaaaaaaaaaaaaaaaaaaaaaaaaaaaaaaaaaaaaaaaaaaaaaaaaaaaaaaaaaaaaaaaaaaaaaaaaaaaaaaaaaaaaaaaaaaaaaaaaaaaaaaaaaaaaaaaaaaaaaaaaaaaaaaaaaaaaaaaaaaaaaaaaaaa",
"aaaaaaaaaaaaaaaaaaaaaaaaaaceeeeefffeeeehbiaaaaaaaaaaaaaaaaaaaaaaaaaaaaaaaaaaaaaaaaaaaaaaaaaceeffgggffeecdaaaaaaaaaaaaaaaaaaaaaaaaaaaaaaaaaaaaaaaaaaaaaaaaaceeeeefffeeeehbiaaaaaaaaaaaaaaaaaaaaaaaaaaaaaaaaaaaaaaaaaaaaaaaaaceeffgggffeecdaaaaaaaaaaaaaaaaaaaaaaaaaaaaaaaaaaaaaaaaaaaaaaaaaaaaaaaaaaaaaaaaaaaaaaaaaaaaaaaaaaaaaaaaaaaaaaaaaaaaaaaaaaaaaaaaaaaaaaaaaaaaaaaaaaaaaaaaaaaaaaaaaaaaaaa",
"aaaaaaaaaaaaaaaaaaaaaaaaaaceffeceeeceffhjhaaaaaaaaaaaaaaaaaaaaaaaaaaaaaaaaaaaaaaaaaaaaaaaaceeeeefffeeeehbiaaaaaaaaaaaaaaaaaaaaaaaaaaaaaaaaaaaaaaaaaaaaaaaaceffeceeeceffhjhaaaaaaaaaaaaaaaaaaaaaaaaaaaaaaaaaaaaaaaaaaaaaaaaceeeeefffeeeehbiaaaaaaaaaaaaaaaaaaaaaaaaaaaaaaaaaaaaaaaaaaaaaaaaaaaaaaaaaaaaaaaaaaaaaaaaaaaaaaaaaaaaaaaaaaaaaaaaaaaaaaaaaaaaaaaaaaaaaaaaaaaaaaaaaaaaaaaaaaaaaaaaaaaaaa",
"aaaaaaaaaaaaaaaaaaaaaaaaaaeklcfecfcefclkhaaaaaaaaaaaaaaaaaaaaaaaaaaaaaaaaaaaaaaaaaaaaaaaaaceffeceeeceffhjhaaaaaaaaaaaaaaaaaaaaaaaaaaaaaaaaaaaaaaaaaaaaaaaaeklcfecfcefclkhaaaaaaaaaaaaaaaaaaaaaaaaaaaaaaaaaaaaaaaaaaaaaaaaaceffeceeeceffhjhaaaaaaaaaaaaaaaaaaaaaaaaaaaaaaaaaaaaaaaaaaaaaaaaaaaaaaaaaaaaaaaaaaaaaaaaaaaaaaaaaaaaaaaaaaaaaaaaaaaaaaaaaaaaaaaaaaaaaaaaaaaaaaaaaaaaaaaaaaaaaaaaaaaaaa",
"aaaaaaaaaaaaaaaaaaaaaaacffcckllkkckkllkccffcaaaaaaaaaaaaaaaaaaaaaaaaaaaaaaaaaaaaaaaaaaaaaaeklcfecfcefclkhaaaaaaaaaaaaaaaaaaaaaaaaaaaaaaaaaaaaaaaaaaaaaacffcckllkkckkllkccffcaaaaaaaaaaaaaaaaaaaaaaaaaaaaaaaaaaaaaaaaaaaaaaeklcfecfcefclkhaaaaaaaaaaaaaaaaaaaaaaaaaaaaaaaaaaaaaaaaaaaaaaaaaaaaaaaaaaaaaaaaaaaaaaaaaaaaaaaaaaaaaaaaaaaaaaaaaaaaaaaaaaaaaaaaaaaaaaaaaaaaaaaaaaaaaaaaaaaaaaaaaaaaaaa",
"aaaaaaaaaaaaaaaaaaaaaaaaklccmnkocfcoknmcclkaaaaaaaaaaaaaaaaaaaaaaaaaaaaaaaaaaaaaaaaaaaacffcckllkkckkllkccffcaaaaaaaaaaaaaaaaaaaaaaaaaaaaaaaaaaaaaaaaaaaaklccmnkocfcoknmcclkaaaaaaaaaaaaaaaaaaaaaaaaaaaaaaaaaaaaaaaaaaaacffcckllkkckkllkccffcaaaaaaaaaaaaaaaaaaaaaaaaaaaaaaaaaaaaaaaaaaaaaaaaaaaaaaaaaaaaaaaaaaaaaaaaaaaaaaaaaaaaaaaaaaaaaaaaaaaaaaaaaaaaaaaaaaaaaaaaaaaaaaaaaaaaaaaaaaaaaaaaaaaa",
"aaaaaaaaaaaaaaaaaaaaaaaaackfckkcegeckkcfkcaaaaaaaaaaaaaaaaaaaaaaaaaaaaaaaaaaaaaaaaaaaaaaklccmnkocfcoknmcclkaaaaaaaaaaaaaaaaaaaaaaaaaaaaaaaaaaaaaaaaaaaaaackfckkcegeckkcfkcaaaaaaaaaaaaaaaaaaaaaaaaaaaaaaaaaaaaaaaaaaaaaaklccmnkocfcoknmcclkaaaaaaaaaaaaaaaaaaaaaaaaaaaaaaaaaaaaaaaaaaaaaaaaaaaaaaaaaaaaaaaaaaaaaaaaaaaaaaaaaaaaaaaaaaaaaaaaaaaaaaaaaaaaaaaaaaaaaaaaaaaaaaaaaaaaaaaaaaaaaaaaaaaaa",
"aaaaaaaaaaaaaaaaaaaaaaaaaclegfckckckcfgelcaaaaaaaaaaaaaaaaaaaaaaaaaaaaaaaaaaaaaaaaaaaaaaackfckkcegeckkcfkcaaaaaaaaaaaaaaaaaaaaaaaaaaaaaaaaaaaaaaaaaaaaaaaclegfckckckcfgelcaaaaaaaaaaaaaaaaaaaaaaaaaaaaaaaaaaaaaaaaaaaaaaackfckkcegeckkcfkcaaaaaaaaaaaaaaaaaaaaaaaaaaaaaaaaaaaaaaaaaaaaaaaaaaaaaaaaaaaaaaaaaaaaaaaaaaaaaaaaaaaaaaaaaaaaaaaaaaaaaaaaaaaaaaaaaaaaaaaaaaaaaaaaaaaaaaaaaaaaaaaaaaaaaa",
"aaaaaaaaaaaaaaaaaaaaaaaaaackeceeeceeecekcaaaaaaaaaaaaaaaaaaaaaaaaaaaaaaaaaaaaaaaaaaaaaaaaclegfckckckcfgelcaaaaaaaaaaaaaaaaaaaaaaaaaaaaaaaaaaaaaaaaaaaaaaaackeceeeceeecekcaaaaaaaaaaaaaaaaaaaaaaaaaaaaaaaaaaaaaaaaaaaaaaaaclegfckckckcfgelcaaaaaaaaaaaaaaaaaaaaaaaaaaaaaaaaaaaaaaaaaaaaaaaaaaaaaaaaaaaaaaaaaaaaaaaaaaaaaaaaaaaaaaaaaaaaaaaaaaaaaaaaaaaaaaaaaaaaaaaaaaaaaaaaaaaaaaaaaaaaaaaaaaaaaa",
"aaaaaaaaaaaaaaaaaaaaaaaaaacceeefgggfeeeccaaaaaaaaaaaaaaaaaaaaaaaaaaaaaaaaaaaaaaaaaaaaaaaaackeceeeceeecekcaaaaaaaaaaaaaaaaaaaaaaaaaaaaaaaaaaaaaaaaaaaaaaaaacceeefgggfeeeccaaaaaaaaaaaaaaaaaaaaaaaaaaaaaaaaaaaaaaaaaaaaaaaaackeceeeceeecekcaaaaaaaaaaaaaaaaaaaaaaaaaaaaaaaaaaaaaaaaaaaaaaaaaaaaaaaaaaaaaaaaaaaaaaaaaaaaaaaaaaaaaaaaaaaaaaaaaaaaaaaaaaaaaaaaaaaaaaaaaaaaaaaaaaaaaaaaaaaaaaaaaaaaaaa",
"aaaaaaaaaaaaaaaaaaaaaaaaaaceeekpppppkeeecaaaaaaaaaaaaaaaaaaaaaaaaaaaaaaaaaaaaaaaaaaaaaaaaacceeefgggfeeeccaaaaaaaaaaaaaaaaaaaaaaaaaaaaaaaaaaaaaaaaaaaaaaaaaceeekpppppkeeecaaaaaaaaaaaaaaaaaaaaaaaaaaaaaaaaaaaaaaaaaaaaaaaaacceeefgggfeeeccaaaaaaaaaaaaaaaaaaaaaaaaaaaaaaaaaaaaaaaaaaaaaaaaaaaaaaaaaaaaaaaaaaaaaaaaaaaaaaaaaaaaaaaaaaaaaaaaaaaaaaaaaaaaaaaaaaaaaaaaaaaaaaaaaaaaaaaaaaaaaaaaaaaaaaa",
"aaaaaaaaaaaaaaaaaaaaaqqqqdkeekprsqsrpkeekdqqqqqqqqqaaaaaaaaaaaaaaaaaaaaaaaaaaaaaaaaaaqqqqdceeekpppppkeeecdqqqqaaaaaaaaaaaaaaaaaaaaaaaaaaaaaaaaaaqqqqqqqqqdkeekprsqsrpkeekdqqqqaaaaaaaaaaaaaaaaaaaaaaaaaaaaaaaaaaaaaaaqqqqdceeekpppppkeeecdqqqqaaaaaaaaaaaaaaaaaaaaaaaaaaaaaaaaaaaaaaaaaaaaaaaaaaaaaaaaaaaaaaaaaaaaaaaaaaaaaaaaaaaaaaaaaaaaaaaaaaaaaaaaaaaaaaaaaaaaaaaaaaaaaaaaaaaaaaaaaaaaaaaaaa",
"aaaaaaaaaaaaaaaaaqqqqttttefcepupppppupecfetttttttttqqqqaaaaaaaaaaaaaaaaaaaaaaaaaqqqqqttttekeekprsqsrpkeekettttqqqqqaaaaaaaaaaaaaaaaaaaaaaaaaqqqqtttttttttefcepupppppupecfettttqqqqaaaaaaaaaaaaaaaaaaaaaaaaaaaaaaqqqqqttttekeekprsqsrpkeekettttqqqqqaaaaaaaaaaaaaaaaaaaaaaaaaaaaaaaaaaaaaaaaaaaaaaaaaaaaaaaaaaaaaaaaaaaaaaaaaaaaaaaaaaaaaaaaaaaaaaaaaaaaaaaaaaaaaaaaaaaaaaaaaaaaaaaaaaaaaaaaaaaaa",
"aaaaaaaaaaaaaaqqqttvvwwwvfekekpxyxyxpkekefvwwwvvtvvttttqqqaaaaaaaaaaaaaaaaaaqqqqtttvvwwwvfecepupppppupecefvwwwvvtttqqqqaaaaaaaaaaaaaaaaaaqqqttttvvtvvwwwvfekekpxyxyxpkekefvwwwvvttqqqaaaaaaaaaaaaaaaaaaaaaaaqqqqtttvvwwwvfecepupppppupecefvwwwvvtttqqqqaaaaaaaaaaaaaaaaaaaaaaaaaaaaaaaaaaaaaaaaaaaaaaaaaaaaaaaaaaaaaaaaaaaaaaaaaaaaaaaaaaaaaaaaaaaaaaaaaaaaaaaaaaaaaaaaaaaaaaaaaaaaaaaaaaaaaaaaa",
"aaaaaaaaaaaqqqtvttwwvvvvtecekeffgggffekecetvvvvwwqtttvwwvtqqaaaaaaaaaaaaaqqqttttvvwwvvvvteckekpxyxyxpkekcetvvvvwwvvttttqqqaaaaaaaaaaaaaqqtvwwvtttqwwvvvvtecekeffgggffekecetvvvvwwttvtqqqaaaaaaaaaaaaaaaaaqqqttttvvwwvvvvteckekpxyxyxpkekcetvvvvwwvvttttqqqaaaaaaaaaaaaaaaaaaaaaaaaaaaaaaaaaaaaaaaaaaaaaaaaaaaaaaaaaaaaaaaaaaaaaaaaaaaaaaaaaaaaaaaaaaaaaaaaaaaaaaaaaaaaaaaaaaaaaaaaaaaaaaaaaaaaaa",
"aaaaaaaaaqqtvvttvvqqttttteefekecfcfcekefeetttttqqwwwvtttttvtqaaaaaaaaaaqqtvwwvtttqqqttttteefkeffgggffekfeetttttqqqtttvwwvtqqaaaaaaaaaaqtvtttttvwwwqqttttteefekecfcfcekefeetttttqqvvttvvtqqaaaaaaaaaaaaaqqtvwwvtttqqqttttteefkeffgggffekfeetttttqqqtttvwwvtqqaaaaaaaaaaaaaaaaaaaaaaaaaaaaaaaaaaaaaaaaaaaaaaaaaaaaaaaaaaaaaaaaaaaaaaaaaaaaaaaaaaaaaaaaaaaaaaaaaaaaaaaaaaaaaaaaaaaaaaaaaaaaaaaaaaaa",
"aaaaaaaqqvtqtqqtvqvtqqqqqccccekkkkkkkeccccqqqqqtvqvtqqtqtvtvtqaaaaaaaaqtvvtqtqqtvwvtqqqqqcccckecfcfcekccccqqqqqtvwvtqqtqtvvtqaaaaaaaaqtvtvtqtqqtvqvtqqqqqccccekkkkkkkeccccqqqqqtvqvtqqtqtvqqaaaaaaaaaaqtvvtqtqqtvwvtqqqqqcccckecfcfcekccccqqqqqtvwvtqqtqtvvtqaaaaaaaaaaaaaaaaaaaaaaaaaaaaaaaaaaaaaaaaaaaaaaaaaaaaaaaaaaaaaaaaaaaaaaaaaaaaaaaaaaaaaaaaaaaaaaaaaaaaaaaaaaaaaaaaaaaaaaaaaaaaaaaaaaa",
"aaaaaaqtvqtvvvtqtwttvvwwwzfeeccceeeccceefzwwwvvttttqtvvvtqtttqaaaaaaaqtvtqtvvvtqtqttvvwwwzfeeckkkkkkkceefzwwwvvttqtqtvvvtqtvtqaaaaaaaqtttqtvvvtqttttvvwwwzfeeccceeeccceefzwwwvvttwtqtvvvtqvtqaaaaaaaaqtvtqtvvvtqtqttvvwwwzfeeckkkkkkkceefzwwwvvttqtqtvvvtqtvtqaaaaaaaaaaaaaaaaaaaaaaaaaaaaaaaaaaaaaaaaaaaaaaaaaaaaaaaaaaaaaaaaaaaaaaaaaaaaaaaaaaaaaaaaaaaaaaaaaaaaaaaaaaaaaaaaaaaaaaaaaaaaaaaaaa",
"aaaaaqtvttvvwwvtqqtttttttteeeefecccefeeeetttttttttqtvwwwvttqvtqaaaaaaqttttvwwvvtqttttttttteeeefecccefeeeetttttttttqtvwwvvttttqaaaaaaqtvqttvwwwvtqttttttttteeeefecccefeeeettttttttqqtvwwvvttvtqaaaaaaaqttttvvwwvtqttttttttteeeefecccefeeeetttttttttqtvvwwvttttqaaaaaaaaaaaaaaaaaaaaaaaaaaaaaaaaaaaaaaaaaaaaaaaaaaaaaaaaaaaaaaaaaaaaaaaaaaaaaaaaaaaaaaaaaaaaaaaaaaaaaaaaaaaaaaaaaaaaaaaaaaaaaaaaaa",
"aaaaaqtttvvvwwvtqtttvvvvvvAeeeeceeeceeeeAvvvvvvtttqtvvwwvvttttqaaaaaqtvqtvvwwvvtqtttvvvvvvAeeeeceeeceeeevvvvvvvtttqtvwwvvvtqvtqaaaaaqttttvvwwvvtqtttvvvvvvAeeeeceeeceeeevvvvvvvtttqtvwwvvvtttqaaaaaaqtvqtvvvwwvtqtttvvvvvvAeeeeceeeceeeeAvvvvvvtttqtvvwwvvtqvtqaaaaaaaaaaaaaaaaaaaaaaaaaaaaaaaaaaaaaaaaaaaaaaaaaaaaaaaaaaaaaaaaaaaaaaaaaaaaaaaaaaaaaaaaaaaaaaaaaaaaaaaaaaaaaaaaaaaaaaaaaaaaaaaaa",
"aaaaqtvqtvvwvvttqtvvvvwwwvtqBeeececeeeBqtvwwwvvvvqqttvvvwvttqtqaaaaaqttttvwvvvttqtvvvvwwwvtqBeeececeeeBqtvvvvvvvvtqttvvwvvttttqaaaaaqtqttvwvvvttqqvvvvwwwvtqBeeececeeeBqtvvvvvvvvtqttvvwvvtqvtqaaaaaqttttvvwvvttqtvvvvwwwvtqBeeececeeeBqtvwwwvvvvtqttvvvwvttttqaaaaaaaaaaaaaaaaaaaaaaaaaaaaaaaaaaaaaaaaaaaaaaaaaaaaaaaaaaaaaaaaaaaaaaaaaaaaaaaaaaaaaaaaaaaaaaaaaaaaaaaaaaaaaaaaaaaaaaaaaaaaaaaaa",
"aaaaqttttvvvvtttqttvvwwwwwwvvvqtttttqvvvwtnnnwvvtwvvttvvvtttstqaaaaaqtqttvvvvtttqqtvvwwwwwwvvvqtttttqvvvvtnnnvvvtqqtttvvvvttqtqaaaaaqtstttvvvttvvwtvvwwwwwwvvvqtttttqvvvvtnnnvvvttqtttvvvvttttqaaaaaqtqttvvvvtttqqtvvwwwwwwvvvqtttttqvvvwtnnnwvvtqqtttvvvvttqtqaaaaaaaaaaaaaaaaaaaaaaaaaaaaaaaaaaaaaaaaaaaaaaaaaaaaaaaaaaaaaaaaaaaaaaaaaaaaaaaaaaaaaaaaaaaaaaaaaaaaaaaaaaaaaaaaaaaaaaaaaaaaaaaaa",
"aaaaqtqtttttttttqqvvvvvwwwvvvvvtqtqtvvvvvqnnnvvvvssssqtttttqsqaaaaaaqtsttttttttvvwvvvvvwwwvvvvvtqtqtvvvvvqnnnvvvvwvvttttttttstqaaaaaaqsqtttttqssssvvvvvwwwvvvvvtqtqtvvvvvqnnnvvvvqqtttttttttqtqaaaaaqtsttttttttvvwvvvvvwwwvvvvvtqtqtvvvvvqnnnvvvvwvvttttttttstqaaaaaaaaaaaaaaaaaaaaaaaaaaaaaaaaaaaaaaaaaaaaaaaaaaaaaaaaaaaaaaaaaaaaaaaaaaaaaaaaaaaaaaaaaaaaaaaaaaaaaaaaaaaaaaaaaaaaaaaaaaaaaaaaa",
"aaaaqtsttttttttqvwqqqtvvvvtqqtqtttttqtqqtqqqttqqqvwvvtsssqqsttqaaaaaaqsqtvwvtqssssqqqttvvvtqqtqtttttqtqqtqqqttqqqssssqtvwvtqsqaaaaaaqttsqqssstvvwvqqqttvvvtqqtqtttttqtqqtqqqttqqqwvqttttttttstqaaaaaaqsqtvwvtqssssqqqttvvvtqqtqtttttqtqqtqqqttqqqssssqtvwvtqsqaaaaaaaaaaaaaaaaaaaaaaaaaaaaaaaaaaaaaaaaaaaaaaaaaaaaaaaaaaaaaaaaaaaaaaaaaaaaaaaaaaaaaaaaaaaaaaaaaaaaaaaaaaaaaaaaaaaaaaaaaaaaaaaaaa",
"aaaaaqsqtvwvtqssssvttttvvvvvvvttqtqttvvvvvvvvvttvsssqqtttttqtvtqaaaaqttsqqssstvvwvvttvvvvvvvvvttqtqttvvvvvvvvvttvvwvvtsssqqsttqaaaaqtvtqtttttqqsssvttvvvvvvvvvttqtqttvvvvvvvttttvssssqtvwvtqsqaaaaaaqttsqqssstvvwvvttvvvvvvvvvttqtqttvvvvvvvvvttvvwvvtsssqqsttqaaaaaaaaaaaaaaaaaaaaaaaaaaaaaaaaaaaaaaaaaaaaaaaaaaaaaaaaaaaaaaaaaaaaaaaaaaaaaaaaaaaaaaaaaaaaaaaaaaaaaaaaaaaaaaaaaaaaaaaaaaaaaaaaa",
"aaaaqttsqqssstvvwwwwvvvtttvvttqqtttqqttvvvvttqssqsqttvvwwvttqttqaaaqtvtqtttttqqsssqssqttvvvvttqqtttqqttvvvvttqssqsssqqtttttqtvtqaaaqttqttvwwvvttqsqssqttvvvvttqqtttqqttvvtttvvvwwwwvvtsssqqsttqaaaaqtvtqtttttqqsssqssqttvvvvttqqtttqqttvvvvttqssqsssqqtttttqtvtqaaaaaaaaaaaaaaaaaaaaaaaaaaaaaaaaaaaaaaaaaaaaaaaaaaaaaaaaaaaaaaaaaaaaaaaaaaaaaaaaaaaaaaaaaaaaaaaaaaaaaaaaaaaaaaaaaaaaaaaaaaaaaaaa",
"aaaqtvtqtttttqqssssssssssqqqqqtttvtttqqqqqsssqttqsttvvwwwwvtsqtqaaaqttqttvwwvvtttsqttqsssqqqqqtttvtttqqqqqsssqttqstttvvwwvttqttqaaaqtqstvwwwwvvttsqttqsssqqqqqtttvtttqqqqqssssssssssqqtttttqtvtqaaaqttqttvwwvvtttsqttqsssqqqqqtttvtttqqqqqsssqttqstttvvwwvttqttqaaaaaaaaaaaaaaaaaaaaaaaaaaaaaaaaaaaaaaaaaaaaaaaaaaaaaaaaaaaaaaaaaaaaaaaaaaaaaaaaaaaaaaaaaaaaaaaaaaaaaaaaaaaaaaaaaaaaaaaaaaaaaaaa",
"aaaqttqttvwwvvtttssqqtttttttvwwvtttvwwvvttttttqqsaqtvvvvwvvtstqaaaaqtqstvwwwwvvttssqqtttttttvwwvtttvwwvtttttttqqssttvvwwwwvtsqtqaaaaqtstvvwvvvvtqasqqttttttvvwwvtttvwwvtttttttqqsstttvvwwvttqttqaaaqtqstvwwwwvvttssqqtttttttvwwvtttvwwvtttttttqqssttvvwwwwvtsqtqaaaaaaaaaaaaaaaaaaaaaaaaaaaaaaaaaaaaaaaaaaaaaaaaaaaaaaaaaaaaaaaaaaaaaaaaaaaaaaaaaaaaaaaaaaaaaaaaaaaaaaaaaaaaaaaaaaaaaaaaaaaaaaaa",
"aaaqtqstvwwwwvvttsqtttqtvwwwvtttttttttvwwwvtqtttqaqtvvwwvvttqtqaaaaaqtstvvwvvvvtqaqtttqtvwwwvtttttttttvwwwvtqtttqaqtvvvvwvvtstqaaaaaqtqttvvwwvvtqaqtttqtvwwwvtttttttttvwwwvtqtttqsttvvwwwwvtsqtqaaaaqtstvvwvvvvtqaqtttqtvwwwvtttttttttvwwwvtqtttqaqtvvvvwvvtstqaaaaaaaaaaaaaaaaaaaaaaaaaaaaaaaaaaaaaaaaaaaaaaaaaaaaaaaaaaaaaaaaaaaaaaaaaaaaaaaaaaaaaaaaaaaaaaaaaaaaaaaaaaaaaaaaaaaaaaaaaaaaaaaaa",
"aaaaqtstvvwvvvvtqaqqqttvvttttqqqsssqqqqqqtttvttqqaqqtttttttqqtqaaaaaqtqttvvwwvvtqaqqqttvvttttqqqsssqqqttttvvttqqqaqtvvwwvvttqtqaaaaaqtqqtttttttqqaqqttvtttqqqqqqsssqqqttttvvttqqqaqtvvvvwvvtstqaaaaaqtqttvvwwvvtqaqqqttvvttttqqqsssqqqttttvvttqqqaqtvvwwvvttqtqaaaaaaaaaaaaaaaaaaaaaaaaaaaaaaaaaaaaaaaaaaaaaaaaaaaaaaaaaaaaaaaaaaaaaaaaaaaaaaaaaaaaaaaaaaaaaaaaaaaaaaaaaaaaaaaaaaaaaaaaaaaaaaaaa",
"aaaaqtqttwwwwwvtqaaqttvttqqssssrrrrrsssssssqtqsqaaaqssssqqsstqaaaaaaqtqqtqqssssqaaaqttvttqqssssrrrrrssssqqttvttqaaaqssssqqtqqtqaaaaaaqtssqqssssqaaaqsqtqsssssssrrrrrssssqqttvttqaaqtvwwwwwttqtqaaaaaqtqqtqqssssqaaaqttvttqqssssrrrrrssssqqttvttqaaaqssssqqtqqtqaaaaaaaaaaaaaaaaaaaaaaaaaaaaaaaaaaaaaaaaaaaaaaaaaaaaaaaaaaaaaaaaaaaaaaaaaaaaaaaaaaaaaaaaaaaaaaaaaaaaaaaaaaaaaaaaaaaaaaaaaaaaaaaaa",
"aaaaqtqwvqqsssqqaaahsqtqsssqqqqqqsqqttqqqsssssshaaastvwvttqtttqaaaaaaqtssttvwvtsaaahsqtqsssqqqqqqsqqqqqqsssqtqshaaastvwvttsstqaaaaaaqtttqttvwvtsaaahssssssqqqttqqsqqqqqqsssqtqshaaaqqsssqqvwqtqaaaaaaqtssttvwvtsaaahsqtqsssqqqqqqsqqqqqqsssqtqshaaastvwvttsstqaaaaaaaaaaaaaaaaaaaaaaaaaaaaaaaaaaaaaaaaaaaaaaaaaaaaaaaaaaaaaaaaaaaaaaaaaaaaaaaaaaaaaaaaaaaaaaaaaaaaaaaaaaaaaaaaaaaaaaaaaaaaaaaaaa",
"aaaaaqvssqtvwvtsaaahhhhhsqqqttvvtqtvvvttqqshhhhhaaqqsssssqtvttqaaaaaqtttqqsssssqaaahhhhhsqqqttvvtqtvvttqqqshhhhhaaaqsssssqqtttqaaaaaqttvtqsssssqqaahhhhhsqqttvvvtqtvvttqqqshhhhhaaastvwvtqssvqaaaaaaqtttqqsssssqaaahhhhhsqqqttvvtqtvvttqqqshhhhhaaaqsssssqqtttqaaaaaaaaaaaaaaaaaaaaaaaaaaaaaaaaaaaaaaaaaaaaaaaaaaaaaaaaaaaaaaaaaaaaaaaaaaaaaaaaaaaaaaaaaaaaaaaaaaaaaaaaaaaaaaaaaaaaaaaaaaaaaaaaa",
"aaaaqtqqtvvvttsqaahhdhdhhhhhhhChhdhhChhhhhhhdhdhhaktvtqttvvtttkaaaaaqttvtttqqvvtqahhdhdhhhhhhhChhdhhChhhhhhhdhdhhaqtvvqqtttvttqaaaaaktttvvttqtvtkahhdhdhhhhhhhChhdhhChhhhhhhdhdhhaaqsttvvvtqqtqaaaaaqttvtttqqvvtqahhdhdhhhhhhhChhdhhChhhhhhhdhdhhaqtvvqqtttvttqaaaaaaaaaaaaaaaaaaaaaaaaaaaaaaaaaaaaaaaaaaaaaaaaaaaaaaaaaaaaaaaaaaaaaaaaaaaaaaaaaaaaaaaaaaaaaaaaaaaaaaaaaaaaaaaaaaaaaaaaaaaaaaaaa",
"aaaaqqtvvvttvvtqaahhhjhhhhhhhhDhhdhhDhhhhhhhhjhhhacectqttvvtkckaaaaaqtteffeekefeqahhhjhhhhhhhhDhhdhhDhhhhhhhhjhhhaqefekeeffettqaaaaakcktvvttqtcecahhhjhhhhhhhhDhhdhhDhhhhhhhhjhhhaaqtvvttvvvtqqaaaaaqtteffeekefeqahhhjhhhhhhhhDhhdhhDhhhhhhhhjhhhaqefekeeffettqaaaaaaaaaaaaaaaaaaaaaaaaaaaaaaaaaaaaaaaaaaaaaaaaaaaaaaaaaaaaaaaaaaaaaaaaaaaaaaaaaaaaaaaaaaaaaaaaaaaaaaaaaaaaaaaaaaaaaaaaaaaaaaaaa",
"aaaaqqtvvtcekcvtqahEhdhqhhhhhhFhhhhhFhhhhhhqhdhEhacefkeeffeecckaaaaaqeeeffeecefecahEhdhqhhhhhhFhhhhhFhhhhhhqhdhEhacefeceeffeeeqaaaaakcceeffeekfecahEhdhqhhhhhhFhhhhhFhhhhhhqhdhEhaqtvckectvvtqqaaaaaqeeeffeecefecahEhdhqhhhhhhFhhhhhFhhhhhhqhdhEhacefeceeffeeeqaaaaaaaaaaaaaaaaaaaaaaaaaaaaaaaaaaaaaaaaaaaaaaaaaaaaaaaaaaaaaaaaaaaaaaaaaaaaaaaaaaaaaaaaaaaaaaaaaaaaaaaaaaaaaaaaaaaaaaaaaaaaaaaaa",
"aaaaqtvcffeekefeqahhhhhvttvvttqqtvtqqtvvvvvvhhhhhaacfceefeeccckaaaaaceeeeffeecfecahhhhhvtttqqtttvvvtttqqtttvhhhhhacefceeffeeeecaaaaakccceefeecfcaahhhhhvvvvvvtqqtvtqqttvvttvhhhhhaqefekeeffcvtqaaaaaceeeeffeecfecahhhhhvtttqqtttvvvtttqqtttvhhhhhacefceeffeeeecaaaaaaaaaaaaaaaaaaaaaaaaaaaaaaaaaaaaaaaaaaaaaaaaaaaaaaaaaaaaaaaaaaaaaaaaaaaaaaaaaaaaaaaaaaaaaaaaaaaaaaaaaaaaaaaaaaaaaaaaaaaaaaaaa",
"aaaaqceeffeecefecaaqhhvtttvwvttqstsqtvvvvvvvvhhqaaakeceeeeecckaaaaaaceeeeefeecfcaaaqhhwvttvvttqqtttqqttvvtwvwhhqaaacfceefeeeeecaaaaaakcceeeeecekaaaqhhvvvvvvvvtqstsqttvwvtttvhhqaacefeceeffeecqaaaaaceeeeefeecfcaaaqhhwvwtvvttqqtttqqttvvttvwhhqaaacfceefeeeeecaaaaaaaaaaaaaaaaaaaaaaaaaaaaaaaaaaaaaaaaaaaaaaaaaaaaaaaaaaaaaaaaaaaaaaaaaaaaaaaaaaaaaaaaaaaaaaaaaaaaaaaaaaaaaaaaaaaaaaaaaaaaaaaaa",
"aaaaceeeeffeecfecaaqtvvtqtvwvvttqsqttvwwvvvwwvtqaaakceeeeeccckaaaaaaaceeeeeeececaaaqtvvtttvwvttqsssqtwwwvwwwvvtqaaaceceeeeeeecaaaaaaakccceeeeeckaaaqtvwwvvvwwvttqsqttvvwvtqtvvtqaacefceeffeeeecaaaaaaceeeeeeececaaaqtvvwwwvwwwtqsssqttvwvtttvvtqaaaceceeeeeeecaaaaaaaaaaaaaaaaaaaaaaaaaaaaaaaaaaaaaaaaaaaaaaaaaaaaaaaaaaaaaaaaaaaaaaaaaaaaaaaaaaaaaaaaaaaaaaaaaaaaaaaaaaaaaaaaaaaaaaaaaaaaaaaaaa",
"aaaaceeeeefeecfcaaaqtvttqtvvvvttqaqtvwwwwvtvwwtqaaaccceeeecckkaaaaaaaceeeeecccccaaaqttvtqtvwvvttqaqtwGGGvwGGwvtqaaaccccceeeeecaaaaaaakkcceeeecccaaaqtwwvtvwwwwvtqaqttvvvvtqttvtqaaacfceefeeeeecaaaaaaceeeeecccccaaaqtvwGGwvGGGwtqaqttvvwvtqtvttqaaaccccceeeeecaaaaaaaaaaaaaaaaaaaaaaaaaaaaaaaaaaaaaaaaaaaaaaaaaaaaaaaaaaaaaaaaaaaaaaaaaaaaaaaaaaaaaaaaaaaaaaaaaaaaaaaaaaaaaaaaaaaaaaaaaaaaaaaaaa",
"aaaaaceeeeeecckkaaaqtttttttvvvtqaaaqvvwwvvvvwttqaaceeeeeecckkaaaaaaaaceeecceeeeecaaqqttttqqtvvvtqaqtGwGwvvwwwvtqaaceeeeecceeecaaaaaaaakkcceeeeeecaaqttwvvvvwwvvqaaaqtvvvtttttttqaaakkcceeeeeecaaaaaaaceeecceeeeecaaqtvwwwvvwGwGtqaqtvvvtqqttttqqaaceeeeecceeecaaaaaaaaaaaaaaaaaaaaaaaaaaaaaaaaaaaaaaaaaaaaaaaaaaaaaaaaaaaaaaaaaaaaaaaaaaaaaaaaaaaaaaaaaaaaaaaaaaaaaaaaaaaaaaaaaaaaaaaaaaaaaaaaaa",
"aaaaaceeeecceeeecaaqtqtvvtqtvttqaaaqtvvvtwGwvqtqaceeeeeeccckkaaaaaaaaaceceeefecfecaaqqttvvtqtvttqaaqwwwwvtvwwttqacefcefeeececaaaaaaaaakkccceeeeeecaqtqvwGwtvvvtqaaaqttvtqtvvtqtqaaceeeecceeeecaaaaaaaaceceeefecfecaqttwwvtvwwwwqaaqttvtqtvvttqqaacefcefeeececaaaaaaaaaaaaaaaaaaaaaaaaaaaaaaaaaaaaaaaaaaaaaaaaaaaaaaaaaaaaaaaaaaaaaaaaaaaaaaaaaaaaaaaaaaaaaaaaaaaaaaaaaaaaaaaaaaaaaaaaaaaaaaaaaaa",
"aaaaacceeceefecfecaqtstvwvtqttqqaaaqqtvtwwwwwstqaccfceefcekckaaaaaaaaaceeeeefeceecaaqtstvwvtqttqqaaqvwwvvvvwtttqaceecefeeeeecaaaaaaaaakckecfeecfccaqtswwwwwtvtqqaaaqqttqtvwvtstqacefcefeeceeccaaaaaaaaceeeeefeceecaqtttwvvvvwwvqaaqqttqtvwvtstqaaceecefeeeeecaaaaaaaaaaaaaaaaaaaaaaaaaaaaaaaaaaaaaaaaaaaaaaaaaaaaaaaaaaaaaaaaaaaaaaaaaaaaaaaaaaaaaaaaaaaaaaaaaaaaaaaaaaaaaaaaaaaaaaaaaaaaaaaaaaa",
"aaaaaaceeefeffecckaaqsttvvtqqqtqaaaqtqqqvwwvtsqaakeekeeekekekaaaaaaaaaceeefeffeccaaaaqsqtvvtqqqtqaaqvvvtGGGvqvtqaacceffefeeecaaaaaaaaakekekeeekeekaaqstvwwvqqqtqaaaqtqqqtvvttsqaakcceffefeeecaaaaaaaaaceeefeffeccaaqtvqvGGGtvvvqaaqtqqqtvvtqsqaaaacceffefeeecaaaaaaaaaaaaaaaaaaaaaaaaaaaaaaaaaaaaaaaaaaaaaaaaaaaaaaaaaaaaaaaaaaaaaaaaaaaaaaaaaaaaaaaaaaaaaaaaaaaaaaaaaaaaaaaaaaaaaaaaaaaaaaaaaaa",
"aaaaaaceeefceeffeckaqqstttqstttqaaaqtttsqtttsqqaakkceffckckckaaaaaaaaaceeefceeffecaaaqqsqttqsttqqaaqtvtGwGwGsvqaaceffeecfeeecaaaaaaaaakckckcffeckkaaqqstttqstttqaaaqtttsqtttsqqakceffeecfeeecaaaaaaaaaceeefceeffecaaqvsGwGwGtvtqaaqqttsqttqsqqaaaceffeecfeeecaaaaaaaaaaaaaaaaaaaaaaaaaaaaaaaaaaaaaaaaaaaaaaaaaaaaaaaaaaaaaaaaaaaaaaaaaaaaaaaaaaaaaaaaaaaaaaaaaaaaaaaaaaaaaaaaaaaaaaaaaaaaaaaaaaa",
"aaaaaaceeeeeeeeeeecactqssqqvwvtcaaaqtvvtqqssqtqaakceeeeckkkkaaaaaaaaaacefceekkkeecaaaqtqssqqttqqqaaqqqqvwwvtstqaaceekkkeecfecaaaaaaaaaakkkkceeeeckaaqtqssqqtvvtqaaactvwvqqssqtcaceeeeeeeeeeecaaaaaaaaacefceekkkeecaaqtstvwwvqqqqaaqqqttqqssqtqaaaceekkkeecfecaaaaaaaaaaaaaaaaaaaaaaaaaaaaaaaaaaaaaaaaaaaaaaaaaaaaaaaaaaaaaaaaaaaaaaaaaaaaaaaaaaaaaaaaaaaaaaaaaaaaaaaaaaaaaaaaaaaaaaaaaaaaaaaaaaa",
"aaaaaaacefcecklkkckaaceqvtqtveecaaaqtvwvtqqtvtqaaakkkkkkkaaaaaaaaaaaaaaceekkeeekkaaaaaqqqqttqssqaaaqttsqtttsqtqaaakkeeekkeecaaaaaaaaaaaaaakkkkkkkaaaqtvtqqtvwvtqaaaceevtqtvqecaakckklkcecfecaaaaaaaaaaaceekkeeekkaaaqtqstttqsttqaaaqssqttqqqqaaaaakkeeekkeecaaaaaaaaaaaaaaaaaaaaaaaaaaaaaaaaaaaaaaaaaaaaaaaaaaaaaaaaaaaaaaaaaaaaaaaaaaaaaaaaaaaaaaaaaaaaaaaaaaaaaaaaaaaaaaaaaaaaaaaaaaaaaaaaaaaa",
"aaaaaaakceklkccckkaaaceceeceeeccaaaactvvtqtvtecaaaaaaaaaaaaaaaaaaaaaaaaakkkkkkkaaaaaaaakqqqqqqkcaaaqtvtqqssqttqaaaaakkkkkkkaaaaaaaaaaaaaaaaaaaaaaaaacetvtqtvvtcaaaacceeeceececaaakkcccklkeckaaaaaaaaaaaakkkkkkkaaaaaqttqssqqtvtqaaackqqqqqqkaaaaaaaakkkkkkkaaaaaaaaaaaaaaaaaaaaaaaaaaaaaaaaaaaaaaaaaaaaaaaaaaaaaaaaaaaaaaaaaaaaaaaaaaaaaaaaaaaaaaaaaaaaaaaaaaaaaaaaaaaaaaaaaaaaaaaaaaaaaaaaaaaaa",
"aaaaaaaakcccckkkaaaaakccefeeeeecaaaacceeecfececaaaaaaaaaaaaaaaaaaaaaaaaaaaaaaaaaaaaaaaaklklklckcaaacttvttvwtttaaaaaaaaaaaaaaaaaaaaaaaaaaaaaaaaaaaaaacecefceeeccaaaaceeeeefecckaaaaakkkcccckaaaaaaaaaaaaaaaaaaaaaaaaaatttwvttvttcaaackclklklkaaaaaaaaaaaaaaaaaaaaaaaaaaaaaaaaaaaaaaaaaaaaaaaaaaaaaaaaaaaaaaaaaaaaaaaaaaaaaaaaaaaaaaaaaaaaaaaaaaaaaaaaaaaaaaaaaaaaaaaaaaaaaaaaaaaaaaaaaaaaaaaaaaaa",
"aaaaaaaaakkkkkaaaaaaakceeffeeeccaaaaceeeeefececaaaaaaaaaaaaaaaaaaaaaaaaaaaaaaaaaaaaaaaaclklclcccaaacevvtqvvtqcaaaaaaaaaaaaaaaaaaaaaaaaaaaaaaaaaaaaaacecefeeeeecaaaacceeeffeeckaaaaaaakkkkkaaaaaaaaaaaaaaaaaaaaaaaaaaacqtvvqtvvecaaaccclclklcaaaaaaaaaaaaaaaaaaaaaaaaaaaaaaaaaaaaaaaaaaaaaaaaaaaaaaaaaaaaaaaaaaaaaaaaaaaaaaaaaaaaaaaaaaaaaaaaaaaaaaaaaaaaaaaaaaaaaaaaaaaaaaaaaaaaaaaaaaaaaaaaaaaa",
"aaaaaaaaaaaaaaaaaaaaaccefeeeeeecaaaacceefffecccaaaaaaaaaaaaaaaaaaaaaaaaaaaaaaaaaaaaaaaacklkkkeecaaacceeeceececaaaaaaaaaaaaaaaaaaaaaaaaaaaaaaaaaaaaaacccefffeeccaaaaceeeeeefeccaaaaaaaaaaaaaaaaaaaaaaaaaaaaaaaaaaaaaaaceceeceeeccaaaceekkklkcaaaaaaaaaaaaaaaaaaaaaaaaaaaaaaaaaaaaaaaaaaaaaaaaaaaaaaaaaaaaaaaaaaaaaaaaaaaaaaaaaaaaaaaaaaaaaaaaaaaaaaaaaaaaaaaaaaaaaaaaaaaaaaaaaaaaaaaaaaaaaaaaaaaa",
"aaaaaaaaaaaaaaaaaaaacceeeeeefeecaaaaceeeffffeccaaaaaaaaaaaaaaaaaaaaaaaaaaaaaaaaaaaaaaaakclkclkccaaaceeeeeeececaaaaaaaaaaaaaaaaaaaaaaaaaaaaaaaaaaaaaacceffffeeecaaaaceefeeeeeeccaaaaaaaaaaaaaaaaaaaaaaaaaaaaaaaaaaaaaaceceeeeeeecaaaccklcklckaaaaaaaaaaaaaaaaaaaaaaaaaaaaaaaaaaaaaaaaaaaaaaaaaaaaaaaaaaaaaaaaaaaaaaaaaaaaaaaaaaaaaaaaaaaaaaaaaaaaaaaaaaaaaaaaaaaaaaaaaaaaaaaaaaaaaaaaaaaaaaaaaaaa",
"aaaaaaaaaaaaaaaaaaaceeeceeceeecaaaaaceeeeeeeeccaaaaaaaaaaaaaaaaaaaaaaaaaaaaaaaaaaaaaaaaakakeakecaaacceefffeeccaaaaaaaaaaaaaaaaaaaaaaaaaaaaaaaaaaaaaacceeeeeeeecaaaaaceeeceeceeecaaaaaaaaaaaaaaaaaaaaaaaaaaaaaaaaaaaaacceefffeeccaaacekaekakaaaaaaaaaaaaaaaaaaaaaaaaaaaaaaaaaaaaaaaaaaaaaaaaaaaaaaaaaaaaaaaaaaaaaaaaaaaaaaaaaaaaaaaaaaaaaaaaaaaaaaaaaaaaaaaaaaaaaaaaaaaaaaaaaaaaaaaaaaaaaaaaaaaaa",
"aaaaaaaaaaaaaaaaaacfcfcfecfeeckaaaaaceefefeeeecaaaaaaaaaaaaaaaaaaaaaaaaaaaaaaaaaaaaaaaaaaakcakcaaaaceeeefffeecaaaaaaaaaaaaaaaaaaaaaaaaaaaaaaaaaaaaaaceeeefefeecaaaaakceefcefcfcfcaaaaaaaaaaaaaaaaaaaaaaaaaaaaaaaaaaaaceefffeeeecaaaackackaaaaaaaaaaaaaaaaaaaaaaaaaaaaaaaaaaaaaaaaaaaaaaaaaaaaaaaaaaaaaaaaaaaaaaaaaaaaaaaaaaaaaaaaaaaaaaaaaaaaaaaaaaaaaaaaaaaaaaaaaaaaaaaaaaaaaaaaaaaaaaaaaaaaaaa",
"aaaaaaaaaaaaaaaaaacekekeekeeecaaaaaaeeeceecfeecaaaaaaaaaaaaaaaaaaaaaaaaaaaaaaaaaaaaaaaaaaaaaaaaaaaaceeeeeeeeecaaaaaaaaaaaaaaaaaaaaaaaaaaaaaaaaaaaaaaceefceeceeeaaaaaaceeekeekekecaaaaaaaaaaaaaaaaaaaaaaaaaaaaaaaaaaaaceeeeeeeeecaaaaaaaaaaaaaaaaaaaaaaaaaaaaaaaaaaaaaaaaaaaaaaaaaaaaaaaaaaaaaaaaaaaaaaaaaaaaaaaaaaaaaaaaaaaaaaaaaaaaaaaaaaaaaaaaaaaaaaaaaaaaaaaaaaaaaaaaaaaaaaaaaaaaaaaaaaaaaaaa",
"aaaaaaaaaaaaaaaaaaacacaccacccaaaaaaacefecefcfcfcaaaaaaaaaaaaaaaaaaaaaaaaaaaaaaaaaaaaaaaaaaaaaaaaaaaceeeceeceeecaaaaaaaaaaaaaaaaaaaaaaaaaaaaaaaaaaaacfcfcfecefecaaaaaaacccaccacacaaaaaaaaaaaaaaaaaaaaaaaaaaaaaaaaaaaaceeeceeceeecaaaaaaaaaaaaaaaaaaaaaaaaaaaaaaaaaaaaaaaaaaaaaaaaaaaaaaaaaaaaaaaaaaaaaaaaaaaaaaaaaaaaaaaaaaaaaaaaaaaaaaaaaaaaaaaaaaaaaaaaaaaaaaaaaaaaaaaaaaaaaaaaaaaaaaaaaaaaaaaa",
"aaaaaaaaaaaaaaaaaaaaaaaaaaaaaaaaaaaaceeekeekekecaaaaaaaaaaaaaaaaaaaaaaaaaaaaaaaaaaaaaaaaaaaaaaaaaaaacefecefcfcfcaaaaaaaaaaaaaaaaaaaaaaaaaaaaaaaaaaacekekeekeeecaaaaaaaaaaaaaaaaaaaaaaaaaaaaaaaaaaaaaaaaaaaaaaaaaaaacfcfcfecefecaaaaaaaaaaaaaaaaaaaaaaaaaaaaaaaaaaaaaaaaaaaaaaaaaaaaaaaaaaaaaaaaaaaaaaaaaaaaaaaaaaaaaaaaaaaaaaaaaaaaaaaaaaaaaaaaaaaaaaaaaaaaaaaaaaaaaaaaaaaaaaaaaaaaaaaaaaaaaaaaa",
"aaaaaaaaaaaaaaaaaaaaaaaaaaaaaaaaaaaaacccaccacacaaaaaaaaaaaaaaaaaaaaaaaaaaaaaaaaaaaaaaaaaaaaaaaaaaaaaceeekeekekecaaaaaaaaaaaaaaaaaaaaaaaaaaaaaaaaaaaacacaccacccaaaaaaaaaaaaaaaaaaaaaaaaaaaaaaaaaaaaaaaaaaaaaaaaaaaaacekekeekeeecaaaaaaaaaaaaaaaaaaaaaaaaaaaaaaaaaaaaaaaaaaaaaaaaaaaaaaaaaaaaaaaaaaaaaaaaaaaaaaaaaaaaaaaaaaaaaaaaaaaaaaaaaaaaaaaaaaaaaaaaaaaaaaaaaaaaaaaaaaaaaaaaaaaaaaaaaaaaaaaaa",
"aaaaaaaaaaaaaaaaaaaaaaaaaaaaaaaaaaaaaaaaaaaaaaaaaaaaaaaaaaaaaaaaaaaaaaaaaaaaaaaaaaaaaaaaaaaaaaaaaaaaacccaccacacaaaaaaaaaaaaaaaaaaaaaaaaaaaaaaaaaaaaaaaaaaaaaaaaaaaaaaaaaaaaaaaaaaaaaaaaaaaaaaaaaaaaaaaaaaaaaaaaaaaaacacaccacccaaaaaaaaaaaaaaaaaaaaaaaaaaaaaaaaaaaaaaaaaaaaaaaaaaaaaaaaaaaaaaaaaaaaaaaaaaaaaaaaaaaaaaaaaaaaaaaaaaaaaaaaaaaaaaaaaaaaaaaaaaaaaaaaaaaaaaaaaaaaaaaaaaaaaaaaaaaaaaaaaa",
"aaaaaaaaaaaaaaaaaaaaaaaaaaaaaaaaaaaaaaaaaaaaaaaaaaaaaaaaaaaaaaaaaaaaaaaaaaaaaaaaaaaaaaaaaaaaaaaaaaaaaaaaaaaaaaaaaaaaaaaaaaaaaaaaaaaaaaaaaaaaaaaaaaaaaaaaaaaaaaaaaaaaaaaaaaaaaaaaaaaaaaaaaaaaaaaaaaaaaaaaaaaaaaaaaaaaaaaaaaaaaaaaaaaaaaaaaaaaaaaaaaaaaaaaaaaaaaaaaaaaaaaaaaaaaaaaaaaaaaaaaaaaaaaaaaaaaaaaaaaaaaaaaaaaaaaaaaaaaaaaaaaaaaaaaaaaaaaaaaaaaaaaaaaaaaaaaaaaaaaaaaaaaaaaaaaaaaaaaaaaaaaa",
"aaaaaaaaaaaaaaaaaaaaaaaaaaaaaaaaaaaaaaaaaaaaaaaaaaaaaaaaaaaaaaaaaaaaaaaaaaaaaaaaaaaaaaaaaaaaaaaaaaaaaaaaaaaaaaaaaaaaaaaaaaaaaaaaaaaaaaaaaaaaaaaaaaaaaaaaaaaaaaaaaaaaaaaaaaaaaaaaaaaaaaaaaaaaaaaaaaaaaaaaaaaaaaaaaaaaaaaaaaaaaaaaaaaaaaaaaaaaaaaaaaaaaaaaaaaaaaaaaaaaaaaaaaaaaaaaaaaaaaaaaaaaaaaaaaaaaaaaaaaaaaaaaaaaaaaaaaaaaaaaaaaaaaaaaaaaaaaaaaaaaaaaaaaaaaaaaaaaaaaaaaaaaaaaaaaaaaaaaaaaaaaa",
"aaaaaaaaaaaaaaaaaaaaaaaaaaaaaaaaaaaaaaaaaaaaaaaaaaaaaaaaaaaaaaaaaaaaaaaaaaaaaaaaaaaaaaaaaaaaaaaaaaaaaaaaaaaaaaaaaaaaaaaaaaaaaaaaaaaaaaaaaaaaaaaaaaaaaaaaaaaaaaaaaaaaaaaaaaaaaaaaaaaaaaaaaaaaaaaaaaaaaaaaaaaaaaaaaaaaaaaaaaaaaaaaaaaaaaaaaaaaaaaaaaaaaaaaaaaaaaaaaaaaaaaaaaaaaaaaaaaaaaaaaaaaaaaaaaaaaaaaaaaaaaaaaaaaaaaaaaaaaaaaaaaaaaaaaaaaaaaaaaaaaaaaaaaaaaaaaaaaaaaaaaaaaaaaaaaaaaaaaaaaaaaa",
"aaaaaaaaaaaaaaaaaaaaaaaaaaaaaaaaaaaaaaaaaaaaaaaaaaaaaaaaaaaaaaaaaaaaaaaaaaaaaaaaaaaaaaaaaaaaaaaaaaaaaaaaaaaaaaaaaaaaaaaaaaaaaaaaaaaaaaaaaaaaaaaaaaaaaaaaaaaaaaaaaaaaaaaaaaaaaaaaaaaaaaaaaaaaaaaaaaaaaaaaaaaaaaaaaaaaaaaaaaaaaaaaaaaaaaaaaaaaaaaaaaaaaaaaaaaaaaaaaaaaaaaaaaaaaaaaaaaaaaaaaaaaaaaaaaaaaaaaaaaaaaaaaaaaaaaaaaaaaaaaaaaaaaaaaaaaaaaaaaaaaaaaaaaaaaaaaaaaaaaaaaaaaaaaaaaaaaaaaaaaaaaa",
"aaaaaaaaaaaaaaaaaaaaaaaaaaaaaaaaaaaaaaaaaaaaaaaaaaaaaaaaaaaaaaaaaaaaaaaaaaaaaaaaaaaaaaaaaaaaaaaaaaaaaaaaaaaaaaaaaaaaaaaaaaaaaaaaaaaaaaaaaaaaaaaaaaaaaaaaaaaaaaaaaaaaaaaaaaaaaaaaaaaaaaaaaaaaaaaaaaaaaaaaaaaaaaaaaaaaaaaaaaaaaaaaaaaaaaaaaaaaaaaaaaaaaaaaaaaaaaaaaaaaaaaaaaaaaaaaaaaaaaaaaaaaaaaaaaaaaaaaaaaaaaaaaaaaaaaaaaaaaaaaaaaaaaaaaaaaaaaaaaaaaaaaaaaaaaaaaaaaaaaaaaaaaaaaaaaaaaaaaaaaaaaa",
"aaaaaaaaaaaaaaaaaaaaaaaaaaaaaaaaaaaaaaaaaaaaaaaaaaaaaaaaaaaaaaaaaaaaaaaaaaaaaaaaaaaaaaaaaaaaaaaaaaaaaaaaaaaaaaaaaaaaaaaaaaaaaaaaaaaaaaaaaaaaaaaaaaaaaaaaaaaaaaaaaaaaaaaaaaaaaaaaaaaaaaaaaaaaaaaaaaaaaaaaaaaaaaaaaaaaaaaaaaaaaaaaaaaaaaaaaaaaaaaaaaaaaaaaaaaaaaaaaaaaaaaaaaaaaaaaaaaaaaaaaaaaaaaaaaaaaaaaaaaaaaaaaaaaaaaaaaaaaaaaaaaaaaaaaaaaaaaaaaaaaaaaaaaaaaaaaaaaaaaaaaaaaaaaaaaaaaaaaaaaaaaa",
"aaaaaaaaaaaaaaaaaaaaaaaaaaaaaaaaaaaaaaaaaaaaaaaaaaaaaaaaaaaaaaaaaaaaaaaaaaaaaaaaaaaaaaaaaaaaaaaaaaaaaaaaaaaaaaaaaaaaaaaaaaaaaaaaaaaaaaaaaaaaaaaaaaaaaaaaaaaaaaaaaaaaaaaaaaaaaaaaaaaaaaaaaaaaaaaaaaaaaaaaaaaaaaaaaaaaaaaaaaaaaaaaaaaaaaaaaaaaaaaaaaaaaaaaaaaaaaaaaaaaaaaaaaaaaaaaaaaaaaaaaaaaaaaaaaaaaaaaaaaaaaaaaaaaaaaaaaaaaaaaaaaaaaaaaaaaaaaaaaaaaaaaaaaaaaaaaaaaaaaaaaaaaaaaaaaaaaaaaaaaaaaa",
"aaaaaaaaaaaaaaaaaaaaaaaaaaaaaaaaaaaaaaaaaaaaaaaaaaaaaaaaaaaaaaaaaaaaaaaaaaaaaaaaaaaaaaaaaaaaaaaaaaaaaaaaaaaaaaaaaaaaaaaaaaaaaaaaaaaaaaaaaaaaaaaaaaaaaaaaaaaaaaaaaaaaaaaaaaaaaaaaaaaaaaaaaaaaaaaaaaaaaaaaaaaaaaaaaaaaaaaaaaaaaaaaaaaaaaaaaaaaaaaaaaaaaaaaaaaaaaaaaaaaaaaaaaaaaaaaaaaaaaaaaaaaaaaaaaaaaaaaaaaaaaaaaaaaaaaaaaaaaaaaaaaaaaaaaaaaaaaaaaaaaaaaaaaaaaaaaaaaaaaaaaaaaaaaaaaaaaaaaaaaaaaa",
"aaaaaaaaaaaaaaaaaaaaaaaaaaaaaaaaaaaaaaaaaaaaaaaaaaaaaaaaaaaaaaaaaaaaaaaaaaaaaaaaaaaaaaaaaaaaaaaaaaaaaaaaaaaaaaaaaaaaaaaaaaaaaaaaaaaaaaaaaaaaaaaaaaaaaaaaaaaaaaaaaaaaaaaaaaaaaaaaaaaaaaaaaaaaaaaaaaaaaaaaaaaaaaaaaaaaaaaaaaaaaaaaaaaaaaaaaaaaaaaaaaaaaaaaaaaaaaaaaaaaaaaaaaaaaaaaaaaaaaaaaaaaaaaaaaaaaaaaaaaaaaaaaaaaaaaaaaaaaaaaaaaaaaaaaaaaaaaaaaaaaaaaaaaaaaaaaaaaaaaaaaaaaaaaaaaaaaaaaaaaaaaa",
"aaaaaaaaaaaaaaaaaaaaaaaaaaaaaaaaaaaaaaaaaaaaaaaaaaaaaaaaaaaaaaaaaaaaaaaaaaaaaaaaaaaaaaaaaaaaaaaaaaaaaaaaaaaaaaaaaaaaaaaaaaaaaaaaaaaaaaaaaaaaaaaaaaaaaaaaaaaaaaaaaaaaaaaaaaaaaaaaaaaaaaaaaaaaaaaaaaaaaaaaaaaaaaaaaaaaaaaaaaaaaaaaaaaaaaaaaaaaaaaaaaaaaaaaaaaaaaaaaaaaaaaaaaaaaaaaaaaaaaaaaaaaaaaaaaaaaaaaaaaaaaaaaaaaaaaaaaaaaaaaaaaaaaaaaaaaaaaaaaaaaaaaaaaaaaaaaaaaaaaaaaaaaaaaaaaaaaaaaaaaaaaa",
"aaaaaaaaaaaaaaaaaaaaaaaaaaaaaaaaaaaaaaaaaaaaaaaaaaaaaaaaaaaaaaaaaaaaaaaaaaaaaaaaaaaaaaaaaaaaaaaaaaaaaaaaaaaaaaaaaaaaaaaaaaaaaaaaaaaaaaaaaaaaaaaaaaaaaaaaaaaaaaaaaaaaaaaaaaaaaaaaaaaaaaaaaaaaaaaaaaaaaaaaaaaaaaaaaaaaaaaaaaaaaaaaaaaaaaaaaaaaaaaaaaaaaaaaaaaaaaaaaaaaaaaaaaaaaaaaaaaaaaaaaaaaaaaaaaaaaaaaaaaaaaaaaaaaaaaaaaaaaaaaaaaaaaaaaaaaaaaaaaaaaaaaaaaaaaaaaaaaaaaaaaaaaaaaaaaaaaaaaaaaaaaa",
"aaaaaaaaaaaaaaaaaaaaaaaaaaaaaaaaaaaaaaaabaaaaaaaaaaaaaaaaaaaaaaaaaaaaaaaaaaaaaaaaaaaaaaaaaaaaaaaaaaaaaabaaaaaaaaaaaaaaaaaaaaaaaaaaaaaaaaaaaaaaaaaaaaaaaaaaaaaaaaaaaaabaaaaaaaaaaaaaaaaaaaaaaaaaaaaaaaaaaaaaaaaaaaaaaaaaaaaaaaaaaaaaaaaaaaaaaaaaaaaaaaaaaaaaaaaaaaaaaaaaaaaaaaaaaaaaaaaaaaaaaaaaaaaaaaaaaaaaaaaaaaaaaaaaaaaaaaaaaaaaaaaaaaaaaaaaaaaaaaaaaaaaaaaaaaaaaaaaaaaaaaaaaaaaaaaaaaaaaaaaa",
"aaaaaaaaaaaaaaaaaaaaaaaaaaaaaacccccccaaadaaaaaaaaaaaaaaaaaaaaaaaaaaaaaaaaaaaaaaaaaaaaaaaaaaaacccccccaaadaaaaaaaaaaaaaaaaaaaaaaaaaaaaaaaaaaaaaaaaaaaaaaaaaaacccccccaaadaaaaaaaaaaaaaaaaaaaaaaaaaaaaaaaaaaaaaaaaaaaaaaaaaaaaaaaaaaaaaaaaaaaaaaaaaaaaaaaaaaaaaaaaaaaaaaaaaaaaaaaaaaaaaaaaaaaaaaaaaaaaaaaaaaaaaaaaaaaaaaaaaaaaaaaaaaaaaaaaaaaaaaaaaaaaaaaaaaaaaaaaaaaaaaaaaaaaaaaaaaaaaaaaaaaaaaaaaa",
"aaaaaaaaaaaaaaaaaaaaaaaaaaaacceeeeeeeccadaaaaaaaaaaaaaaaaaaaaaaaaaaaaaaaaaaaaaaaaaaaaaaaaaacceeeeeeeccadaaaaaaaaaaaaaaaaaaaaaaaaaaaaaaaaaaaaaaaaaaaaaaaaacceeeeeeeccadaaaaaaaaaaaaaaaaaaaaaaaaaaaaaaaaaaaaaaaaaaaaaaaaaaaaaaaaaaaaaaaaaaaaaaaaaaaaaaaaaaaaaaaaaaaaaaaaaaaaaaaaaaaaaaaaaaaaaaaaaaaaaaaaaaaaaaaaaaaaaaaaaaaaaaaaaaaaaaaaaaaaaaaaaaaaaaaaaaaaaaaaaaaaaaaaaaaaaaaaaaaaaaaaaaaaaaaaaa",
"aaaaaaaaaaaaaaaaaaaaaaaaaaaceeefffffeeecdaaaaaaaaaaaaaaaaaaaaaaaaaaaaaaaaaaaaaaaaaaaaaaaaaceeefffffeeecdaaaaaaaaaaaaaaaaaaaaaaaaaaaaaaaaaaaaaaaaaaaaaaaaceeefffffeeecdaaaaaaaaaaaaaaaaaaaaaaaaaaaaaaaaaaaaaaaaaaaaaaaaaaaaaaaaaaaaaaaaaaaaaaaaaaaaaaaaaaaaaaaaaaaaaaaaaaaaaaaaaaaaaaaaaaaaaaaaaaaaaaaaaaaaaaaaaaaaaaaaaaaaaaaaaaaaaaaaaaaaaaaaaaaaaaaaaaaaaaaaaaaaaaaaaaaaaaaaaaaaaaaaaaaaaaaaaa",
"aaaaaaaaaaaaaaaaaaaaaaaaaaaceeffgggffeecdaaaaaaaaaaaaaaaaaaaaaaaaaaaaaaaaaaaaaaaaaaaaaaaaaceeffgggffeecdaaaaaaaaaaaaaaaaaaaaaaaaaaaaaaaaaaaaaaaaaaaaaaaaceeffgggffeecdaaaaaaaaaaaaaaaaaaaaaaaaaaaaaaaaaaaaaaaaaaaaaaaaaaaaaaaaaaaaaaaaaaaaaaaaaaaaaaaaaaaaaaaaaaaaaaaaaaaaaaaaaaaaaaaaaaaaaaaaaaaaaaaaaaaaaaaaaaaaaaaaaaaaaaaaaaaaaaaaaaaaaaaaaaaaaaaaaaaaaaaaaaaaaaaaaaaaaaaaaaaaaaaaaaaaaaaaaa",
"aaaaaaaaaaaaaaaaaaaaaaaaaaceeeefffffeeehbiaaaaaaaaaaaaaaaaaaaaaaaaaaaaaaaaaaaaaaaaaaaaaaaceeeefffffeeehbiaaaaaaaaaaaaaaaaaaaaaaaaaaaaaaaaaaaaaaaaaaaaaaceeeefffffeeehbiaaaaaaaaaaaaaaaaaaaaaaaaaaaaaaaaaaaaaaaaaaaaaaaaaaaaaaaaaaaaaaaaaaaaaaaaaaaaaaaaaaaaaaaaaaaaaaaaaaaaaaaaaaaaaaaaaaaaaaaaaaaaaaaaaaaaaaaaaaaaaaaaaaaaaaaaaaaaaaaaaaaaaaaaaaaaaaaaaaaaaaaaaaaaaaaaaaaaaaaaaaaaaaaaaaaaaaaaa",
"aaaaaaaaaaaaaaaaaaaaaaaaaaceeeeefffeeeehjhaaaaaaaaaaaaaaaaaaaaaaaaaaaaaaaaaaaaaaaaaaaaaaaceeeeefffeeeehjhaaaaaaaaaaaaaaaaaaaaaaaaaaaaaaaaaaaaaaaaaaaaaaceeeeefffeeeehjhaaaaaaaaaaaaaaaaaaaaaaaaaaaaaaaaaaaaaaaaaaaaaaaaaaaaaaaaaaaaaaaaaaaaaaaaaaaaaaaaaaaaaaaaaaaaaaaaaaaaaaaaaaaaaaaaaaaaaaaaaaaaaaaaaaaaaaaaaaaaaaaaaaaaaaaaaaaaaaaaaaaaaaaaaaaaaaaaaaaaaaaaaaaaaaaaaaaaaaaaaaaaaaaaaaaaaaaaa",
"aaaaaaaaaaaaaaaaaaaaaaaaaaekffeceeeceffkhaaaaaaaaaaaaaaaaaaaaaaaaaaaaaaaaaaaaaaaaaaaaaaaaekffeceeeceffkhaaaaaaaaaaaaaaaaaaaaaaaaaaaaaaaaaaaaaaaaaaaaaaaekffeceeeceffkhaaaaaaaaaaaaaaaaaaaaaaaaaaaaaaaaaaaaaaaaaaaaaaaaaaaaaaaaaaaaaaaaaaaaaaaaaaaaaaaaaaaaaaaaaaaaaaaaaaaaaaaaaaaaaaaaaaaaaaaaaaaaaaaaaaaaaaaaaaaaaaaaaaaaaaaaaaaaaaaaaaaaaaaaaaaaaaaaaaaaaaaaaaaaaaaaaaaaaaaaaaaaaaaaaaaaaaaaaa",
"aaaaaaaaaaaaaaaaaaaaaaacffcclcfecfcefclccffcaaaaaaaaaaaaaaaaaaaaaaaaaaaaaaaaaaaaaaaaaacffcclcfecfcefclccffcaaaaaaaaaaaaaaaaaaaaaaaaaaaaaaaaaaaaaaaaacffcclcfecfcefclccffcaaaaaaaaaaaaaaaaaaaaaaaaaaaaaaaaaaaaaaaaaaaaaaaaaaaaaaaaaaaaaaaaaaaaaaaaaaaaaaaaaaaaaaaaaaaaaaaaaaaaaaaaaaaaaaaaaaaaaaaaaaaaaaaaaaaaaaaaaaaaaaaaaaaaaaaaaaaaaaaaaaaaaaaaaaaaaaaaaaaaaaaaaaaaaaaaaaaaaaaaaaaaaaaaaaaaaaa",
"aaaaaaaaaaaaaaaaaaaaaaaaklccmnkokkkoknmcclkaaaaaaaaaaaaaaaaaaaaaaaaaaaaaaaaaaaaaaaaaaaaklccmnkokkkoknmcclkaaaaaaaaaaaaaaaaaaaaaaaaaaaaaaaaaaaaaaaaaaaklccHIkIkkkIkIHcclkaaaaaaaaaaaaaaaaaaaaaaaaaaaaaaaaaaaaaaaaaaaaaaaaaaaaaaaaaaaaaaaaaaaaaaaaaaaaaaaaaaaaaaaaaaaaaaaaaaaaaaaaaaaaaaaaaaaaaaaaaaaaaaaaaaaaaaaaaaaaaaaaaaaaaaaaaaaaaaaaaaaaaaaaaaaaaaaaaaaaaaaaaaaaaaaaaaaaaaaaaaaaaaaaaaaaaaaa",
"aaaaaaaaaaaaaaaaaaaaaaaaackfckkcegeckkcfkcaaaaaaaaaaaaaaaaaaaaaaaaaaaaaaaaaaaaaaaaaaaaaackfckkcegeckkcfkcaaaaaaaaaaaaaaaaaaaaaaaaaaaaaaaaaaaaaaaaaaaaackfckkcegeckkcfkcaaaaaaaaaaaaaaaaaaaaaaaaaaaaaaaaaaaaaaaaaaaaaaaaaaaaaaaaaaaaaaaaaaaaaaaaaaaaaaaaaaaaaaaaaaaaaaaaaaaaaaaaaaaaaaaaaaaaaaaaaaaaaaaaaaaaaaaaaaaaaaaaaaaaaaaaaaaaaaaaaaaaaaaaaaaaaaaaaaaaaaaaaaaaaaaaaaaaaaaaaaaaaaaaaaaaaaaaa",
"aaaaaaaaaaaaaaaaaaaaaaaaaclegfckckckcfgelcaaaaaaaaaaaaaaaaaaaaaaaaaaaaaaaaaaaaaaaaaaaaaaclegfckckckcfgelcaaaaaaaaaaaaaaaaaaaaaaaaaaaaaaaaaaaaaaaaaaaaaclegfckckckcfgelcaaaaaaaaaaaaaaaaaaaaaaaaaaaaaaaaaaaaaaaaaaaaaaaaaaaaaaaaaaaaaaaaaaaaaaaaaaaaaaaaaaaaaaaaaaaaaaaaaaaaaaaaaaaaaaaaaaaaaaaaaaaaaaaaaaaaaaaaaaaaaaaaaaaaaaaaaaaaaaaaaaaaaaaaaaaaaaaaaaaaaaaaaaaaaaaaaaaaaaaaaaaaaaaaaaaaaaaaa",
"aaaaaaaaaaaaaaaaqqqqqqqqqqckeeffgggffeekcaaaaaaaaaaaaaaaaaaaaaaaaaaaaaaaaaaaaaaaqqqqqqqqqckeeffgggffeekcaaaaaaaaaaaaaaaaaaaaaaaaaaaaaaaaaaaaaaaaaaaaaaackeeffgggffeekcqqqqqqqqqaaaaaaaaaaaaaaaaaaaaaaaaaaaaaaaaaaaaaaaaaaaaaaaaaaaaaaaaaaaaaaaaaaaaaaaaaaaaaaaaaaaaaaaaaaaaaaaaaaaaaaaaaaaaaaaaaaaaaaaaaaaaaaaaaaaaaaaaaaaaaaaaaaaaaaaaaaaaaaaaaaaaaaaaaaaaaaaaaaaaaaaaaaaaaaaaaaaaaaaaaaaaaaaaa",
"aaaaaaaaaaaaqqqqtvvvvvttvdccefkpppppkfeccdqqqqqqqaaaaaaaaaaaaaaaaaaaaaaaaaaaaqqqtttvvtttdccefkpppppkfeccdqqqqqqqaaaaaaaaaaaaaaaaaaaaaaaaaaaaaaaqqqqqqqdccefkpppppkfeccdtttvvtttqqqaaaaaaaaaaaaaaaaaaaaaaaaaaaaaaaaaaaaaaaaaaaaaaaaaaaaaaaaaaaaaaaaaaaaaaaaaaaaaaaaaaaaaaaaaaaaaaaaaaaaaaaaaaaaaaaaaaaaaaaaaaaaaaaaaaaaaaaaaaaaaaaaaaaaaaaaaaaaaaaaaaaaaaaaaaaaaaaaaaaaaaaaaaaaaaaaaaaaaaaaaaaaaa",
"aaaaaaaaaqqqtttvvvvtttttteceekpyuxuypkeecetttttttqqqqaaaaaaaaaaaaaaaaaaaaaaqqtvwvvtttttzeceekpyuxuypkeecztttttttqqqqaaaaaaaaaaaaaaaaaaaaaaaaqqqtttttttzceekpyuxuypkeeceztttttvvwvtqqaaaaaaaaaaaaaaaaaaaaaaaaaaaaaaaaaaaaaaaaaaaaaaaaaaaaaaaaaaaaaaaaaaaaaaaaaaaaaaaaaaaaaaaaaaaaaaaaaaaaaaaaaaaaaaaaaaaaaaaaaaaaaaaaaaaaaaaaaaaaaaaaaaaaaaaaaaaaaaaaaaaaaaaaaaaaaaaaaaaaaaaaaaaaaaaaaaaaaaaaaaaa",
"aaaaaaaqqtvwwvtttqtvvwwwvfkeepprsqsrppeekfvwwwvvvvtvtqqqaaaaaaaaaaaaaaaaaaqtvtttqtvvwwwffkeepupppppupeekvvwwwvtvtttqqaaaaaaaaaaaaaaaaaaaaaqqtttvtvwwwvvkeeppxyxyxppeekffwwwvvtqtttvtqaaaaaaaaaaaaaaaaaaaaaaaaaaaaaaaaaaaaaaaaaaaaaaaaaaaaaaaaaaaaaaaaaaaaaaaaaaaaaaaaaaaaaaaaaaaaaaaaaaaaaaaaaaaaaaaaaaaaaaaaaaaaaaaaaaaaaaaaaaaaaaaaaaaaaaaaaaaaaaaaaaaaaaaaaaaaaaaaaaaaaaaaaaaaaaaaaaaaaaaaaaa",
"aaaaaaqtvtttttvwwwwwvvvvteccepupppppupeccetvvvvwqvvttvvtqqaaaaaaaaaaaaaaaqttttqtvwwvvvveekcefpxyxyxpfeckttvvvvvttvvttqqaaaaaaaaaaaaaaaaaqqttvvttvvvvvttkcefkceeeckfeckeevvvvwwvtqttttqaaaaaaaaaaaaaaaaaaaaaaaaaaaaaaaaaaaaaaaaaaaaaaaaaaaaaaaaaaaaaaaaaaaaaaaaaaaaaaaaaaaaaaaaaaaaaaaaaaaaaaaaaaaaaaaaaaaaaaaaaaaaaaaaaaaaaaaaaaaaaaaaaaaaaaaaaaaaaaaaaaaaaaaaaaaaaaaaaaaaaaaaaaaaaaaaaaaaaaaaaa",
"aaaaaqtvtvtqtqqtvqqqttttteekefpxyxyxpfekeetttttqvqvtqqtqtvqqaaaaaaaaaaaaaqttqtvvtqqtttteeekkeffgggffekkettttttvtqqtqtvtqqaaaaaaaaaaaaaastttqtqqtvttttttekkeffgggffekkeeettttqqtvvtqttqaaaaaaaaaaaaaaaaaaaaaaaaaaaaaaaaaaaaaaaaaaaaaaaaaaaaaaaaaaaaaaaaaaaaaaaaaaaaaaaaaaaaaaaaaaaaaaaaaaaaaaaaaaaaaaaaaaaaaaaaaaaaaaaaaaaaaaaaaaaaaaaaaaaaaaaaaaaaaaaaaaaaaaaaaaaaaaaaaaaaaaaaaaaaaaaaaaaaaaaaaa",
"aaaaaqtttqtvvvtqttvtqqqqqccckeffgggffekcccqqqqqttwtqtvvvtqvtqaaaaaaaaaaaqtqttvwwvvtqqqqccccckecfcfcekcccqqqqqqtqtvvvtqvvtqaaaaaaaaaaaaastttvvvtqtqqqqqqccckecfcfcekcccccqqqqtvvwwvttqtqaaaaaaaaaaaaaaaaaaaaaaaaaaaaaaaaaaaaaaaaaaaaaaaaaaaaaaaaaaaaaaaaaaaaaaaaaaaaaaaaaaaaaaaaaaaaaaaaaaaaaaaaaaaaaaaaaaaaaaaaaaaaaaaaaaaaaaaaaaaaaaaaaaaaaaaaaaaaaaaaaaaaaaaaaaaaaaaaaaaaaaaaaaaaaaaaaaaaaaaaa",
"aaaaqtvqttvwwwvtqtttvvwwwzfeekecfcfcekeefzwwwvvttqqtvwwvvttvtqaaaaaaaaaaqtttvvwwtstvvwwzfeecckkkkkkkeefzwwwwvvqtvwwvvttvvtqaaaaaaaaaaastvtvvwwvtqvvwwkefgfekkkkkkkcceefzwwvvtstwwvvtttqaaaaaaaaaaaaaaaaaaaaaaaaaaaaaaaaaaaaaaaaaaaaaaaaaaaaaaaaaaaaaaaaaaaaaaaaaaaaaaaaaaaaaaaaaaaaaaaaaaaaaaaaaaaaaaaaaaaaaaaaaaaaaaaaaaaaaaaaaaaaaaaaaaaaaaaaaaaaaaaaaaaaaaaaaaaaaaaaaaaaaaaaaaaaaaaaaaaaaaaaa",
"aaaaqttttvvwwvvtqttttttttteeeekkkkkkkeeeetttttttttqtvwwvvvtttqaaaaaaaaaaqqttvwvvqttttttteeeefecccefeeeetttttttqtvwwvvvttvtqaaaaaaaaaaastttvvwwvtqqttkcfgggggggfccefeeeetttttttqvvwvttqqaaaaaaaaaaaaaaaaaaaaaaaaaaaaaaaaaaaaaaaaaaaaaaaaaaaaaaaaaaaaaaaaaaaaaaaaaaaaaaaaaaaaaaaaaaaaaaaaaaaaaaaaaaaaaaaaaaaaaaaaaaaaaaaaaaaaaaaaaaaaaaaaaaaaaaaaaaaaaaaaaaaaaaaaaaaaaaaaaaaaaaaaaaaaaaaaaaaaaaaaa",
"aaaaqtqttvwvvvttqqttvvvvvvAeeeeceeeceeeevvvvvvvtvtqttvvwvvtqvtqaaaaaaaaaqstttvvtqttvvvvvAeeeeceeeceeeevvvvvvvvqttvvwvvtqvvtqaaaaaaaaaastvttvvvttsqtvkfgJfggggJgeeceeeeAvvvvvttqtvvtttsqaaaaaaaaaaaaaaaaaaaaaaaaaaaaaaaaaaaaaaaaaaaaaaaaaaaaaaaaaaaaaaaaaaaaaaaaaaaaaaaaaaaaaaaaaaaaaaaaaaaaaaaaaaaaaaaaaaaaaaaaaaaaaaaaaaaaaaaaaaaaaaaaaaaaaaaaaaaaaaaaaaaaaaaaaaaaaaaaaaaaaaaaaaaaaaaaaaaaaaaaa",
"aaaaqtstttvvvttvvwvvvvwwwvtqBeeececeeeBqtvvvvvvvttqtttvvvvttttqaaaaaaaaaasqttttqtvvvvwwvtqBeeececeeeBqtvvvvvvvqtttvvvvvttvtqaaaaaaaaaastvvqqtvvwwwqkcfffffffffeeceeeBqtvwwvvvvtqttttqsaaaaaaaaaaaaaaaaaaaaaaaaaaaaaaaaaaaaaaaaaaaaaaaaaaaaaaaaaaaaaaaaaaaaaaaaaaaaaaaaaaaaaaaaaaaaaaaaaaaaaaaaaaaaaaaaaaaaaaaaaaaaaaaaaaaaaaaaaaaaaaaaaaaaaaaaaaaaaaaaaaaaaaaaaaaaaaaaaaaaaaaaaaaaaaaaaaaaaaaaaa",
"aaaaaqsqtttttqsssstvvwwwwwwvvvqtttttqvvvvtnnnvvvvqqtttttttttqtqaaaaaaaaaarsqqsssqtvvwwwwwvvvqtttttqvvvvvtnnnvvqtttttvvvtqvtqaaaaaaaaaasttqtwvcefeeckceffekkcckttttqvvvwwwnnnqtqsssqqsraaaaaaaaaaaaaaaaaaaaaaaaaaaaaaaaaaaaaaaaaaaaaaaaaaaaaaaaaaaaaaaaaaaaaaaaaaaaaaaaaaaaaaaaaaaaaaaaaaaaaaaaaaaaaaaaaaaaaaaaaaaaaaaaaaaaaaaaaaaaaaaaaaaaaaaaaaaaaaaaaaaaaaaaaaaaaaaaaaaaaaaaaaaaaaaaaaaaaaaaaa",
"aaaaqttsqqssstvvwvvvvvvwwwvvvvvtqtqtvvvvvqnnnvvvqwvqttttttttstqaaaaaaaaarrrrrrrsqqtvvvwwvvvvvtqtqttvvvvvqnnnvvvqttttttttsttqaaaaaaaaaastqtwvfffeeckkefgJgggggJftqtvvvvvwwnnnsqqsrrrrrrraaaaaaaaaaaaaaaaaaaaaaaaaaaaaaaaaaaaaaaaaaaaaaaaaaaaaaaaaaaaaaaaaaaaaaaaaaaaaaaaaaaaaaaaaaaaaaaaaaaaaaaaaaaaaaaaaaaaaaaaaaaaaaaaaaaaaaaaaaaaaaaaaaaaaaaaaaaaaaaaaaaaaaaaaaaaaaaaaaaaaaaaaaaaaaaaaaaaaaaaa",
"aaaqttqttvwwvvttqsqqqttvvvtqqtqtttttqtqqtqqqttqqvssssqtvwvtqsqaaaaaaaacekrsqsrrrsqqqttvvtqqtqtttttqtqqqtqqqttqsssqtvwvtqsqqqaaaaaaaaaasqqvwfffffffekeffgffffffetttqtqqtvvtqssqsrrrsqsrkecaaaaaaaaaaaaaaaaaaaaaaaaaaaaaaaaaaaaaaaaaaaaaaaaaaaaaaaaaaaaaaaaaaaaaaaaaaaaaaaaaaaaaaaaaaaaaaaaaaaaaaaaaaaaaaaaaaaaaaaaaaaaaaaaaaaaaaaaaaaaaaaaaaaaaaaaaaaaaaaaaaaaaaaaaaaaaaaaaaaaaaaaaaaaaaaaaaaaaaa",
"aaaqtqstvwwwwvvttsvttvvvvvvvvvttqtqttvvvvvvvttvvwwwvvtsssqqsttqaaaaaakceekclsqsrsqttvvvvvvvvttqtqtttvvvvvvvttvwvvtsssqqsttvqaaaaaaaaaaasqvvfefefeeckceffekkcccktqttvvvvvvvvttqsrsqslckeeckaaaaaaaaaaaaaaaaaaaaaaaaaaaaaaaaaaaaaaaaaaaaaaaaaaaaaaaaaaaaaaaaaaaaaaaaaaaaaaaaaaaaaaaaaaaaaaaaaaaaaaaaaaaaaaaaaaaaaaaaaaaaaaaaaaaaaaaaaaaaaaaaaaaaaaaaaaaaaaaaaaaaaaaaaaaaaaaaaaaaaaaaaaaaaaaaaaaaaa",
"aaaqqtstvvwvvvvtqaqssqttvvvvttqqtttqqttvvtttvvtqsssttvvwwvttqttqaaaackkceekcclqsrqssqttvvvttqqtttqqtttvvvttvvtlkkksqqtvvwvtvqaaaaaaaaaasqtvceeeececkefggffeeeqtttqqttvvvttqssqrsqlcckeeckkcaaaaaaaaaaaaaaaaaaaaaaaaaaaaaaaaaaaaaaaaaaaaaaaaaaaaaaaaaaaaaaaaaaaaaaaaaaaaaaaaaaaaaaaaaaaaaaaaaaaaaaaaaaaaaaaaaaaaaaaaaaaaaaaaaaaaaaaaaaaaaaaaaaaaaaaaaaaaaaaaaaaaaaaaaaaaaaaaaaaaaaaaaaaaaaaaaaaaa",
"aaaaqtqttvvwwvvtqaqttqsssqqqqqtttvtttqqqqqssssssssttvvwwwwvtsqtqaaaacellceelcclqrqttqssqqqqqtttvtttqqqqqqssskkccefkqtttvvwvtqaaaaaaaaaaaqttkccccccckeffJggggJetvtttqqqqqssqttqrqlccleecllecaaaaaaaaaaaaaaaaaaaaaaaaaaaaaaaaaaaaaaaaaaaaaaaaaaaaaaaaaaaaaaaaaaaaaaaaaaaaaaaaaaaaaaaaaaaaaaaaaaaaaaaaaaaaaaaaaaaaaaaaaaaaaaaaaaaaaaaaaaaaaaaaaaaaaaaaaaaaaaaaaaaaaaaaaaaaaaaaaaaaaaaaaaaaaaaaaaaaa",
"aaaaqtqqtttttttqqasqqttttttvvwwvtttvwwvtttttttqqqsqtvvvvwvvtstqqaaackceclcclceKqrsqqttttttvvwwvtttvwwvtttttkccklcefktttvvvtqqqaaaaaaaaaasqvBkkkkckckceffekccckttvwwvvttttttqqsrqKeclcclceckcaaaaaaaaaaaaaaaaaaaaaaaaaaaaaaaaaaaaaaaaaaaaaaaaaaaaaaaaaaaaaaaaaaaaaaaaaaaaaaaaaaaaaaaaaaaaaaaaaaaaaaaaaaaaaaaaaaaaaaaaaaaaaaaaaaaaaaaaaaaaaaaaaaaaaaaaaaaaaaaaaaaaaaaaaaaaaaaaaaaaaaaaaaaaaaaaaaaa",
"aaaaqtttqqsssssqqaqtttqtvwwwvtttttttttvwwwvtqtttqaqtvvwwvvttqtqaaaacellcekllccKsrqtttqtvwwwvtttttttttvwwwvtkcceffeecqcefecvwtqaaaaaaaaaaaqttkckckkkkcefgffffettttttvwwwvtqtttqrsKccllkecllecaaaaaaaaaaaaaaaaaaaaaaaaaaaaaaaaaaaaaaaaaaaaaaaaaaaaaaaaaaaaaaaaaaaaaaaaaaaaaaaaaaaaaaaaaaaaaaaaaaaaaaaaaaaaaaaaaaaaaaaaaaaaaaaaaaaaaaaaaaaaaaaaaaaaaaaaaaaaaaaaaaaaaaaaaaaaaaaaaaaaaaaaaaaaaaaaaaaa",
"aaaaqtzeffeekefzqaqqttvtttqqqqqqsssqqqttttvvttqqaaqqtttttttqqtqaaaaklcelcelkklKsrqqttvtttqqqqqqsssqqqttttvvtlkceeefccccefffvwtqaaaaaaaaaasqqtkkkkllllceeeeeecsssqqqqqqtttvttqqrsKlkklecleclkaaaaaaaaaaaaaaaaaaaaaaaaaaaaaaaaaaaaaaaaaaaaaaaaaaaaaaaaaaaaaaaaaaaaaaaaaaaaaaaaaaaaaaaaaaaaaaaaaaaaaaaaaaaaaaaaaaaaaaaaaaaaaaaaaaaaaaaaaaaaaaaaaaaaaaaaaaaaaaaaaaaaaaaaaaaaaaaaaaaaaaaaaaaaaaaaaaaa",
"aaaaqLecffeecefeqaaqsqtqsssssssrrrrrssssqqttvttqaaqqsssssqqtttqaaaacclkeklkclKrrraqsqtqsssssssrrrrrssssqqttkccefceccefffffffwvqaaaaaaaaaaaasqqssqqrrttqqssssrrrrrsssssssqtqsqarrrKlcklkeklccaaaaaaaaaaaaaaaaaaaaaaaaaaaaaaaaaaaaaaaaaaaaaaaaaaaaaaaaaaaaaaaaaaaaaaaaaaaaaaaaaaaaaaaaaaaaaaaaaaaaaaaaaaaaaaaaaaaaaaaaaaaaaaaaaaaaaaaaaaaaaaaaaaaaaaaaaaaaaaaaaaaaaaaaaaaaaaaaaaaaaaaaaaaaaaaaaaaa",
"aaaaqefceffeecfecaahssssssqqqttqqsqqqqqqsssqtqshaaqzfekeeffeztqaaaakkckkellkKrsraaahssssssqqqttqqsqqqqqqssskccceeeeceeefefefvvqaaaaaaaaaaaaaaaahrrrssssqqqqqqsqqttqqqsssssshaaarsrKkllekkckkaaaaaaaaaaaaaaaaaaaaaaaaaaaaaaaaaaaaaaaaaaaaaaaaaaaaaaaaaaaaaaaaaaaaaaaaaaaaaaaaaaaaaaaaaaaaaaaaaaaaaaaaaaaaaaaaaaaaaaaaaaaaaaaaaaaaaaaaaaaaaaaaaaaaaaaaaaaaaaaaaaaaaaaaaaaaaaaaaaaaaaaaaaaaaaaaaaaa",
"aaaacefecefeecfcaaahhhhhsqqttvvvtqtvvttqqqshhhhhaaqefeceeffceLqaaaaaakkcllKKrraaaaahhhhhsqqttvvvtqtvvttqqqsllkcceeeceeeeeeeevtqaaaaaaaaaaaaaaaahhhhhsqqqttvvtqtvvvttqqshhhhhaaaaarrKKllckkaaaaaaaaaaaaaaaaaaaaaaaaaaaaaaaaaaaaaaaaaaaaaaaaaaaaaaaaaaaaaaaaaaaaaaaaaaaaaaaaaaaaaaaaaaaaaaaaaaaaaaaaaaaaaaaaaaaaaaaaaaaaaaaaaaaaaaaaaaaaaaaaaaaaaaaaaaaaaaaaaaaaaaaaaaaaaaaaaaaaaaaaaaaaaaaaaaaaaa",
"aaaaceefceefececaahhdhdhhhhhhhChhdhhChhhhhhhdhdhhacefceeffecfeqaaaaaaaallaaaaaaaaahhdhdhhhhhhhChhdhhChhhhhhlcceecccceeeeeeecttqaaaaaaaaaaaaaaahhdhdhhhhhhhChhdhhChhhhhhhdhdhhaaaaaaaaallaaaaaaaaaaaaaaaaaaaaaaaaaaaaaaaaaaaaaaaaaaaaaaaaaaaaaaaaaaaaaaaaaaaaaaaaaaaaaaaaaaaaaaaaaaaaaaaaaaaaaaaaaaaaaaaaaaaaaaaaaaaaaaaaaaaaaaaaaaaaaaaaaaaaaaaaaaaaaaaaaaaaaaaaaaaaaaaaaaaaaaaaaaaaaaaaaaaaaaaa",
"aaaaaceeeceeckkkkahhhjhhhhhhhhDhhdhhDhhhhhhhhjhhhaacfceefecefecaaaaaaaaaaaaaaaaaaahhhjhhhhhhhhDhhdhhDhhhhhhhlkceeeekececcccBvqaaaaaaaaaaaaaaaahhhjhhhhhhhhDhhdhhDhhhhhhhhjhhhaaaaaaaaaaaaaaaaaaaaaaaaaaaaaaaaaaaaaaaaaaaaaaaaaaaaaaaaaaaaaaaaaaaaaaaaaaaaaaaaaaaaaaaaaaaaaaaaaaaaaaaaaaaaaaaaaaaaaaaaaaaaaaaaaaaaaaaaaaaaaaaaaaaaaaaaaaaaaaaaaaaaaaaaaaaaaaaaaaaaaaaaaaaaaaaaaaaaaaaaaaaaaaaaaaa",
"aaaaaceefeecceeeekhEhdhqhhhhhhFhhhhhFhhhhhhqhdhEhaacecefeecfeecaaaaaaaaaaaaaaaaaaahEhdhqhhhhhhFhhhhhFhhhhhhqkcccceckcccececttqaaaaaaaaaaaaaaaahEhdhqhhhhhhFhhhhhFhhhhhhqhdhEhaaaaaaaaaaaaaaaaaaaaaaaaaaaaaaaaaaaaaaaaaaaaaaaaaaaaaaaaaaaaaaaaaaaaaaaaaaaaaaaaaaaaaaaaaaaaaaaaaaaaaaaaaaaaaaaaaaaaaaaaaaaaaaaaaaaaaaaaaaaaaaaaaaaaaaaaaaaaaaaaaaaaaaaaaaaaaaaaaaaaaaaaaaaaaaaaaaaaaaaaaaaaaaaaaaa",
"aaaaaaceeeceeeeeeekhhhhvttvvttqqtvtqqtvvvvvvhhhhhakkkkceeceeecaaaaaaaaaaaaaaaaaaaaahhhhvttvvttqqtvtqqtvvvvvvhlllkklkkkcckktqqaaaaaaaaaaaaaaaaaahhhhvttvvttqqtvtqqtvvvvvvhhhhaaaaaaaaaaaaaaaaaaaaaaaaaaaaaaaaaaaaaaaaaaaaaaaaaaaaaaaaaaaaaaaaaaaaaaaaaaaaaaaaaaaaaaaaaaaaaaaaaaaaaaaaaaaaaaaaaaaaaaaaaaaaaaaaaaaaaaaaaaaaaaaaaaaaaaaaaaaaaaaaaaaaaaaaaaaaaaaaaaaaaaaaaaaaaaaaaaaaaaaaaaaaaaaaaaaa",
"aaaaaaceececefecfecqhhvtttvwvttqstsqtvvvvvvvvhhqakeeeecceefeecaaaaaaaaaaaaaaaaaaaaaqhhvtttvwvttqstsqtvvvvvvvvhhqaaaaaasssqqaaaaaaaaaaaaaaaaaaaaqhhvtttvwvttqstsqtvvvvvvvvhhqaaaaaaaaaaaaaaaaaaaaaaaaaaaaaaaaaaaaaaaaaaaaaaaaaaaaaaaaaaaaaaaaaaaaaaaaaaaaaaaaaaaaaaaaaaaaaaaaaaaaaaaaaaaaaaaaaaaaaaaaaaaaaaaaaaaaaaaaaaaaaaaaaaaaaaaaaaaaaaaaaaaaaaaaaaaaaaaaaaaaaaaaaaaaaaaaaaaaaaaaaaaaaaaaaaaa",
"aaaaaacceeeecfeekcaqtvvtqtvwvvttqsqttvwwvvvwwvtqkeeeeeeeceeecaaaaaaaaaaaaaaaaaaaaaaqtvvtqtvwvvttqsqttvwwvvvwwvtqaaaaaaaaaaaaaaaaaaaaaaaaaaaaaaaqtvvtqtvwvvttqsqttvwwvvvwwvtqaaaaaaaaaaaaaaaaaaaaaaaaaaaaaaaaaaaaaaaaaaaaaaaaaaaaaaaaaaaaaaaaaaaaaaaaaaaaaaaaaaaaaaaaaaaaaaaaaaaaaaaaaaaaaaaaaaaaaaaaaaaaaaaaaaaaaaaaaaaaaaaaaaaaaaaaaaaaaaaaaaaaaaaaaaaaaaaaaaaaaaaaaaaaaaaaaaaaaaaaaaaaaaaaaaaa",
"aaaaaaacecefceeffecqtvttqtvvvvttqaqtvwwwwvtvwwtqcefcefececeecaaaaaaaaaaaaaaaaaaaaaaqtvttqtvvvvttqaqtvwwwwvtvwwtqaaaaaaaaaaaaaaaaaaaaaaaaaaaaaaaqtvttqtvvvvttqaqtvwwwwvtvwwtqaaaaaaaaaaaaaaaaaaaaaaaaaaaaaaaaaaaaaaaaaaaaaaaaaaaaaaaaaaaaaaaaaaaaaaaaaaaaaaaaaaaaaaaaaaaaaaaaaaaaaaaaaaaaaaaaaaaaaaaaaaaaaaaaaaaaaaaaaaaaaaaaaaaaaaaaaaaaaaaaaaaaaaaaaaaaaaaaaaaaaaaaaaaaaaaaaaaaaaaaaaaaaaaaaaaa",
"aaaaaaaceeceekkccckqtttttttvvvtqaaaqvvwwvvvvwttqackeefceeeeccaaaaaaaaaaaaaaaaaaaaaaqtttttttvvvtqaaaqvvwwvvvvwttqaaaaaaaaaaaaaaaaaaaaaaaaaaaaaaaqtttttttvvvtqaaaqvvwwvvvvwttqaaaaaaaaaaaaaaaaaaaaaaaaaaaaaaaaaaaaaaaaaaaaaaaaaaaaaaaaaaaaaaaaaaaaaaaaaaaaaaaaaaaaaaaaaaaaaaaaaaaaaaaaaaaaaaaaaaaaaaaaaaaaaaaaaaaaaaaaaaaaaaaaaaaaaaaaaaaaaaaaaaaaaaaaaaaaaaaaaaaaaaaaaaaaaaaaaaaaaaaaaaaaaaaaaaaa",
"aaaaaaacefekkccckkaqtqtvvtqtvttqaaaqtvvvtwGwvqtqceffeecfececaaaaaaaaaaaaaaaaaaaaaaaqtqtvvtqtvttqaaaqtvvvtwGwvqtqaaaaaaaaaaaaaaaaaaaaaaaaaaaaaaaqtqtvvtqtvttqaaaqtvvvtwGwvqtqaaaaaaaaaaaaaaaaaaaaaaaaaaaaaaaaaaaaaaaaaaaaaaaaaaaaaaaaaaaaaaaaaaaaaaaaaaaaaaaaaaaaaaaaaaaaaaaaaaaaaaaaaaaaaaaaaaaaaaaaaaaaaaaaaaaaaaaaaaaaaaaaaaaaaaaaaaaaaaaaaaaaaaaaaaaaaaaaaaaaaaaaaaaaaaaaaaaaaaaaaaaaaaaaaaaa",
"aaaaaaaacecccckkaaaqtstvwvtqttqqaaaqqtvtwwwwwstqkccckkeeceecaaaaaaaaaaaaaaaaaaaaaaaqtstvwvtqttqqaaaqqtvtwwwwwstqaaaaaaaaaaaaaaaaaaaaaaaaaaaaaaaqtstvwvtqttqqaaaqqtvtwwwwwstqaaaaaaaaaaaaaaaaaaaaaaaaaaaaaaaaaaaaaaaaaaaaaaaaaaaaaaaaaaaaaaaaaaaaaaaaaaaaaaaaaaaaaaaaaaaaaaaaaaaaaaaaaaaaaaaaaaaaaaaaaaaaaaaaaaaaaaaaaaaaaaaaaaaaaaaaaaaaaaaaaaaaaaaaaaaaaaaaaaaaaaaaaaaaaaaaaaaaaaaaaaaaaaaaaaaa",
"aaaaaaaaakkkkkkaaaaaqsttvvtqqqtqaaaqtqqqvwwvtsqaakkccckkefecaaaaaaaaaaaaaaaaaaaaaaaaqsttvvtqqqtqaaaqtqqqvwwvtsqaaaaaaaaaaaaaaaaaaaaaaaaaaaaaaaaaqsttvvtqqqtqaaaqtqqqvwwvtsqaaaaaaaaaaaaaaaaaaaaaaaaaaaaaaaaaaaaaaaaaaaaaaaaaaaaaaaaaaaaaaaaaaaaaaaaaaaaaaaaaaaaaaaaaaaaaaaaaaaaaaaaaaaaaaaaaaaaaaaaaaaaaaaaaaaaaaaaaaaaaaaaaaaaaaaaaaaaaaaaaaaaaaaaaaaaaaaaaaaaaaaaaaaaaaaaaaaaaaaaaaaaaaaaaaaaa",
"aaaaaaaaaaaaaaaaaaaaqqstttqstttqaaaqtttsqtttsqqaaaakkccccecaaaaaaaaaaaaaaaaaaaaaaaaaqqstttqstttqaaaqtttsqtttsqqaaaaaaaaaaaaaaaaaaaaaaaaaaaaaaaaaqqstttqstttqaaaqtttsqtttsqqaaaaaaaaaaaaaaaaaaaaaaaaaaaaaaaaaaaaaaaaaaaaaaaaaaaaaaaaaaaaaaaaaaaaaaaaaaaaaaaaaaaaaaaaaaaaaaaaaaaaaaaaaaaaaaaaaaaaaaaaaaaaaaaaaaaaaaaaaaaaaaaaaaaaaaaaaaaaaaaaaaaaaaaaaaaaaaaaaaaaaaaaaaaaaaaaaaaaaaaaaaaaaaaaaaaaa",
"aaaaaaaaaaaaaaaaaaaactqssqqvwvtcaaaqtvvtqqssqtqaaaaakkkkkkaaaaaaaaaaaaaaaaaaaaaaaaaactqssqqvwvtcaaaqtvvtqqssqtqaaaaaaaaaaaaaaaaaaaaaaaaaaaaaaaaactqssqqvwvtcaaaqtvvtqqssqtqaaaaaaaaaaaaaaaaaaaaaaaaaaaaaaaaaaaaaaaaaaaaaaaaaaaaaaaaaaaaaaaaaaaaaaaaaaaaaaaaaaaaaaaaaaaaaaaaaaaaaaaaaaaaaaaaaaaaaaaaaaaaaaaaaaaaaaaaaaaaaaaaaaaaaaaaaaaaaaaaaaaaaaaaaaaaaaaaaaaaaaaaaaaaaaaaaaaaaaaaaaaaaaaaaaaaa",
"aaaaaaaaaaaaaaaaaaaaaceqvtqtveecaaaqtvwvtqqtvtqaaaaaaaaaaaaaaaaaaaaaaaaaaaaaaaaaaaaaaceqvtqtveecaaaqtvwvtqqtvtqaaaaaaaaaaaaaaaaaaaaaaaaaaaaaaaaaaceqvtqtveecaaaqtvwvtqqtvtqaaaaaaaaaaaaaaaaaaaaaaaaaaaaaaaaaaaaaaaaaaaaaaaaaaaaaaaaaaaaaaaaaaaaaaaaaaaaaaaaaaaaaaaaaaaaaaaaaaaaaaaaaaaaaaaaaaaaaaaaaaaaaaaaaaaaaaaaaaaaaaaaaaaaaaaaaaaaaaaaaaaaaaaaaaaaaaaaaaaaaaaaaaaaaaaaaaaaaaaaaaaaaaaaaaaaa",
"aaaaaaaaaaaaaaaaaaaaaceceeceeeccaaaactvvtqtvtecaaaaaaaaaaaaaaaaaaaaaaaaaaaaaaaaaaaaaaceceeceeeccaaaactvvtqtvtecaaaaaaaaaaaaaaaaaaaaaaaaaaaaaaaaaaceceeceeeccaaaactvvtqtvtecaaaaaaaaaaaaaaaaaaaaaaaaaaaaaaaaaaaaaaaaaaaaaaaaaaaaaaaaaaaaaaaaaaaaaaaaaaaaaaaaaaaaaaaaaaaaaaaaaaaaaaaaaaaaaaaaaaaaaaaaaaaaaaaaaaaaaaaaaaaaaaaaaaaaaaaaaaaaaaaaaaaaaaaaaaaaaaaaaaaaaaaaaaaaaaaaaaaaaaaaaaaaaaaaaaaaa",
"aaaaaaaaaaaaaaaaaaaaakccefeeeeecaaaacceeecfececaaaaaaaaaaaaaaaaaaaaaaaaaaaaaaaaaaaaaakccefeeeeecaaaacceeecfececaaaaaaaaaaaaaaaaaaaaaaaaaaaaaaaaaakccefeeeeecaaaacceeecfececaaaaaaaaaaaaaaaaaaaaaaaaaaaaaaaaaaaaaaaaaaaaaaaaaaaaaaaaaaaaaaaaaaaaaaaaaaaaaaaaaaaaaaaaaaaaaaaaaaaaaaaaaaaaaaaaaaaaaaaaaaaaaaaaaaaaaaaaaaaaaaaaaaaaaaaaaaaaaaaaaaaaaaaaaaaaaaaaaaaaaaaaaaaaaaaaaaaaaaaaaaaaaaaaaaaaa",
"aaaaaaaaaaaaaaaaaaaaakceeffeeeccaaaaceeeeefececaaaaaaaaaaaaaaaaaaaaaaaaaaaaaaaaaaaaaakceeffeeeccaaaaceeeeefececaaaaaaaaaaaaaaaaaaaaaaaaaaaaaaaaaakceeffeeeccaaaaceeeeefececaaaaaaaaaaaaaaaaaaaaaaaaaaaaaaaaaaaaaaaaaaaaaaaaaaaaaaaaaaaaaaaaaaaaaaaaaaaaaaaaaaaaaaaaaaaaaaaaaaaaaaaaaaaaaaaaaaaaaaaaaaaaaaaaaaaaaaaaaaaaaaaaaaaaaaaaaaaaaaaaaaaaaaaaaaaaaaaaaaaaaaaaaaaaaaaaaaaaaaaaaaaaaaaaaaaaa",
"aaaaaaaaaaaaaaaaaaaaaccefeeeeeecaaaacceefffecccaaaaaaaaaaaaaaaaaaaaaaaaaaaaaaaaaaaaaaccefeeeeeecaaaacceefffecccaaaaaaaaaaaaaaaaaaaaaaaaaaaaaaaaaaccefeeeeeecaaaacceefffecccaaaaaaaaaaaaaaaaaaaaaaaaaaaaaaaaaaaaaaaaaaaaaaaaaaaaaaaaaaaaaaaaaaaaaaaaaaaaaaaaaaaaaaaaaaaaaaaaaaaaaaaaaaaaaaaaaaaaaaaaaaaaaaaaaaaaaaaaaaaaaaaaaaaaaaaaaaaaaaaaaaaaaaaaaaaaaaaaaaaaaaaaaaaaaaaaaaaaaaaaaaaaaaaaaaaaa",
"aaaaaaaaaaaaaaaaaaaacceeeeeefeecaaaaceeeffffeccaaaaaaaaaaaaaaaaaaaaaaaaaaaaaaaaaaaaacceeeeeefeecaaaaceeeffffeccaaaaaaaaaaaaaaaaaaaaaaaaaaaaaaaaacceeeeeefeecaaaaceeeffffeccaaaaaaaaaaaaaaaaaaaaaaaaaaaaaaaaaaaaaaaaaaaaaaaaaaaaaaaaaaaaaaaaaaaaaaaaaaaaaaaaaaaaaaaaaaaaaaaaaaaaaaaaaaaaaaaaaaaaaaaaaaaaaaaaaaaaaaaaaaaaaaaaaaaaaaaaaaaaaaaaaaaaaaaaaaaaaaaaaaaaaaaaaaaaaaaaaaaaaaaaaaaaaaaaaaaaa",
"aaaaaaaaaaaaaaaaaaaceeeceeceeecaaaaaceeeeeeeeccaaaaaaaaaaaaaaaaaaaaaaaaaaaaaaaaaaaaceeeceeceeecaaaaaceeeeeeeeccaaaaaaaaaaaaaaaaaaaaaaaaaaaaaaaaceeeceeceeecaaaaaceeeeeeeeccaaaaaaaaaaaaaaaaaaaaaaaaaaaaaaaaaaaaaaaaaaaaaaaaaaaaaaaaaaaaaaaaaaaaaaaaaaaaaaaaaaaaaaaaaaaaaaaaaaaaaaaaaaaaaaaaaaaaaaaaaaaaaaaaaaaaaaaaaaaaaaaaaaaaaaaaaaaaaaaaaaaaaaaaaaaaaaaaaaaaaaaaaaaaaaaaaaaaaaaaaaaaaaaaaaaaa",
"aaaaaaaaaaaaaaaaaacfcfcfecfeeckaaaaaceefefeeeecaaaaaaaaaaaaaaaaaaaaaaaaaaaaaaaaaaacfcfcfecfeeckaaaaaceefefeeeecaaaaaaaaaaaaaaaaaaaaaaaaaaaaaaacfcfcfecfeeckaaaaaceefefeeeecaaaaaaaaaaaaaaaaaaaaaaaaaaaaaaaaaaaaaaaaaaaaaaaaaaaaaaaaaaaaaaaaaaaaaaaaaaaaaaaaaaaaaaaaaaaaaaaaaaaaaaaaaaaaaaaaaaaaaaaaaaaaaaaaaaaaaaaaaaaaaaaaaaaaaaaaaaaaaaaaaaaaaaaaaaaaaaaaaaaaaaaaaaaaaaaaaaaaaaaaaaaaaaaaaaaaa",
"aaaaaaaaaaaaaaaaaacekekeekeeecaaaaaaeeeceecfeecaaaaaaaaaaaaaaaaaaaaaaaaaaaaaaaaaaacekekeekeeecaaaaaaeeeceecfeecaaaaaaaaaaaaaaaaaaaaaaaaaaaaaaacekekeekeeecaaaaaaeeeceecfeecaaaaaaaaaaaaaaaaaaaaaaaaaaaaaaaaaaaaaaaaaaaaaaaaaaaaaaaaaaaaaaaaaaaaaaaaaaaaaaaaaaaaaaaaaaaaaaaaaaaaaaaaaaaaaaaaaaaaaaaaaaaaaaaaaaaaaaaaaaaaaaaaaaaaaaaaaaaaaaaaaaaaaaaaaaaaaaaaaaaaaaaaaaaaaaaaaaaaaaaaaaaaaaaaaaaaa",
"aaaaaaaaaaaaaaaaaaacacaccacccaaaaaaacefecefcfcfcaaaaaaaaaaaaaaaaaaaaaaaaaaaaaaaaaaacacaccacccaaaaaaacefecefcfcfcaaaaaaaaaaaaaaaaaaaaaaaaaaaaaaacacaccacccaaaaaaacefecefcfcfcaaaaaaaaaaaaaaaaaaaaaaaaaaaaaaaaaaaaaaaaaaaaaaaaaaaaaaaaaaaaaaaaaaaaaaaaaaaaaaaaaaaaaaaaaaaaaaaaaaaaaaaaaaaaaaaaaaaaaaaaaaaaaaaaaaaaaaaaaaaaaaaaaaaaaaaaaaaaaaaaaaaaaaaaaaaaaaaaaaaaaaaaaaaaaaaaaaaaaaaaaaaaaaaaaaaa",
"aaaaaaaaaaaaaaaaaaaaaaaaaaaaaaaaaaaaceeekeekekecaaaaaaaaaaaaaaaaaaaaaaaaaaaaaaaaaaaaaaaaaaaaaaaaaaaaceeekeekekecaaaaaaaaaaaaaaaaaaaaaaaaaaaaaaaaaaaaaaaaaaaaaaaaceeekeekekecaaaaaaaaaaaaaaaaaaaaaaaaaaaaaaaaaaaaaaaaaaaaaaaaaaaaaaaaaaaaaaaaaaaaaaaaaaaaaaaaaaaaaaaaaaaaaaaaaaaaaaaaaaaaaaaaaaaaaaaaaaaaaaaaaaaaaaaaaaaaaaaaaaaaaaaaaaaaaaaaaaaaaaaaaaaaaaaaaaaaaaaaaaaaaaaaaaaaaaaaaaaaaaaaaaaa",
"aaaaaaaaaaaaaaaaaaaaaaaaaaaaaaaaaaaaacccaccacacaaaaaaaaaaaaaaaaaaaaaaaaaaaaaaaaaaaaaaaaaaaaaaaaaaaaaacccaccacacaaaaaaaaaaaaaaaaaaaaaaaaaaaaaaaaaaaaaaaaaaaaaaaaaacccaccacacaaaaaaaaaaaaaaaaaaaaaaaaaaaaaaaaaaaaaaaaaaaaaaaaaaaaaaaaaaaaaaaaaaaaaaaaaaaaaaaaaaaaaaaaaaaaaaaaaaaaaaaaaaaaaaaaaaaaaaaaaaaaaaaaaaaaaaaaaaaaaaaaaaaaaaaaaaaaaaaaaaaaaaaaaaaaaaaaaaaaaaaaaaaaaaaaaaaaaaaaaaaaaaaaaaaaa",
"aaaaaaaaaaaaaaaaaaaaaaaaaaaaaaaaaaaaaaaaaaaaaaaaaaaaaaaaaaaaaaaaaaaaaaaaaaaaaaaaaaaaaaaaaaaaaaaaaaaaaaaaaaaaaaaaaaaaaaaaaaaaaaaaaaaaaaaaaaaaaaaaaaaaaaaaaaaaaaaaaaaaaaaaaaaaaaaaaaaaaaaaaaaaaaaaaaaaaaaaaaaaaaaaaaaaaaaaaaaaaaaaaaaaaaaaaaaaaaaaaaaaaaaaaaaaaaaaaaaaaaaaaaaaaaaaaaaaaaaaaaaaaaaaaaaaaaaaaaaaaaaaaaaaaaaaaaaaaaaaaaaaaaaaaaaaaaaaaaaaaaaaaaaaaaaaaaaaaaaaaaaaaaaaaaaaaaaaaaaaaaaa",
"aaaaaaaaaaaaaaaaaaaaaaaaaaaaaaaaaaaaaaaaaaaaaaaaaaaaaaaaaaaaaaaaaaaaaaaaaaaaaaaaaaaaaaaaaaaaaaaaaaaaaaaaaaaaaaaaaaaaaaaaaaaaaaaaaaaaaaaaaaaaaaaaaaaaaaaaaaaaaaaaaaaaaaaaaaaaaaaaaaaaaaaaaaaaaaaaaaaaaaaaaaaaaaaaaaaaaaaaaaaaaaaaaaaaaaaaaaaaaaaaaaaaaaaaaaaaaaaaaaaaaaaaaaaaaaaaaaaaaaaaaaaaaaaaaaaaaaaaaaaaaaaaaaaaaaaaaaaaaaaaaaaaaaaaaaaaaaaaaaaaaaaaaaaaaaaaaaaaaaaaaaaaaaaaaaaaaaaaaaaaaaaa",
"aaaaaaaaaaaaaaaaaaaaaaaaaaaaaaaaaaaaaaaaaaaaaaaaaaaaaaaaaaaaaaaaaaaaaaaaaaaaaaaaaaaaaaaaaaaaaaaaaaaaaaaaaaaaaaaaaaaaaaaaaaaaaaaaaaaaaaaaaaaaaaaaaaaaaaaaaaaaaaaaaaaaaaaaaaaaaaaaaaaaaaaaaaaaaaaaaaaaaaaaaaaaaaaaaaaaaaaaaaaaaaaaaaaaaaaaaaaaaaaaaaaaaaaaaaaaaaaaaaaaaaaaaaaaaaaaaaaaaaaaaaaaaaaaaaaaaaaaaaaaaaaaaaaaaaaaaaaaaaaaaaaaaaaaaaaaaaaaaaaaaaaaaaaaaaaaaaaaaaaaaaaaaaaaaaaaaaaaaaaaaaaa",
"aaaaaaaaaaaaaaaaaaaaaaaaaaaaaaaaaaaaaaaaaaaaaaaaaaaaaaaaaaaaaaaaaaaaaaaaaaaaaaaaaaaaaaaaaaaaaaaaaaaaaaaaaaaaaaaaaaaaaaaaaaaaaaaaaaaaaaaaaaaaaaaaaaaaaaaaaaaaaaaaaaaaaaaaaaaaaaaaaaaaaaaaaaaaaaaaaaaaaaaaaaaaaaaaaaaaaaaaaaaaaaaaaaaaaaaaaaaaaaaaaaaaaaaaaaaaaaaaaaaaaaaaaaaaaaaaaaaaaaaaaaaaaaaaaaaaaaaaaaaaaaaaaaaaaaaaaaaaaaaaaaaaaaaaaaaaaaaaaaaaaaaaaaaaaaaaaaaaaaaaaaaaaaaaaaaaaaaaaaaaaaaa",
"aaaaaaaaaaaaaaaaaaaaaaaaaaaaaaaaaaaaaaaaaaaaaaaaaaaaaaaaaaaaaaaaaaaaaaaaaaaaaaaaaaaaaaaaaaaaaaaaaaaaaaaaaaaaaaaaaaaaaaaaaaaaaaaaaaaaaaaaaaaaaaaaaaaaaaaaaaaaaaaaaaaaaaaaaaaaaaaaaaaaaaaaaaaaaaaaaaaaaaaaaaaaaaaaaaaaaaaaaaaaaaaaaaaaaaaaaaaaaaaaaaaaaaaaaaaaaaaaaaaaaaaaaaaaaaaaaaaaaaaaaaaaaaaaaaaaaaaaaaaaaaaaaaaaaaaaaaaaaaaaaaaaaaaaaaaaaaaaaaaaaaaaaaaaaaaaaaaaaaaaaaaaaaaaaaaaaaaaaaaaaaaa",
"aaaaaaaaaaaaaaaaaaaaaaaaaaaaaaaaaaaaaaaaaaaaaaaaaaaaaaaaaaaaaaaaaaaaaaaaaaaaaaaaaaaaaaaaaaaaaaaaaaaaaaaaaaaaaaaaaaaaaaaaaaaaaaaaaaaaaaaaaaaaaaaaaaaaaaaaaaaaaaaaaaaaaaaaaaaaaaaaaaaaaaaaaaaaaaaaaaaaaaaaaaaaaaaaaaaaaaaaaaaaaaaaaaaaaaaaaaaaaaaaaaaaaaaaaaaaaaaaaaaaaaaaaaaaaaaaaaaaaaaaaaaaaaaaaaaaaaaaaaaaaaaaaaaaaaaaaaaaaaaaaaaaaaaaaaaaaaaaaaaaaaaaaaaaaaaaaaaaaaaaaaaaaaaaaaaaaaaaaaaaaaaa",
"aaaaaaaaaaaaaaaaaaaaaaaaaaaaaaaaaaaaaaaaaaaaaaaaaaaaaaaaaaaaaaaaaaaaaaaaaaaaaaaaaaaaaaaaaaaaaaaaaaaaaaaaaaaaaaaaaaaaaaaaaaaaaaaaaaaaaaaaaaaaaaaaaaaaaaaaaaaaaaaaaaaaaaaaaaaaaaaaaaaaaaaaaaaaaaaaaaaaaaaaaaaaaaaaaaaaaaaaaaaaaaaaaaaaaaaaaaaaaaaaaaaaaaaaaaaaaaaaaaaaaaaaaaaaaaaaaaaaaaaaaaaaaaaaaaaaaaaaaaaaaaaaaaaaaaaaaaaaaaaaaaaaaaaaaaaaaaaaaaaaaaaaaaaaaaaaaaaaaaaaaaaaaaaaaaaaaaaaaaaaaaaa",
"aaaaaaaaaaaaaaaaaaaaaaaaaaaaaaaaaaaaaaaaaaaaaaaaaaaaaaaaaaaaaaaaaaaaaaaaaaaaaaaaaaaaaaaaaaaaaaaaaaaaaaaaaaaaaaaaaaaaaaaaaaaaaaaaaaaaaaaaaaaaaaaaaaaaaaaaaaaaaaaaaaaaaaaaaaaaaaaaaaaaaaaaaaaaaaaaaaaaaaaaaaaaaaaaaaaaaaaaaaaaaaaaaaaaaaaaaaaaaaaaaaaaaaaaaaaaaaaaaaaaaaaaaaaaaaaaaaaaaaaaaaaaaaaaaaaaaaaaaaaaaaaaaaaaaaaaaaaaaaaaaaaaaaaaaaaaaaaaaaaaaaaaaaaaaaaaaaaaaaaaaaaaaaaaaaaaaaaaaaaaaaaa",
"aaaaaaaaaaaaaaaaaaaaaaaaaaaaaaaaaaaaaaaaaaaaaaaaaaaaaaaaaaaaaaaaaaaaaaaaaaaaaaaaaaaaaaaaaaaaaaaaaaaaaaaaaaaaaaaaaaaaaaaaaaaaaaaaaaaaaaaaaaaaaaaaaaaaaaaaaaaaaaaaaaaaaaaaaaaaaaaaaaaaaaaaaaaaaaaaaaaaaaaaaaaaaaaaaaaaaaaaaaaaaaaaaaaaaaaaaaaaaaaaaaaaaaaaaaaaaaaaaaaaaaaaaaaaaaaaaaaaaaaaaaaaaaaaaaaaaaaaaaaaaaaaaaaaaaaaaaaaaaaaaaaaaaaaaaaaaaaaaaaaaaaaaaaaaaaaaaaaaaaaaaaaaaaaaaaaaaaaaaaaaaaa",
"aaaaaaaaaaaaaaaaaaaaaaaaaaaaaaaaaaaaaaaaaaaaaaaaaaaaaaaaaaaaaaaaaaaaaaaaaaaaaaaaaaaaaaaaaaaaaaaaaaaaaaaaaaaaaaaaaaaaaaaaaaaaaaaaaaaaaaaaaaaaaaaaaaaaaaaaaaaaaaaaaaaaaaaaaaaaaaaaaaaaaaaaaaaaaaaaaaaaaaaaaaaaaaaaaaaaaaaaaaaaaaaaaaaaaaaaaaaaaaaaaaaaaaaaaaaaaaaaaaaaaaaaaaaaaaaaaaaaaaaaaaaaaaaaaaaaaaaaaaaaaaaaaaaaaaaaaaaaaaaaaaaaaaaaaaaaaaaaaaaaaaaaaaaaaaaaaaaaaaaaaaaaaaaaaaaaaaaaaaaaaaaa",
"aaaaaaaaaaaaaaaaaaaaaaaaaaaaaaaaaaaaaaaaaaaaaaaaaaaaaaaaaaaaaaaaaaaaaaaaaaaaaaaaaaaaaaaaaaaaaaaaaaaaaaaaaaaaaaaaaaaaaaaaaaaaaaaaaaaaaaaaaaaaaaaaaaaaaaaaaaaaaaaaaaaaaaaaaaaaaaaaaaaaaaaaaaaaaaaaaaaaaaaaaaaaaaaaaaaaaaaaaaaaaaaaaaaaaaaaaaaaaaaaaaaaaaaaaaaaaaaaaaaaaaaaaaaaaaaaaaaaaaaaaaaaaaaaaaaaaaaaaaaaaaaaaaaaaaaaaaaaaaaaaaaaaaaaaaaaaaaaaaaaaaaaaaaaaaaaaaaaaaaaaaaaaaaaaaaaaaaaaaaaaaaa",
"aaaaaaaaaaaaaaaaaaaaaaaaaaaaaaaaaaaaaaaaaaaaaaaaaaaaaaaaaaaaaaaaaaaaaaaaaaaaaaaaaaaaaaaaaaaaaaaaaaaaaaaaaaaaaaaaaaaaaaaaaaaaaaaaaaaaaaaaaaaaaaaaaaaaaaaaaaaaaaaaaaaaaaaaaaaaaaaaaaaaaaaaaaaaaaaaaaaaaaaaaaaaaaaaaaaaaaaaaaaaaaaaaaaaaaaaaaaaaaaaaaaaaaaaaaaaaaaaaaaaaaaaaaaaaaaaaaaaaaaaaaaaaaaaaaaaaaaaaaaaaaaaaaaaaaaaaaaaaaaaaaaaaaaaaaaaaaaaaaaaaaaaaaaaaaaaaaaaaaaaaaaaaaaaaaaaaaaaaaaaaaaa",
"aaaaaaaaaaaaaaaaaaaaaaaaaaaaaaaaaaaaaaaabaaaaaaaaaaaaaaaaaaaaaaaaaaaaaaaaaaaaaaaaaaaaaaaaaaaaaaaaaaaabaaaaaaaaaaaaaaaaaaaaaaaaaaaaaaaaaaaaaaaaaaaaaaaaaaaaaaaaaaaaaaabaaaaaaaaaaaaaaaaaaaaaaaaaaaaaaaaaaaaaaaaaaaaaaaaaaaaaaaaaaaaaaaaaaaaaaaaaaaaaaaaaaaaaaaaaaaaaaaaaaaaaaaaaaaaaaaaaaaaaaaaaaaaaaaaaaaaaaaaaaaaaaaaaaaaaaaaaaaaaaaaaaaaaaaaaaaaaaaaaaaaaaaaaaaaaaaaaaaaaaaaaaaaaaaaaaaaaaaaaa",
"aaaaaaaaaaaaaaaaaaaaaaaaaaaaaacccccccaaadaaaaaaaaaaaaaaaaaaaaaaaaaaaaaaaaaaaaaaaaaaaaaaaaaacccccccaaadaaaaaaaaaaaaaaaaaaaaaaaaaaaaaaaaaaaaaaaaaaaaaaaaaaaaacccccccaaadaaaaaaaaaaaaaaaaaaaaaaaaaaaaaaaaaaaaaaaaaaaaaaaaaaaaaaaaaaaaaaaaaaaaaaaaaaaaaaaaaaaaaaaaaaaaaaaaaaaaaaaaaaaaaaaaaaaaaaaaaaaaaaaaaaaaaaaaaaaaaaaaaaaaaaaaaaaaaaaaaaaaaaaaaaaaaaaaaaaaaaaaaaaaaaaaaaaaaaaaaaaaaaaaaaaaaaaaaa",
"aaaaaaaaaaaaaaaaaaaaaaaaaaaacceeeeeeeccadaaaaaaaaaaaaaaaaaaaaaaaaaaaaaaaaaaaaaaaaaaaaaaaacceeeeeeeccadaaaaaaaaaaaaaaaaaaaaaaaaaaaaaaaaaaaaaaaaaaaaaaaaaaacceeeeeeeccadaaaaaaaaaaaaaaaaaaaaaaaaaaaaaaaaaaaaaaaaaaaaaaaaaaaaaaaaaaaaaaaaaaaaaaaaaaaaaaaaaaaaaaaaaaaaaaaaaaaaaaaaaaaaaaaaaaaaaaaaaaaaaaaaaaaaaaaaaaaaaaaaaaaaaaaaaaaaaaaaaaaaaaaaaaaaaaaaaaaaaaaaaaaaaaaaaaaaaaaaaaaaaaaaaaaaaaaaaa",
"aaaaaaaaaaaaaaaaaaaaaaaaaaaceeefffffeeecdaaaaaaaaaaaaaaaaaaaaaaaaaaaaaaaaaaaaaaaaaaaaaaaceeefffffeeecdaaaaaaaaaaaaaaaaaaaaaaaaaaaaaaaaaaaaaaaaaaaaaaaaaaceeefffffeeecdaaaaaaaaaaaaaaaaaaaaaaaaaaaaaaaaaaaaaaaaaaaaaaaaaaaaaaaaaaaaaaaaaaaaaaaaaaaaaaaaaaaaaaaaaaaaaaaaaaaaaaaaaaaaaaaaaaaaaaaaaaaaaaaaaaaaaaaaaaaaaaaaaaaaaaaaaaaaaaaaaaaaaaaaaaaaaaaaaaaaaaaaaaaaaaaaaaaaaaaaaaaaaaaaaaaaaaaaaa",
"aaaaaaaaaaaaaaaaaaaaaaaaaaaceeffgggffeecdaaaaaaaaaaaaaaaaaaaaaaaaaaaaaaaaaaaaaaaaaaaaaaaceeffgggffeecdaaaaaaaaaaaaaaaaaaaaaaaaaaaaaaaaaaaaaaaaaaaaaaaaaaceeifgggffeecdaaaaaaaaaaaaaaaaaaaaaaaaaaaaaaaaaaaaaaaaaaaaaaaaaaaaaaaaaaaaaaaaaaaaaaaaaaaaaaaaaaaaaaaaaaaaaaaaaaaaaaaaaaaaaaaaaaaaaaaaaaaaaaaaaaaaaaaaaaaaaaaaaaaaaaaaaaaaaaaaaaaaaaaaaaaaaaaaaaaaaaaaaaaaaaaaaaaaaaaaaaaaaaaaaaaaaaaaaa",
"aaaaaaaaaaaaaaaaaaaaaaaaaaceeeefffffeeehbiaaaaaaaaaaaaaaaaaaaaaaaaaaaaaaaaaaaaaaaaaaaaaceeeefffffeeehbiaaaaaaaaaaaaaaaaaaaaaaaaaaaaaaaaaaaaaaaaaaaaaaaaceeeefffffeeehbiaaaaaaaaaaaaaaaaaaaaaaaaaaaaaaaaaaaaaaaaaaaaaaaaaaaaaaaaaaaaaaaaaaaaaaaaaaaaaaaaaaaaaaaaaaaaaaaaaaaaaaaaaaaaaaaaaaaaaaaaaaaaaaaaaaaaaaaaaaaaaaaaaaaaaaaaaaaaaaaaaaaaaaaaaaaaaaaaaaaaaaaaaaaaaaaaaaaaaaaaaaaaaaaaaaaaaaaaa",
"aaaaaaaaaaaaaaaaaaaaaaaaaaceeeeefffeeeehjhaaaaaaaaaaaaaaaaaaaaaaaaaaaaaaaaaaaaaaaaaaaaaceeeeefffeeeehjhaaaaaaaaaaaaaaaaaaaaaaaaaaaaaaaaaaaaaaaaaaaaaaaaceeeiefffeeeehjhaaaaaaaaaaaaaaaaaaaaaaaaaaaaaaaaaaaaaaaaaaaaaaaaaaaaaaaaaaaaaaaaaaaaaaaaaaaaaaaaaaaaaaaaaaaaaaaaaaaaaaaaaaaaaaaaaaaaaaaaaaaaaaaaaaaaaaaaaaaaaaaaaaaaaaaaaaaaaaaaaaaaaaaaaaaaaaaaaaaaaaaaaaaaaaaaaaaaaaaaaaaaaaaaaaaaaaaaa",
"aaaaaaaaaaaaaaaaaaaaaaaaaaekffeceeeceffkhaaaaaaaaaaaaaaaaaaaaaaaaaaaaaaaaaaaaaaaaaaaaaaekffeceeeceffkhaaaaaaaaaaaaaaaaaaaaaaaaaaaaaaaaaaaaaaaaaaaaaaaaaekffMceeeceffkhaaaaaaaaaaaaaaaaaaaaaaaaaaaaaaaaaaaaaaaaaaaaaaaaaaaaaaaaaaaaaaaaaaaaaaaaaaaaaaaaaaaaaaaaaaaaaaaaaaaaaaaaaaaaaaaaaaaaaaaaaaaaaaaaaaaaaaaaaaaaaaaaaaaaaaaaaaaaaaaaaaaaaaaaaaaaaaaaaaaaaaaaaaaaaaaaaaaaaaaaaaaaaaaaaaaaaaaaaa",
"aaaaaaaaaaaaaaaaaaaaaaacffcclcfecfcefclccffcaaaaaaaaaaaaaaaaaaaaaaaaaaaaaaaaaaaaaaaacffcclcfecfcefclccffcaaaaaaaaaaaaaaaaaaaaaaaaaaaaaaaaaaaaaaaaaaacffcclcMecfcefclccffcaaaaaaaaaaaaaaaaaaaaaaaaaaaaaaaaaaaaaaaaaaaaaaaaaaaaaaaaaaaaaaaaaaaaaaaaaaaaaaaaaaaaaaaaaaaaaaaaaaaaaaaaaaaaaaaaaaaaaaaaaaaaaaaaaaaaaaaaaaaaaaaaaaaaaaaaaaaaaaaaaaaaaaaaaaaaaaaaaaaaaaaaaaaaaaaaaaaaaaaaaaaaaaaaaaaaaaa",
"aaaaaaaaaaaaaaaaaaaaaaaaklccmnkokkkoknmcclkaaaaaaaaaaaaaaaaaaaaaaaaaaaaaaaaaaaaaaaaaaklccHIkIkkkIkIHcclkaaaaaaaaaaaaaaaaaaaaaaaaaaaaaaaaaaaaaaaaaaaaaklccHINIkkkIkIHcclkaaaaaaaaaaaaaaaaaaaaaaaaaaaaaaaaaaaaaaaaaaaaaaaaaaaaaaaaaaaaaaaaaaaaaaaaaaaaaaaaaaaaaaaaaaaaaaaaaaaaaaaaaaaaaaaaaaaaaaaaaaaaaaaaaaaaaaaaaaaaaaaaaaaaaaaaaaaaaaaaaaaaaaaaaaaaaaaaaaaaaaaaaaaaaaaaaaaaaaaaaaaaaaaaaaaaaaaa",
"aaaaaaaaaaaaaaaaaaaaaaaaackfckkcegeckkcfkcaaaaaaaaaaaaaaaaaaaaaaaaaaaaaaaaaaaaaaaaaaaackfckkcegeckkcfkcaaaaaaaaaaaaaaaaaaaaaaaaaaaaaaaaaaaaaaaaaaaaaaackfckNcegeckkcfkcaaaaaaaaaaaaaaaaaaaaaaaaaaaaaaaaaaaaaaaaaaaaaaaaaaaaaaaaaaaaaaaaaaaaaaaaaaaaaaaaaaaaaaaaaaaaaaaaaaaaaaaaaaaaaaaaaaaaaaaaaaaaaaaaaaaaaaaaaaaaaaaaaaaaaaaaaaaaaaaaaaaaaaaaaaaaaaaaaaaaaaaaaaaaaaaaaaaaaaaaaaaaaaaaaaaaaaaaa",
"aaaaaaaaaaaaaaaaaaaaaaaaaclegfckckckcfgelcaaaaaaaaaaaaaaaaaaaaaaaaaaaaaaaaaaaaaaaaaaaaclegfckckckcfgelcaaaaaaaaaaaaaaaaaaaaaaaaaaaaaaaaaaaaaaaaaaaaaaacleginickckcfgelcaaaaaaaaaaaaaaaaaaaaaaaaaaaaaaaaaaaaaaaaaaaaaaaaaaaaaaaaaaaaaaaaaaaaaaaaaaaaaaaaaaaaaaaaaaaaaaaaaaaaaaaaaaaaaaaaaaaaaaaaaaaaaaaaaaaaaaaaaaaaaaaaaaaaaaaaaaaaaaaaaaaaaaaaaaaaaaaaaaaaaaaaaaaaaaaaaaaaaaaaaaaaaaaaaaaaaaaaa",
"aaaaaaaaaaaaaaaaqqqqqqqqqqckeeffgggffeekcaaaaaaaaaaaaaaaaaaaaaaaaaaaaaaaaaaaaaaaaaaaaaackeOPQgggffeekcqqqqqqqqqaaaaaaaaaaaaaaaaaaaaaaaaaaaaaaaaaaaaaaaackRMnMRggffeekcqqqqqqqqqaaaaaaaaaaaaaaaaaaaaaaaaaaaaaaaaaaaaaaaaaaaaaaaaaaaaaaaaaaaaaaaaaaaaaaaaaaaaaaaaaaaaaaaaaaaaaaaaaaaaaaaaaaaaaaaaaaaaaaaaaaaaaaaaaaaaaaaaaaaaaaaaaaaaaaaaaaaaaaaaaaaaaaaaaaaaaaaaaaaaaaaaaaaaaaaaaaaaaaaaaaaaaaaaa",
"aaaaaaaaaaaaqqqqtvvvvvttvdccefkpppppkfeccdqqqqqqqaaaaaaaaaaaaaaaaaaaaaaaaaaaaaaqqqqqqqdccRPRPRpppkfeccdtttvvtttqqqaaaaaaaaaaaaaaaaaaaaaaaaaaqqqqqqqqqqdciNnSnNippkfeccdtttvvtttqqqaaaaaaaaaaaaaaaaaaaaaaaaaaaaaaaaaaaaaaaaaaaaaaaaaaaaaaaaaaaaaaaaaaaaaaaaaaaaaaaaaaaaaaaaaaaaaaaaaaaaaaaaaaaaaaaaaaaaaaaaaaaaaaaaaaaaaaaaaaaaaaaaaaaaaaaaaaaaaaaaaaaaaaaaaaaaaaaaaaaaaaaaaaaaaaaaaaaaaaaaaaaaaa",
"aaaaaaaaaqqqtttvvvvtttttteceekpyuxuypkeecetttttttqqqqaaaaaaaaaaaaaaaaaaaaaaaqqqtttttttzcOPTUTPQuypkeeceztttttvvwvtqqaaaaaaaaaaaaaaaaaaaaaaqqtttvtttitiMNNnSSSnNNMikieceztttttvvwvtqqaaaaaaaaaaaaaaaaaaaaaaaaaaaaaaaaaaaaaaaaaaaaaaaaaaaaaaaaaaaaaaaaaaaaaaaaaaaaaaaaaaaaaaaaaaaaaaaaaaaaaaaaaaaaaaaaaaaaaaaaaaaaaaaaaaaaaaaaaaaaaaaaaaaaaaaaaaaaaaaaaaaaaaaaaaaaaaaaaaaaaaaaaaaaaaaaaaaaaaaaaaaa",
"aaaaaaaqqtvwwvtttqtvvwwwvfkeepprsqsrppeekfvwwwvvvvtvtqqqaaaaaaaaaaaaaaaaaaqqtttvtvwwwvvkPTUVURPyxppeekffwwwvvtqtttvtqaaaaaaaaaaaaaaaaaaaqqttvvttvvwwwvvkiNnSnNippupeekffwwwvvtqtttvtqaaaaaaaaaaaaaaaaaaaaaaaaaaaaaaaaaaaaaaaaaaaaaaaaaaaaaaaaaaaaaaaaaaaaaaaaaaaaaaaaaaaaaaaaaaaaaaaaaaaaaaaaaaaaaaaaaaaaaaaaaaaaaaaaaaaaaaaaaaaaaaaaaaaaaaaaaaaaaaaaaaaaaaaaaaaaaaaaaaaaaaaaaaaaaaaaaaaaaaaaaaa",
"aaaaaaqtvtttttvwwwwwvvvvteccepupppppupeccetvvvvwqvvttvvtqqaaaaaaaaaaaaaaqqttvvttvvvvvttkQPTUTPQeckfeckeevvvvwwvtqttttqaaaaaaaaaaaaaaaaastttqtqqtvtvvvttkcRMnMRxyxpfeckeevvvvwwvtqttttqaaaaaaaaaaaaaaaaaaaaaaaaaaaaaaaaaaaaaaaaaaaaaaaaaaaaaaaaaaaaaaaaaaaaaaaaaaaaaaaaaaaaaaaaaaaaaaaaaaaaaaaaaaaaaaaaaaaaaaaaaaaaaaaaaaaaaaaaaaaaaaaaaaaaaaaaaaaaaaaaaaaaaaaaaaaaaaaaaaaaaaaaaaaaaaaaaaaaaaaaaa",
"aaaaaqtvtvtqtqqtvqqqttttteekefpxyxyxpfekeetttttqvqvtqqtqtvqqaaaaaaaaaaastttqtqqtvttttttekRPRPRggffekkeeettttqqtvvtqttqaaaaaaaaaaaaaaaaastttvvvtqtqqqqqqccciniWggffekkeeettttqqtvvtqttqaaaaaaaaaaaaaaaaaaaaaaaaaaaaaaaaaaaaaaaaaaaaaaaaaaaaaaaaaaaaaaaaaaaaaaaaaaaaaaaaaaaaaaaaaaaaaaaaaaaaaaaaaaaaaaaaaaaaaaaaaaaaaaaaaaaaaaaaaaaaaaaaaaaaaaaaaaaaaaaaaaaaaaaaaaaaaaaaaaaaaaaaaaaaaaaaaaaaaaaaaa",
"aaaaaqtttqtvvvtqttvtqqqqqccckeffgggffekcccqqqqqttwtqtvvvtqvtqaaaaaaaaaastttvvvtqtqqqqqqcccQPXWcfcekcccccqqqqtvvwwvttqtqaaaaaaaaaaaaaaastvtvvwwvtqvvwwkefgcWNYWkfcekcccccqqqqtvvwwvttqtqaaaaaaaaaaaaaaaaaaaaaaaaaaaaaaaaaaaaaaaaaaaaaaaaaaaaaaaaaaaaaaaaaaaaaaaaaaaaaaaaaaaaaaaaaaaaaaaaaaaaaaaaaaaaaaaaaaaaaaaaaaaaaaaaaaaaaaaaaaaaaaaaaaaaaaaaaaaaaaaaaaaaaaaaaaaaaaaaaaaaaaaaaaaaaaaaaaaaaaaaa",
"aaaaqtvqttvwwwvtqtttvvwwwzfeekecfcfcekeefzwwwvvttqqtvwwvvttvtqaaaaaaaastvtvvwwvtqvvwwkefgcWOYWkkkkcceefzwwvvtstwwvvtttqaaaaaaaaaaaaaaastttvvwwvtqqttkcfggcWNQWfkkkcceefzwwvvtstwwvvtttqaaaaaaaaaaaaaaaaaaaaaaaaaaaaaaaaaaaaaaaaaaaaaaaaaaaaaaaaaaaaaaaaaaaaaaaaaaaaaaaaaaaaaaaaaaaaaaaaaaaaaaaaaaaaaaaaaaaaaaaaaaaaaaaaaaaaaaaaaaaaaaaaaaaaaaaaaaaaaaaaaaaaaaaaaaaaaaaaaaaaaaaaaaaaaaaaaaaaaaaaa",
"aaaaqttttvvwwvvtqttttttttteeeekkkkkkkeeeetttttttttqtvwwvvvtttqaaaaaaaastttvvwwvtqqttkcfggcWOQWfccefeeeetttttttqvvwvttqqaaaaaaaaaaaaaaastvttvvvttsqtvkfgJfgcMWJgccefeeeetttttttqvvwvttqqaaaaaaaaaaaaaaaaaaaaaaaaaaaaaaaaaaaaaaaaaaaaaaaaaaaaaaaaaaaaaaaaaaaaaaaaaaaaaaaaaaaaaaaaaaaaaaaaaaaaaaaaaaaaaaaaaaaaaaaaaaaaaaaaaaaaaaaaaaaaaaaaaaaaaaaaaaaaaaaaaaaaaaaaaaaaaaaaaaaaaaaaaaaaaaaaaaaaaaaaa",
"aaaaqtqttvwvvvttqqttvvvvvvAeeeeceeeceeeevvvvvvvtvtqttvvwvvtqvtqaaaaaaastvttvvvttsqtvkfgJfgcWWJgeeceeeeAvvvvvttqtvvtttsqaaaaaaaaaaaaaaastvvqqtvvwwwqkcffffffMffeeeceeeeAvvvvvttqtvvtttsqaaaaaaaaaaaaaaaaaaaaaaaaaaaaaaaaaaaaaaaaaaaaaaaaaaaaaaaaaaaaaaaaaaaaaaaaaaaaaaaaaaaaaaaaaaaaaaaaaaaaaaaaaaaaaaaaaaaaaaaaaaaaaaaaaaaaaaaaaaaaaaaaaaaaaaaaaaaaaaaaaaaaaaaaaaaaaaaaaaaaaaaaaaaaaaaaaaaaaaaaa",
"aaaaqtstttvvvttvvwvvvvwwwvtqBeeececeeeBqtvvvvvvvttqtttvvvvttttqaaaaaaastvvqqtvvwwwqkcfffffffffeeceeeBqtvwwvvvvtqttttqsaaaaaaaaaaaaaaaasttqtwvcefeeckceffekkickteceeeBqtvwwvvvvtqttttqsaaaaaaaaaaaaaaaaaaaaaaaaaaaaaaaaaaaaaaaaaaaaaaaaaaaaaaaaaaaaaaaaaaaaaaaaaaaaaaaaaaaaaaaaaaaaaaaaaaaaaaaaaaaaaaaaaaaaaaaaaaaaaaaaaaaaaaaaaaaaaaaaaaaaaaaaaaaaaaaaaaaaaaaaaaaaaaaaaaaaaaaaaaaaaaaaaaaaaaaaaa",
"aaaaaqsqtttttqsssstvvwwwwwwvvvqtttttqvvvvtnnnvvvvqqtttttttttqtqaaaaaaasttqtwvcefeeckceffekkcckttttqvvvwwwnnnqtqsssqqsraaaaaaaaaaaaaaaastqtwvfffeeckkefgJgggggJftttqvvvwwwnnnqtqsssqqsraaaaaaaaaaaaaaaaaaaaaaaaaaaaaaaaaaaaaaaaaaaaaaaaaaaaaaaaaaaaaaaaaaaaaaaaaaaaaaaaaaaaaaaaaaaaaaaaaaaaaaaaaaaaaaaaaaaaaaaaaaaaaaaaaaaaaaaaaaaaaaaaaaaaaaaaaaaaaaaaaaaaaaaaaaaaaaaaaaaaaaaaaaaaaaaaaaaaaaaaaa",
"aaaaqttsqqssstvvwvvvvvvwwwvvvvvtqtqtvvvvvqnnnvvvqwvqttttttttstqaaaaaaastqtwvfffeeckkefgJgggggJftqtvvvvvwwnnnsqqsrrrrrrraaaaaaaaaaaaaaasqqvwfffffffekeffgfffiffetqtvvvvvwwnnnsqqsrrrrrrraaaaaaaaaaaaaaaaaaaaaaaaaaaaaaaaaaaaaaaaaaaaaaaaaaaaaaaaaaaaaaaaaaaaaaaaaaaaaaaaaaaaaaaaaaaaaaaaaaaaaaaaaaaaaaaaaaaaaaaaaaaaaaaaaaaaaaaaaaaaaaaaaaaaaaaaaaaaaaaaaaaaaaaaaaaaaaaaaaaaaaaaaaaaaaaaaaaaaaaaa",
"aaaqttqttvwwvvttqsqqqttvvvtqqtqtttttqtqqtqqqttqqvssssqtvwvtqsqaaaaaaaasqqvwfffffffekeffgffffffetttqtqqtvvtqssqsrrrsqsrkecaaaaaaaaaaaaaasqvvfefefeeckceffekkcccktttqtqqtvvtqssqsrrrsqsrkecaaaaaaaaaaaaaaaaaaaaaaaaaaaaaaaaaaaaaaaaaaaaaaaaaaaaaaaaaaaaaaaaaaaaaaaaaaaaaaaaaaaaaaaaaaaaaaaaaaaaaaaaaaaaaaaaaaaaaaaaaaaaaaaaaaaaaaaaaaaaaaaaaaaaaaaaaaaaaaaaaaaaaaaaaaaaaaaaaaaaaaaaaaaaaaaaaaaaaaa",
"aaaqtqstvwwwwvvttsvttvvvvvvvvvttqtqttvvvvvvvttvvwwwvvtsssqqsttqaaaaaaaasqvvfefefeeckceffekkcccktqttvvvvvvvvttqsrsqslckeeckaaaaaaaaaaaaasqtvceeeececkefggffeeeqttqttvvvvvvvvttqsrsqslckeeckaaaaaaaaaaaaaaaaaaaaaaaaaaaaaaaaaaaaaaaaaaaaaaaaaaaaaaaaaaaaaaaaaaaaaaaaaaaaaaaaaaaaaaaaaaaaaaaaaaaaaaaaaaaaaaaaaaaaaaaaaaaaaaaaaaaaaaaaaaaaaaaaaaaaaaaaaaaaaaaaaaaaaaaaaaaaaaaaaaaaaaaaaaaaaaaaaaaaaa",
"aaaqqtstvvwvvvvtqaqssqttvvvvttqqtttqqttvvtttvvtqsssttvvwwvttqttqaaaaaaasqtvceeeececkefggffeeeqtttqqttvvvttqssqrsqlcckeeckkcaaaaaaaaaaaaaqttkccccccckeffJggggJetttqqttvvvttqssqrsqlcckeeckkcaaaaaaaaaaaaaaaaaaaaaaaaaaaaaaaaaaaaaaaaaaaaaaaaaaaaaaaaaaaaaaaaaaaaaaaaaaaaaaaaaaaaaaaaaaaaaaaaaaaaaaaaaaaaaaaaaaaaaaaaaaaaaaaaaaaaaaaaaaaaaaaaaaaaaaaaaaaaaaaaaaaaaaaaaaaaaaaaaaaaaaaaaaaaaaaaaaaaa",
"aaaaqtqttvvwwvvtqaqttqsssqqqqqtttvtttqqqqqssssssssttvvwwwwvtsqtqaaaaaaaaqttkccccccckeffJggggJetvtttqqqqqssqttqrqlccleecllecaaaaaaaaaaaaasqvBkkkkckckceffekcccktvtttqqqqqssqttqrqlccleecllecaaaaaaaaaaaaaaaaaaaaaaaaaaaaaaaaaaaaaaaaaaaaaaaaaaaaaaaaaaaaaaaaaaaaaaaaaaaaaaaaaaaaaaaaaaaaaaaaaaaaaaaaaaaaaaaaaaaaaaaaaaaaaaaaaaaaaaaaaaaaaaaaaaaaaaaaaaaaaaaaaaaaaaaaaaaaaaaaaaaaaaaaaaaaaaaaaaaaa",
"aaaaqtqqtttttttqqasqqttttttvvwwvtttvwwvtttttttqqqsqtvvvvwvvtstqqaaaaaaaasqvBkkkkckckceffekccckttvwwvvttttttqqsrqKeclcclceckcaaaaaaaaaaaaasttkckckkkkcefgffffetttvwwvvttttttqqsrqKeclcclceckcaaaaaaaaaaaaaaaaaaaaaaaaaaaaaaaaaaaaaaaaaaaaaaaaaaaaaaaaaaaaaaaaaaaaaaaaaaaaaaaaaaaaaaaaaaaaaaaaaaaaaaaaaaaaaaaaaaaaaaaaaaaaaaaaaaaaaaaaaaaaaaaaaaaaaaaaaaaaaaaaaaaaaaaaaaaaaaaaaaaaaaaaaaaaaaaaaaaa",
"aaaaqtttqqsssssqqaqtttqtvwwwvtttttttttvwwwvtqtttqaqtvvwwvvttqtqaaaaaaaaaaqttkckckkkkcefgffffettttttvwwwvtqtttqrsKccllkecllecaaaaaaaaaaaaaasqtkkkkllllceeeeeecssttttvwwwvtqtttqrsKccllkecllecaaaaaaaaaaaaaaaaaaaaaaaaaaaaaaaaaaaaaaaaaaaaaaaaaaaaaaaaaaaaaaaaaaaaaaaaaaaaaaaaaaaaaaaaaaaaaaaaaaaaaaaaaaaaaaaaaaaaaaaaaaaaaaaaaaaaaaaaaaaaaaaaaaaaaaaaaaaaaaaaaaaaaaaaaaaaaaaaaaaaaaaaaaaaaaaaaaaa",
"aaaaqtzeffeekefQZaqqttvtttqqqqqqsssqqqttttvvttqqaaqqtttttttqqtqaaaaaaaaaasqqtkkkkllllceeeeeecsssqqqqqqtttvttqqrsKlkklecleclkaaaaaaaaaaaaaaaassssssssssssssssssssqqqqqqtttvttqqrsKlkklecleclkaaaaaaaaaaaaaaaaaaaaaaaaaaaaaaaaaaaaaaaaaaaaaaaaaaaaaaaaaaaaaaaaaaaaaaaaaaaaaaaaaaaaaaaaaaaaaaaaaaaaaaaaaaaaaaaaaaaaaaaaaaaaaaaaaaaaaaaaaaaaaaaaaaaaaaaaaaaaaaaaaaaaaaaaaaaaaaaaaaaaaaaaaaaaaaaaaaaa",
"aaaaqLecffeeceWW01aqsqtqsssssssrrrrrssssqqttvttqaaqqsssssqqtttqaaaaaaaaaaaasqqssqqrrttqqssssrrrrrsssssssqtqsqarrrKlcklkeklccaaaaaaaaaaaaaaaaaassqqrrttqqssssrrrrrsssssssqtqsqarrrKlcklkeklccaaaaaaaaaaaaaaaaaaaaaaaaaaaaaaaaaaaaaaaaaaaaaaaaaaaaaaaaaaaaaaaaaaaaaaaaaaaaaaaaaaaaaaaaaaaaaaaaaaaaaaaaaaaaaaaaaaaaaaaaaaaaaaaaaaaaaaaaaaaaaaaaaaaaaaaaaaaaaaaaaaaaaaaaaaaaaaaaaaaaaaaaaaaaaaaaaaaa",
"aaaaqefceffeecZ0200hssssssqqqttqqsqqqqqqsssqtqshaaqzfekeeffeztqaaaaaaaaaaaaaaaahrrrssssqqqqqqsqqttqqqsssssshaaarsrKkllekkckkaaaaaaaaaaaaaaaaaaahrrrssssqqqqqqsqqttqqqsssssshaaarsrKkllekkckkaaaaaaaaaaaaaaaaaaaaaaaaaaaaaaaaaaaaaaaaaaaaaaaaaaaaaaaaaaaaaaaaaaaaaaaaaaaaaaaaaaaaaaaaaaaaaaaaaaaaaaaaaaaaaaaaaaaaaaaaaaaaaaaaaaaaaaaaaaaaaaaaaaaaaaaaaaaaaaaaaaaaaaaaaaaaaaaaaaaaaaaaaaaaaaaaaaaa",
"aaaacefecefeecf10304hhhhsqqttvvvtqtvvttqqqshhhhhaaqefeceeffceLqaaaaaaaaaaaaaaaahhhhhsqqqttvvtqtvvvttqqshhhhhaaaaarrKKllckkaaaaaaaaaaaaaaaaaaaaahhhhhsqqqttvvtqtvvvttqqshhhhhaaaaarrKKllckkaaaaaaaaaaaaaaaaaaaaaaaaaaaaaaaaaaaaaaaaaaaaaaaaaaaaaaaaaaaaaaaaaaaaaaaaaaaaaaaaaaaaaaaaaaaaaaaaaaaaaaaaaaaaaaaaaaaaaaaaaaaaaaaaaaaaaaaaaaaaaaaaaaaaaaaaaaaaaaaaaaaaaaaaaaaaaaaaaaaaaaaaaaaaaaaaaaaaaa",
"aaaaceefceefecec402WI5IhhhhhhhChhdhhChhhhhhhdhdhhacefceeffecfeqaaaaaaaaaaaaaaahhdhdhhhhhhhChhdhhChhhhhhhdhdhhaaaaaaaaallaaaaaaaaaaaaaaaaaaaaaahhdhdhhhhhhhChhdhhChhhhhhhdhdhhaaaaaaaaallaaaaaaaaaaaaaaaaaaaaaaaaaaaaaaaaaaaaaaaaaaaaaaaaaaaaaaaaaaaaaaaaaaaaaaaaaaaaaaaaaaaaaaaaaaaaaaaaaaaaaaaaaaaaaaaaaaaaaaaaaaaaaaaaaaaaaaaaaaaaaaaaaaaaaaaaaaaaaaaaaaaaaaaaaaaaaaaaaaaaaaaaaaaaaaaaaaaaaaaa",
"aaaaaceeeceeckkW678000IhhhhhhhDhhdhhDhhhhhhhhjhhhaacfceefecefecaaaaaaaaaaaaaaahhhjhhhhhhhhDhhdhhDhhhhhhhhjhhhaaaaaaaaaaaaaaaaaaaaaaaaaaaaaaaaahhhjhhhhhhhhDhhdhhDhhhhhhhhjhhhaaaaaaaaaaaaaaaaaaaaaaaaaaaaaaaaaaaaaaaaaaaaaaaaaaaaaaaaaaaaaaaaaaaaaaaaaaaaaaaaaaaaaaaaaaaaaaaaaaaaaaaaaaaaaaaaaaaaaaaaaaaaaaaaaaaaaaaaaaaaaaaaaaaaaaaaaaaaaaaaaaaaaaaaaaaaaaaaaaaaaaaaaaaaaaaaaaaaaaaaaaaaaaaaaaa",
"aaaaaceefeecckkW9X574315hhhhhhFhhhhhFhhhhhhqhdhEhaacecefeecfeecaaaaaaaaaaaaaaahEhdhqhhhhhhFhhhhhFhhhhhhqhdhEhaaaaaaaaaaaaaaaaaaaaaaaaaaaaaaaaahEhdhqhhhhhhFhhhhhFhhhhhhqhdhEhaaaaaaaaaaaaaaaaaaaaaaaaaaaaaaaaaaaaaaaaaaaaaaaaaaaaaaaaaaaaaaaaaaaaaaaaaaaaaaaaaaaaaaaaaaaaaaaaaaaaaaaaaaaaaaaaaaaaaaaaaaaaaaaaaaaaaaaaaaaaaaaaaaaaaaaaaaaaaaaaaaaaaaaaaaaaaaaaaaaaaaaaaaaaaaaaaaaaaaaaaaaaaaaaaaa",
"aaaaaaceeeceeekWZ9600035Otvvttqqtvtqqtvvvvvvhhhhhakkkkceeceeecaaaaaaaaaaaaaaaaahhhhvttttttqqtvtqqtvvvvvvhhhhaaaaaaaaaaaaaaaaaaaaaaaaaaaaaaaaaaahhhhvttttttqqtvtqqtvvvvvvhhhhaaaaaaaaaaaaaaaaaaaaaaaaaaaaaaaaaaaaaaaaaaaaaaaaaaaaaaaaaaaaaaaaaaaaaaaaaaaaaaaaaaaaaaaaaaaaaaaaaaaaaaaaaaaaaaaaaaaaaaaaaaaaaaaaaaaaaaaaaaaaaaaaaaaaaaaaaaaaaaaaaaaaaaaaaaaaaaaaaaaaaaaaaaaaaaaaaaaaaaaaaaaaaaaaaaaa",
"aaaaaaceececefk!W9XI727WOtvwvttqstsqtvvvvvvvvhhqakeeeecceefeecaaaaaaaaaaaaaaaaaqhhvttttttttqstsqtvvvvvvvvhhqaaaaaaaaaaaaaaaaaaaaaaaaaaaaaaaaaaaqhhvttttttttqstsqtvvvvvvvvhhqaaaaaaaaaaaaaaaaaaaaaaaaaaaaaaaaaaaaaaaaaaaaaaaaaaaaaaaaaaaaaaaaaaaaaaaaaaaaaaaaaaaaaaaaaaaaaaaaaaaaaaaaaaaaaaaaaaaaaaaaaaaaaaaaaaaaaaaaaaaaaaaaaaaaaaaaaaaaaaaaaaaaaaaaaaaaaaaaaaaaaaaaaaaaaaaaaaaaaaaaaaaaaaaaaaaa",
"aaaaaacceeeecfek#W9X59Z$Ztvwvvttqsqttvwwvvvwwvtqkeeeeeeeceeecaaaaaaaaaaaaaaaaaaqtvvtqtttttttqsqttvwwvvvwwvtqaaaaaaaaaaaaaaaaaaaaaaaaaaaaaaaaaaaqtvvtqtttttttqsqttvwwvvvwwvtqaaaaaaaaaaaaaaaaaaaaaaaaaaaaaaaaaaaaaaaaaaaaaaaaaaaaaaaaaaaaaaaaaaaaaaaaaaaaaaaaaaaaaaaaaaaaaaaaaaaaaaaaaaaaaaaaaaaaaaaaaaaaaaaaaaaaaaaaaaaaaaaaaaaaaaaaaaaaaaaaaaaaaaaaaaaaaaaaaaaaaaaaaaaaaaaaaaaaaaaaaaaaaaaaaaaa",
"aaaaaaacecefceefkW99XW8ZUTvvvvttqaqtvwwwwvtvwwtqcefcefececeecaaaaaaaaaaaaaaaaaaqtvttqtttttttqaqtvwwwwvtvwwtqaaaaaaaaaaaaaaaaaaaaaaaaaaaaaaaaaaaqtvttqtttttttqaqtvwwwwvtvwwtqaaaaaaaaaaaaaaaaaaaaaaaaaaaaaaaaaaaaaaaaaaaaaaaaaaaaaaaaaaaaaaaaaaaaaaaaaaaaaaaaaaaaaaaaaaaaaaaaaaaaaaaaaaaaaaaaaaaaaaaaaaaaaaaaaaaaaaaaaaaaaaaaaaaaaaaaaaaaaaaaaaaaaaaaaaaaaaaaaaaaaaaaaaaaaaaaaaaaaaaaaaaaaaaaaaaa",
"aaaaaaaceeceekkcc9WZ9XYUURRvvvtqaaaqvvwwvvvvwttqackeefceeeeccaaaaaaaaaaaaaaaaaaqtqtvvtqttttqaaaqvvwwvvvvwttqaaaaaaaaaaaaaaaaaaaaaaaaaaaaaaaaaaaqtqtvvtqttttqaaaqvvwwvvvvwttqaaaaaaaaaaaaaaaaaaaaaaaaaaaaaaaaaaaaaaaaaaaaaaaaaaaaaaaaaaaaaaaaaaaaaaaaaaaaaaaaaaaaaaaaaaaaaaaaaaaaaaaaaaaaaaaaaaaaaaaaaaaaaaaaaaaaaaaaaaaaaaaaaaaaaaaaaaaaaaaaaaaaaaaaaaaaaaaaaaaaaaaaaaaaaaaaaaaaaaaaaaaaaaaaaaaa",
"aaaaaaacefekkccckXXWW99TRUitvttqaaaqtvvvtwGwvqtqceffeecfececaaaaaaaaaaaaaaaaaaaqtstvwttqttqqaaaqtvvvtwGwvqtqaaaaaaaaaaaaaaaaaaaaaaaaaaaaaaaaaaaqtstvwttqttqqaaaqtvvvtwGwvqtqaaaaaaaaaaaaaaaaaaaaaaaaaaaaaaaaaaaaaaaaaaaaaaaaaaaaaaaaaaaaaaaaaaaaaaaaaaaaaaaaaaaaaaaaaaaaaaaaaaaaaaaaaaaaaaaaaaaaaaaaaaaaaaaaaaaaaaaaaaaaaaaaaaaaaaaaaaaaaaaaaaaaaaaaaaaaaaaaaaaaaaaaaaaaaaaaaaaaaaaaaaaaaaaaaaaa",
"aaaaaaaacecccckkXaaqW69vRTiwttqqaaaqqtvtwwwwwstqkccckkeeceecaaaaaaaaaaaaaaaaaaaaqstttttqqqtqaaaqqtvtwwwwwstqaaaaaaaaaaaaaaaaaaaaaaaaaaaaaaaaaaaaqstttttqqqtqaaaqqtvtwwwwwstqaaaaaaaaaaaaaaaaaaaaaaaaaaaaaaaaaaaaaaaaaaaaaaaaaaaaaaaaaaaaaaaaaaaaaaaaaaaaaaaaaaaaaaaaaaaaaaaaaaaaaaaaaaaaaaaaaaaaaaaaaaaaaaaaaaaaaaaaaaaaaaaaaaaaaaaaaaaaaaaaaaaaaaaaaaaaaaaaaaaaaaaaaaaaaaaaaaaaaaaaaaaaaaaaaaaa",
"aaaaaaaaakkkkkkaaaaaq69tvtwTwqtqaaaqtqqqvwwvtsqaakkccckkefecaaaaaaaaaaaaaaaaaaaaqqstttqstttqaaaqtqqqvwwvtsqaaaaaaaaaaaaaaaaaaaaaaaaaaaaaaaaaaaaaqqstttqstttqaaaqtqqqvwwvtsqaaaaaaaaaaaaaaaaaaaaaaaaaaaaaaaaaaaaaaaaaaaaaaaaaaaaaaaaaaaaaaaaaaaaaaaaaaaaaaaaaaaaaaaaaaaaaaaaaaaaaaaaaaaaaaaaaaaaaaaaaaaaaaaaaaaaaaaaaaaaaaaaaaaaaaaaaaaaaaaaaaaaaaaaaaaaaaaaaaaaaaaaaaaaaaaaaaaaaaaaaaaaaaaaaaaaa",
"aaaaaaaaaaaaaaaaaaaaqq9tttqwtttqaaaqtttsqtttsqqaaaakkccccecaaaaaaaaaaaaaaaaaaaaactqssqqvtvtcaaaqtttsqtttsqqaaaaaaaaaaaaaaaaaaaaaaaaaaaaaaaaaaaaactqssqqvtvtcaaaqtttsqtttsqqaaaaaaaaaaaaaaaaaaaaaaaaaaaaaaaaaaaaaaaaaaaaaaaaaaaaaaaaaaaaaaaaaaaaaaaaaaaaaaaaaaaaaaaaaaaaaaaaaaaaaaaaaaaaaaaaaaaaaaaaaaaaaaaaaaaaaaaaaaaaaaaaaaaaaaaaaaaaaaaaaaaaaaaaaaaaaaaaaaaaaaaaaaaaaaaaaaaaaaaaaaaaaaaaaaaaa",
"aaaaaaaaaaaaaaaaaaaactqssqqvwvtcaaaqtvvtqqssqtqaaaaakkkkkkaaaaaaaaaaaaaaaaaaaaaaaceqvtqtvcccaaaqtvvtqqssqtqaaaaaaaaaaaaaaaaaaaaaaaaaaaaaaaaaaaaaaceqvtqtvcccaaaqtvvtqqssqtqaaaaaaaaaaaaaaaaaaaaaaaaaaaaaaaaaaaaaaaaaaaaaaaaaaaaaaaaaaaaaaaaaaaaaaaaaaaaaaaaaaaaaaaaaaaaaaaaaaaaaaaaaaaaaaaaaaaaaaaaaaaaaaaaaaaaaaaaaaaaaaaaaaaaaaaaaaaaaaaaaaaaaaaaaaaaaaaaaaaaaaaaaaaaaaaaaaaaaaaaaaaaaaaaaaaaa",
"aaaaaaaaaaaaaaaaaaaaaceqvtqtveecaaaqtvwvtqqtvtqaaaaaaaaaaaaaaaaaaaaaaaaaaaaaaaaaacecccccccccaaaqtvwvtqqtvtqaaaaaaaaaaaaaaaaaaaaaaaaaaaaaaaaaaaaaacecccccccccaaaqtvwvtqqtvtqaaaaaaaaaaaaaaaaaaaaaaaaaaaaaaaaaaaaaaaaaaaaaaaaaaaaaaaaaaaaaaaaaaaaaaaaaaaaaaaaaaaaaaaaaaaaaaaaaaaaaaaaaaaaaaaaaaaaaaaaaaaaaaaaaaaaaaaaaaaaaaaaaaaaaaaaaaaaaaaaaaaaaaaaaaaaaaaaaaaaaaaaaaaaaaaaaaaaaaaaaaaaaaaaaaaaa",
"aaaaaaaaaaaaaaaaaaaaaceceeceeeccaaaactvvtqtvtecaaaaaaaaaaaaaaaaaaaaaaaaaaaaaaaaaakccceccccccaaaactvvtqtvtecaaaaaaaaaaaaaaaaaaaaaaaaaaaaaaaaaaaaaakccceccccccaaaactvvtqtvtecaaaaaaaaaaaaaaaaaaaaaaaaaaaaaaaaaaaaaaaaaaaaaaaaaaaaaaaaaaaaaaaaaaaaaaaaaaaaaaaaaaaaaaaaaaaaaaaaaaaaaaaaaaaaaaaaaaaaaaaaaaaaaaaaaaaaaaaaaaaaaaaaaaaaaaaaaaaaaaaaaaaaaaaaaaaaaaaaaaaaaaaaaaaaaaaaaaaaaaaaaaaaaaaaaaaaa",
"aaaaaaaaaaaaaaaaaaaaakccefeeeeecaaaacceeecfececaaaaaaaaaaaaaaaaaaaaaaaaaaaaaaaaaakccceecccccaaaacceeecfececaaaaaaaaaaaaaaaaaaaaaaaaaaaaaaaaaaaaaakccceecccccaaaacceeecfececaaaaaaaaaaaaaaaaaaaaaaaaaaaaaaaaaaaaaaaaaaaaaaaaaaaaaaaaaaaaaaaaaaaaaaaaaaaaaaaaaaaaaaaaaaaaaaaaaaaaaaaaaaaaaaaaaaaaaaaaaaaaaaaaaaaaaaaaaaaaaaaaaaaaaaaaaaaaaaaaaaaaaaaaaaaaaaaaaaaaaaaaaaaaaaaaaaaaaaaaaaaaaaaaaaaaa",
"aaaaaaaaaaaaaaaaaaaaakceeffeeeccaaaaceeeeefececaaaaaaaaaaaaaaaaaaaaaaaaaaaaaaaaaacccecccccccaaaaceeeeefececaaaaaaaaaaaaaaaaaaaaaaaaaaaaaaaaaaaaaacccecccccccaaaaceeeeefececaaaaaaaaaaaaaaaaaaaaaaaaaaaaaaaaaaaaaaaaaaaaaaaaaaaaaaaaaaaaaaaaaaaaaaaaaaaaaaaaaaaaaaaaaaaaaaaaaaaaaaaaaaaaaaaaaaaaaaaaaaaaaaaaaaaaaaaaaaaaaaaaaaaaaaaaaaaaaaaaaaaaaaaaaaaaaaaaaaaaaaaaaaaaaaaaaaaaaaaaaaaaaaaaaaaaa",
"aaaaaaaaaaaaaaaaaaaaaccefeeeeeecaaaacceefffecccaaaaaaaaaaaaaaaaaaaaaaaaaaaaaaaaaccccccccecccaaaacceefffecccaaaaaaaaaaaaaaaaaaaaaaaaaaaaaaaaaaaaaccccccccecccaaaacceefffecccaaaaaaaaaaaaaaaaaaaaaaaaaaaaaaaaaaaaaaaaaaaaaaaaaaaaaaaaaaaaaaaaaaaaaaaaaaaaaaaaaaaaaaaaaaaaaaaaaaaaaaaaaaaaaaaaaaaaaaaaaaaaaaaaaaaaaaaaaaaaaaaaaaaaaaaaaaaaaaaaaaaaaaaaaaaaaaaaaaaaaaaaaaaaaaaaaaaaaaaaaaaaaaaaaaaaa",
"aaaaaaaaaaaaaaaaaaaacceeeeeefeecaaaaceeeffffeccaaaaaaaaaaaaaaaaaaaaaaaaaaaaaaaaaccccccccccccaaaaceeeffffeccaaaaaaaaaaaaaaaaaaaaaaaaaaaaaaaaaaaaaccccccccccccaaaaceeeffffeccaaaaaaaaaaaaaaaaaaaaaaaaaaaaaaaaaaaaaaaaaaaaaaaaaaaaaaaaaaaaaaaaaaaaaaaaaaaaaaaaaaaaaaaaaaaaaaaaaaaaaaaaaaaaaaaaaaaaaaaaaaaaaaaaaaaaaaaaaaaaaaaaaaaaaaaaaaaaaaaaaaaaaaaaaaaaaaaaaaaaaaaaaaaaaaaaaaaaaaaaaaaaaaaaaaaaa",
"aaaaaaaaaaaaaaaaaaaceeeceeceeecaaaaaceeeeeeeeccaaaaaaaaaaaaaaaaaaaaaaaaaaaaaaaacecececceccckaaaaceeeeeeeeccaaaaaaaaaaaaaaaaaaaaaaaaaaaaaaaaaaaacecececceccckaaaaceeeeeeeeccaaaaaaaaaaaaaaaaaaaaaaaaaaaaaaaaaaaaaaaaaaaaaaaaaaaaaaaaaaaaaaaaaaaaaaaaaaaaaaaaaaaaaaaaaaaaaaaaaaaaaaaaaaaaaaaaaaaaaaaaaaaaaaaaaaaaaaaaaaaaaaaaaaaaaaaaaaaaaaaaaaaaaaaaaaaaaaaaaaaaaaaaaaaaaaaaaaaaaaaaaaaaaaaaaaaaa",
"aaaaaaaaaaaaaaaaaacfcfcfecfeeckaaaaaceefefeeeecaaaaaaaaaaaaaaaaaaaaaaaaaaaaaaaacekekcckccccaaaaaceefefeeeecaaaaaaaaaaaaaaaaaaaaaaaaaaaaaaaaaaaacekekcckccccaaaaaceefefeeeecaaaaaaaaaaaaaaaaaaaaaaaaaaaaaaaaaaaaaaaaaaaaaaaaaaaaaaaaaaaaaaaaaaaaaaaaaaaaaaaaaaaaaaaaaaaaaaaaaaaaaaaaaaaaaaaaaaaaaaaaaaaaaaaaaaaaaaaaaaaaaaaaaaaaaaaaaaaaaaaaaaaaaaaaaaaaaaaaaaaaaaaaaaaaaaaaaaaaaaaaaaaaaaaaaaaaa",
"aaaaaaaaaaaaaaaaaacekekeekeeecaaaaaaeeeceecfeecaaaaaaaaaaaaaaaaaaaaaaaaaaaaaaaaacacaccacccaaaaaaeeeceecfeecaaaaaaaaaaaaaaaaaaaaaaaaaaaaaaaaaaaaacacaccacccaaaaaaeeeceecfeecaaaaaaaaaaaaaaaaaaaaaaaaaaaaaaaaaaaaaaaaaaaaaaaaaaaaaaaaaaaaaaaaaaaaaaaaaaaaaaaaaaaaaaaaaaaaaaaaaaaaaaaaaaaaaaaaaaaaaaaaaaaaaaaaaaaaaaaaaaaaaaaaaaaaaaaaaaaaaaaaaaaaaaaaaaaaaaaaaaaaaaaaaaaaaaaaaaaaaaaaaaaaaaaaaaaaa",
"aaaaaaaaaaaaaaaaaaacacaccacccaaaaaaacefecefcfcfcaaaaaaaaaaaaaaaaaaaaaaaaaaaaaaaaaaaaaaaaaaaaaaaacefecefcfcfcaaaaaaaaaaaaaaaaaaaaaaaaaaaaaaaaaaaaaaaaaaaaaaaaaaaacefecefcfcfcaaaaaaaaaaaaaaaaaaaaaaaaaaaaaaaaaaaaaaaaaaaaaaaaaaaaaaaaaaaaaaaaaaaaaaaaaaaaaaaaaaaaaaaaaaaaaaaaaaaaaaaaaaaaaaaaaaaaaaaaaaaaaaaaaaaaaaaaaaaaaaaaaaaaaaaaaaaaaaaaaaaaaaaaaaaaaaaaaaaaaaaaaaaaaaaaaaaaaaaaaaaaaaaaaaaa",
"aaaaaaaaaaaaaaaaaaaaaaaaaaaaaaaaaaaaceeekeekekecaaaaaaaaaaaaaaaaaaaaaaaaaaaaaaaaaaaaaaaaaaaaaaaaceeekeekekecaaaaaaaaaaaaaaaaaaaaaaaaaaaaaaaaaaaaaaaaaaaaaaaaaaaaceeekeekekecaaaaaaaaaaaaaaaaaaaaaaaaaaaaaaaaaaaaaaaaaaaaaaaaaaaaaaaaaaaaaaaaaaaaaaaaaaaaaaaaaaaaaaaaaaaaaaaaaaaaaaaaaaaaaaaaaaaaaaaaaaaaaaaaaaaaaaaaaaaaaaaaaaaaaaaaaaaaaaaaaaaaaaaaaaaaaaaaaaaaaaaaaaaaaaaaaaaaaaaaaaaaaaaaaaaa",
"aaaaaaaaaaaaaaaaaaaaaaaaaaaaaaaaaaaaacccaccacacaaaaaaaaaaaaaaaaaaaaaaaaaaaaaaaaaaaaaaaaaaaaaaaaaacccaccacacaaaaaaaaaaaaaaaaaaaaaaaaaaaaaaaaaaaaaaaaaaaaaaaaaaaaaacccaccacacaaaaaaaaaaaaaaaaaaaaaaaaaaaaaaaaaaaaaaaaaaaaaaaaaaaaaaaaaaaaaaaaaaaaaaaaaaaaaaaaaaaaaaaaaaaaaaaaaaaaaaaaaaaaaaaaaaaaaaaaaaaaaaaaaaaaaaaaaaaaaaaaaaaaaaaaaaaaaaaaaaaaaaaaaaaaaaaaaaaaaaaaaaaaaaaaaaaaaaaaaaaaaaaaaaaaa",
"aaaaaaaaaaaaaaaaaaaaaaaaaaaaaaaaaaaaaaaaaaaaaaaaaaaaaaaaaaaaaaaaaaaaaaaaaaaaaaaaaaaaaaaaaaaaaaaaaaaaaaaaaaaaaaaaaaaaaaaaaaaaaaaaaaaaaaaaaaaaaaaaaaaaaaaaaaaaaaaaaaaaaaaaaaaaaaaaaaaaaaaaaaaaaaaaaaaaaaaaaaaaaaaaaaaaaaaaaaaaaaaaaaaaaaaaaaaaaaaaaaaaaaaaaaaaaaaaaaaaaaaaaaaaaaaaaaaaaaaaaaaaaaaaaaaaaaaaaaaaaaaaaaaaaaaaaaaaaaaaaaaaaaaaaaaaaaaaaaaaaaaaaaaaaaaaaaaaaaaaaaaaaaaaaaaaaaaaaaaaaaaa",
"aaaaaaaaaaaaaaaaaaaaaaaaaaaaaaaaaaaaaaaaaaaaaaaaaaaaaaaaaaaaaaaaaaaaaaaaaaaaaaaaaaaaaaaaaaaaaaaaaaaaaaaaaaaaaaaaaaaaaaaaaaaaaaaaaaaaaaaaaaaaaaaaaaaaaaaaaaaaaaaaaaaaaaaaaaaaaaaaaaaaaaaaaaaaaaaaaaaaaaaaaaaaaaaaaaaaaaaaaaaaaaaaaaaaaaaaaaaaaaaaaaaaaaaaaaaaaaaaaaaaaaaaaaaaaaaaaaaaaaaaaaaaaaaaaaaaaaaaaaaaaaaaaaaaaaaaaaaaaaaaaaaaaaaaaaaaaaaaaaaaaaaaaaaaaaaaaaaaaaaaaaaaaaaaaaaaaaaaaaaaaaaa",
"aaaaaaaaaaaaaaaaaaaaaaaaaaaaaaaaaaaaaaaaaaaaaaaaaaaaaaaaaaaaaaaaaaaaaaaaaaaaaaaaaaaaaaaaaaaaaaaaaaaaaaaaaaaaaaaaaaaaaaaaaaaaaaaaaaaaaaaaaaaaaaaaaaaaaaaaaaaaaaaaaaaaaaaaaaaaaaaaaaaaaaaaaaaaaaaaaaaaaaaaaaaaaaaaaaaaaaaaaaaaaaaaaaaaaaaaaaaaaaaaaaaaaaaaaaaaaaaaaaaaaaaaaaaaaaaaaaaaaaaaaaaaaaaaaaaaaaaaaaaaaaaaaaaaaaaaaaaaaaaaaaaaaaaaaaaaaaaaaaaaaaaaaaaaaaaaaaaaaaaaaaaaaaaaaaaaaaaaaaaaaaaa",
"aaaaaaaaaaaaaaaaaaaaaaaaaaaaaaaaaaaaaaaaaaaaaaaaaaaaaaaaaaaaaaaaaaaaaaaaaaaaaaaaaaaaaaaaaaaaaaaaaaaaaaaaaaaaaaaaaaaaaaaaaaaaaaaaaaaaaaaaaaaaaaaaaaaaaaaaaaaaaaaaaaaaaaaaaaaaaaaaaaaaaaaaaaaaaaaaaaaaaaaaaaaaaaaaaaaaaaaaaaaaaaaaaaaaaaaaaaaaaaaaaaaaaaaaaaaaaaaaaaaaaaaaaaaaaaaaaaaaaaaaaaaaaaaaaaaaaaaaaaaaaaaaaaaaaaaaaaaaaaaaaaaaaaaaaaaaaaaaaaaaaaaaaaaaaaaaaaaaaaaaaaaaaaaaaaaaaaaaaaaaaaaa",
"aaaaaaaaaaaaaaaaaaaaaaaaaaaaaaaaaaaaaaaaaaaaaaaaaaaaaaaaaaaaaaaaaaaaaaaaaaaaaaaaaaaaaaaaaaaaaaaaaaaaaaaaaaaaaaaaaaaaaaaaaaaaaaaaaaaaaaaaaaaaaaaaaaaaaaaaaaaaaaaaaaaaaaaaaaaaaaaaaaaaaaaaaaaaaaaaaaaaaaaaaaaaaaaaaaaaaaaaaaaaaaaaaaaaaaaaaaaaaaaaaaaaaaaaaaaaaaaaaaaaaaaaaaaaaaaaaaaaaaaaaaaaaaaaaaaaaaaaaaaaaaaaaaaaaaaaaaaaaaaaaaaaaaaaaaaaaaaaaaaaaaaaaaaaaaaaaaaaaaaaaaaaaaaaaaaaaaaaaaaaaaaa",
"aaaaaaaaaaaaaaaaaaaaaaaaaaaaaaaaaaaaaaaaaaaaaaaaaaaaaaaaaaaaaaaaaaaaaaaaaaaaaaaaaaaaaaaaaaaaaaaaaaaaaaaaaaaaaaaaaaaaaaaaaaaaaaaaaaaaaaaaaaaaaaaaaaaaaaaaaaaaaaaaaaaaaaaaaaaaaaaaaaaaaaaaaaaaaaaaaaaaaaaaaaaaaaaaaaaaaaaaaaaaaaaaaaaaaaaaaaaaaaaaaaaaaaaaaaaaaaaaaaaaaaaaaaaaaaaaaaaaaaaaaaaaaaaaaaaaaaaaaaaaaaaaaaaaaaaaaaaaaaaaaaaaaaaaaaaaaaaaaaaaaaaaaaaaaaaaaaaaaaaaaaaaaaaaaaaaaaaaaaaaaaaa",
"aaaaaaaaaaaaaaaaaaaaaaaaaaaaaaaaaaaaaaaaaaaaaaaaaaaaaaaaaaaaaaaaaaaaaaaaaaaaaaaaaaaaaaaaaaaaaaaaaaaaaaaaaaaaaaaaaaaaaaaaaaaaaaaaaaaaaaaaaaaaaaaaaaaaaaaaaaaaaaaaaaaaaaaaaaaaaaaaaaaaaaaaaaaaaaaaaaaaaaaaaaaaaaaaaaaaaaaaaaaaaaaaaaaaaaaaaaaaaaaaaaaaaaaaaaaaaaaaaaaaaaaaaaaaaaaaaaaaaaaaaaaaaaaaaaaaaaaaaaaaaaaaaaaaaaaaaaaaaaaaaaaaaaaaaaaaaaaaaaaaaaaaaaaaaaaaaaaaaaaaaaaaaaaaaaaaaaaaaaaaaaaa",
"aaaaaaaaaaaaaaaaaaaaaaaaaaaaaaaaaaaaaaaaaaaaaaaaaaaaaaaaaaaaaaaaaaaaaaaaaaaaaaaaaaaaaaaaaaaaaaaaaaaaaaaaaaaaaaaaaaaaaaaaaaaaaaaaaaaaaaaaaaaaaaaaaaaaaaaaaaaaaaaaaaaaaaaaaaaaaaaaaaaaaaaaaaaaaaaaaaaaaaaaaaaaaaaaaaaaaaaaaaaaaaaaaaaaaaaaaaaaaaaaaaaaaaaaaaaaaaaaaaaaaaaaaaaaaaaaaaaaaaaaaaaaaaaaaaaaaaaaaaaaaaaaaaaaaaaaaaaaaaaaaaaaaaaaaaaaaaaaaaaaaaaaaaaaaaaaaaaaaaaaaaaaaaaaaaaaaaaaaaaaaaaa",
"aaaaaaaaaaaaaaaaaaaaaaaaaaaaaaaaaaaaaaaaaaaaaaaaaaaaaaaaaaaaaaaaaaaaaaaaaaaaaaaaaaaaaaaaaaaaaaaaaaaaaaaaaaaaaaaaaaaaaaaaaaaaaaaaaaaaaaaaaaaaaaaaaaaaaaaaaaaaaaaaaaaaaaaaaaaaaaaaaaaaaaaaaaaaaaaaaaaaaaaaaaaaaaaaaaaaaaaaaaaaaaaaaaaaaaaaaaaaaaaaaaaaaaaaaaaaaaaaaaaaaaaaaaaaaaaaaaaaaaaaaaaaaaaaaaaaaaaaaaaaaaaaaaaaaaaaaaaaaaaaaaaaaaaaaaaaaaaaaaaaaaaaaaaaaaaaaaaaaaaaaaaaaaaaaaaaaaaaaaaaaaaa",
"aaaaaaaaaaaaaaaaaaaaaaaabdaaaaaaaaaaaaaaaaaaaaaaaaaaaaaaaaaaaaaaaaaaaaaaaaaaaaaaaaaaaaaaaaaaaaaaaaaaaaaaaaaaaaaaaaaaaaaaaaaaaaaaaaaaaaaaaaaaaaaaaaaaaaaaaaaaaaaaaaaaaaaaaaaaaaaaaaaaaaaaaaaaaaaaaaaaaaaaaaaaaaaaaaaaaaaaaaaaaaaaaaaaaaaaaaaaaaaaaaaaaaaaaaaaaaaaaaaaaaaaaaaaaaaaaaaaaaaaaaaaaaaaaaaaaaaaaaaaaaaaaaaaaaaaaaaaaaaaaaaaaaaaaaaaaaaaaaaaaaaaaaaaaaaaaaaaaaaaaaaaaaaaaaaaaaaaaaaaaaaa",
"aaaaaaaaaaaaaaaaaaaaaaaaaaddaaaaaaaaaaaaaaaaaaaaaaaaaaaaaaaaaaaaaaaaaaaaaaaaaaaaaaaaaaaaaaaaaaaaaaaaaaaaaaaaaaaaaaaaaaaaaaaaaaaaaaaaaaaaaaaaaaaaaaaaaaaaaaaaaaaaaaaaaaaaaaaaaaaaaaaaaaaaaaaaaaaaaaaaaaaaaaaaaaaaaaaaaaaaaaaaaaaaaaaaaaaaaaaaaaaaaaaaaaaaaaaaaaaaaaaaaaaaaaaaaaaaaaaaaaaaaaaaaaaaaaaaaaaaaaaaaaaaaaaaaaaaaaaaaaaaaaaaaaaaaaaaaaaaaaaaaaaaaaaaaaaaaaaaaaaaaaaaaaaaaaaaaaaaaaaaaaaa",
"aaaaaaaaaaaaaaaaaaaaaaaaacccddcaaaaaaaaaaaaaaaaaaaaaaaaaaaaaaaaaaaaaaaaaaaaaaaaaaaaaaaaaaaaaaaaaaaaaaaaaaaaaaaaaaaaaaaaaaaaaaaaaaaaaaaaaaaaaaaaaaaaaaaaaaaaaaaaaaaaaaaaaaaaaaaaaaaaaaaaaaaaaaaaaaaaaaaaaaaaaaaaaaaaaaaaaaaaaaaaaaaaaaaaaaaaaaaaaaaaaaaaaaaaaaaaaaaaaaaaaaaaaaaaaaaaaaaaaaaaaaaaaaaaaaaaaaaaaaaaaaaaaaaaaaaaaaaaaaaaaaaaaaaaaaaaaaaaaaaaaaaaaaaaaaaaaaaaaaaaaaaaaaaaaaaaaaaaaaaaa",
"aaaaaaaaaaaaaaaaaaaaaakkccceeehjicaaaaaaaaaaaaaaaaaaaaaaaaaaaaaaaaaaaaaaaaaaaaaaaaaaaaaaaaaaaaaaaaaaaaaaaaaaaaaaaaaaaaaaaaaaaaaaaaaaaaaaaaaaaaaaaaaaaaaaaaaaaaaaaaaaaaaaaaaaaaaaaaaaaaaaaaaaaaaaaaaaaaaaaaaaaaaaaaaaaaaaaaaaaaaaaaaaaaaaaaaaaaaaaaaaaaaaaaaaaaaaaaaaaaaaaaaaaaaaaaaaaaaaaaaaaaaaaaaaaaaaaaaaaaaaaaaaaaaaaaaaaaaaaaaaaaaaaaaaaaaaaaaaaaaaaaaaaaaaaaaaaaaaaaaaaaaaaaaaaaaaaaaaaaaa",
"aaaaaaaaaaaaaaaaaaaaakkceffggeehbhgaaaaaaaaaaaaaaaaaaaaaaaaaaaaaaaaaaaaaaaaaaaaaaaaaaaaaaaaaaaaaaaaaaaaaaaaaaaaaaaaaaaaaaaaaaaaaaaaaaaaaaaaaaaaaaaaaaaaaaaaaaa%aaaaaaaaaaaaaaaaaaaaaaaaaaaaaaaaaaaaaaaaaaaaaaaaaaaaaaaaaaaaaaaaaaaaaaaaaaaaaaaaaaaaaaaaaaaaaaaaaaaaaaaaaaaaaaaaaaaaaaaaaaaaaaaaaaaaaaaaaaaaaaaaaaaaaaaaaaaaaaaaaaaaaaaaaaaaaaaaaaaaaaaaaaaaaaaaaaaaaaaaaaaaaaaaaaaaaaaaaaaaaaaaa",
"aaaaaaaaaaaaaaaaaaaakkccfellefeccfkcaaaaaaaaaaaaaaaaaaaaaaaaaaaaaaaaaaaaaaaaaaaaaaaaaaaaaallceccaaaaaaaaaaaaaaaaaaaaaaaaaaaaaaaaaaaaaaaaaaaaaaaaaaaaaaaaaaaaaaaaaaaaaaaaaaaaaaaaaaaaaaaaaaaaaaaaaaaaaaaaaaaaaaaaaaaaaaaaaaaaaaaaaaaaaaaaaaaaaaaaaaaaaaaaaaaaaaaaaaaaaaaaaaaaaaaaaaaaaaaaaaaaaaaaaaaaaaaaaaaaaaaaaaaaaaaaaaaaaaaaaaaaaaaaaaaaaaaaaaaaaaaaaaaaaaaaaaaaaaaaaaaaaaaaaaaaaaaaaaaaaaaa",
"aaaaaaaaaaaaaaaaaaaakkceelekkkecfkccaaaaaaaaaaaaaaaaaaaaaaaaaaaaaaaaaaaaaaaaaaaaaaaaaaaeclceeeellfeaaaaaaaaaaaaaaaaaaaaaaaaaaaaaaaaaaaaaaaaaaaaaaaaaaaaaaaaaaaaaaaaaaaaaaaaaaaaaaaaaaaaaaaaaaaaaaaaaaaaaaaaaaaaaaaaaaaaaaaaaaaaaaaaaaaaaaaaaaaaaaaaaaaaaaaaaaaaaaaaaaaaaaaaaaaaaaaaaaaaaaaaaaaaaaaaaaaaaaaaaaaaaaaaaaaaaaaaaaaaaaaaaaaaaaaaaaaaaaaaaaaaaaaaaaaaaaaaaaaaaaaaaaaaaaaaaaaaaaaaaaaaa",
"aaaaaaaaaaaaaaaaaaaakcfkllkeeeeefkkccaaaaaaaaaaaaaaaaaaaaaaaaaaaaaaaaaaaaaaaaaaaaaaaaaeeeeckceeeelfhhiaaaaaaaaaaaaaaaaaaaaaaaaaaaaaaaaaaaaaaaaaaaaaaaaaaaaaaaaa&aaaaaaaaaaaaaaaaaaaaaaaaaaaaaaaaaaaaaaaaaaaaaaaaaaaaaaaaaaaaaaaaaaaaaaaaaaaaaaaaaaaaaaaaaaaaaaaaaaaaaaaaaaaaaaaaaaaaaaaaaaaaaaaaaaaaaaaaaaaaaaaaaaaaaaaaaaaaaaaaaaaaaaaaaaaaaaaaaaaaaaaaaaaaaaaaaaaaaaaaaaaaaaaaaaaaaaaaaaaaaaaa",
"aaaaaaaaaaaaaaaaaaakcekkkllkceeeecfccaaaaaaaaaaaaaaaaaaaaaaaaaaaaaaaaaaaaaaaaaaaaaaaaeekkkk%kkceeeekhhaaaaaaaaaaaaaaaaaaaaaaaaaaaaaaaaaaaaaaaaaaaaaaaaaaaabaaIaaaaaIaaaaaaaaaaaaaaaaaaaaaaaaaaaaaaaaaaaaaaaaaaaaaaaaaaaaaaaaaaaaaaaaaaaaaaaaaaaaaaaaaaaaaaaaaaaaaaaaaaaaaaaaaaaaaaaaaaaaaaaaaaaaaaaaaaaaaaaaaaaaaaaaaaaaaaaaaaaaaaaaaaaaaaaaaaaaaaaaaaaaaaaaaaaaaaaaaaaaaaaaaaaaaaaaaaaaaaaaaaaa",
"aaaaaaaaaaaaaaaaaaakllkegfkckkceeekecaaaaaaaaaaaaaaaaaaaaaaaaaaaaaaaaaaaaaaaaaaaaaaaaeck%%k&%kkceekeefaaaaaaavvvqqaaaaaaaaaaaaaaaaaaaaaaaaaaaaaaaaaaaaaaaaadaaaaa%aaaaaaaaaaaaaaaaaaaaaaaaaaaaaaaaaaaaaaaaaaaaaaaaaaaaaaaaaaaaaaaaaaaaaaaaaaaaaaaaaaaaaaaaaaaaaaaaaaaaaaaaaaaaaaaaaaaaaaaaaaaaaaaaaaaaaaaaaaaaaaaaaaaaaaaaaaaaaaaaaaaaaaaaaaaaaaaaaaaaaaaaaaaaaaaaaaaaaaaaaaaaaaaaaaaaaaaaaaaaaa",
"aaaaaaaaaaaaaaaaaaaakklecleeeckceecekaaaaaaaaaaaaaaaaaaaaaaaaaaaaaaaaaaaaaaaaaaaaaaaaekkk%IkIkckceckcaaaaavqqtqtvtqqaaaaaaaaaaaaaaaaaaaaaaaaaaaaaaaaaaaaaaa%dhaaIaaaaaaaaaaaaaaaaaaaaaaaaaaaaaaaaaaaaaaaaaaaaaaaaaaaaaaaaaaaaaaaaaaaaaaaaaaaaaaaaaaaaaaaaaaaaaaaaaaaaaaaaaaaaaaaaaaaaaaaaaaaaaaaaaaaaaaaaaaaaaaaaaaaaaaaaaaaaaaaaaaaaaaaaaaaaaaaaaaaaaaaaaaaaaaaaaaaaaaaaaaaaaaaaaaaaaaaaaaaaaaa",
"aaaaaaaaaaaaaaaaaaaaacklcekhhkeeceeekaaaaaaaaaaaaaaaaaaaaaaaaaaaaaaaaaaaaaaaaaaa%aaaaaklk&%kkkcckceceaaattqtvvvtqvvtqaaaaaaaaaaaaaaaaaaaaaaaaaaaaaaaIaaaaaafhiheeffeaaaaaaaaaaaaaaaaaaaaaaaaaaaaaaaaaaaaaaaaaaaaaaaaaaaaaaaaaaaaaaaaaaaaaaaaaaaaaaaaaaaaaaaaaaaaaaaaaaaaaaaaaaaaaaaaaaaaaaaaaaaaaaaaaaaaaaaaaaaaaaaaaaaaaaaaaaaaaaaaaaaaaaaaaaaaaaaaaaaaaaaaaaaaaaaaaaaaaaaaaaaaaaaaaaaaaaaaaaaa",
"aaaaaaaaaaaaaaaaaaaaacekkhxyxhkeeeecaaaaaaaaaaaaaaaaaaaaaaaaaaaaaaaaaaaaaaaaaaaaaaaaaackklk%kckckcceeatttqtvwwvvttvvtqaaaaaaaaaaaaaaaaaaaaaaaaaaaaaaaaa%aaaffhkccccefeaaaaaaaaaaaaaaaaaaaaaaaaaaaaaaaaaaaaaaaaaaaaaaaaaaaaaaaaaaaaaaaaaaaaaaaaaaaaaaaaaaaaaaaaaaaaaaaaaaaaaaaaaaaaaaaaaaaaaaaaaaaaaaaaaaaaaaaaaaaaaaaaaaaaaaaaaaaaaaaaaaaaaaaaaaaaaaaaaaaaaaaaaaaaaaaaaaaaaaaaaaaaaaaaaaaaaaaaaa",
"aaaaaaaaaaaaaaaaaaaalckkhxsqsrheeceecaaaaaaaaaaaaaaaaaaaaaaaaaaaaaaaaaaaaaaaaaaaaaaaaaIkkklkkeckckcektceectvwwvvvttvtqaaaaaaaaaaaaaaaaaaaaaaaaaaaaaaaaaaaa%eff%ckqqq%ttaaaaaaaaaaaaaaaaaaaaaaaaaaaaaaaaaaaaaaaaaaaaaaaaaaaaaaaaaaaaaaaaaaaaaaaaaaaaaaaaaaaaaaaaaaaaaaaaaaaaaaaaaaaaaaaaaaaaaaaaaaaaaaaaaaaaaaaaaaaaaaaaaaaaaaaaaaaaaaaaaaaaaaaaaaaaaaaaaaaaaaaaaaaaaaaaaaaaaaaaaaaaaaaaaaaaaaaaa",
"aaaaaaaaaaaaaaaaaaaaaackhrskefgfeeeecaaaaaaaaaaaaaaaaaaaaaaaaaaaaaaaaaaaaaaaaaaaaaaaaaackclIcekkkllkkttcekktvvwvvtqvvtqaaaaaaaaaaaaaaaaaaaaaaaaaaaaaaaaa%aekffksIItvvtvvIaaaaaaaaaaaaaaaaaaaaaaaaaaaaaaaaaaaaaaaaaaaaaaaaaaaaaaaaaaaaaaaaaaaaaaaaaaaaaaaaaaaaaaaaaaaaaaaaaaaaaaaaaaaaaaaaaaaaaaaaaaaaaaaaaaaaaaaaaaaaaaaaaaaaaaaaaaaaaaaaaaaaaaaaaaaaaaaaaaaaaaaaaaaaaaaaaaaaaaaaaaaaaaaaaaaaaaa",
"aaaaaaaaaaaaaaaaqqqqqqqchkefceceekeefcaaaaaaaaaaaaaaaaaaaaaaaaaaaaaaaaaaaaaaaaaaaaa%aackklkkkcclkclccecttefktvvvvvttvtqaaaaaaaaaaaaaaaaaaaaaaaaaa%aaaaaaIaecIf%qqtqqqttqqtaaaaaaaaaaaaaaaaaaaaaaaaaaaaaaaaaaaaaaaaaaaaaaaaaaaaaaaaaaaaaaaaaaaaaaaaaaaaaaaaaaaaaaaaaaaaaaaaaaaaaaaaaaaaaaaaaaaaaaaaaaaaaaaaaaaaaaaaaaaaaaaaaaaaaaaaaaaaaaaaaaaaaaaaaaaaaaaaaaaaaaaaaaaaaaaaaaaaaaaaaaaaaaaaaaaaaa",
"aaaaaaaaaaaaaqqqtttvvttlkcecekekcleeefkddqqqqqqqaaaaaaaaaaaaaaaaaaaaaaaaaaaaaaaaaaaIaaaa%k&kckkIeectkfeklcefktvvvvtqvtqaaaaaaaaaaaaaaaaaaaaaaaaaaaaa%aaaa%eIk%qq%qqkccccwwwwwwaaaaaaaaaaaaaaaaaaaaaaaaaaaaaaaaaaaaaaaaaaaaaaaaaaaaaaaaaaaaaaaaaaaaaaaaaaaaaaaaaaaaaaaaaaaaaaaaaaaaaaaaaaaaaaaaaaaaaaaaaaaaaaaaaaaaaaaaaaaaaaaaaaaaaaaaaaaaaaaaaaaaaaaaaaaaaaaaaaaaaaaaaaaaaaaaaaaaaaaaaaaaaaaaaa",
"aaaaaaaaaaaqqtvwvvtttttklekekkkeekefeefeztttttttqqqqaaaaaaaaaaaaaaaaaaaaaaaaa%IaaaaaIsskllllk&keccettkkeffeecttvvtqstvqaaaaaaaaaaaaaaaaaaaaaaaaaIaaaaa&aI%I&II&kcccceceecwwwwwwaaaaaaaaaaaaaaaaaaaaaaaaaaaaaaaaaaaaaaaaaaaaaaaaaaaaaaa%aaaaaaaaaaaaaaaaaaaaaaaaaaaaaaaaaaaaaaaaaaaaaaaaaaaaaaaaaaaaaaaaaaaaaaaaaaaaaaaaaaaaaaaaaaaaaaaaaaaaaaaaaaaaaaaaaaaaaaaaaaaaaaaaaaaaaaaaaaaaaaaaaaaaaaaaa",
"aaaaaaaaaaqtvtttqtvvwwwckllkceeeeceefeefvvwwwvtvtttqqaaaaaaaaaaaaaaaaaaaaaaaaaaI&sssrrllkccc&%IcckccklkceeefcqssqqssqqqaaaaaaaaaaaaaaaaaaaaaaaaaaaaaaaaIaI&kccccecee%eeeevvvvwwwaaaaaaaaaaaaaaaaaaaaaaaaaaaaaaaaaaaaaaaaaaaaaaaaaaaaaaaaaaaaaaaaaaaaaaaaaaaaaaaaaaaaaaaaaaaaaaaaaaaaaaaaaaaaaaaaaaaaaaaaaaaaaaaaaaaaaaaaaaaaaaaaaaaaaaaaaaaaaaaaaaaaaaaaaaaaaaaaaaaaaaaaaaaaaaaaaaaaaaaaaaaaaaaa",
"aaaaaaaaaqttttqtvwwvvvveccklkeceeceefecettvvvvvttvvttqqaaaaaaaaaaaaaaaaaaaaaaasssrr&sk&kefeckIk%klIcefeefcecccqqqttttvqaaaaaaaaaaaaaaaaaaaaaaaaaaaaaa%ccccceeeeeeeeeeeeeeettvvvvwaaaaaaaaaaaaaaaaaaaaaaaaaaaaaaaaaaaaaaaaaaaaaaaaaaaaaaaaaaaaaaaaaaaaaaaaaaaaaaaaaaaaaaaaaaaaaaaaaaaaaaaaaaaaaaaaaaaaaaaaaaaaaaaaaaaaaaaaaaaaaaaaaaaaaaaaaaaaaaaaaaaaaaaaaaaaaaaaaaaaaaaaaaaaaaaaaaaaaaaaaaaaaaa",
"aaaaaaaaaqttqtvvtqqtttteefeckceeceecefeettttttvtqqtqtvtqqaaaaaaaaaaaaaaaaaaasssrssqtskkkcceeekkkeevveeeceeeeekectvvwvtvqaaaaaaaaaaaaaaaaaaaaaaaaaaaacefeeeeeeefefefffffgfgwwwwwwwaaaaaaaaaaaaaaaaaaaaaaaaaaaaaaaaaaaaaaaaaaaa%aaaaaa%aaaaaaaaaaaaaaaaaaaaaaaaaaaaaaaaaaaaaaaaaaaaaaaaaaaaaaaaaaaaaaaaaaaaaaaaaaaaaaaaaaaaaaaaaaaaaaaaaaaaaaaaaaaaaaaaaaaaaaaaaaaaaaaaaaaaaaaaaaaaaaaaaaaaaaaaaaa",
"aaaaaaaaqtqttvwwvvtqqqqcccceekeeceeeccccqqqqqqtqtvvvtqvvtqaaaaaaaaaaaaaaaaassssqqtssscce%ec&kccceekkklkcceeeekeeecvvwvtqaaaaaaaaaaaaaaaaaaaaaaaaaaaceeegefgfffffffefefeeeevvvvvvwaaaaaaaaaaaaaaaaaaaaaaaaaaaaaaaaaaaaaaaaaaaaaaa%aa%aaaaaaaaaaaaaaaaaaaaaaaaaaaaaaaaaaaaaaaaaaaaaaaaaaaaaaaaaaaaaaaaaaaaaaaaaaaaaaaaaaaaaaaaaaaaaaaaaaaaaaaaaaaaaaaaaaaaaaaaaaaaaaaaaaaaaaaaaaaaaaaaaaaaaaaaaaaa",
"aaaaaaaaqtttvvwwtstvvwwzfeeccceeeccceefzwwwwvvqtvwwvvttvvtqaaaaaaaaaaaaaaaasssqqsssqteeef&%kkcceeelkcfeeecceckefeeecvtqqqaaaaaaaaaaaaaaaaaaaaaaaaaceeeefeeeeeeeeeeeeeececctttttvvaaaaaaaaaaaaaaaaaaaaaaaaaaaaaaaaaaaaa%aaaaa%aa%aaaaaaa%aaaaaaaaaaaaaaaaaaaaaaaaaaaaaaaaaaaaaaaaaaaaaaaaaaaaaaaaaaaaaaaaaaaaaaaaaaaaaaaaaaaaaaaaaaaaaaaaaaaaaaaaaaaaaaaaaaaaaaaaaaaaaaaaaaaaaaaaaaaaaaaaaaaaaaaa",
"aaaaaaaaqqttvwvvqttttttteeeefecccefeeeetttttttqtvwwvvvttvtqaaaaaaaaaaaaaaasssssssq%tteee&%%kkcccevvvvlkceeeekceeeffeevwtqaaaaaaaaaaaaaaaaaaaaaa%aceeceeecccccccccececeeeecvwwvttqaaaaaaaaaaaaaaaaaaaaaaaaaaaaaaaaaaaaaaaaaaaaa%%a%aaaaaaaaaaaaaaaaaaaaaaaaaaaaaaaaaaaaaaaaaaaaaaaaaaaaaaaaaaaaaaaaaaaaaaaaaaaaaaaaaaaaaaaaaaaaaaaaaaaaaaaaaaaaaaaaaaaaaaaaaaaaaaaaaaaaaaaaaaaaaaaaaaaaaaaaaaaaaa",
"aaaaaaaaqstttvvtqttvvvvvAeeeeceeeceeeevvvvvvvvqttvvwvvtqvvtqaaaaaaaaaaaaaassssssqtttvveek&kec%cetv&vkcfecceckeeeeeeffevwtqaaaaaaaaaaaaaaaaaaaaaaceceeeeckkkckckccccccccccttttttqaaaaaaaaaaaaaaaaaaaaaaaaaaaaaaaaaaaaaaaaaaaaaaI%Iaaaaaaaaaaaaaaaaaaaaaaaaaaaaaaaaaaaaaaaaaaaaaaaaaaaaaaaaaaaaaaaaaaaaaaaaaaaaaaaaaaaaaaaaaaaaaaaaaaaaaaaaaaaaaaaaaaaaaaaaaaaaaaaaaaaaaaaaaaaaaaaaaaaaaaaaaaaaaaa",
"aaaaaaaaasqttttqtvvvvwwvtqBeeececeeeBqtvvvvvvvqtttvvvvvttvtqaaaaaaaaaaaaaassssssqttv%vI%eecect&qttrvvvlllkklkeeeeeeeeffwvqaaaaaaaaaaaaaaaaaaaaacccecee&&a&&kkkkkkkkkkckckqqqqssvtaaaaaaaaaaaaaaaaaaaaaaaaaaaaaaaaaaaaaa%aIaaaaa&Iaaa%aaaaaaaaaaaaaaaaaaaaaaaaaaaaaaaaaaaaaaaaaaaaaaaaaaaaaaaaaaaaaaaaaaaaaaaaaaaaaaaaaaaaaaaaaaaaaaaaaaaaaaaaaaaaaaaaaaaaaaaaaaaaaaaaaaaaaaaaaaaaaaaaaaaaaaaaaaa",
"aaaaaaaaarsqqsssqtvvwwwwwvvvqtttttqvvvvvtnnnvvqtttttvvvtqvtqaaaaaaaaaaaaaasssrsqIrvtv&r&%rvtttqqttttvvvqqqqlkceceeeceefvvqaaaaaaaaaaaaaaaaaaaaacceceecIa&aIrs&Is%srIskkkssssssqwtaaaaaaaaaaaaaaaaaaaaaaaaaaaaaaaaaaaaaa&aaaaa%b&aa%%aaaaaaaaaaaaaaaaaaaaaaaaaaaaaaaaaaaaaaaaaaaaaaaaaaaaaaaaaaaaaaaaaaaaaaaaaaaaaaaaaaaaaaaaaaaaaaaaaaaaaaaaaaaaaaaaaaaaaaaaaaaaaaaaaaaaaaaaaaaaaaaaaaaaaaaaaaaa",
"aaaaaaaarrrrrrrsqqtvvvwwvvvvvtqtqttvvvvvqnnnvvvqttttttttsttqaaaaaaaaaaaaaaassrsqttttvvvrr%rqttqqItttttttqqqqlceeecefeccvtqaaaaaaaaaaaaaaaaaaaackeckcefecI%II&qqtt&Iq%I%rrrrsqqvwvaaaaaaaaaaaaaaaaaaaaaaaaaaaaaaaaaaaaaaaaaIaaIvvwwwvvaaaaaaaaaaaaaaaaaaaaaaaaaaaaaaaaaaaaaaaaaaaaaaaaaaaaaaaaaaaaaaaaaaaaaaaaaaaaaaaaaaaaaaaaaaaaaaaaaaaaaaaaaaaaaaaaaaaaaaaaaaaaaaaaaaaaaaaaaaaaaaaaaaaaaaaaaaa",
"aaaaaakclceqsrrrsqqqttvvtqqtqtttttqtqqqtqqqttqsssqtvwvtqsqqqaaaaaaaaaaaaaaarssrqtttvtvvvvrtttttI%IrtqtqqqqqqlkceeeccefettqaaaaaaaaaaaaaaaaaaaakkceaaceaaaI%rs&&qqq&%qq%%qqqqqtvvvtaaaaaaaaaaaaaaaaaaaaaaaaaaaaaaaaaaaaaaaaaItttvvvvwtvvaaaaaaaaaaaaaaaaaaaaaaaaaaaaaaaaaaaaaaaaaaaaaaaaaaaaaaaaaaaaaaaaaaaaaaaaaaaaaaaaaaaaaaaaaaaaaaaaaaaaaaaaaaaaaaaaaaaaaaaaaaaaaaaaaaaaaaaaaaaaaaaaaaaaaaaaa",
"aaaaaaccelcefesrsqttvvvvvvvvttqtqtttvvvvvvvttceectsssqqsttvqaaaaaaaaaaaaaaaarsrsqttIttttt%&tv%t&rrtttvtvvvqqqlkceeeecccvqaaaaaaaaaaaaaaaaaaaakcacefaaaaaaaar%&%IttqqItqqtq%qqvvwvttaaaaaaaaaaaaaaaaaaaaaaaaaaaaaaaaaa%a&aaIqtvtttvvvwttvvaaaaaaaaaaaaaaaaaaaaaaaaaaaaaaaaaaaaaaaaaaaaaaaaaaaaaaaaaaaaaaaaaaaaaaaaaaaaaaaaaaaaaaaaaaaaaaaaaaaaaaaaaaaaaaaaaaaaaaaaaaaaaaaaaaaaaaaaaaaaaaaaaaaaaaa",
"aaaaaklkcelkkcesrqssqttvvvttqqtttqqtttvvvcccvtcekksqqtvvwvtvqaaaaaaaaaaaaaaaarrrqqttrttqqrI&tttttvtvvvvvvvvqqqlkcceeecttqaaaaaaaaaaaaaaaaaaaakecaceeaaaa%I%rI%t%ttqqqqttqqqqtvvvvtqtaaaaaaaaaaaaaaaaaaaaaaaaaaaa%aaaaIIa%%qttttttttvvvtvwvaaaaaaaaaaaaaaaaaaaaaaaaaaaaaaaaaaaaaaaaaaaaaaaaaaaaaaaaaaaaaaaaaaaaaaaaaaaaaaaaaaaaaaaaaaaaaaaaaaaaaaaaaaaaaaaaaaaaaaaaaaaaaaaaaaaaaaaaaaaaaaaaaaaaaa",
"aaaaacclceelkkcfrqttqssqqqqqtttvtttqqqqqqkccecqqefkqtttvvwvtqaaaaaaaaaaaaaaaaarrsqqqq%&ttvvvtqtttttttvvvvvvvqqqllkccctqqaaaaaaaaaaaaaaaaaaaaaakccaceca%IaaaIsIttv%tqqqqqqqqtvvvvvtqtaaaaaaaaaaaaaaaaaaaaaaaa%aaaaaaaaaaIqqtqttttttqqqttvvwvaaaaaaaaaaaaaaaaaaaaaaaaaaaaaaaaaaaaaaaaaaaaaaaaaaaaaaaaaaaaaaaaaaaaaaaaaaaaaaaaaaaaaaaaaaaaaaaaaaaaaaaaaaaaaaaaaaaaaaaaaaaaaaaaaaaaaaaaaaaaaaaaaaaaa",
"aaaaakcllcflclcersqqttttttvvwwvtttvwwvttttqkfeklcefktttvvvtqqqaaaaaaaaaaaaaaaaarrrsqqtt&v%tt%qqqttttttttvvvvvvqqqsssqqaaaaaaaaaaaaaaaaaaaaaaaaakckaaa%aaaa%rr%qttvvtqqqqqtvvvvvvvtsvtaaaaaaaaaaaaaaaaaaaaaaaaaaaaaaIattqvwvtqtttqqttttttvwvvaaaaaaaaaaaaaaaaaaaaaaaaaaaaaaaaaaaaaaaaaaaaaaaaaaaaaaaaaaaaaaaaaaaaaaaaaaaaaaaaaaaaaaaaaaaaaaaaaaaaaaaaaaaaaaaaaaaaaaaaaaaaaaaaaaaaaaaaaaaaaaaaaaaa",
"aaaaklcclllclkKcrqtttqtvwwwvtttttttttvwwwvtqkkeffeecqcefecvwtqaaaaaaaaaaaaaaaarrrrsqttvttqssss&ssssqqqttttvvvvvvvtqaaaaaaaaaaaaaaaaaaaaaaaaaaaaaaaaaaaaaaaaarrsqtttvvvvvvvvvvvvvtssqtaaaaaaaaaaaaaaaaaaaaaaaaaaaavvvvtvvvvvvtqqqqtvvttvvtvwtvaaaaaaaaaaaaaaaaaaaaaaaaaaaaaaaaaaaaaaaaaaaaaaaaaaaaaaaaaaaaaaaaaaaaaaaaaaaaaaaaaaaaaaaaaaaaaaaaaaaaaaaaaaaaaaaaaaaaaaaaaaaaaaaaaaaaaaaaaaaaaaaaaaa",
"aaaaccleflllklKsrqqttvtttqqqqqqsssqqqtttkccklkceeefccccefffvwtqaaaaaaaaaaaaakclceqrqqt&qI%rss&%&rsssssqqqtttvvvvttsaaaaaaaaaaaaaaaaaaaaaaaaaaaaaaaa&aaaaaIaa&rIrsqtttttvvvvvvvvttsqstaaaaaaaaaaaaaaaaaaaaaaaaaaattttttttttvwttsqtttttttvvtwttvaaaaaaaaaaaaaaaaaaaaaaaaaaaaaaaaaaaaaaaaaaaaaaaaaaaaaaaaaaaaaaaaaaaaaaaaaaaaaaaaaaaaaaaaaaaaaaaaaaaaaaaaaaaaaaaaaaaaaaaaaaaaaaaaaaaaaaaaaaaaaaaaaa",
"aaakkellelkclKrrraqsqtqsssssssrrrrrssssqkkcefeefceccefffffffwvqaaaaaaaaaaaaaccelcefeqqqI%rsqq%Irqqqqqqsssqqttttttqsaaaaaaaaaaaaaaaaaaaaaaaaaaaaaaaaaaaaaaaaaarsssrrsqqttttttttttksstaaaaaaaaaaaaaaaaaaaaaaaaaaaqttvvttvvttvvtsqt%vvttttttvwvtvaaaaaaaaaaaaaaaaaaaaaaaaaaaaaaaaaaaaaaaaaaaaaaaaaaaaaaaaaaaaaaaaaaaaaaaaaaaaaaaaaaaaaaaaaaaaaaaaaaaaaaaaaaaaaaaaaaaaaaaaaaaaaaaaaaaaaaaaaaaaaaaaaa",
"aaakleflllklKrsraaahssssssqqqttqqsqqqqqqqqseeeceeeeceeefefefvvqaaaaaaaaaaaaklkcelkkcesIrrqqqIrr&qtttttqqqssqqtttqsaaaaaaaaaaaaaaaaaaaaaaaaaaaaaaaaaaaaaaaaalkrs%tqssrssqhdddjsskkkaaaaaaaaaaaaaaaaaaaaaaaaaaaaaqttvvvvtttvvt%sqtvtttvvttttvvttvaaa%aaaaaaaaaaaaaaaaaaaaaaaaaaaaaaaaaaaaaaaaaaaaa%aaaaaaaaaaaaaaaaaaaaaaaaaaaaaaaaaaaaaaaaaaaaaaaaaaaaaaaaaaaaaaaaaaaaaaaaaaaaaaaaaaaaaaaaaaaaaaa",
"aaacflellklKrraaaaahhhhhsqqttvvvtqtvvttqqkkklkcceeeceeeeeeeevtqaaaaaaaaaaaacclceelkkcfrssqqttvvtqttvvvttqqqsssssssaaaaaaaaaaaaaaaaaaaaaaaaaaaaaaaIaaaaaa%alcklrsqqqshhhhhhhhdhdhaaaaaaaaaaaaaaaaaaaaaaaaaaaaaaaqtvvvvttttttqsq%tttttttvtttvvtvwaaa%aaaaaaaaaaaaaaaaaaaaaaaaaaaaaaaaaaaaaaaaaaHaaaaaa%aaaaaaaaaaaaaaaaaaaaaaaaaaaaaaaaaaaaaaaaaaaaaaaaaaaaaaaaaaaaaaaaaaaaaaaaaaaaaaaaaaaaaaaaaaa",
"aaaaeaaaaaaaaaaaaahhdhdhhhhhhhChhdhhChhhhlkcfeeecccceeeeeeecttqaaaaaaaaaaaakcllcflclcehhhhhqtttttqtttttqqqshdjdhhsaaaaaaaaaaaaaaaaaaaaaaaaaaaaaaaaaaaaaaaklkllrrsFhhhhhhdhuddhdhwaaaaaaaaaaaaaaaaaaaaaaaaaaaaaakqtvttttqqqq&s%qqtttttttttttvtvwaI%aaaaaaaaaaaaaaaaaaaaaaaaaaaaaaaaaaaaaaaa%aaaaaavvwwvvvaaaaaaaaaaaaaaaaaaaaaaaaaaaaaaaaaaaaaaaaaaaaaaaaaaaaaaaaaaaaaaaaaaaaaaaaaaaaaaaaaaaaaaaa",
"aaaaaaaaaaaaaaaaaahhhjhhhhhhhhDhhdhhDhhhhhhhlkceeeekececcccBvqaaaaaaaaaaaaklcclllclkKhhdhdhhhhChhdhhChhhhhhhhdhhhhaaaaaaaaaaaaaaaaaaaaaaaaaaaaaaaaaaaaaaakakaaadh(hhhhhhhhhhdvvtvwaaaaaaaaaaaaaaaaaaaaaaaaaaaaklqtttqqqqaI&I%sq%qqqhhudjqttvtvvaaaa&aaaaaaaaaaaaaaaaaaaaaaaaaaaaaaaa%aaaaaaIIaavvvvvttttvwaaaaaaaaaaaaaaaaaaaaaaaaaaaaaaaaaaaaaaaaaaaaaaaaaaaaaaaaaaaaaaaaaaaaaaaaaaaaaaaaaaaaaa",
"aaaaaaaaaaaaaaaaaahEhdhqhhhhhhFhhhhhFhhhhhhkcfecceckcccececttqaaaaaaaaaaaaccleflllklKhhhjhhhhhDhhdhhDhhhhhhhhhhEuhaaaaaaaaaaaaaaaaaaaaaaaaaaaaaaaaaaaaaaalaaaaadh!hssqqshhhhhvwvtwaaaaaaaaaaaaaaaaaaaaaaaaaaaalalqqqlkaaIa&&%qssqqhhhhhdhhqtttvaaaaaaaaaaaaaaaaaaaaaaaaaaaaaaaaaaaaaa%aa%aaaatvvvvtqqttttvwaaaaaaaaaaaaaaaaaaaaaaaaaaaaaaaaaaaaaaaaaaaaaaaaaaaaaaaaaaaaaaaaaaaaaaaaaaaaaaaaaaaaa",
"aaaaaaaaaaaaaaaaaaahhhhvttvvttqqtvtqqtvvvvvvhlllkklkkkcckktqqaaaaaaaaaaaakkellelkclKrhEhdhqhhhFhhdhhFhqvqtvvshhhhhaaaaaaaaaaaaaaaaaaaaaaaaaaaaaaaaaaaaaaaaaaass!hhqqttttttttvvvwtwaaaaaaaaaaaaaaaaaaaaaaaaaaaakalalaaak%%IaIs%%hhhshhhhhsshhtvvaaaaaaaaaaaaaaaaaaaaaaaaaaaaaaaaaaaaaaaaaHaaatvvttqttttttttvwaaaaaaaaaaaaaaaaaaaaaaaaaaaaaaaaaaaaaaaaaaaaaaaaaaaaaaaaaaaaaaaaaaaaaaaaaaaaaaaaaaaa",
"aaaaaaaaaaaaaaaaaaaqhhvtttvwvttqstsqtvvvvvvvvhhqaaaaaasssqqaaaaaaaaaaaaaakleflllklKrsrhhhhvttvvttqqsqtvqtvvwwvshhqaaaaaaaaaaaaaaaaaaaaaaaaaaaaaa%aaaaaaaaaaasssrqqtttttvvwwvvvvwtwaaaaaaaaaaaaaaaaaaaaaaaaaaaaaakakaaaaa%aI&&hhssqthhhhhwwtshtv%aIaaaaaaaaaaaaaaaaaaaaaaaaaaaaaaaa%aaaHaaaaqtttqsttvvttvvtvvwaaaaaaaaaaaaaaaaaaaaaaaaaaaaaaaaaaaaaaaaaaaaaaaaaaavvwwvvvaaaaaaaaaaaaaaaaaaaaaaaaa",
"aaaaaaaaaaaaaaaaaaaqtvvtqtvwvvttqsqttvwwvvvwwvtqaaaaaaaaaaaaaaaaaaaaaaaaacflellklKrraaahhvtttvwvttsqtvvtvvwwvvvttqaaaaaaaaaaaaaaaaaaaaaaaaaaaaaaaaaaaaaaaaasssrsqtqqtvvwwvwwvvvwtwaaaaaaaaaaaaaaaaaaaaaaaaaaaaaaa%aaaIaaa&aIssqtttqttttvvvwvssaaaaaaaaaaaaaaaaaaaaaaaaaaaaaaaaaIaaaaaaaaIqqtqsssItttttttvvtwvwaaaaaaaaaaaaaaaaaaaaaaaaaaaaaaaaaaaaaaaaaaaaaaaavvvvvttttvwaaaaaaaaaaaaaaaaaaaaaaa",
"aaaaaaaaaaaaaaaaaaaqtvttqtvvvvttqaqtvwwwwvtvwwtqaaaaaaaaaaaaaaaaaaaaaaaaaaeaaaaaaaaaaaaqtvvtqtvwvsqttvqtvvwvvvttqqaaaaaaaaaaaaaaaaaaaaaaaaaaaaaaaaaaaaaaaasssrsqqqtvvvwvvwvwvvvwtvaaaaaaaaaaaaaaaaaaaaaaaaaaaaaaaaaaIaaa&aIsqtqqttttvvvttvvwvsaaaIaaaaaaaaaaaaaaaaaaaaaaaaaaaaaaaaaaIattqvwvtqsItvvtttttttvvwvvaaaaaaaaaaaaaaaaaaaaaaaaaaaaaaaaaaaaaaaaaaaaatvvvvtqqttttvwaaaaaaaaaaaaaaaaaaaaaa",
"aaaaaaaaaaaaaaaaaaaqtttttttvvvtqaaaqvvwwvvvvwttqaaaaaaaaaaaaaaaaaaaaaaaaaaaaaaaaaaaaaaaqtvttqtvvvsqttvtttvvvtttqqaaaaaaaaaaaaaaaaaaaaaaaaaaaaaaaaaaaaaaaaassrrsqqtttttvvvvvvvvvvtaaaaaaaaaaaaaaaaaaaaaaaaaaaaaaa%aaa%aaaaasqqqttttvvvwwvttvvtsqaaaaaaaaaaaaaaaaaaaaaaaaaaaaaaaaaaavvvvtvvvvvvtq%vItttvwvtttvwtvaa%aaaaaaaaaaaaaaaaaaaaaaaaaaaaaaaaaaaaaaaaatvvttqttttttttvwaaaaaaaaaaaaaaaaaaaaa",
"aaaaaaaaaaaaaaaaaaaqtqtvvtqtvttqaaaqtvvvtwGwvqtqaaaaaaaaaaaaaaaaaaaaaaaaaaaaaaaaaaaaaaaqtttttttvvsqtttttttttttqqaaaaaaaaaaaaaaaaaaaaaaaaaaaaaaaaaaaaaaaaasqsrsqqttvwwvtqqqvvvvttaaaaaaaaaaaaaaaaaaaaaaaaaaaaaaaaaaaaaaaaasqqttttvvvwwvvvttvttstaaaaaaaaaaaaaaaaaaaaaaaaaaaaaaaaaattttttttttvwtItttttttttvtttwtvvaaaaaaaaaaaaaaaaaaaaaaaaaaaaaaaaaaaaaaaaaaqtttqsttvvttvvtvvwaaaaaaaaaaaaaaaaaaaa",
"aaaaaaaaaaaaaaaaaaaqtstvwvtqttqqaaaqqtvtwwwwwstqaaaaaaaaaaaaaaaaaaaaaaaaaaaaaaaaaaaaaaaqtqtvvtqtvsqttvvvvvttqqaaaaaaaaaaaaaaaaaaaaaaaaaaaaaaaaaaaaaaaaaaasqsrsqtvwwvvvwwwvtttaaaaaaaaaaaaaaaaaaaaaaaaaaaaaaaaaaaaaaIaaaassttttvvvwvvvvttttttqqtaaaaaaaaaaaaaaaaaaaaaaaaaaaaaaaaaqttvvttvvttvvq%Itttthhhhhtttvttvaaaaaaaaaaaaaaaaaaaaaaaaaaaaaaaaaaaaaaaaqqtqsss%ttIthhhhhtwvwaaaaaaaaaaaaaaaaaaa",
"aaaaaaaaaaaaaaaaaaaaqsttvvtqqqtqaaaqtqqqvwwvtsqaaaaaaaaaaaaaaaaaaaaaaaaaaaaaaaaaaaaaaaaqtstvwvtqttsqvwvwwvvtqtqaaaaaaaaaaaaaaaaaaaaaaaaaaaaaaaaaaaaaaaaaasssrstttttwvvvvwwwvaaaaaaaaaaaaaaaaaaaaaaaaaaaaaaaaaaaaaaaaaaastttqssqvvvvtttttttqsstqaaaaaaaaaaaaaaaaaaaaaaaaaaaaaaaaaqttvvvvtttvvtqIsshhhhhhhhhhsvttvHaaaaaaaaaaaaaaaaaaaaaaaaaaaaaaaaaaaattqvwvtqsItvhhhhhhhhhhsvvaaaaaaaaaaaaaaaaaa",
"aaaaaaaaaaaaaaaaaaaaqqstttqstttqaaaqtttsqtttsqqaaaaaaaaaaaaaaaaaaaaaaaaaaaaaaaaaaaaaaaaaqsttvvtqqqsqvvvvvwvqqttkcaaaaaaaaaaaaaaaaaaaaaaaaaaaaaaaaaaaaaaaarssrsttttvvvvvvvvvwwaaaaaaaaaaaaaaaaaaaaaaaaaaaaaaaaaaaaaaaaaastttttteettttttttqssqttaaaaaaaaaaaaaaaaaaaaaaaaaaaaaaaaaaqtvvvvttttttqshqvvvvhhhhhwwvhstvaaaa%aaaaaaaaaaaaaaaaaaaaaaaaaaaavvvvtvvvvvvtHIqvvvvhhhhhwwvhsaaaaaaaaaaaaaaaaaa",
"aaaaaaaaaaaaaaaaaaaactqssqqvwvtcaaaqtvvtqqssqtqaaaaaaaaaaaaaaaaaaaaaaaaaaaaaaaaaaaaaaaaaqqstttqstttstvvvvvtqqtqkeaaaaaaaaaaaaaaaaaaaaaaaaaaaaaaaaaaaaaaaaarrrsttttvvvvvvvvvvvecaaaaaaaaaaaaaaaaaaaaaaaaaaaaaaaaaaaaaaasttttttfffeetttceeeqqttqaaaaaaaaaaaaaaaaaaaaaaaaaaaaaaaaaakqtvttttqqqqvvvvttttttvtvvvvwwstaaaaaaaaaaaaaaaaaaaaaaaaaaaaaaaattttttttttvwvvvvttttttvtvvvvwwsaaaaaaaaaaaaaaaaa",
"aaaaaaaaaaaaaaaaaaaaaceqvtqtveecaaaqtvwvtqqtvtqaaaaaaaaaaaaaaaaaaaaaaaaaaaaaaaaaaaaaaaaaktqssqqvwvtkstttttqstqqkfaaaaaaaaaaaaaaaaaaaaaaaaaaaaaaaaaaaaaaaaaaarsqttvtttvtvtvvvcfeeecaaaaaaaaaaaaaaaaaaaaaaaaaaaaaaaaaaaasttqttceeeffeeeeeefeqqqaaaaaaaaaaaaaaaaaaaaaaaaaaaaaaaa%aklqtttqqqqIvvttttvvvwwvvvvvttvvwtaa%aaaaaaaaaaaaaaaaaaaaaaaaaaaaqttvvttvvtIvvttttvvvwwvvvvvttvvwaaaaaaaaaaaaaaaaa",
"aaaaaaaaaaaaaaaaaaaaaceceeceeeccaaaactvvtqtvtecaaaaaaaaaaaaaaaaaaaaaaaaaaaaaaaaaaaaaaaaaakkqvtqtvkccassqqssqqqkkfeaaaaaaaaaaaaaaaaaaaaaaaaaaaaaaaaaaaaaaaaaaakkssqqttttttttteeeffecaaaaaaaaaaaaaaaaaaaaaaaaaaaaaaaaaIasqttqqeeeeeeeeeeffefqaaaaaaaaaaaaaaaaaaaaaaaaaaaaaaaaaaaalalqqqlkIHttttvvvvttttvvvttttttvtaIaaaaaaaaaaaaaaaaaaaaaaaaaaaaaqttvvvvtIHttttvvvvttttvvvttttttvHaaaaaaaaaaaaaaaa",
"aaaaaaaaaaaaaaaaaaaaakccefeeeeecaaaacceeecfececaaaaaaaaaaaaaaaaaaaaaaaaaaaaaaaaaaaaaaaaaakcckcccccecaaassqqskkkcefaaaaaaaaaaaaaaaaaaaaaaaaaaaaaaaaaaaaaaaaaaakkkkqsssqqqqqqceeeeefeaaaaaaaaaaaaaaaaaaaaaaaaaaaaaaaaaaasqqqttcceceececcceefaaIaaaaaaaaaaaaaaaaaaaaaaaaaaaaaaaaaakal%laaIktttvwveeeqqqtttttttttttvaaaaaaaaaaaaaaaaaaaaaaaaaaaaaaaqtv%vvtIktttvwveeeqqqtttttttttttvaaaaaaaaaaaaaaaa",
"aaaaaaaaaaaaaaaaaaaaakceeffeeeccaaaaceeeeefececaaaaaaaaaaaaaaaaaaaaaaaaaaaaaaaaaaaaaaaaaakceeeeeeeccaaaakkkkkkcecfaaaaaaaaaaaaaaaaaaaaaaaaaaaaaaaaaaaaaaaaaaakckkckkckqsqkkkcceeeeeeaaaaaaaaaaaaaaaaaaaaaaaaaaaaaIaaIIssqtqqceeeeeeeeeceeeaaaaaaI%IaaaaaaaaaaaaaaaaaaaaaaaaaaaaaakakIHIqttvttceffeeqqqqsqttttttvaaaaaaaaaaaaaaaaaaaaaaaaaaaaaaaIqtvtIHIqttvttceffeeqqqqsqttttttvI%%aaaaaaaaaaaaa",
"aaaaaaaaaaaaaaaaaaaaaccefeeeeeecaaaacceefffecccaaaaaaaaaaaaaaaaaaaaaaaaaaaaaaaaaaaaaaaaaaccefeeeeeecaaaakceceeceeeaaaaaaaaaaaaaaaaaaaaaaaaaaaaaaaaaaaaaaaaaaacckcckceccaaakkkkcceeeeaaaaaaaaaaaaaaaaaaaaaaaaaaa&I%%%%Iassqqsscccccceeeeeeeaaaaaaaaaaaaaaaaaaaaaaaaaaaaaaaaaaaaaa%%%%HHHttqtvveeeeffffeqqeffettttaaaaaaaaaaaaaaaaaaaaaaaaaaaa%a%IIIIIHHHttqtvveeeeffffeqqeffettttI%%%%Iaaaaaaaaaa",
"aaaaaaaaaaaaaaaaaaaacceeeeeefeecaaaaceeeffffeccaaaaaaaaaaaaaaaaaaaaaaaaaaaaaaaaaaaaaaaaacceeeeeefeecaaaaceeceeeefeeaaaaaaaaaaaaaaaaaaaaaaaaaaaaaaaaaaaaaaaaakceccecefecaaaaakceeeeeeeaaaaaaaaaaaaaaaaaaaaaaaaaaaa&IIIaaasssslkkklllcceeceefaaaaaaaaaaI&aaaaaaaaaaaaaaaaaaaaaaaaaaaaIIHqtvtttceeeeeeeefffeeefettqaaaaaaaaaaaaaaaaaaaaaaaaaaaaaaaa%%IIIHqtvtttceeeeeeeefffeeefettqdd))aaaaaaaaaaaa",
"aaaaaaaaaaaaaaaaaaaceeeceeceeecaaaaaceeeeeeeeccaaaaaaaaaaaaaaaaaaaaaaaaaaaaaaaaaaaaaaaaceeeceeceeecaaaaaceffeefeeefaaaaaaaaaaaaaaaaaaaaaaaaaaaaaaaaaaaaaaaaceeekeekeeecaaaaaakeceecefaaaaaaaaaaaaaaaaaaaaaaaaaaaaaaaaaaaackkceeeclkklceecefaaaaaaaaaaaaaaaaaaaaaaaaaaaaaaaaaaaaaaa%%I%qttqttceeeeeeeeeeeffeeetqaaaaaaaaaaaaaaaaaaaaaaaaaaaaaaaaaaa%%I%qttqttceeeeeeeeeeeffeeetq*dI%aaaaaaaaaaaaa",
"aaaaaaaaaaaaaaaaaacfcfcfecfeeckaaaaaceefefeeeecaaaaaaaaaaaaaaaaaaaaaaaaaaaaaaaaaaaaaaacfcfcfecfeeckaaaaacceeceecfceaaaaaaaaaaaaaaaaaaaaaaaaaaaaaaaaaaaaaaacfcfcefcefeckaaaaaaceceeeeeeaaaaaaaaaaaaaaaaaaaaaaaaaaaaaaaI%aceekcceckccckaccceceaaaaaaaaaaaaaaaaaaaaaaaaaaaaaaaaaaaaaaaaaaqtttqqkkcccccececccceeeeeaaaaaaaaaaaaaaaaaaaaaaaaaaaaaaaa%%%aaaIqtttqqkkcccccececccceeeeed)aaaaaaaaaaaaaaa",
"aaaaaaaaaaaaaaaaaacekekeekeeecaaaaaaeeeceecfeecaaaaaaaaaaaaaaaaaaaaaaaaaaaaaaaaaaaaaaacekekeekeeecaaaaaakeffkcekekcaaaaaaaaaaaaaaaaaaaaaaaaaaaaaaaaaaaaaaacekekeekeeecaaaaaaacccececefaaaaaaaaaaaaaaaaaaaaaaaaaaaaaaaaaacccakcccceeckaackckefaaaaaaaaaaaaaaaaaaaaaaaaaaaaaaaaaaaaaaaaIaqqtttcececeeeeeeeeeceeeefaefcaaaaaaaaaaaaaaaaaaaaaaaaaaaaaaaa%IIaaaaacececeeeeeeeeeceeeefaefcaaaaaaaaaaaa",
"aaaaaaaaaaaaaaaaaaacacaccacccaaaaaaacefecefcfcfcaaaaaaaaaaaaaaaaaaaaaaaaaaaaaaaaaaaaaaacacaccacccaaaaaaaaeeekefkkkkaaaaaaaaaaaaaaaaaaaaaaaaaaaaaaaaaaaaaaaacacaccacccaaaaaaaaekeekeeefaaaaaaaaaaaaaaaaaaaaaaaaaaaaaaaaaaaaacekkcccckaaaackecaaaaaaaaaaaaaaaaaaaaaaaaaaaaaaaaaaaaaaaaaaaaqqqqkccccccckckkceeeefecckceaaaaaaaaaaaaaaaaaaaaaaaaaaaaaaaaaa%Iaaaakccccccckckkceeeefecckceaaaaaaaaaaaa",
"aaaaaaaaaaaaaaaaaaaaaaaaaaaaaaaaaaaaceeekeekekecaaaaaaaaaaaaaaaaaaaaaaaaaaaaaaaaaaaaaaaaaaaaaaaaaaaaaaaaacceakkakakaaaaaaaaaaaaaaaaaaaaaaaaaaaaaaaaaaaaaaaaaaaaaaaaaaaaaaaacekeekcekfcaaaaaaaaaaaaaaaaaaaaaaaaaaaaaaaaaaaaaccaclklaaaaaaaeceaaaaaaaaaaaaaaaaaaaaaaaaaaaaaaaaaaaaaaaaaaaaaassskkkkaaaaaaaacceeeffeceaaaaaaaaaaaaaaaaaaaaaaaaaaaaaaaaaaaaaaaaaakkkkaaaaaaaacceeeffeceaaaaaaaaaaaaa",
"aaaaaaaaaaaaaaaaaaaaaaaaaaaaaaaaaaaaacccaccacacaaaaaaaaaaaaaaaaaaaaaaaaaaaaaaaaaaaaaaaaaaaaaaaaaaaaaaaaaakkkakkaaaaaaaaaaaaaaaaaaaaaaaaaaaaaaaaaaaaaaaaaaaaaaaaaaaaaaaaaaaakckckcekceaaaaaaaaaaaaaaaaaaaaaaaaaaaaaaaaaaaaaaaaaeaeaaaaaaaaeeaaaaaaaaaaaaaaaaaaaaaaaaaaaaaaaaaaaaaaaaaaaaaaaaaaaaaaceaeaaaaaakcceeceaaaaaaaaaaaaaaaaaaaaaaaaaaaaaaaaaaaaaaaaaaaaaaaceaeaaaaaakcceeceaaaaaaaaaaaaaa",
"aaaaaaaaaaaaaaaaaaaaaaaaaaaaaaaaaaaaaaaaaaaaaaaaaaaaaaaaaaaaaaaaaaaaaaaaaaaaaaaaaaaaaaaaaaaaaaaaaaaaaaaaaaaaaaaaaaaaaaaaaaaaaaaaaaaaaaaaaaaaaaaaaaaaaaaaaaaaaaaaaaaaaaaaaaaaaaaaaaaaaaaaaaaaaaaaaaaaaaaaaaaaaaaaaaaaaaaaaaaaaaaaaaaaaaaaaaaaaaaaaaaaaaaaaaaaaaaaaaaaaaaaaaaaaaaaaaaaaaaaaaaaaaaaaaaaaaaaaaaaakccaaaaaaaaaaaaaaaaaaaaaaaaaaaaaaaaaaaaaaaaaaaaaaaaaaaaaaaaaaaaakccaaaaaaaaaaaaaaaa"
};
