/* XPM */
static char *death_f00[] = {
"64 64 9 1",
"a	c None",
"b	c #D8D8F4",
"c	c #98C0E4",
"d	c #3884CC",
"e	c #B4D0EC",
"f	c #0C5CAC",
"g	c #2474C4",
"h	c #1068C0",
"i	c #64A0D8",
"aaaaaaaaaaaaaaaaaaaaaaaaaaaaaaaaaaaaaaaaaaaaaaaaaaaaaaaaaaaaaaaa",
"aaaaaaaaaaaaaaaaaaaaaaaaaaaaaaaaaaaaaaaaaaaaaaaaaaaaaaaaaaaaaaaa",
"aaaaaaaaaaaaaaaaaaaaaaaaaaaaaaaaaaaaaaaaaaaaaaaaaaaaaaaaaaaaaaaa",
"aaaaaaaaaaaaaaaaaaaaaaaaaaaaaaaaaaaaaaaaaaaaaaaaaaaaaaaaaaaaaaaa",
"aaaaaaaaaaaaaaaaaaaaaaaaaaaaaaaaaaaaaaaaaaaaaaaaaaaaaaaaaaaaaaaa",
"aaaaaaaaaaaaaaaaaaaaaaaaaaaaaaaaaaaaaaaaaaaaaaaaaaaaaaaaaaaaaaaa",
"aaaaaaaaaaaaaaaaaaaaaaaaaaaaaaaaaaaaaaaaaaaaaaaaaaaaaaaaaaaaaaaa",
"aaaaaaaaaaaaaaaaaaaaaaaaaaaaaaaabbbbbaaaaaaaaaaaaaaaaaaaaaaaaaaa",
"aaaaaaaaaaaaaaaaaaaaaaaaaaaaaabbcccccbaaaaaaaaaaaaaaaaaaaaaaaaaa",
"aaaaaaaaaaaaaaaaaaaaaaaaaaaaabcddadadcbaaaaaaaaaaaaaaaaaaaaaaaaa",
"aaaaaaaaaaaaaaaaaaaaabbbaaabbcdaaacccacbaaaaaaaaaaaaaaaaaaaaaaaa",
"aaaaaaaaaaaaaaaaaaabbcdcbbbccdaaacceecdbaaaaaaaaaaaaaaaaaaaaaaaa",
"aaaaaaaaaaaaaaaaaabcdfccdcddaaaaaceeeeabaaaaaaaaaaaaaaaaaaaaaaaa",
"aaaaaaaaaaaaaaaaaabdfceecaaaaaaaaceeeeabaaaaaaaaaaaaaaaaaaaaaaaa",
"aaaaaaaaaaaaaaaaabcfgceecaaaaaaaaaceecabaaaaaaaaaaaaaaaaaaaaaaaa",
"aaaaaaaaaaaaaaaaabdfgaccaaaaaaaaaacceecdbaaaaaaaaaaaaaaaaaaaaaaa",
"aaaaaaaaaaaaaaaaabcfgaaaaaaaaaaadaaceecacbaaaaaaaaaaaaaaaaaaaaaa",
"aaaaaaaaaaaaaaaaaabdgaaaaaaaaaaaaacacecaabaaaaaaaaaaaaaaaaaaaaaa",
"aaaaaaaaaaaaaaaaaabcgaaaaaaaaaaaaaacccecadbaaaaaaaaaaaaaaaaaaaaa",
"aaaaaaaaaaaaaaaaaabcaaaacaaaaaaaaaadcbceaacbaaaaaaaaaaaaaaaaaaaa",
"aaaaaaaaaaaaaaaaaabdaaacaaaaaaaadaaadccceaabaaaaaaaaaaaaaaaaaaaa",
"aaaaaaaaaaaaaaaaabcaaacaaaaaaaaaaacaaaacccacbaaaaaaaaaaaaaaaaaaa",
"aaaaaaaaaaaaaaaabcdaaeaaaaaaaaaaaaaaaaaaceaabaaaaaaaaaaaaaaaaaaa",
"aaaaaaaaaaaaaaabcdaaeaaaaaaaaaaaaacbaaaacccaabaaaaaaaaaaaaaaaaaa",
"aaaaaaaaaaaaaaabcdaeaaaaaaaaaaacaadcaaaaaceaadbaaaaaaaaaaaaaaaaa",
"aaaaaaaaaaaaaabcdaeaaaaaaaaaaaaaaaaaaaaaaccaaacbaaaaaaaaaaaaaaaa",
"aaaaaaaaaaaaaabcdacaaaaaaaaaaaaaabaaaaaaaaeaaadcbaaaaaaaaaaaaaaa",
"aaaaaaaaaaaaaabdacaaaaaaaaaaaaaaaaaacaaaaaccaaacbaaaaaaaaaaaaaaa",
"aaaaaaaaaaaaabcdacaaaaaaaaaaaaaaaaaaaaaaaaacaaadcbaaaaaaaaaaaaaa",
"aaaaaaaaaaaaabcaaaaaaaaaaaaaaaaadaadaaaaaaaceaagcbaaaaaaaaaaaaaa",
"aaaaaaaaaaaaabdaaaaaaaaaaaaaaaaaaaaaaaaaaaaacaaacbaaaaaaaaaaaaaa",
"aaaaaaaaaaaabcdaaaaaaagghaaaaaabaaaaaaaaaaaaccaadbaaaaaaaaaaaaaa",
"aaaaaaaaaaaabcaaaaaadiiidgaaaaaaaaacaaaaaaaaacaadbaaaaaaaaaaaaaa",
"aaaaaaaaaaaabcdaaaadaaaacdgaaaaaaaaaaaaaaaaaaeaagbaaaaaaaaaaaaaa",
"aaaaaaaaaaaabcaaaadaaaaaachgaaaaacbaabaaaaaaacaadbaaaaaaaaaaaaaa",
"aaaaaaaaaaaaacdaadaaaaaaacfgaacaadcaaaaaaaaaaaaagbaaaaaaaaaaaaaa",
"aaaaaaaaaaaaaadddaaaaaaaabfhgaaaaaaaaaaaaaaaaaaaabaaaaaaaaaaaaaa",
"aaaaaaaaaaaaaaaaaaaaaaaaabffgaaaaaadaaaaaaaaaaaaabaaaaaaaaaaaaaa",
"aaaaaaaaaaaaaaadaaaaaaaaabffgaaaaccaaaaaaaaaaaaacaaaaaaaaaaaaaaa",
"aaaaaaaaaaaaaaaaaaaaaaaaabffgaaaddbcaaaaaaaaaaddaaaaaaaaaaaaaaaa",
"aaaaaaaaaaaaaaccaaaaaaaaabffgacadaacadaaaaaaadaacaaaaaaaaaaaaaaa",
"aaaaaaaaaaaaadcbcaaaaaaaabffgaaaaddaaaaaaaaaadaaaaaaaaaaaaaaaaaa",
"aaaaaaaaaaaaadaccaaaaaaaabffgaaaaaabaaaaaaaaiaaaaaaaaaaaaaaaaaaa",
"aaaaaaaaaaaaadadcaaaaaaaabffgaadaaaaaaaaaaaaiaaaaaaaaaaaaaaaaaaa",
"aaaaaaaaaaaaaaggaaaaaaaaabffgaaaaaaaaaaaaacacaaacbaaaaaaaaaaaaaa",
"aaaaaaaaaaaaaaaaaaaaaaaabcffgaaaacabaaaaaaaacaaadcaaaaaaaaaaaaaa",
"aaaaaaaaaaaaaaaaaaaaaaaabcffgaacbaaaaaaaaacacaaaaaaaaaaaaaaaaaaa",
"aaaaaaaaaaaaaaabaaaaaaaabdffgaadcaaaaaaaaacabaaaaaaaaaaaaaaaaaaa",
"aaaaaaaaaaaaaaaaaaaaaaaabfffgaaaaaaaadaaaacabaaaccaaaaaaaaaaaaaa",
"aaaaaaaaaaaaaaaaaaaaaaabcffhgaaaacaaaaaaaacabaaddbcaaaaaaaaaaaaa",
"aaaaaaaaaaaaaaaaaaaaaaabdffggaacaabacbaaaccabaadaacaaaaaaaaaaaaa",
"aaaaaaaaaaaaaacbaaaaaaabfffgaaaaaaaadcaaaceabaaaddaaaaaaaaaaaaaa",
"aaaaaaaaaaaaaadcaaaaaabcffhgaaaaadaaaaaaaceabaaaaaaaaaaaaaaaaaaa",
"aaaaaaaaaaaaaaaaaaaaaabfffggaaaaaaaaaaaaaceabaaaaaaaaaaaaaaaaaaa",
"aaaaaaaaaaaaaaaaaaaaabcffhggaaaaaaaaaaaaacecabaaadaaaaaaaaaaaaaa",
"aaaaaaaaaaaaaaaaaaaaabfffggaaaaadaacaaaaaceeaabbaaaaaaaaaaaaaaaa",
"aaaaaaaaaaaaaacaaaaabcffhggaacaaaccaacaabacecaacbaaaaaaaaaaaaaaa",
"aaaaaaaaaaaaaaaaaaabcfffggaaaaaaddbcaaaaaaccecaaibaaaaaaaaaaaaaa",
"aaaaaaaaaaaaaaaaaabcfffgggaaaaaadaacaaaaaaaccecaaccaaaaaaaaaaaaa",
"aaaaaaaaaaaaaaaaabcfffgggaaaaaabaddaaaaaaaaaacccaabaaaaaaaaaaaaa",
"aaaaaaaaaaaaaaacbbbbbgggaaaaaaaaaaaadaaaacaaaaaccabbcaaaaaaaaaaa",
"aaaaaaaaaaaaaaaaaaaacbbbbbggaaaaaaacaaaaaaabbbbbbbcaaaaaaaaaaaaa",
"aaaaaaaaaaaaaaaaaaaaaaaaacbbbbbbbbcacbbbbbbcaaaaaaaaaaaaaaaaaaaa",
"aaaaaaaaaaaaaaaaaaaaaaaaaaaaaaaaaaaaaaaaaaaaaaaaaaaaaaaaaaaaaaaa"
};