/* XPM */
static const char *cyborg_boss_walking_f01[] = {
/* columns rows colors chars-per-pixel */
"64 64 88 1",
"! c None",
"# c #60401C",
"$ c #704820",
"% c #805424",
"& c #94602C",
"' c #A06C3C",
"( c #D0B094",
") c #BC906C",
"* c #B08458",
"+ c #A8784C",
", c #503418",
"- c #C4A080",
". c #402810",
"/ c #005C5C",
"0 c #007474",
"1 c #640030",
"2 c #880444",
"3 c #D8649C",
"4 c #CC3880",
"5 c #004444",
"6 c #984C08",
"7 c #00BCBC",
"8 c #008C8C",
"9 c #00A4A4",
": c #98084C",
"; c #AC0C58",
"< c #10C0C0",
"= c #CC8038",
"> c #B4ECEC",
"? c #28C8C8",
"@ c #5CD8D8",
"A c #78E0E0",
"B c #D8BCA8",
"C c #DCAC7C",
"D c #D8F4F4",
"E c #98E4E4",
"F c #40D0D0",
"G c #E4D0C0",
"H c #ECD0B4",
"I c #AC580C",
"J c #C06410",
"K c #743804",
"L c #884404",
"M c #002C2C",
"N c #4C4C4C",
"O c #848484",
"P c #5C5C5C",
"Q c #2C2C2C",
"R c #B0B0B0",
"S c #747474",
"T c #CC3838",
"U c #700404",
"V c #444444",
"W c #8C8C8C",
"X c #545454",
"Y c #3C3C3C",
"Z c #343434",
"[ c #A8A8A8",
"] c #989898",
"^ c #A0A0A0",
"_ c #7C7C7C",
"` c #D09050",
"a c #001414",
"b c #502400",
"c c #6C6C6C",
"d c #646464",
"e c #BCBCBC",
"f c #CCCCCC",
"g c #C47024",
"h c #D89C64",
"i c #E4C098",
"j c #043C74",
"k c #085098",
"l c #044488",
"m c #5090D0",
"n c #002850",
"o c #98C0E4",
"p c #643000",
"q c #64A0D8",
"r c #2474C4",
"s c #00142C",
"t c #7CACDC",
"u c #1068C0",
"v c #3C1C00",
"w c #0C5CAC",
"x c #003064",
"y c #242424",
"z c #1C1C1C",
"!!!!!!!!!!!!!!!!!!!!!!!!!!!!!!!!!!!!!!!!!!!!!!!!!!!!!!!!!!!!!!!!",
"!!!!!!!!!!!!!!!!!!!!!!!!!!!!!!!!!!!!!!!!!!!!!!!!!!!!!!!!!!!!!!!!",
"!!!!!!!!!!!!!!!!!!!!!!!!!!!!########!!!!!!!!!!!!!!!!!!!!!!!!!!!!",
"!!!!!!!!!!!!!!!!!!!!!!!!!!!##$$%%%$$#!!!!!!!!!!!!!!!!!!!!!!!!!!!",
"!!!!!!!!!!!!!!!!!!!!!!!!!!!#$%&'''&%$#!!!!!!!!!!!!!!!!!!!!!!!!!!",
"!!!!!!!!!!!!!!!!!!!!!!!!!!##$%(%)*+&$#!!!!!!!!!!!!!!!!!!!!!!!!!!",
"!!!!!!!!!!!!!!!!!!!!!!!!!!#$%'%$'*(&&$#!!!!!!!!!!!!!!!!!!!!!!!!!",
"!!!!!!!!!!!!!!!!!!!!!!!!!!#%'*'''*&%#%#!!!!!!!!!!!!!!!!!!!!!!!!!",
"!!!!!!!!!!!!!!!!!!!!!!!!!#$&*)*+*+&##&$#!!!!!!!!!!!!!!!!!!!!!!!!",
"!!!!!!!!!!!!!!!!!!!!!!!!!#%+)('&*++&&&%##!!!!!!!!!!!!!!!!!!!!!!!",
"!!!!!!!!!!!!!!!!!!!!!!!!#$+)(+#%*'&'+)+$#!!!!!!!!!!!!!!!!!!!!!!!",
"!!!!!!!!!!!!!!!!!!!!!!!#,%)*%#$&&&%&'*)%,#!!!!!!!!!!!!!!!!!!!!!!",
"!!!!!!!!!!!!!!!!!!!!!!!,$$-*&%$%&%$%&*-$$,!!!!!!!!!!!!!!!!!!!!!!",
"!!!!!!!!!!!!!!!!!!!!!!!.$,&+%###'###%+&,$.!!!!!!!!!!!!!!!!!!!!!!",
"!!!!!!!!!!!!!!!!!!!!!!.#$.$#,$#%'%#$,#$.$#.!!!!!!!!!!!!!!!!!!!!!",
"!!!!!!!!!/0///////////.,#,1234$&)&$2341,#,.//////////55!!!!!!!!!",
"!!!!66666700089880000.,$#$$1:;,+(),;:1,##$,.00089<0000//66666!!!",
"!!!!=====>??<@A@79888.,$$#$%$%$)B($%$%$#$$,.88897@AA@<78=====!!!",
"!!!!=CCCCDEEAE>>E@F?<.,%$#$%'+*(G(*+'%$#$%,.9?F@E>D>EA@<=CCCC!!!",
"!!!!CHHHH><<?@A@79888.#&%#$&'**)(-**'&$#%&#.888997AA@<7FCHHHH!!!",
"!!!!=CCCCE88999990000.#%%$#%'*('*)**'%#$%%#.00000099889A=CCCC!!!",
"!!!!IJJJIF000//0/////.,#$$#%'+'$')*+'%#$$#,./////////08>IJJJI!!!",
"!!!!KLLLL798//55//55MM.,#$#%&+''-)*+&%#$#,.MM55//5//8/0FKLLLL!!!",
"!!!!NOPNQ8F90/0000/55MM.,#$$+'+*-*+'+$$#,.MMMMMMMM0<008?NOPNQ!!!",
"!!!!NRSNQM9F900880//55MM.,#$**+)B)+**$#,.MMMTUTMM0E<0089NRSNQ!!!",
"!!!!VRWXQ!/9F8880800/55MM.,&))'-B-'))&,.MMMMMMMMME<80890VRWXQ!!!",
"!!!!YRWPQ!M/9780000///55MM%+&-*)()*-&+%MMMMMMMMM8<80880MYRWPQ!!!",
"!!!!ZRWNQ!!M/090/0/55555MM&$,&)*)*)&,$&MM55555/0980000M!ZRWNQ!!!",
"!!!!5[OVQ!!!M///5/55MMMMMM##,,''%'',,##MMMMMM55/00///M!!5[OVQ!!!",
"!!!!I]SY6!!!!//MM55M5555///#$&%$#$%&$#///5555M55////M!!!I]SY6!!!",
"!!!!C^_^`!!!!!/MaMMMMMM55MM5#$'*(+*&%MMM55MMMMMMMM/M!!!!C^_^`!!!",
"!!!!IIIIIL!!!!!!MaaaaaaaM!!!M#$%&'&%M!!!MaaaaaaaM55!!!!!IIIII!!!",
"!!!!KKXKK!!!!!!!!!!!!!!!!!!!M5M/5MMMM!!!!!!!!!!!!!!!!!!!KKXKK!!!",
"!!!!bcdNb!!!!!!!!!!!!!!!!!!!!aM5MaaM!!!!!!!!!!!!!!!!!!!!bNdNb!!!",
"!!!!Y]_PQ!!!!!!!!!!!!!!!!!!!!5/80/5M!!!!!!!!!!!!!!!!!!!!Y]_PQ!!!",
"!!!!Y^WPQ!!!!!!!!!!!!!!!!!!!!55/5MaM!!!!!!!!!!!!!!!!!!!!Y^WPQ!!!",
"!!!!Ye]PQ!!!!!!!!!!!!!!!!!!!!0?E?85M!!!!!!!!!!!!!!!!!!!!Ye]PQ!!!",
"!!!!Yf^PQ!!!!!!!!!!!!!!!!!!!M5095MaMM!!!!!!!!!!!!!!!!!!!Yf^PQ!!!",
"!!!!Y^WPQ!!!!!!!!666666K0///M/7D7///M///56666666!!!!!!!!Y^WPQ!!!",
"!!!!Y^_PQ!!!!!!!!gggggg6800/M5095MaaM/00/gg`hh`g!!!!!!!!YMMPQ!!!",
"!!!!Y/55Q!!!!!!!!HCCCCCJ>FF0M50800/5M0FF9HCiHHiC!!!!!!!5M9/M5!!!",
"!!!/0jj05!!!!!!!!i`````6E<98/M555/5M/8998i``````!!!!!5055?/Ma!!!",
"!!/9jklj/5!!!!!!!`JJJJJLA8880/MMMMM/08880`0555/J!!!!505559/M/M!!",
"!!07jmln05!!!!!!!J66666KF000000000000000/J5NOV56!!!!05aM!8/M8a!!",
"!!08joln05!!!!!!!6KKKKKp8///////////////56/P]N5K!!!!8aa!!05!85a!",
"!!08jqln5!!!!!!!!Lbbbbbb/555555555555555ML5S[X5b!!!!0a!!!05!/5a!",
"!!!0jrln!!!!!!!!!IKKKKKp5000088999888000MI5OeP5K!!!!/a!!!Ma!/5a!",
"!!!!jssn!!!!!!!!!!5S[d5!!!!!!!!!!!!!!!!!!!5[fS5!!!!!!5a!!!a!!/M!",
"!!!!jmln!!!!!!!!!!5S[d5!!!!!!!!!!!!!!!!!!ILLLLL6!!!!!!!!!!!!!5M!",
"!!!!jqln!!!!!!!!!pYX^XYp!!!!!!!!!!!!!!!!!gg=`=gI!!!!!!!!!!!!5M!!",
"!!!!jtln!!!!!!!!!LYX_NYL!!!!!!!!!!!!!!!!!h`CHC`g!!!!!!!!!!!!!!!!",
"!!!!jtln!!!!!!!!!KKYYYKK!!!!!!!!!!!!!!!!!Cg`h=JI!!!!!!!!!!!!!!!!",
"!!!!jmln!!!!!!!!!bbbbbbb!!!!!!!!!!!!!!!!!=IJJJJJ!!!!!!!!!!!!!!!!",
"!!!!juln!!!!!!!!!vvvvvvv!!!!!!!!!!!!!!!!!J65S566!!!!!!!!!!!!!!!!",
"!!!!jwln!!!!!!!!!!ZXSNZ!!!!!!!!!!!!!!!!!!LM_WNKK!!!!!!!!!!!!!!!!",
"!!!!jssn!!!!!!!!0/MXdN5MM!!!!!!!!!!!!!!!!!5SRPM!!!!!!!!!!!!!!!!!",
"!!!!!xx!!!!!!!!0/55MXM55MM!!!!!!!!!!!!!!!!5WRSM!!!!!!!!!!!!!!!!!",
"!!!!!!!!!!!!!!0/MMMM5M0/5M!!!!!!!!!!!!!!!!5WRSM!!!!!!!!!!!!!!!!!",
"!!!!!!!!!!!!!!/M!!!5/M!!/5M!!!!!!!!!!!!!!55WRPMM!!!!!!!!!!!!!!!!",
"!!!!!!!!!!!!!!M5!!!905!!05/!!!!!!!!!!!!!500?9//05!!!!!!!!!!!!!!!",
"!!!!!!!!!!!!!!!!!!!5/M!!!!!!!!!!!!!!!!!58/5E8579M!!!!!!!!!!!!!!!",
"!!!!!!!!!!!!!!!!!!!!!!!!!!!!!!!!!!!!!!/E/MMA058E7M!!!!!!!!!!!!!!",
"!!!!!!!!!!!!!!!!!!!!!!!!!!!!!!!!!!!!!!E0My!?/y!!<5!!!!!!!!!!!!!!",
"!!!!!!!!!!!!!!!!!!!!!!!!!!!!!!!!!!!!!!75z!!7/z!!95!!!!!!!!!!!!!!"
};