/* XPM */
static const char *cyborg_boss_walking_f02[] = {
/* columns rows colors chars-per-pixel */
"64 64 89 1",
"! c None",
"# c #60401C",
"$ c #704820",
"% c #805424",
"& c #94602C",
"' c #A06C3C",
"( c #D0B094",
") c #BC906C",
"* c #B08458",
"+ c #A8784C",
", c #503418",
"- c #C4A080",
". c #402810",
"/ c #884404",
"0 c #007474",
"1 c #984C08",
"2 c #00A4A4",
"3 c #008C8C",
"4 c #640030",
"5 c #880444",
"6 c #D8649C",
"7 c #CC3880",
"8 c #005C5C",
"9 c #CC8038",
": c #10C0C0",
"; c #28C8C8",
"< c #98084C",
"= c #AC0C58",
"> c #004444",
"? c #C06410",
"@ c #DCAC7C",
"A c #00BCBC",
"B c #98E4E4",
"C c #B4ECEC",
"D c #D8F4F4",
"E c #5CD8D8",
"F c #D8BCA8",
"G c #D09050",
"H c #ECD0B4",
"I c #78E0E0",
"J c #40D0D0",
"K c #E4D0C0",
"L c #AC580C",
"M c #743804",
"N c #643000",
"O c #002C2C",
"P c #E4C098",
"Q c #D89C64",
"R c #CC3838",
"S c #700404",
"T c #5C5C5C",
"U c #2C2C2C",
"V c #4C4C4C",
"W c #8C8C8C",
"X c #A8A8A8",
"Y c #545454",
"Z c #BCBCBC",
"[ c #444444",
"] c #989898",
"^ c #CCCCCC",
"_ c #C47024",
"` c #980088",
"a c #E0E0E0",
"b c #3C3C3C",
"c c #646464",
"d c #D8D8D8",
"e c #A0A0A0",
"f c #343434",
"g c #747474",
"h c #F0F0F0",
"i c #502400",
"j c #848484",
"k c #B0B0B0",
"l c #6C6C6C",
"m c #001414",
"n c #7C7C7C",
"o c #C4C4C4",
"p c #FCFCFC",
"q c #001C3C",
"r c #043C74",
"s c #044488",
"t c #003064",
"u c #085098",
"v c #0C5CAC",
"w c #2474C4",
"x c #1068C0",
"y c #3C1C00",
"z c #242424",
"{ c #1C1C1C",
"!!!!!!!!!!!!!!!!!!!!!!!!!!!!!!!!!!!!!!!!!!!!!!!!!!!!!!!!!!!!!!!!",
"!!!!!!!!!!!!!!!!!!!!!!!!!!########!!!!!!!!!!!!!!!!!!!!!!!!!!!!!!",
"!!!!!!!!!!!!!!!!!!!!!!!!!##$$%%%$$#!!!!!!!!!!!!!!!!!!!!!!!!!!!!!",
"!!!!!!!!!!!!!!!!!!!!!!!!!#$%&'''&%$#!!!!!!!!!!!!!!!!!!!!!!!!!!!!",
"!!!!!!!!!!!!!!!!!!!!!!!!##$%(%)*+&$#!!!!!!!!!!!!!!!!!!!!!!!!!!!!",
"!!!!!!!!!!!!!!!!!!!!!!!!#$%'%$'*(&&$#!!!!!!!!!!!!!!!!!!!!!!!!!!!",
"!!!!!!!!!!!!!!!!!!!!!!!!#%'*'''*&%#%#!!!!!!!!!!!!!!!!!!!!!!!!!!!",
"!!!!!!!!!!!!!!!!!!!!!!!#$&*)*+*+&##&$#!!!!!!!!!!!!!!!!!!!!!!!!!!",
"!!!!!!!!!!!!!!!!!!!!!!!#%+)('&*++&&&%##!!!!!!!!!!!!!!!!!!!!!!!!!",
"!!!!!!!!!!!!!!!!!!!!!!#$+)(+#%*'&'+)+$#!!!!!!!!!!!!!!!!!!!!!!!!!",
"!!!!!!!!!!!!!!!!!!!!!#,%)*%#$&&&%&'*)%,#!!!!!!!!!!!!!!!!!!!!!!!!",
"!!!!!!!!!!!!!!!!!!!!!,$$-*&%$%&%$%&*-$$,!!!!!!!!!!!!!!!!!!!!!!!!",
"!!!!!!!!!!!!!!!!!!!!!.$,&+%###'###%+&,$.!!!!!!!!!!!!!!!!!!!!!!!!",
"!!!!!!//000000!!!!!!.#$.$#,$#%'%#$,#$.$#.!!!!!!!!!!!!!!!!!!!!!!!",
"!!!!!112222233300000.,#,4567$&)&$5674,#,.088888!!!!!!!!!!!!!!!!!",
"!!!!19:::;:;;::2222.,$#$$4<=,+(),=<4,##$,.003323088>>!!!!!!!!!!!",
"!!!!?@:AABBCDCBE:::.,$$#$%$%$)F($%$%$#$$,.3322A:200808!!!!!!!!!!",
"!!!!GH2EE:;EIEBEJ;:.,%$#$%'+*(K(*+'%$#$%,.2;JEBEII:230011111!!!!",
"!!!!1@0:::222222222.#&%#$&'**)(-**'&$#%&#.33322CDCBI0899999L1!!!",
"!!!!/?8:C2230000000.#%%$#%'*('*)**'%#$%%#.00000AIIEB88@@@@9@9!!!",
"!!!!M1>EC:3088888>>.,#$$#%'+'$')*+'%#$$#,.>>8880223B8>HHHH@HG!!!",
"!!!!!N>EDB23000088>>.,#$#%&+''-)*+&%#$#,.OOOOO>8828B8O@@@@9P@!!!",
"!!!!!!>2EDE23000088>>.,#$$+'+*-*+'+$$#,.OOOOOOOO0:8;8OL???LQ9!!!",
"!!!!!!!>2JDE23330088>>.,#$**+)F)+**$#,.OORSROO>0DI820>>>T0M1L!!!",
"!!!!!!!!>0JB:::220088>>.,&))'-F-'))&,.OOOOOOOO>DI2032>UVWXVM1!!!",
"!!!!!!!!!>03I::2300088>>%+&-*)()*-&+%OOOOOOOO>DI20030OUYXZV[]!!!",
"!!!!!!!!1L>03223088888>>&$,&)*)*)&,$&OOOOO>>8;233330OOUTZ^[YZ!!!",
"!!!!!!!!_9G>003088>>>>>>##,,''%'',,##OO>>>>>38033008O`UTZabcd!!!",
"!!!!!!!!11/M>0088>8888000#$&%$#$%&$#000888>>>>80008O``UVe^fgh!!!",
"!!!!!!!!!iiiN8OOO>>>>>>OOO#$'*(+*&%>>>88>>>>>>>888O```UVjkblZ!!!",
"!!!!!!!!!!mTnT```OOOOOO```>#$%&'&%>```>mmmmmOO>>8O````U[gWVTe!!!",
"!!!!!!!!!!mTjT````````````O>O8>OOOO`````````OOOOO`````U[>>>Vj!!!",
"!!!!!!!!!!mTWT`````````````mO>OmmO````````````````````1???L_?!!!",
"!!!!!!!!!!mT]T`````````````>8308>O````````````````````GQ@Q@@9!!!",
"!!!!!!!!!!mTWT`````````````>>8>OmO```````````````````/LLLLLPQ!!!",
"!!!!!!!!!!mTWT`````````````0;B;3>O```````````````````MOYgj1HP!!!",
"!!!!!!!!!!mTjT````````````O>02>OmOO``````````````````OYWXn/@Q!!!",
"!!!!!!!!!!bTWYU111111M0888O8ADA888O888>1111111``````OYXonMNG?!!!",
"!!!!!!!!!8[YWY>__GQQG13008O>02>OmmO8008__GQQG_`````OYkaWVii?!!!!",
"!!!!!!!!80AbYb8H@PHHP?CJJ0O>03008>O0JJ2H@PHHP@````OYWpeV!!!!!!!!",
"!!!!!!!!8A30330PGGGGG1B:238O>>>8>O83223PGGGGG>0>>OYWoWV!!!!!!!!!",
"!!!!!!!!0A8>>80G0>>>8/I33308OOOOO803330G????>:BJA300]V!!!!!!!!!!",
"!!!!!!!!03qrrq>?>Vj[>1J0000000000000008?11183mm>002bV!!!!!!!!!!!",
"!!!!!!!!!0qqqqq18T]V>M3888888888888888>1MM>mmM`3:I0O!!!!!!!!!!!!",
"!!!!!!!!!!!qqqq/>gXY>i8>>>>>>>>>>>>>>>O/iiOii002I08O!!!!!!!!!!!!",
"!!!!!!!!!!!rstqL>jZT>M>000033222333000OLNNNN0:28O>mO!!!!!!!!!!!!",
"!!!!!!!!!!!!uvq`>X^g>!!!!!!!!!!!!!!!!!!!fY0A:8`>38m!!!!!!!!!!!!!",
"!!!!!!!!!!!!rwsL/////1!!!!!!!!!!!!!!!!!!8320>`>3mO!!!!!!!!!!!!!!",
"!!!!!!!!!!!!!ux__9G9_L!!!!!!!!!!!!!!!!!!fYcVf>0>m!!!!!!!!!!!!!!!",
"!!!!!!!!!!!!!rsQG@H@G_!!!!!!!!!!!!!!!!!!fYcV>0mm!!!!!!!!!!!!!!!!",
"!!!!!!!!!!!!!!s@_GQ9?L!!!!!!!!!!!!!!!!!if08>Om!!!!!!!!!!!!!!!!!!",
"!!!!!!!!!!!!!!!9L?????!!!!!!!!!!!!!!!!!NNbVbNN!!!!!!!!!!!!!!!!!!",
"!!!!!!!!!!!!!!!?1>g>11!!!!!!!!!!!!!!!!!MMMMMMM!!!!!!!!!!!!!!!!!!",
"!!!!!!!!!!!!!!!/OnWVMM!!!!!!!!!!!!!!!!!iyyyyyy!!!!!!!!!!!!!!!!!!",
"!!!!!!!!!!!!!!!!>gkTO!!!!!!!!!!!!!!!!!!!>WegO!!!!!!!!!!!!!!!!!!!",
"!!!!!!!!!!!!!!!!>WkgO!!!!!!!!!!!!!!!!!!>>WeTOO!!!!!!!!!!!!!!!!!!",
"!!!!!!!!!!!!!!!!>WkgO!!!!!!!!!!!!!!!!!>008288>O!!!!!!!!!!!!!!!!!",
"!!!!!!!!!!!!!!!>>WkTOO!!!!!!!!!!!!!!!>3>>03OO>O!!!!!!!!!!!!!!!!!",
"!!!!!!!!!!!!!!>00;2880>!!!!!!!!!!!!!82>OO30O88>O!!!!!!!!!!!!!!!!",
"!!!!!!!!!!!!!>38>B3>A2O!!!!!!!!!!!!!0>O!!38!!!8>!!!!!!!!!!!!!!!!",
"!!!!!!!!!!!!8B8OOI0>3BAO!!!!!!!!!!!!8>z!!38!!!8>!!!!!!!!!!!!!!!!",
"!!!!!!!!!!!!B0O!!;8UU!:>!!!!!!!!!!!!8{!!!38!!!88!!!!!!!!!!!!!!!!",
"!!!!!!!!!!!!A>U!!A8z!!2>!!!!!!!!!!!!!!!!!!!!!!!!!!!!!!!!!!!!!!!!",
"!!!!!!!!!!!!0{!!!38{!!08!!!!!!!!!!!!!!!!!!!!!!!!!!!!!!!!!!!!!!!!"
};