/* XPM */
static const char *cyborg_boss_walking_sheet[] = {
/* columns rows colors chars-per-pixel */
"256 64 97 2",
"!! c None",
"!# c #60401C",
"!$ c #704820",
"!% c #805424",
"!& c #94602C",
"!' c #A06C3C",
"!( c #D0B094",
"!) c #BC906C",
"!* c #B08458",
"!+ c #A8784C",
"!, c #503418",
"!- c #C4A080",
"!. c #402810",
"!/ c #005C5C",
"!0 c #004444",
"!1 c #884404",
"!2 c #007474",
"!3 c #640030",
"!4 c #880444",
"!5 c #D8649C",
"!6 c #CC3880",
"!7 c #984C08",
"!8 c #00A4A4",
"!9 c #008C8C",
"!: c #98084C",
"!; c #AC0C58",
"!< c #10C0C0",
"!= c #78E0E0",
"!> c #5CD8D8",
"!? c #00BCBC",
"!@ c #CC8038",
"!A c #28C8C8",
"!B c #98E4E4",
"!C c #D8BCA8",
"!D c #D8F4F4",
"!E c #B4ECEC",
"!F c #C06410",
"!G c #DCAC7C",
"!H c #AC580C",
"!I c #40D0D0",
"!J c #E4D0C0",
"!K c #D09050",
"!L c #ECD0B4",
"!M c #E4C098",
"!N c #002C2C",
"!O c #743804",
"!P c #D89C64",
"!Q c #643000",
"!R c #5C5C5C",
"!S c #001414",
"!T c #CC3838",
"!U c #700404",
"!V c #4C4C4C",
"!W c #A8A8A8",
"!X c #8C8C8C",
"!Y c #2C2C2C",
"!Z c #848484",
"![ c #989898",
"!] c #444444",
"!^ c #BCBCBC",
"!_ c #545454",
"!` c #B0B0B0",
"!a c #747474",
"!b c #CCCCCC",
"!c c #980088",
"!d c #D8D8D8",
"!e c #646464",
"!f c #3C3C3C",
"!g c #E0E0E0",
"!h c #F0F0F0",
"!i c #343434",
"!j c #A0A0A0",
"!k c #C47024",
"!l c #6C6C6C",
"!m c #502400",
"!n c #7C7C7C",
"!o c #C4C4C4",
"!p c #FCFCFC",
"!q c #3884CC",
"!r c #B4D0EC",
"!s c #64A0D8",
"!t c #043C74",
"!u c #0C5CAC",
"!v c #1068C0",
"!w c #085098",
"!x c #044488",
"!y c #001C3C",
"!z c #5090D0",
"!{ c #002850",
"!| c #2474C4",
"!} c #003064",
"!~ c #00142C",
"#! c #98C0E4",
"## c #7CACDC",
"#$ c #3C1C00",
"#% c #242424",
"#& c #1C1C1C",
"!!!!!!!!!!!!!!!!!!!!!!!!!!!!!!!!!!!!!!!!!!!!!!!!!!!!!!!!!!!!!!!!!!!!!!!!!!!!!!!!!!!!!!!!!!!!!!!!!!!!!!!!!!!!!!!!!!!!!!!!!!!!!!!!!!!!!!!!!!!!!!!!!!!!!!!!!!!!!!!!!!!!!!!!!!!!!!!!!!!!!!!!!!!!!!!!!!!!!!!!!!!!!!!!!!!!!!!!!!!!!!!!!!!!!!!!!!!!!!!!!!!!!!!!!!!!!!!!!!!!!!!!!!!!!!!!!!!!!!!!!!!!!!!!!!!!!!!!!!!!!!!!!!!!!!!!!!!!!!!!!!!!!!!!!!!!!!!!!!!!!!!!!!!!!!!!!!!!!!!!!!!!!!!!!!!!!!!!!!!!!!!!!!!!!!!!!!!!!!!!!!!!!!!!!!!!!!!!!!!!!!!!!!!!!!!!!!!!!!!!!!!!!!!!!!!!!!!!!!!!!!!!!!!!!!!!!!!!!!!!!!!!!!!!!!!!!!!!!!!!!!!!!!!!!!!!",
"!!!!!!!!!!!!!!!!!!!!!!!!!!!!!!!!!!!!!!!!!!!!!!!!!!!!!!!!!!!!!#!#!#!#!#!#!#!#!!!!!!!!!!!!!!!!!!!!!!!!!!!!!!!!!!!!!!!!!!!!!!!!!!!!!!!!!!!!!!!!!!!!!!!!!!!!!!!!!!!!!!!!!!!!!!!!!!!!!!!!!!!!!!!!!!!!!!!!!!!!!!!!!!!!!!!!!!!!!!!!!!!!!!!!!!!!!!!!!!!!!!!!!!!!!!!!!!!!!!!!!!!!!!!!!!!!!!!!!!!!!!!!!!!!!!!!!!!!!!!!!!!!!!!!!#!#!#!#!#!#!#!#!!!!!!!!!!!!!!!!!!!!!!!!!!!!!!!!!!!!!!!!!!!!!!!!!!!!!!!!!!!!!!!!!!!!!!!!!!!!!!!!!!!!!!!!!!!!!!!!!!!!!!!!!!!!!!!!!!!!!!!!!!!!!!!!!!!!!!!!!!!!!!!!!!!!!!!!!!!!!!!!!!!!!!!!!!!!!!!!!!!!!!!!!!!!",
"!!!!!!!!!!!!!!!!!!!!!!!!!!!!!!!!!!!!!!!!!!!!!!!!!!!!!!!!!!!#!#!$!$!%!%!%!$!$!#!!!!!!!!!!!!!!!!!!!!!!!!!!!!!!!!!!!!!!!!!!!!!!!!!!!!!!!!!!!!!!!!!!!!!!!!!!!!!!!!!!!!!!!!!!!!!!!!!!!!!!!!!!!#!#!#!#!#!#!#!#!!!!!!!!!!!!!!!!!!!!!!!!!!!!!!!!!!!!!!!!!!!!!!!!!!!!!!!!!!!!!!!!!!!!!!!!!!!!!!!!!!!!!!!!!!!!!!!!!!!!!!!!!!!#!#!$!$!%!%!%!$!$!#!!!!!!!!!!!!!!!!!!!!!!!!!!!!!!!!!!!!!!!!!!!!!!!!!!!!!!!!!!!!!!!!!!!!!!!!!!!!!!!!!!!!!!!!!!!!!!!!!!!!!!!!!!!!!!!!!!!#!#!#!#!#!#!#!#!!!!!!!!!!!!!!!!!!!!!!!!!!!!!!!!!!!!!!!!!!!!!!!!!!!!!!!!",
"!!!!!!!!!!!!!!!!!!!!!!!!!!!!!!!!!!!!!!!!!!!!!!!!!!!!!!!!!!!#!$!%!&!'!'!'!&!%!$!#!!!!!!!!!!!!!!!!!!!!!!!!!!!!!!!!!!!!!!!!!!!!!!!!!!!!!!!!!!!!!!!!!!!!!!!!!!!!!!!!!!!!!!!!!!!!!!!!!!!!!!!#!#!$!$!%!%!%!$!$!#!!!!!!!!!!!!!!!!!!!!!!!!!!!!!!!!!!!!!!!!!!!!!!!!!!!!!!!!!!!!!!!!!!!!!!!!!!!!!!!!!!!!!!!!!!!!!!!!!!!!!!!!!#!$!%!&!'!'!'!&!%!$!#!!!!!!!!!!!!!!!!!!!!!!!!!!!!!!!!!!!!!!!!!!!!!!!!!!!!!!!!!!!!!!!!!!!!!!!!!!!!!!!!!!!!!!!!!!!!!!!!!!!!!!!!!!!!!!!#!#!$!$!%!%!%!$!$!#!!!!!!!!!!!!!!!!!!!!!!!!!!!!!!!!!!!!!!!!!!!!!!!!!!!!!!",
"!!!!!!!!!!!!!!!!!!!!!!!!!!!!!!!!!!!!!!!!!!!!!!!!!!!!!!!!!#!#!$!%!(!%!)!*!+!&!$!#!!!!!!!!!!!!!!!!!!!!!!!!!!!!!!!!!!!!!!!!!!!!!!!!!!!!!!!!!!!!!!!!!!!!!!!!!!!!!!!!!!!!!!!!!!!!!!!!!!!!!!!#!$!%!&!'!'!'!&!%!$!#!!!!!!!!!!!!!!!!!!!!!!!!!!!!!!!!!!!!!!!!!!!!!!!!!!!!!!!!!!!!!!!!!!!!!!!!!!!!!!!!!!!!!!!!!!!!!!!!!!!!!#!#!$!%!(!%!)!*!+!&!$!#!!!!!!!!!!!!!!!!!!!!!!!!!!!!!!!!!!!!!!!!!!!!!!!!!!!!!!!!!!!!!!!!!!!!!!!!!!!!!!!!!!!!!!!!!!!!!!!!!!!!!!!!!!!!!!!#!$!%!&!'!'!'!&!%!$!#!!!!!!!!!!!!!!!!!!!!!!!!!!!!!!!!!!!!!!!!!!!!!!!!!!!!",
"!!!!!!!!!!!!!!!!!!!!!!!!!!!!!!!!!!!!!!!!!!!!!!!!!!!!!!!!!#!$!%!'!%!$!'!*!(!&!&!$!#!!!!!!!!!!!!!!!!!!!!!!!!!!!!!!!!!!!!!!!!!!!!!!!!!!!!!!!!!!!!!!!!!!!!!!!!!!!!!!!!!!!!!!!!!!!!!!!!!!!#!#!$!%!(!%!)!*!+!&!$!#!!!!!!!!!!!!!!!!!!!!!!!!!!!!!!!!!!!!!!!!!!!!!!!!!!!!!!!!!!!!!!!!!!!!!!!!!!!!!!!!!!!!!!!!!!!!!!!!!!!!!#!$!%!'!%!$!'!*!(!&!&!$!#!!!!!!!!!!!!!!!!!!!!!!!!!!!!!!!!!!!!!!!!!!!!!!!!!!!!!!!!!!!!!!!!!!!!!!!!!!!!!!!!!!!!!!!!!!!!!!!!!!!!!!!!!!!#!#!$!%!(!%!)!*!+!&!$!#!!!!!!!!!!!!!!!!!!!!!!!!!!!!!!!!!!!!!!!!!!!!!!!!!!!!",
"!!!!!!!!!!!!!!!!!!!!!!!!!!!!!!!!!!!!!!!!!!!!!!!!!!!!!!!!!#!%!'!*!'!'!'!*!&!%!#!%!#!!!!!!!!!!!!!!!!!!!!!!!!!!!!!!!!!!!!!!!!!!!!!!!!!!!!!!!!!!!!!!!!!!!!!!!!!!!!!!!!!!!!!!!!!!!!!!!!!!!#!$!%!'!%!$!'!*!(!&!&!$!#!!!!!!!!!!!!!!!!!!!!!!!!!!!!!!!!!!!!!!!!!!!!!!!!!!!!!!!!!!!!!!!!!!!!!!!!!!!!!!!!!!!!!!!!!!!!!!!!!!!#!%!'!*!'!'!'!*!&!%!#!%!#!!!!!!!!!!!!!!!!!!!!!!!!!!!!!!!!!!!!!!!!!!!!!!!!!!!!!!!!!!!!!!!!!!!!!!!!!!!!!!!!!!!!!!!!!!!!!!!!!!!!!!!!!!!#!$!%!'!%!$!'!*!(!&!&!$!#!!!!!!!!!!!!!!!!!!!!!!!!!!!!!!!!!!!!!!!!!!!!!!!!!!",
"!!!!!!!!!!!!!!!!!!!!!!!!!!!!!!!!!!!!!!!!!!!!!!!!!!!!!!!#!$!&!*!)!*!+!*!+!&!#!#!&!$!#!!!!!!!!!!!!!!!!!!!!!!!!!!!!!!!!!!!!!!!!!!!!!!!!!!!!!!!!!!!!!!!!!!!!!!!!!!!!!!!!!!!!!!!!!!!!!!!!!#!%!'!*!'!'!'!*!&!%!#!%!#!!!!!!!!!!!!!!!!!!!!!!!!!!!!!!!!!!!!!!!!!!!!!!!!!!!!!!!!!!!!!!!!!!!!!!!!!!!!!!!!!!!!!!!!!!!!!!!!!#!$!&!*!)!*!+!*!+!&!#!#!&!$!#!!!!!!!!!!!!!!!!!!!!!!!!!!!!!!!!!!!!!!!!!!!!!!!!!!!!!!!!!!!!!!!!!!!!!!!!!!!!!!!!!!!!!!!!!!!!!!!!!!!!!!!!!#!%!'!*!'!'!'!*!&!%!#!%!#!!!!!!!!!!!!!!!!!!!!!!!!!!!!!!!!!!!!!!!!!!!!!!!!!!",
"!!!!!!!!!!!!!!!!!!!!!!!!!!!!!!!!!!!!!!!!!!!!!!!!!!!!!!!#!%!+!)!(!'!&!*!+!+!&!&!&!%!#!#!!!!!!!!!!!!!!!!!!!!!!!!!!!!!!!!!!!!!!!!!!!!!!!!!!!!!!!!!!!!!!!!!!!!!!!!!!!!!!!!!!!!!!!!!!!!!#!$!&!*!)!*!+!*!+!&!#!#!&!$!#!!!!!!!!!!!!!!!!!!!!!!!!!!!!!!!!!!!!!!!!!!!!!!!!!!!!!!!!!!!!!!!!!!!!!!!!!!!!!!!!!!!!!!!!!!!!!!!#!%!+!)!(!'!&!*!+!+!&!&!&!%!#!#!!!!!!!!!!!!!!!!!!!!!!!!!!!!!!!!!!!!!!!!!!!!!!!!!!!!!!!!!!!!!!!!!!!!!!!!!!!!!!!!!!!!!!!!!!!!!!!!!!!!!#!$!&!*!)!*!+!*!+!&!#!#!&!$!#!!!!!!!!!!!!!!!!!!!!!!!!!!!!!!!!!!!!!!!!!!!!!!!!",
"!!!!!!!!!!!!!!!!!!!!!!!!!!!!!!!!!!!!!!!!!!!!!!!!!!!!!#!$!+!)!(!+!#!%!*!'!&!'!+!)!+!$!#!!!!!!!!!!!!!!!!!!!!!!!!!!!!!!!!!!!!!!!!!!!!!!!!!!!!!!!!!!!!!!!!!!!!!!!!!!!!!!!!!!!!!!!!!!!!!#!%!+!)!(!'!&!*!+!+!&!&!&!%!#!#!!!!!!!!!!!!!!!!!!!!!!!!!!!!!!!!!!!!!!!!!!!!!!!!!!!!!!!!!!!!!!!!!!!!!!!!!!!!!!!!!!!!!!!!!!!#!$!+!)!(!+!#!%!*!'!&!'!+!)!+!$!#!!!!!!!!!!!!!!!!!!!!!!!!!!!!!!!!!!!!!!!!!!!!!!!!!!!!!!!!!!!!!!!!!!!!!!!!!!!!!!!!!!!!!!!!!!!!!!!!!!!!!#!%!+!)!(!'!&!*!+!+!&!&!&!%!#!#!!!!!!!!!!!!!!!!!!!!!!!!!!!!!!!!!!!!!!!!!!!!!!",
"!!!!!!!!!!!!!!!!!!!!!!!!!!!!!!!!!!!!!!!!!!!!!!!!!!!#!,!%!)!*!%!#!$!&!&!&!%!&!'!*!)!%!,!#!!!!!!!!!!!!!!!!!!!!!!!!!!!!!!!!!!!!!!!!!!!!!!!!!!!!!!!!!!!!!!!!!!!!!!!!!!!!!!!!!!!!!!!!!#!$!+!)!(!+!#!%!*!'!&!'!+!)!+!$!#!!!!!!!!!!!!!!!!!!!!!!!!!!!!!!!!!!!!!!!!!!!!!!!!!!!!!!!!!!!!!!!!!!!!!!!!!!!!!!!!!!!!!!!!!#!,!%!)!*!%!#!$!&!&!&!%!&!'!*!)!%!,!#!!!!!!!!!!!!!!!!!!!!!!!!!!!!!!!!!!!!!!!!!!!!!!!!!!!!!!!!!!!!!!!!!!!!!!!!!!!!!!!!!!!!!!!!!!!!!!!!!#!$!+!)!(!+!#!%!*!'!&!'!+!)!+!$!#!!!!!!!!!!!!!!!!!!!!!!!!!!!!!!!!!!!!!!!!!!!!!!",
"!!!!!!!!!!!!!!!!!!!!!!!!!!!!!!!!!!!!!!!!!!!!!!!!!!!,!$!$!-!*!&!%!$!%!&!%!$!%!&!*!-!$!$!,!!!!!!!!!!!!!!!!!!!!!!!!!!!!!!!!!!!!!!!!!!!!!!!!!!!!!!!!!!!!!!!!!!!!!!!!!!!!!!!!!!!!!!!#!,!%!)!*!%!#!$!&!&!&!%!&!'!*!)!%!,!#!!!!!!!!!!!!!!!!!!!!!!!!!!!!!!!!!!!!!!!!!!!!!!!!!!!!!!!!!!!!!!!!!!!!!!!!!!!!!!!!!!!!!!!,!$!$!-!*!&!%!$!%!&!%!$!%!&!*!-!$!$!,!!!!!!!!!!!!!!!!!!!!!!!!!!!!!!!!!!!!!!!!!!!!!!!!!!!!!!!!!!!!!!!!!!!!!!!!!!!!!!!!!!!!!!!!!!!!!!!#!,!%!)!*!%!#!$!&!&!&!%!&!'!*!)!%!,!#!!!!!!!!!!!!!!!!!!!!!!!!!!!!!!!!!!!!!!!!!!!!",
"!!!!!!!!!!!!!!!!!!!!!!!!!!!!!!!!!!!!!!!!!!!!!!!!!!!.!$!,!&!+!%!#!#!#!'!#!#!#!%!+!&!,!$!.!!!!!!!!!!!!!!!!!!!!!!!!!!!!!!!!!!!!!!!!!!!!!!!!!!!!!!!!!!!!!!!!!!!!!!!!!!!!!!!!!!!!!!!,!$!$!-!*!&!%!$!%!&!%!$!%!&!*!-!$!$!,!!!!!!!!!!!!!!!!!!!!!!!!!!!!!!!!!!!!!!!!!!!!!!!!!!!!!!!!!!!!!!!!!!!!!!!!!!!!!!!!!!!!!!!.!$!,!&!+!%!#!#!#!'!#!#!#!%!+!&!,!$!.!!!!!!!!!!!!!!!!!!!!!!!!!!!!!!!!!!!!!!!!!!!!!!!!!!!!!!!!!!!!!!!!!!!!!!!!!!!!!!!!!!!!!!!!!!!!!!!,!$!$!-!*!&!%!$!%!&!%!$!%!&!*!-!$!$!,!!!!!!!!!!!!!!!!!!!!!!!!!!!!!!!!!!!!!!!!!!!!",
"!!!!!!!!!!!!!!!!!!!!!!!!!!!!!!!!!!!!!!!!!!!!!!!!!.!#!$!.!$!#!,!$!#!%!'!%!#!$!,!#!$!.!$!#!.!!!!!!!!!!!!!!!/!/!/!0!!!!!!!!!!!!!!!!!!!!!!!!!!!!!!!!!!!!!!!!!!!!!!!!!!!!!!!!!!!!!!!.!$!,!&!+!%!#!#!#!'!#!#!#!%!+!&!,!$!.!!!!!!!!!!!!!!!!!!!!!!!!!!!!!!!!!!!!!!!!!!!!!!!!!!!!!!!!!1!1!2!2!2!2!2!2!!!!!!!!!!!!!.!#!$!.!$!#!,!$!#!%!'!%!#!$!,!#!$!.!$!#!.!!!!!!!!!!!!!!!!!!!!!!!!!!!!!!!!!!!!!!!!!!!!!!!!!!!!!!!!!!!!!!!!!!!!!!!!!!!!!!!!!!!!!!!!!!!!!.!$!,!&!+!%!#!#!#!'!#!#!#!%!+!&!,!$!.!!!!!!!!!!!!!!!!!!!!!!!!!!!!!!!!!!!!!!!!!!!!",
"!!!!!!!!!!!!!!!!!!!!!!!!!!!!!!!!!!!/!/!/!/!/!/!/!.!,!#!,!3!4!5!6!$!&!)!&!$!4!5!6!3!,!#!,!.!/!/!/!/!/!/!/!2!2!2!2!/!1!1!!!!!!!!!!!!!!!!!!!!!!!!!!!!!!!!!!!!!!!!!!!!!!!!!!!!!!!.!#!$!.!$!#!,!$!#!%!'!%!#!$!,!#!$!.!$!#!.!!!!!!!!!!!!!!!!!!!!!!!!!!!!!!!!!!!!!!!!!!!!!!!!!!!!!7!7!8!8!8!8!8!9!9!9!2!2!2!2!2!.!,!#!,!3!4!5!6!$!&!)!&!$!4!5!6!3!,!#!,!.!2!/!/!/!/!/!!!!!!!!!!!!!!!!!!!!!!!!!!!!!!!!!!!!!!!!!!!!!!!!!!!!!!!!!!!!!!!!!!!!!!!!!!!!!!!.!#!$!.!$!#!,!$!#!%!'!%!#!$!,!#!$!.!$!#!.!!!!!!!!!!!!!!!!!!!!!!!!!!!!!!!!!!!!!!!!!!",
"!!!!!!!!!!!!!!!!!!!!!/!2!/!/!/!/!/!2!2!2!2!2!2!.!,!$!#!$!$!3!:!;!,!+!(!)!,!;!:!3!,!#!#!$!,!.!2!2!2!9!8!<!=!=!>!<!?!9!7!7!!!!!!!!!!!!!!!!!!!!!!!!!!!/!2!/!/!/!/!/!/!/!/!/!/!/!.!,!#!,!3!4!5!6!$!&!)!&!$!4!5!6!3!,!#!,!.!/!/!/!/!/!/!/!/!/!/!0!0!!!!!!!!!!!!!!!!!!!!!!!!!!!7!@!<!<!<!A!<!A!A!<!<!8!8!8!8!.!,!$!#!$!$!3!:!;!,!+!(!)!,!;!:!3!,!#!#!$!,!.!2!2!9!9!8!9!2!/!/!0!0!!!!!!!!!!!!!!!!!!!!!!!!!!!!!!!!!!!!!!!!!/!2!/!/!/!/!/!/!/!/!/!/!/!.!,!#!,!3!4!5!6!$!&!)!&!$!4!5!6!3!,!#!,!.!/!/!/!/!/!/!/!/!/!/!0!0!!!!!!!!!!!!!!!!!!",
"!!!!!!!!!7!7!7!7!7!/!B!>!2!2!9!8!<!>!?!8!9!9!9!.!,!$!$!#!$!%!$!%!$!)!C!(!$!%!$!%!$!#!$!$!,!.!9!9!9!8!?!>!D!E!B!=!>!9!<!@!7!!!!!!!!!!!!!!!7!7!7!7!7!?!2!2!2!9!8!9!9!2!2!2!2!.!,!$!#!$!$!3!:!;!,!+!(!)!,!;!:!3!,!#!#!$!,!.!2!2!2!9!8!<!2!2!2!2!/!/!7!7!7!7!7!!!!!!!!!!!!!!!F!G!<!?!?!B!B!E!D!E!B!>!<!<!<!.!,!$!$!#!$!%!$!%!$!)!C!(!$!%!$!%!$!#!$!$!,!.!9!9!8!8!?!<!8!2!2!/!2!/!!!!!!!!!!!!!!!!!!!!!!!!!!!!!7!7!7!7!7!?!2!2!2!9!8!9!9!2!2!2!2!.!,!$!#!$!$!3!:!;!,!+!(!)!,!;!:!3!,!#!#!$!,!.!2!2!2!9!8!<!2!2!2!2!/!/!7!7!7!7!7!!!!!!",
"!!!!!!!7!H!@!@!@!@!@!9!E!=!<!>!=!=!E!B!>!I!A!<!.!,!%!$!#!$!%!'!+!*!(!J!(!*!+!'!%!$!#!$!%!,!.!8!A!I!>!B!E!=!=!>!<!?!?!9!G!F!!!!!!!!!!!!!!!@!@!@!@!@!E!A!A!<!>!=!>!?!8!9!9!9!.!,!$!$!#!$!%!$!%!$!)!C!(!$!%!$!%!$!#!$!$!,!.!9!9!9!8!?!>!=!=!>!<!?!9!@!@!@!@!@!!!!!!!!!!!!!!!K!L!8!>!>!<!A!>!=!>!B!>!I!A!<!.!,!%!$!#!$!%!'!+!*!(!J!(!*!+!'!%!$!#!$!%!,!.!8!A!I!>!B!>!=!=!<!8!9!2!2!7!7!7!7!7!!!!!!!!!!!!!!!!!@!@!@!@!@!E!A!A!<!>!=!>!?!8!9!9!9!.!,!$!$!#!$!%!$!%!$!)!C!(!$!%!$!%!$!#!$!$!,!.!9!9!9!8!?!>!=!=!>!<!?!9!@!@!@!@!@!!!!!!",
"!!!!!!!@!G!@!G!G!G!G!<!D!B!=!B!E!D!>!?!8!9!9!9!.!#!&!%!#!$!&!'!*!*!)!(!-!*!*!'!&!$!#!%!&!#!.!9!9!9!9!9!9!9!9!9!9!9!9!2!L!K!!!!!!!!!!!!!!!@!G!G!G!G!D!B!B!=!B!E!E!B!>!I!A!<!.!,!%!$!#!$!%!'!+!*!(!J!(!*!+!'!%!$!#!$!%!,!.!8!A!I!>!B!E!D!E!B!=!>!<!@!G!G!G!G!!!!!!!!!!!!!!!7!G!2!<!<!<!8!8!8!8!8!8!8!8!8!.!#!&!%!#!$!&!'!*!*!)!(!-!*!*!'!&!$!#!%!&!#!.!9!9!9!8!8!E!D!E!B!=!2!/!@!@!@!@!@!H!7!!!!!!!!!!!!!!!@!G!G!G!G!D!B!B!=!B!E!E!B!>!I!A!<!.!,!%!$!#!$!%!'!+!*!(!J!(!*!+!'!%!$!#!$!%!,!.!8!A!I!>!B!E!D!E!B!=!>!<!@!G!G!G!G!!!!!!",
"!!!!!!!K!L!G!L!L!L!L!9!D!B!2!2!2!2!2!2!2!2!2!2!.!#!%!%!$!#!%!'!*!(!'!*!)!*!*!'!%!#!$!%!%!#!.!/!/!/!/!/!/!/!/!/!2!2!2!/!G!7!!!!!!!!!!!!!!!G!L!L!L!L!E!<!<!A!>!=!>!?!8!9!9!9!.!#!&!%!#!$!&!'!*!*!)!(!-!*!*!'!&!$!#!%!&!#!.!9!9!9!8!8!?!=!=!>!<!?!I!G!L!L!L!L!!!!!!!!!!!!!!!1!F!/!<!E!8!8!9!2!2!2!2!2!2!2!.!#!%!%!$!#!%!'!*!(!'!*!)!*!*!'!%!#!$!%!%!#!.!2!2!2!2!2!?!=!=!>!B!/!/!G!G!G!G!@!G!@!!!!!!!!!!!!!!!G!L!L!L!L!E!<!<!A!>!=!>!?!8!9!9!9!.!#!&!%!#!$!&!'!*!*!)!(!-!*!*!'!&!$!#!%!&!#!.!9!9!9!8!8!?!=!=!>!<!?!A!G!L!L!L!L!!!!!!",
"!!!!!!!G!M!@!G!G!G!G!2!E!B!/!/!/!/!/!/!/!/!/!/!.!,!#!$!$!#!%!'!+!'!$!'!)!*!+!'!%!#!$!$!#!,!.!N!N!N!N!N!N!N!0!0!/!2!2!0!F!1!!!!!!!!!!!!!!!@!G!G!G!G!B!9!9!8!8!8!8!8!2!2!2!2!.!#!%!%!$!#!%!'!*!(!'!*!)!*!*!'!%!#!$!%!%!#!.!2!2!2!2!2!2!8!8!9!9!8!=!@!G!G!G!G!!!!!!!!!!!!!!!O!7!0!>!E!<!9!2!/!/!/!/!/!0!0!.!,!#!$!$!#!%!'!+!'!$!'!)!*!+!'!%!#!$!$!#!,!.!0!0!/!/!/!2!8!8!9!B!/!0!L!L!L!L!G!L!K!!!!!!!!!!!!!!!@!G!G!G!G!B!9!9!8!8!8!8!8!2!2!2!2!.!#!%!%!$!#!%!'!*!(!'!*!)!*!*!'!%!#!$!%!%!#!.!2!2!2!2!2!2!8!8!9!9!8!>!@!G!G!G!G!!!!!!",
"!!!!!!!@!P!H!F!F!F!H!?!B!A!/!/!/!/!0!0!0!N!N!N!N!.!,!#!$!#!%!&!+!'!'!-!)!*!+!&!%!#!$!#!,!.!N!N!N!N!N!N!N!0!0!/!2!2!/!N!7!O!!!!!!!!!!!!!!!H!F!F!F!H!I!2!2!2!/!/!2!/!/!/!/!/!.!,!#!$!$!#!%!'!+!'!$!'!)!*!+!'!%!#!$!$!#!,!.!/!/!/!/!/!/!/!/!/!2!9!E!H!F!F!F!H!!!!!!!!!!!!!!!!!Q!0!>!D!B!8!9!2!2!2!2!/!/!0!0!.!,!#!$!#!%!&!+!'!'!-!)!*!+!&!%!#!$!#!,!.!N!N!N!N!N!0!/!/!8!/!B!/!N!G!G!G!G!@!M!G!!!!!!!!!!!!!!!H!F!F!F!H!I!2!2!2!/!/!2!/!/!/!/!/!.!,!#!$!$!#!%!'!+!'!$!'!)!*!+!'!%!#!$!$!#!,!.!/!/!/!/!/!/!/!/!/!2!9!=!H!F!F!F!H!!!!!!",
"!!!!!!!H!7!O!2!R!0!N!B!>!8!/!/!0!0!0!N!N!N!N!S!S!S!.!,!#!$!$!+!'!+!*!-!*!+!'!+!$!$!#!,!.!N!N!N!T!U!T!N!0!0!/!9!2!/!/!N!Q!!!!!!!!!!!!!!!!!O!1!1!1!1!?!8!9!/!/!0!0!/!/!0!0!N!N!.!,!#!$!#!%!&!+!'!'!-!)!*!+!&!%!#!$!#!,!.!N!N!0!0!/!/!0!/!/!9!/!2!I!O!1!1!1!1!!!!!!!!!!!!!!!!!!!0!8!>!D!>!8!9!2!2!2!2!/!/!0!0!.!,!#!$!$!+!'!+!*!-!*!+!'!+!$!$!#!,!.!N!N!N!N!N!N!N!N!2!<!/!A!/!N!H!F!F!F!H!P!@!!!!!!!!!!!!!!!O!1!1!1!1!?!8!9!/!/!0!0!/!/!0!0!N!N!.!,!#!$!#!%!&!+!'!'!-!)!*!+!&!%!#!$!#!,!.!N!N!0!0!/!/!0!/!/!8!/!2!=!O!1!1!1!1!!!!!!",
"!!!!!!!7!O!V!W!X!V!Y!I!8!9!/!/!/!/!/!0!0!0!0!N!N!S!S!.!,!#!$!*!*!+!)!C!)!+!*!*!$!#!,!.!N!N!N!N!N!N!N!N!/!/!8!2!/!/!0!N!!!!!!!!!!!!!!!!!!!V!Z!R!V!Y!9!I!8!2!/!2!2!2!2!/!0!0!N!N!.!,!#!$!$!+!'!+!*!-!*!+!'!+!$!$!#!,!.!N!N!N!N!N!N!N!N!2!<!2!2!9!A!V!Z!R!V!Y!!!!!!!!!!!!!!!!!!!!!0!8!I!D!>!8!9!9!9!2!2!/!/!0!0!.!,!#!$!*!*!+!)!C!)!+!*!*!$!#!,!.!N!N!T!U!T!N!N!0!2!D!=!/!8!2!0!0!0!R!2!O!7!H!!!!!!!!!!!!!!!V!Z!R!V!Y!9!8!9!2!/!/!/!/!2!/!0!0!N!N!.!,!#!$!$!+!'!+!*!-!*!+!'!+!$!$!#!,!.!N!N!N!N!N!N!N!N!2!<!9!2!9!E!V!Z!R!V!Y!!!!!!",
"!!!!!!![!]!V!^!W!_!Y!N!2!2!/!/!/!/!/!/!/!0!0!0!N!N!S!S!.!,!&!)!)!'!-!C!-!'!)!)!&!,!.!N!N!N!N!N!N!N!N!0!/!?!2!2!/!0!N!!!!!!!!!!!!!!!!!!!!!V!`!a!V!Y!N!8!I!8!2!2!9!9!2!/!/!0!0!N!N!.!,!#!$!*!*!+!)!C!)!+!*!*!$!#!,!.!N!N!N!T!U!T!N!N!2!B!<!2!2!9!8!V!`!a!V!Y!!!!!!!!!!!!!!!!!!!!!!!0!2!I!B!<!<!<!8!8!2!2!/!/!0!0!.!,!&!)!)!'!-!C!-!'!)!)!&!,!.!N!N!N!N!N!N!N!N!0!D!=!8!2!9!8!0!Y!V!X!W!V!O!7!!!!!!!!!!!!!!!V!`!a!V!Y!N!2!I!8!2!/!2!2!2!/!/!0!0!N!N!.!,!#!$!*!*!+!)!C!)!+!*!*!$!#!,!.!N!N!N!N!T!U!T!N!2!B!I!2!2!9!8!V!`!a!V!Y!!!!!!",
"!!!!!!!^!_!]!b!^!R!Y!c!N!2!2!/!/!/!2!2!/!/!0!0!0!N!S!S!S!%!+!&!-!*!)!(!)!*!-!&!+!%!N!N!N!N!N!N!N!0!0!/!9!2!2!/!0!N!!!!!!!!!!!!!!!!!!!!!!!]!`!X!_!Y!!!/!8!I!9!9!9!2!9!2!2!/!0!0!N!N!.!,!&!)!)!'!-!C!-!'!)!)!&!,!.!N!N!N!N!N!N!N!N!N!B!<!9!2!9!8!2!]!`!X!_!Y!!!!!!!!!!!!!!!!!!!!!!!!!0!2!9!=!<!<!8!9!2!2!2!/!/!0!0!%!+!&!-!*!)!(!)!*!-!&!+!%!N!N!N!N!N!N!N!N!0!D!=!8!2!2!9!2!N!Y!_!W!^!V!]![!!!!!!!!!!!!!!!]!`!X!_!Y!!!N!8!I!8!2!2!9!9!2!2!/!0!0!N!N!.!,!&!)!)!'!-!C!-!'!)!)!&!,!.!N!N!N!N!N!N!N!N!N!B!I!9!2!9!8!2!]!`!X!_!Y!!!!!!",
"!!!!!!!d!e!f!g!^!R!Y!c!N!/!2!2!2!2!2!/!0!0!0!0!N!S!S!S!S!&!$!,!&!)!*!)!*!)!&!,!$!&!N!N!N!N!N!0!0!/!/!2!2!2!/!0!N!H!7!!!!!!!!!!!!!!!!!!!!!f!`!X!R!Y!!!N!/!8!?!9!2!2!2!2!/!/!/!0!0!N!N!%!+!&!-!*!)!(!)!*!-!&!+!%!N!N!N!N!N!N!N!N!N!9!<!9!2!9!9!2!N!f!`!X!R!Y!!!!!!!!!!!!!!!!!!!!!!!7!H!0!2!9!8!8!9!2!/!/!/!/!/!0!0!&!$!,!&!)!*!)!*!)!&!,!$!&!N!N!N!N!N!0!0!/!A!8!9!9!9!9!2!N!N!Y!R!^!b!]!_!^!!!!!!!!!!!!!!!f!`!X!R!Y!!!N!/!8!I!9!9!9!2!2!/!/!/!0!0!N!N!%!+!&!-!*!)!(!)!*!-!&!+!%!N!N!N!N!N!N!N!N!N!9!I!9!2!9!9!2!N!f!`!X!R!Y!!!!!!",
"!!!!!!!h!a!i!b!j!V!Y!c!c!N!/!/!/!2!/!/!0!0!0!N!N!N!N!S!S!#!#!,!,!'!'!%!'!'!,!,!#!#!N!N!N!N!N!N!0!0!/!/!/!/!0!N!K!@!k!!!!!!!!!!!!!!!!!!!!!i!`!X!V!Y!!!!!N!/!2!8!2!/!2!/!0!0!0!0!0!N!N!&!$!,!&!)!*!)!*!)!&!,!$!&!N!N!0!0!0!0!0!/!2!8!9!2!2!2!2!N!!!i!`!X!V!Y!!!!!!!!!!!!!!!!!!!!!!!k!@!K!0!2!2!9!2!/!/!0!0!0!0!0!0!#!#!,!,!'!'!%!'!'!,!,!#!#!N!N!0!0!0!0!0!9!/!2!9!9!2!2!/!N!c!Y!R!^!g!f!e!d!!!!!!!!!!!!!!!i!`!X!V!Y!!!!!N!/!8!?!9!2!2!/!0!0!0!0!0!N!N!&!$!,!&!)!*!)!*!)!&!,!$!&!N!N!0!0!0!0!0!/!2!2!9!2!2!2!/!N!!!i!`!X!V!Y!!!!!!",
"!!!!!!!^!l!f!`!Z!V!Y!c!c!c!N!0!/!/!0!0!0!0!0!0!0!N!S!S!S!S!#!$!&!%!$!#!$!%!&!$!#!/!/!/!0!0!0!0!N!0!0!0!0!0!N!O!1!7!7!!!!!!!!!!!!!!!!!!!!!0!W!Z!]!Y!!!!!!!N!/!/!/!0!/!0!0!N!N!N!N!N!N!#!#!,!,!'!'!%!'!'!,!,!#!#!N!N!N!N!N!N!0!0!/!2!2!/!/!/!N!!!!!0!W!Z!]!Y!!!!!!!!!!!!!!!!!!!!!!!7!7!1!O!0!2!2!/!/!0!/!/!/!/!2!2!2!#!$!&!%!$!#!$!%!&!$!#!2!2!2!/!/!/!0!0!0!0!/!2!2!2!/!N!c!c!Y!V!j!b!i!a!h!!!!!!!!!!!!!!!0!W!Z!]!Y!!!!!!!N!/!2!8!2!/!0!0!N!N!N!N!N!N!#!#!,!,!'!'!%!'!'!,!,!#!#!N!N!N!N!N!N!0!0!/!2!2!/!/!0!N!!!!!0!W!Z!]!Y!!!!!!",
"!!!!!!!j!R!V!X!a!]!Y!c!c!c!c!0!0!0!0!N!N!N!N!N!N!N!N!N!N!N!N!#!$!'!*!(!+!*!&!%!N!N!N!0!0!N!N!N!N!N!N!N!N!N!Q!m!m!m!!!!!!!!!!!!!!!!!!!!!!!H![!a!f!7!!!!!!!!!/!/!N!N!0!0!N!0!0!0!0!/!/!/!#!$!&!%!$!#!$!%!&!$!#!/!/!/!0!0!0!0!N!0!0!/!/!/!/!N!!!!!!!H![!a!f!7!!!!!!!!!!!!!!!!!!!!!!!!!m!m!m!Q!/!N!N!N!0!0!0!0!0!0!N!N!N!#!$!'!*!(!+!*!&!%!0!0!0!/!/!0!0!0!0!0!0!0!/!/!/!N!c!c!c!Y!V!Z!`!f!l!^!!!!!!!!!!!!!!!H![!a!f!7!!!!!!!!!N!/!/!/!0!0!N!0!0!0!0!/!/!/!#!$!&!%!$!#!$!%!&!$!#!/!/!/!0!0!0!0!N!0!0!/!/!/!0!N!!!!!!!H![!a!f!7!!!!!!",
"!!!!!!!Z!V!0!a!Z!]!Y!c!c!c!c!c!N!N!N!S!S!S!S!S!S!S!S!S!S!S!c!N!#!$!%!&!'!&!%!N!c!c!c!S!S!S!S!S!S!S!c!c!c!R!n!R!S!!!!!!!!!!!!!!!!!!!!!!!!!G!j!n!j!K!!!!!!!!!!!/!N!S!N!N!N!N!N!N!0!0!N!N!0!#!$!'!*!(!+!*!&!%!N!N!N!0!0!N!N!N!N!N!N!N!N!/!N!!!!!!!!!G!j!n!j!K!!!!!!!!!!!!!!!!!!!!!!!!!!!S!R!n!R!c!c!c!N!N!N!N!N!N!c!c!c!0!#!$!%!&!'!&!%!0!c!c!c!0!S!S!S!S!S!N!N!0!0!/!N!c!c!c!c!Y!]!a!X!V!R!j!!!!!!!!!!!!!!!G!j!n!j!K!!!!!!!!!!!/!/!N!N!N!N!N!N!N!0!0!N!N!0!#!$!'!*!(!+!*!&!%!N!N!N!0!0!N!N!N!N!N!N!0!0!0!N!!!!!!!!!G!j!n!j!K!!!!!!",
"!!!!!!!F!k!H!_!Z!V!7!c!c!c!c!c!c!c!S!S!S!S!S!c!c!c!c!c!c!c!c!N!0!N!/!0!N!N!N!N!c!c!c!c!c!c!c!c!c!c!c!c!c!R!Z!R!S!!!!!!!!!!!!!!!!!!!!!!!!!H!H!H!H!H!1!!!!!!!!!!!!!N!S!S!S!S!S!S!S!N!!!!!!!N!#!$!%!&!'!&!%!N!!!!!!!N!S!S!S!S!S!S!S!N!0!0!!!!!!!!!!!H!H!H!H!H!!!!!!!!!!!!!!!!!!!!!!!!!!!S!R!Z!R!c!c!c!c!c!c!c!c!c!c!c!c!N!0!N!/!0!N!N!N!N!c!c!c!c!c!c!c!c!c!N!N!N!N!N!c!c!c!c!c!Y!]!0!0!0!V!Z!!!!!!!!!!!!!!!H!H!H!H!H!1!!!!!!!!!!!!!N!S!S!S!S!S!S!S!N!!!!!!!N!#!$!%!&!'!&!%!N!!!!!!!N!S!S!S!S!S!S!S!S!S!S!!!!!!!!!!!H!H!H!H!H!!!!!!",
"!!!!!!!@!G!G!P!G!P!K!c!c!c!c!c!c!c!c!c!c!c!c!c!c!c!c!c!c!c!c!c!S!N!0!N!S!S!N!c!c!c!c!c!c!c!c!c!c!c!c!c!c!R!X!R!S!!!!!!!!!!!!!!!!!!!!!!!!!O!O!_!O!O!!!!!!!!!!!!!!!!!!!!!!!!!!!!!!!!!!!!!!!N!0!N!/!0!N!N!N!N!!!!!!!!!!!!!!!!!!!!!!!!!!!!!!!!!!!!!!!O!O!_!O!O!!!!!!!!!!!!!!!!!!!!!!!!!!!S!R!X!R!c!c!c!c!c!c!c!c!c!c!c!c!c!S!N!0!N!S!S!N!c!c!c!c!c!c!c!c!c!c!c!c!c!c!c!c!c!c!c!c!7!F!F!F!H!k!F!!!!!!!!!!!!!!!O!O!_!O!O!!!!!!!!!!!!!!!!!!!!!!!!!!!!!!!!!!!!!!!N!0!N!/!0!N!N!N!N!!!!!!!!!!!!!!!!!!!!!!!!!!!!!!!!!!!!!!!O!O!_!O!O!!!!!!",
"!!!!!!!P!M!H!H!H!H!H!1!c!c!c!c!c!c!c!c!c!c!c!c!c!c!c!c!c!c!c!c!0!/!9!2!/!0!N!c!c!c!c!c!c!c!c!c!c!c!c!c!c!R![!R!S!!!!!!!!!!!!!!!!!!!!!!!!!m!l!e!V!m!!!!!!!!!!!!!!!!!!!!!!!!!!!!!!!!!!!!!!!!!S!N!0!N!S!S!N!!!!!!!!!!!!!!!!!!!!!!!!!!!!!!!!!!!!!!!!!m!V!e!V!m!!!!!!!!!!!!!!!!!!!!!!!!!!!S!R![!R!c!c!c!c!c!c!c!c!c!c!c!c!c!0!/!9!2!/!0!N!c!c!c!c!c!c!c!c!c!c!c!c!c!c!c!c!c!c!c!c!K!P!G!P!G!G!@!!!!!!!!!!!!!!!m!l!e!V!m!!!!!!!!!!!!!!!!!!!!!!!!!!!!!!!!!!!!!!!!!S!N!0!N!S!S!N!!!!!!!!!!!!!!!!!!!!!!!!!!!!!!!!!!!!!!!!!m!V!e!V!m!!!!!!",
"!!!!!!!M!L!7!Z!a!_!N!O!c!c!c!c!c!c!c!c!c!c!c!c!c!c!c!c!c!c!c!c!0!0!/!0!N!S!N!c!c!c!c!c!c!c!c!c!c!c!c!c!c!R!X!R!S!!!!!!!!!!!!!!!!!!!!!!!!!f![!n!R!Y!!!!!!!!!!!!!!!!!!!!!!!!!!!!!!!!!!!!!!!!!0!/!9!2!/!0!N!!!!!!!!!!!!!!!!!!!!!!!!!!!!!!!!!!!!!!!!!f![!n!R!Y!!!!!!!!!!!!!!!!!!!!!!!!!!!S!R!X!R!c!c!c!c!c!c!c!c!c!c!c!c!c!0!0!/!0!N!S!N!c!c!c!c!c!c!c!c!c!c!c!c!c!c!c!c!c!c!c!1!H!H!H!H!H!M!P!!!!!!!!!!!!!!!f![!n!R!Y!!!!!!!!!!!!!!!!!!!!!!!!!!!!!!!!!!!!!!!!!0!/!9!2!/!0!N!!!!!!!!!!!!!!!!!!!!!!!!!!!!!!!!!!!!!!!!!f![!n!R!Y!!!!!!",
"!!!!!!!P!G!1!n!W!X!_!N!c!c!c!c!c!c!c!c!c!c!c!c!c!c!c!c!c!c!c!c!2!A!B!A!9!0!N!c!c!c!c!c!c!c!c!c!c!c!c!c!c!R!X!R!S!!!!!!!!!!!!!!!!!!!!!!!!!f!j!X!R!Y!!!!!!!!!!!!!!!!!!!!!!!!!!!!!!!!!!!!!!!!!0!0!/!0!N!S!N!!!!!!!!!!!!!!!!!!!!!!!!!!!!!!!!!!!!!!!!!f!j!X!R!Y!!!!!!!!!!!!!!!!!!!!!!!!!!!S!R!X!R!c!c!c!c!c!c!c!c!c!c!c!c!c!2!A!B!A!9!0!N!c!c!c!c!c!c!c!c!c!c!c!c!c!c!c!c!c!c!c!O!N!_!a!Z!7!L!M!!!!!!!!!!!!!!!f!j!X!R!Y!!!!!!!!!!!!!!!!!!!!!!!!!!!!!!!!!!!!!!!!!0!0!/!0!N!S!N!!!!!!!!!!!!!!!!!!!!!!!!!!!!!!!!!!!!!!!!!f!j!X!R!Y!!!!!!",
"!!!!!!!F!K!Q!O!n!o!W!_!N!c!c!c!c!c!c!c!c!c!c!c!c!c!c!c!c!c!c!N!0!2!8!0!N!S!N!N!c!c!c!c!c!c!c!c!c!c!c!c!c!R!Z!R!S!!!!!!!!!!!!!!!!!!!!!!!!!f!^![!R!Y!!!!!!!!!!!!!!!!!!!!!!!!!!!!!!!!!!!!!!!!!2!A!B!A!9!0!N!!!!!!!!!!!!!!!!!!!!!!!!!!!!!!!!!!!!!!!!!f!^![!R!Y!!!!!!!!!!!!!!!!!!!!!!!!!!!S!R!Z!R!c!c!c!c!c!c!c!c!c!c!c!c!N!0!2!8!0!N!S!N!N!c!c!c!c!c!c!c!c!c!c!c!c!c!c!c!c!c!c!N!_!X!W!n!1!G!P!!!!!!!!!!!!!!!f!^![!R!Y!!!!!!!!!!!!!!!!!!!!!!!!!!!!!!!!!!!!!!!!!2!A!B!A!9!0!N!!!!!!!!!!!!!!!!!!!!!!!!!!!!!!!!!!!!!!!!!f!^![!R!Y!!!!!!",
"!!!!!!!!!F!m!m!V!X!g!`!_!N!c!c!c!c!c!c!7!7!7!7!7!7!O!2!/!/!/!N!/!?!D!?!/!/!/!N!/!/!/!0!7!7!7!7!7!7!7!c!0!2!9!9!2!0!!!!!!!!!!!!!!!!!!!!!!!f!b!j!R!Y!!!!!!!!!!!!!!!!!!!!!!!!!!!!!!!!!!!!!!!N!0!2!8!0!N!S!N!N!!!!!!!!!!!!!!!!!!!!!!!!!!!!!!!!!!!!!!!f!b!j!R!Y!!!!!!!!!!!!!!!!!!!!!!!!!!!f!R!X!_!Y!7!7!7!7!7!7!O!2!/!/!/!N!/!?!D!?!/!/!/!N!/!/!/!0!7!7!7!7!7!7!7!c!c!c!c!c!c!N!_!W!o!n!O!Q!K!F!!!!!!!!!!!!!!!f!b!j!R!Y!!!!!!!!!!!!!!!!!!!!!!!!!!!!!!!!!!!!!!!N!0!2!8!0!N!S!N!N!!!!!!!!!!!!!!!!!!!!!!!!!!!!!!!!!!!!!!!f!b!j!R!Y!!!!!!",
"!!!!!!!!!!!!!!!!!V!j!p!X!_!N!c!c!c!c!c!k!k!k!k!k!k!7!9!2!2!/!N!0!2!8!0!N!S!S!N!/!2!2!/!k!k!K!P!P!K!k!0!8!8!<!?!8!9!S!!!!!!!!!!!!!!!!!!!!!f!j!X!R!Y!!!!!!!!!!!!!!!!!7!7!7!7!7!7!O!2!/!/!/!N!/!?!D!?!/!/!/!N!/!/!/!0!7!7!7!7!7!7!7!!!!!!!!!!!!!!!!!f!j!X!R!Y!!!!!!!!!!!!!!!!!!!!!!!!!/!]!_!X!_!0!k!k!K!P!P!K!7!9!2!2!/!N!0!2!8!0!N!S!S!N!/!2!2!/!k!k!K!P!P!K!k!c!c!c!c!c!N!_!`!g!X!V!m!m!F!!!!!!!!!!!!!!!!!f!j!X!R!Y!!!!!!!!!!!!!!!!!7!7!7!7!7!7!O!2!/!/!/!N!/!?!D!?!/!/!/!N!/!/!/!0!7!7!7!7!7!7!7!!!!!!!!!!!!!!!!!f!j!X!R!Y!!!!!!",
"!!!!!!!!!!!!!!!!!!!V!X!o!X!_!N!9!?!9!c!L!G!G!G!G!G!F!E!I!I!2!N!0!2!9!2!2!/!0!N!2!I!I!8!L!G!M!L!L!M!G!N!0!0!9!/!S!0!S!!!!!!!!!!!!!!!!!!!!!f!j!n!R!Y!!!!!!!!!!!!!!!!!k!k!k!k!k!k!7!9!2!2!/!N!0!2!8!0!N!S!S!N!/!2!2!/!k!k!K!P!P!K!k!!!!!!!!!!!!!!!!!f!N!N!R!Y!!!!!!!!!!!!!!!!!!!!!!!/!2!?!f!_!f!/!L!G!M!L!L!M!F!E!I!I!2!N!0!2!9!2!2!/!0!N!2!I!I!8!L!G!M!L!L!M!G!c!c!c!c!N!_!X!p!j!V!!!!!!!!!!!!!!!!!!!!!!!!!f!j!n!R!Y!!!!!!!!!!!!!!!!!k!k!k!k!k!k!7!9!2!2!/!N!0!2!8!0!N!S!S!N!/!2!2!/!k!k!k!k!k!k!k!!!!!!!!!!!!!!!!!f!N!N!R!Y!!!!!!",
"!!!!!!!!!!!!!!!!!!!!!V![!`!9!?!B!2!/!/!q!K!K!K!K!K!7!B!<!8!9!/!N!0!0!0!/!0!N!/!9!8!8!9!M!K!K!K!K!K!K!S!S!S!2!0!S!S!0!S!!!!!!!!!!!!!!!!!!!f!/!0!0!Y!!!!!!!!!!!!!!!!!L!G!G!G!G!G!F!E!I!I!2!N!0!2!9!2!2!/!0!N!2!I!I!8!L!G!M!L!L!M!G!!!!!!!!!!!!!!!0!N!8!/!N!0!!!!!!!!!!!!!!!!!!!!!!!/!?!9!2!9!9!2!M!K!K!K!K!K!7!B!<!8!9!/!N!0!0!0!/!0!N!/!9!8!8!9!M!K!K!K!K!K!0!2!0!0!N!_!X!o!X!V!!!!!!!!!!!!!!!!!!!!!!!!!!!f!/!0!0!Y!!!!!!!!!!!!!!!!!L!G!G!G!G!G!F!E!I!I!2!N!0!2!9!2!2!/!0!N!2!I!I!8!L!G!G!G!G!G!G!!!!!!!!!!!!!!!0!N!8!/!N!0!!!!!!",
"!!!!!!!!!!!!!!!!!!!!!!!V![!?!B!9!/!r!s!r!q!F!F!F!F!1!=!9!9!9!2!/!N!N!N!N!N!/!2!9!9!9!2!K!2!0!0!0!/!F!S!S!!!/!0!S!S!/!0!!!!!!!!!!!!!!!!!/!2!t!t!2!0!!!!!!!!!!!!!!!!!M!K!K!K!K!K!7!B!<!8!9!/!N!0!0!0!/!0!N!/!9!8!8!9!M!K!K!K!K!K!K!!!!!!!!!!!0!2!0!0!A!/!N!S!!!!!!!!!!!!!!!!!!!!!!!2!?!/!0!0!/!2!K!2!0!0!0!/!1!=!9!9!9!2!/!N!N!N!N!N!/!2!9!9!9!2!K!F!F!F!F!0!<!B!I!?!9!2!2![!V!!!!!!!!!!!!!!!!!!!!!!!!!!!/!2!t!t!2!0!!!!!!!!!!!!!!!!!M!K!K!K!K!K!K!B!<!8!9!/!N!0!0!0!/!0!N!/!9!8!8!9!M!K!K!K!K!K!K!!!!!!!!!!!0!2!0!0!A!/!N!S!!!!!!",
"!!!!!!!!!!!!!!!!!!!!!!!!!V!9!B!/!u!s!v!s!r!q!7!7!7!O!I!2!2!2!2!2!2!2!2!2!2!2!2!2!2!2!/!F!0!V!Z!]!0!7!S!!!!!/!N!S!!!/!0!!!!!!!!!!!!!!!/!8!t!w!x!t!/!0!!!!!!!!!!!!!!!K!F!F!F!F!F!1!=!9!9!9!2!/!N!N!N!N!N!/!2!9!9!9!2!K!2!0!0!0!/!F!!!!!!!!!0!2!0!0!0!8!/!N!/!N!!!!!!!!!!!!!!!!!!!!!2!9!y!t!t!y!0!F!0!V!Z!]!0!7!I!2!2!2!2!2!2!2!2!2!2!2!2!2!2!2!/!F!7!7!7!/!9!S!S!0!2!2!8!f!V!!!!!!!!!!!!!!!!!!!!!!!!!!!/!8!t!w!x!t!/!0!!!!!!!!!!!!!!!K!2!0!0!0!/!F!=!9!9!9!2!/!N!N!N!N!N!/!2!9!9!9!2!K!F!F!F!F!F!F!!!!!!!!!0!2!0!0!0!8!/!N!/!N!!!!",
"!!!!!!!!!!!!!!!!!!!!!!!!!z!w!>!8!t!v!s!v!s!r!q!O!O!Q!9!/!/!/!/!/!/!/!/!/!/!/!/!/!/!/!0!7!/!R![!V!0!O!S!!!!!0!N!S!!!/!0!!!!!!!!!!!!!!!2!?!t!z!x!{!2!0!!!!!!!!!!!!!!!F!7!7!7!7!7!O!I!2!2!2!2!2!2!2!2!2!2!2!2!2!2!2!/!F!0!V!Z!]!0!7!!!!!!!!!2!0!S!N!!!9!/!N!9!S!!!!!!!!!!!!!!!!!!!!!!!2!y!y!y!y!y!7!/!R![!V!0!O!9!/!/!/!/!/!/!/!/!/!/!/!/!/!/!/!0!7!O!O!0!S!S!O!c!9!<!=!2!N!!!!!!!!!!!!!!!!!!!!!!!!!!!!!2!?!t!z!x!{!2!0!!!!!!!!!!!!!!!F!0!V!Z!]!0!7!I!2!2!2!2!2!2!2!2!2!2!2!2!2!2!2!/!F!7!7!7!7!7!7!!!!!!!!!2!0!S!N!!!9!/!N!9!S!!!!",
"!!!!!!!!!!!!!!!!!!!!!!!!!w!x!?!9!|!}!v!s!v!s!~!q!m!m!/!0!0!0!0!0!0!0!0!0!0!0!0!0!0!0!N!1!0!a!W!_!0!m!S!!!!!S!S!!!!!S!!!!!!!!!!!!!!!!!2!9!t#!!x!{!2!0!!!!!!!!!!!!!!!7!O!O!O!O!O!Q!9!/!/!/!/!/!/!/!/!/!/!/!/!/!/!/!0!7!/!R![!V!0!O!!!!!!!!!9!S!S!!!!!2!0!!!9!0!S!!!!!!!!!!!!!!!!!!!!!!!!!y!y!y!y!1!0!a!W!_!0!m!/!0!0!0!0!0!0!0!0!0!0!0!0!0!0!0!N!1!m!m!N!m!m!2!2!8!=!2!/!N!!!!!!!!!!!!!!!!!!!!!!!!!!!!!2!9!t#!!x!{!2!0!!!!!!!!!!!!!!!7!/!R![!V!0!O!9!/!/!/!/!/!/!/!/!/!/!/!/!/!/!/!0!7!O!O!O!O!O!O!!!!!!!!!9!S!S!!!!!2!0!!!9!0!S!!",
"!!!!!!!!!!!!!!!!!!!!!!!!!t!}!2!2!2!|!}!v!s!v!q!q!O!Q!0!2!2!2!2!9!9!8!8!8!9!9!9!2!2!2!N!H!0!Z!^!R!0!O!S!!!!!S!S!!!S!!!!!!!!!!!!!!!!!!!2!9!t!s!x!{!0!!!!!!!!!!!!!!!!!1!m!m!m!m!m!m!/!0!0!0!0!0!0!0!0!0!0!0!0!0!0!0!N!1!0!a!W!_!0!m!!!!!!!!!2!S!!!!!!!2!0!!!/!0!S!!!!!!!!!!!!!!!!!!!!!!!!!t!x!}!y!H!0!Z!^!R!0!O!0!2!2!2!2!9!9!8!8!8!9!9!9!2!2!2!N!H!Q!Q!Q!Q!2!<!8!/!N!0!S!N!!!!!!!!!!!!!!!!!!!!!!!!!!!!!2!9!t!s!x!{!0!!!!!!!!!!!!!!!!!1!0!a!W!_!0!m!/!0!0!0!0!0!0!0!0!0!0!0!0!0!0!0!N!1!m!m!m!m!m!m!!!!!!!!!2!S!!!!!!!2!0!!!/!0!S!!",
"!!!!!!!!!!!!!!!!!!!!!!!!!!!t!}!!!!!!!|!}!v!s!r!q!N!!!!!!!!!!!!!!!!!!!!!!!!!!!!!!!!!!!!!!!0!W!b!a!0!!!!!S!!!S!!!!!!!!!!!!!!!!!!!!!!!!!!!2!t!|!x!{!!!!!!!!!!!!!!!!!!!H!O!O!O!O!O!Q!0!2!2!2!2!9!9!8!8!8!9!9!9!2!2!2!N!H!0!Z!^!R!0!O!!!!!!!!!/!S!!!!!!!N!S!!!/!0!S!!!!!!!!!!!!!!!!!!!!!!!!!!!w!u!y!c!0!W!b!a!0!!!!!!!!!!!!!!!!!!!!!!!!!!!!!!!!!!!!!!!i!_!2!?!<!/!c!0!9!/!S!!!!!!!!!!!!!!!!!!!!!!!!!!!!!!!!!2!t!|!x!{!!!!!!!!!!!!!!!!!!!H!0!Z!^!R!0!O!0!2!2!2!2!9!9!8!8!8!9!9!9!2!2!2!N!H!O!O!O!O!O!O!!!!!!!!!/!S!!!!!!!N!S!!!/!0!S!!",
"!!!!!!!!!!!!!!!!!!!!!!!!!!!!!!!!!!!!!!!|!}!v!s!r!q!!!!!!!!!!!!!!!!!!!!!!!!!!!!!!!!!!!!!H!1!1!1!1!1!7!!!!!!!!!!!!!!!!!!!!!!!!!!!!!!!!!!!!!t!~!~!{!!!!!!!!!!!!!!!!!!!!!0!a!W!e!0!!!!!!!!!!!!!!!!!!!!!!!!!!!!!!!!!!!!!!!0!W!b!a!0!!!!!!!!!!!!!0!S!!!!!!!S!!!!!/!N!!!!!!!!!!!!!!!!!!!!!!!!!!!t!|!x!H!1!1!1!1!1!7!!!!!!!!!!!!!!!!!!!!!!!!!!!!!!!!!!!!!/!9!8!2!0!c!0!9!S!N!!!!!!!!!!!!!!!!!!!!!!!!!!!!!!!!!!!!!t!~!~!{!!!!!!!!!!!!!!!!!!!!!0![!o!e!0!!!!!!!!!!!!!!!!!!!!!!!!!!!!!!!!!!!!!!!0!a!W!e!0!!!!!!!!!!!!!0!S!!!!!!!S!!!!!/!N!!",
"!!!!!!!!!!!!!!!!!!!!!!!!!!!!!!!!!!!!!!!N!|!}!v!s!r!|!!!!!!!!!!!!!!!!!!!!!!!!!!!!!!!!!!!k!k!@!K!@!k!H!!!!!!!!!!!!!!!!!!!!!!!!!!!!!!!!!!!!!t!z!x!{!!!!!!!!!!!!!!!!!!!!!0!a!W!e!0!!!!!!!!!!!!!!!!!!!!!!!!!!!!!!!!!!!!!H!1!1!1!1!1!7!!!!!!!!!!!!!!!!!!!!!!!!!!!0!N!!!!!!!!!!!!!!!!!!!!!!!!!!!!!w!v!k!k!@!K!@!k!H!!!!!!!!!!!!!!!!!!!!!!!!!!!!!!!!!!!!!i!_!e!V!i!0!2!0!S!!!!!!!!!!!!!!!!!!!!!!!!!!!!!!!!!!!!!!!t!z!x!{!!!!!!!!!!!!!!!!!!!H!1!1!1!1!1!7!!!!!!!!!!!!!!!!!!!!!!!!!!!!!!!!!!!!!0!a!W!e!0!!!!!!!!!!!!!!!!!!!!!!!!!!!!!0!N!!",
"!!!!!!!!!!!!!!!!!!!!!!!!!!!!!!!!!!!!!!!0!N!u!t!v!~!~!|!!!!!!!!!!!!!!!!!!!!!!!!!!!!!!!!!P!K!G!L!G!K!k!!!!!!!!!!!!!!!!!!!!!!!!!!!!!!!!!!!!!t!s!x!{!!!!!!!!!!!!!!!!!!!Q!f!_!j!_!f!Q!!!!!!!!!!!!!!!!!!!!!!!!!!!!!!!!!!!k!k!@!K!@!k!H!!!!!!!!!!!!!!!!!!!!!!!!!0!N!!!!!!!!!!!!!!!!!!!!!!!!!!!!!!!t!x!P!K!G!L!G!K!k!!!!!!!!!!!!!!!!!!!!!!!!!!!!!!!!!!!!!i!_!e!V!0!2!S!S!!!!!!!!!!!!!!!!!!!!!!!!!!!!!!!!!!!!!!!!!t!s!x!{!!!!!!!!!!!!!!!!!!!k!k!@!K!@!k!H!!!!!!!!!!!!!!!!!!!!!!!!!!!!!!!!!!!Q!f!_!j!_!f!Q!!!!!!!!!!!!!!!!!!!!!!!!!0!N!!!!",
"!!!!!!!!!!!!!!!!!!!!!!!!!!!!!!!!!!!!!!!2!_!/!R!|!~!~!v!!!!!!!!!!!!!!!!!!!!!!!!!!!!!!!!!G!k!K!P!@!F!H!!!!!!!!!!!!!!!!!!!!!!!!!!!!!!!!!!!!!t##!x!{!!!!!!!!!!!!!!!!!!!1!f!_!n!V!f!1!!!!!!!!!!!!!!!!!!!!!!!!!!!!!!!!!!!P!K!G!L!G!K!k!!!!!!!!!!!!!!!!!!!!!!!!!!!!!!!!!!!!!!!!!!!!!!!!!!!!!!!!!!!!!x!G!k!K!P!@!F!H!!!!!!!!!!!!!!!!!!!!!!!!!!!!!!!!!!!m!i!2!/!0!N!S!!!!!!!!!!!!!!!!!!!!!!!!!!!!!!!!!!!!!!!!!!!!!t##!x!{!!!!!!!!!!!!!!!!!!!P!K!G!L!G!K!k!!!!!!!!!!!!!!!!!!!!!!!!!!!!!!!!!!!1!f!_!n!V!f!1!!!!!!!!!!!!!!!!!!!!!!!!!!!!!!!!",
"!!!!!!!!!!!!!!!!!!!!!!!!!!!!!!!!!!!!!!!7!V!_!e!_!v!v!!!!!!!!!!!!!!!!!!!!!!!!!!!!!!!!!!!@!H!F!F!F!F!F!!!!!!!!!!!!!!!!!!!!!!!!!!!!!!!!!!!!!t##!x!{!!!!!!!!!!!!!!!!!!!O!O!f!f!f!O!O!!!!!!!!!!!!!!!!!!!!!!!!!!!!!!!!!!!G!k!K!P!@!F!H!!!!!!!!!!!!!!!!!!!!!!!!!!!!!!!!!!!!!!!!!!!!!!!!!!!!!!!!!!!!!!!@!H!F!F!F!F!F!!!!!!!!!!!!!!!!!!!!!!!!!!!!!!!!!!!Q!Q!f!V!f!Q!Q!!!!!!!!!!!!!!!!!!!!!!!!!!!!!!!!!!!!!!!!!!!!!t##!x!{!!!!!!!!!!!!!!!!!!!G!k!K!P!@!F!H!!!!!!!!!!!!!!!!!!!!!!!!!!!!!!!!!!!O!O!f!f!f!O!O!!!!!!!!!!!!!!!!!!!!!!!!!!!!!!!!",
"!!!!!!!!!!!!!!!!!!!!!!!!!!!!!!!!!!!!!!!O!O!O!O!O!O!O!!!!!!!!!!!!!!!!!!!!!!!!!!!!!!!!!!!F!7!0!a!0!7!7!!!!!!!!!!!!!!!!!!!!!!!!!!!!!!!!!!!!!t!z!x!{!!!!!!!!!!!!!!!!!!!m!m!m!m!m!m!m!!!!!!!!!!!!!!!!!!!!!!!!!!!!!!!!!!!@!H!F!F!F!F!F!!!!!!!!!!!!!!!!!!!!!!!!!!!!!!!!!!!!!!!!!!!!!!!!!!!!!!!!!!!!!!!F!7!0!a!0!7!7!!!!!!!!!!!!!!!!!!!!!!!!!!!!!!!!!!!O!O!O!O!O!O!O!!!!!!!!!!!!!!!!!!!!!!!!!!!!!!!!!!!!!!!!!!!!!t!z!x!{!!!!!!!!!!!!!!!!!!!@!H!F!F!F!F!F!!!!!!!!!!!!!!!!!!!!!!!!!!!!!!!!!!!m!m!m!m!m!m!m!!!!!!!!!!!!!!!!!!!!!!!!!!!!!!!!",
"!!!!!!!!!!!!!!!!!!!!!!!!!!!!!!!!!!!!!!!m!m!m!m!m!m!m!!!!!!!!!!!!!!!!!!!!!!!!!!!!!!!!!!!1!N!n!X!V!O!O!!!!!!!!!!!!!!!!!!!!!!!!!!!!!!!!!!!!!t!v!x!{!!!!!!!!!!!!!!!!!!#$#$#$#$#$#$#$!!!!!!!!!!!!!!!!!!!!!!!!!!!!!!!!!!!F!7!0!a!0!7!7!!!!!!!!!!!!!!!!!!!!!!!!!!!!!!!!!!!!!!!!!!!!!!!!!!!!!!!!!!!!!!!1!N!n!X!V!O!O!!!!!!!!!!!!!!!!!!!!!!!!!!!!!!!!!!!m#$#$#$#$#$#$!!!!!!!!!!!!!!!!!!!!!!!!!!!!!!!!!!!!!!!!!!!!!t!v!x!{!!!!!!!!!!!!!!!!!!!F!7!0!a!0!7!7!!!!!!!!!!!!!!!!!!!!!!!!!!!!!!!!!!#$#$#$#$#$#$#$!!!!!!!!!!!!!!!!!!!!!!!!!!!!!!!!",
"!!!!!!!!!!!!!!!!!!!!!!!!!!!!!!!!!!!!!!!!!0!X!j!a!N!!!!!!!!!!!!!!!!!!!!!!!!!!!!!!!!!!!!!!!0!a!`!R!N!!!!!!!!!!!!!!!!!!!!!!!!!!!!!!!!!!!!!!!t!u!x!{!!!!!!!!!!!!!!!!!!!!!i!_!a!V!i!!!!!!!!!!!!!!!!!!!!!!!!!!!!!!!!!!!!!1!N!n!X!V!O!O!!!!!!!!!!!!!!!!!!!!!!!!!!!!!!!!!!!!!!!!!!!!!!!!!!!!!!!!!!!!!!!!!0!a!`!R!N!!!!!!!!!!!!!!!!!!!!!!!!!!!!!!!!!!!!!!!0!X!j!a!N!!!!!!!!!!!!!!!!!!!!!!!!!!!!!!!!!!!!!!!!!!!!!!!t!u!x!{!!!!!!!!!!!!!!!!!!!1!N!n!X!V!O!O!!!!!!!!!!!!!!!!!!!!!!!!!!!!!!!!!!!!!i!_!a!V!i!!!!!!!!!!!!!!!!!!!!!!!!!!!!!!!!!!",
"!!!!!!!!!!!!!!!!!!!!!!!!!!!!!!!!!!!!!!!0!0!X!j!R!N!N!!!!!!!!!!!!!!!!!!!!!!!!!!!!!!!!!!!!!0!X!`!a!N!!!!!!!!!!!!!!!!!!!!!!!!!!!!!!!!!!!!!!!t!~!~!{!!!!!!!!!!!!!!!!!2!/!N!_!e!V!0!N!N!!!!!!!!!!!!!!!!!!!!!!!!!!!!!!!!!!!0!a!`!R!N!!!!!!!!!!!!!!!!!!!!!!!!!!!!!!!!!!!!!!!!!!!!!!!!!!!!!!!!!!!!!!!!!!!0!X!`!a!N!!!!!!!!!!!!!!!!!!!!!!!!!!!!!!!!!!!!!0!0!X!j!R!N!N!!!!!!!!!!!!!!!!!!!!!!!!!!!!!!!!!!!!!!!!!!!!!t!~!~!{!!!!!!!!!!!!!!!!!!!!!0!a!`!R!N!!!!!!!!!!!!!!!!!!!!!!!!!!!!!!!!!!!2!/!N!_!e!V!0!N!N!!!!!!!!!!!!!!!!!!!!!!!!!!!!!!",
"!!!!!!!!!!!!!!!!!!!!!!!!!!!!!!!!!!!!!0!2!2!/!8!/!/!0!N!!!!!!!!!!!!!!!!!!!!!!!!!!!!!!!!!!!0!X!`!a!N!!!!!!!!!!!!!!!!!!!!!!!!!!!!!!!!!!!!!!!!!}!}!!!!!!!!!!!!!!!!!2!/!0!0!N!_!N!0!0!N!N!!!!!!!!!!!!!!!!!!!!!!!!!!!!!!!!!0!X!`!a!N!!!!!!!!!!!!!!!!!!!!!!!!!!!!!!!!!!!!!!!!!!!!!!!!!!!!!!!!!!!!!!!!!!!0!X!`!a!N!!!!!!!!!!!!!!!!!!!!!!!!!!!!!!!!!!!0!2!2!/!8!/!/!0!N!!!!!!!!!!!!!!!!!!!!!!!!!!!!!!!!!!!!!!!!!!!!!}!}!!!!!!!!!!!!!!!!!!!!!!!0!X!`!a!N!!!!!!!!!!!!!!!!!!!!!!!!!!!!!!!!!2!/!0!0!N!_!N!0!0!N!N!!!!!!!!!!!!!!!!!!!!!!!!!!!!",
"!!!!!!!!!!!!!!!!!!!!!!!!!!!!!!!!!!!0!9!0!0!2!9!N!N!0!N!!!!!!!!!!!!!!!!!!!!!!!!!!!!!!!!!0!0!X!`!R!N!N!!!!!!!!!!!!!!!!!!!!!!!!!!!!!!!!!!!!!!!!!!!!!!!!!!!!!!!!!2!/!N!N!N!N!0!N!2!/!0!N!!!!!!!!!!!!!!!!!!!!!!!!!!!!!!!!!0!X!`!a!N!!!!!!!!!!!!!!!!!!!!!!!!!!!!!!!!!!!!!!!!!!!!!!!!!!!!!!!!!!!!!!!!!0!0!X!`!R!N!N!!!!!!!!!!!!!!!!!!!!!!!!!!!!!!!0!9!0!0!2!9!N!N!0!N!!!!!!!!!!!!!!!!!!!!!!!!!!!!!!!!!!!!!!!!!!!!!!!!!!!!!!!!!!!!!!!!!!!!!!!0!X!`!a!N!!!!!!!!!!!!!!!!!!!!!!!!!!!!!!!2!/!N!N!N!N!0!N!2!/!0!N!!!!!!!!!!!!!!!!!!!!!!!!!!!!",
"!!!!!!!!!!!!!!!!!!!!!!!!!!!!!!!!!/!8!0!N!N!9!2!N!/!/!0!N!!!!!!!!!!!!!!!!!!!!!!!!!!!!!0!2!2!A!8!/!/!2!0!!!!!!!!!!!!!!!!!!!!!!!!!!!!!!!!!!!!!!!!!!!!!!!!!!!!!!!/!N!!!!!!!0!/!N!!!!!/!0!N!!!!!!!!!!!!!!!!!!!!!!!!!!!!!0!0!X!`!R!N!N!!!!!!!!!!!!!!!!!!!!!!!!!!!!!!!!!!!!!!!!!!!!!!!!!!!!!!!!!!!!!0!2!2!A!8!/!/!2!0!!!!!!!!!!!!!!!!!!!!!!!!!!!/!8!0!N!N!9!2!N!/!/!0!N!!!!!!!!!!!!!!!!!!!!!!!!!!!!!!!!!!!!!!!!!!!!!!!!!!!!!!!!!!!!!!!!!!!0!0!X!`!R!N!N!!!!!!!!!!!!!!!!!!!!!!!!!!!!!/!N!!!!!!!0!/!N!!!!!/!0!N!!!!!!!!!!!!!!!!!!!!!!!!!!",
"!!!!!!!!!!!!!!!!!!!!!!!!!!!!!!!!!2!0!N!!!!!9!/!!!!!!!/!0!!!!!!!!!!!!!!!!!!!!!!!!!!!0!9!/!0!B!9!0!?!8!N!!!!!!!!!!!!!!!!!!!!!!!!!!!!!!!!!!!!!!!!!!!!!!!!!!!!!!!N!0!!!!!!!8!2!0!!!!!2!0!/!!!!!!!!!!!!!!!!!!!!!!!!!!!0!2!2!A!8!/!/!2!0!!!!!!!!!!!!!!!!!!!!!!!!!!!!!!!!!!!!!!!!!!!!!!!!!!!!!!!!!0!9!/!0!B!9!0!?!8!N!!!!!!!!!!!!!!!!!!!!!!!!!!!2!0!N!!!!!9!/!!!!!!!/!0!!!!!!!!!!!!!!!!!!!!!!!!!!!!!!!!!!!!!!!!!!!!!!!!!!!!!!!!!!!!!!!!!0!2!2!A!8!/!/!2!0!!!!!!!!!!!!!!!!!!!!!!!!!!!N!0!!!!!!!8!2!0!!!!!2!0!/!!!!!!!!!!!!!!!!!!!!!!!!!!",
"!!!!!!!!!!!!!!!!!!!!!!!!!!!!!!!!!/!0#%!!!!!9!/!!!!!!!/!0!!!!!!!!!!!!!!!!!!!!!!!!!/!B!/!N!N!=!2!0!9!B!?!N!!!!!!!!!!!!!!!!!!!!!!!!!!!!!!!!!!!!!!!!!!!!!!!!!!!!!!!!!!!!!!!0!/!N!!!!!!!!!!!!!!!!!!!!!!!!!!!!!!!!!!!0!9!/!0!B!9!0!?!8!N!!!!!!!!!!!!!!!!!!!!!!!!!!!!!!!!!!!!!!!!!!!!!!!!!!!!!!!/!B!/!N!N!=!2!0!9!B!?!N!!!!!!!!!!!!!!!!!!!!!!!!!/!0#%!!!!!9!/!!!!!!!/!0!!!!!!!!!!!!!!!!!!!!!!!!!!!!!!!!!!!!!!!!!!!!!!!!!!!!!!!!!!!!!!!0!9!/!0!B!9!0!?!8!N!!!!!!!!!!!!!!!!!!!!!!!!!!!!!!!!!!!!!0!/!N!!!!!!!!!!!!!!!!!!!!!!!!!!!!!!!!!!!!",
"!!!!!!!!!!!!!!!!!!!!!!!!!!!!!!!!!/#&!!!!!!!9!/!!!!!!!/!/!!!!!!!!!!!!!!!!!!!!!!!!!B!2!N!!!!!A!/!!!!!!!<!0!!!!!!!!!!!!!!!!!!!!!!!!!!!!!!!!!!!!!!!!!!!!!!!!!!!!!!!!!!!!!!!!!!!!!!!!!!!!!!!!!!!!!!!!!!!!!!!!!!!!!/!B!/!N!N!=!2!0!9!B!?!N!!!!!!!!!!!!!!!!!!!!!!!!!!!!!!!!!!!!!!!!!!!!!!!!!!!!!B!2!N!!!!!A!/!Y!Y!!!<!0!!!!!!!!!!!!!!!!!!!!!!!!!/#&!!!!!!!9!/!!!!!!!/!/!!!!!!!!!!!!!!!!!!!!!!!!!!!!!!!!!!!!!!!!!!!!!!!!!!!!!!!!!!!!!/!B!/!N!N!=!2!0!9!B!?!N!!!!!!!!!!!!!!!!!!!!!!!!!!!!!!!!!!!!!!!!!!!!!!!!!!!!!!!!!!!!!!!!!!!!!!!!!!!!",
"!!!!!!!!!!!!!!!!!!!!!!!!!!!!!!!!!!!!!!!!!!!!!!!!!!!!!!!!!!!!!!!!!!!!!!!!!!!!!!!!!?!0#%!!!!!?!/!!!!!!!8!0!!!!!!!!!!!!!!!!!!!!!!!!!!!!!!!!!!!!!!!!!!!!!!!!!!!!!!!!!!!!!!!!!!!!!!!!!!!!!!!!!!!!!!!!!!!!!!!!!!!!!B!2!N#%!!!A!/#%!!!!!<!0!!!!!!!!!!!!!!!!!!!!!!!!!!!!!!!!!!!!!!!!!!!!!!!!!!!!!?!0!Y!!!!!?!/#%!!!!!8!0!!!!!!!!!!!!!!!!!!!!!!!!!!!!!!!!!!!!!!!!!!!!!!!!!!!!!!!!!!!!!!!!!!!!!!!!!!!!!!!!!!!!!!!!!!!!!!!!!!!!!!!!!!!!!B!2!N!!!!!A!/#%!!!!!<!0!!!!!!!!!!!!!!!!!!!!!!!!!!!!!!!!!!!!!!!!!!!!!!!!!!!!!!!!!!!!!!!!!!!!!!!!!!!!",
"!!!!!!!!!!!!!!!!!!!!!!!!!!!!!!!!!!!!!!!!!!!!!!!!!!!!!!!!!!!!!!!!!!!!!!!!!!!!!!!!!2#&!!!!!!!9!/!!!!!!!2!/!!!!!!!!!!!!!!!!!!!!!!!!!!!!!!!!!!!!!!!!!!!!!!!!!!!!!!!!!!!!!!!!!!!!!!!!!!!!!!!!!!!!!!!!!!!!!!!!!!!!!?!0#&!!!!!?!/#&!!!!!8!0!!!!!!!!!!!!!!!!!!!!!!!!!!!!!!!!!!!!!!!!!!!!!!!!!!!!!2#&!!!!!!!9!/#&!!!!!2!/!!!!!!!!!!!!!!!!!!!!!!!!!!!!!!!!!!!!!!!!!!!!!!!!!!!!!!!!!!!!!!!!!!!!!!!!!!!!!!!!!!!!!!!!!!!!!!!!!!!!!!!!!!!!!?!0#%!!!!!?!/#&!!!!!8!0!!!!!!!!!!!!!!!!!!!!!!!!!!!!!!!!!!!!!!!!!!!!!!!!!!!!!!!!!!!!!!!!!!!!!!!!!!!!"
};