/* XPM */
static const char *cyborg_boss_walking_f03[] = {
/* columns rows colors chars-per-pixel */
"64 64 89 1",
"! c None",
"# c #60401C",
"$ c #704820",
"% c #805424",
"& c #94602C",
"' c #A06C3C",
"( c #D0B094",
") c #BC906C",
"* c #B08458",
"+ c #A8784C",
", c #503418",
"- c #C4A080",
". c #402810",
"/ c #005C5C",
"0 c #007474",
"1 c #640030",
"2 c #880444",
"3 c #D8649C",
"4 c #CC3880",
"5 c #004444",
"6 c #984C08",
"7 c #00BCBC",
"8 c #008C8C",
"9 c #00A4A4",
": c #98084C",
"; c #AC0C58",
"< c #10C0C0",
"= c #CC8038",
"> c #B4ECEC",
"? c #28C8C8",
"@ c #5CD8D8",
"A c #78E0E0",
"B c #D8BCA8",
"C c #DCAC7C",
"D c #D8F4F4",
"E c #98E4E4",
"F c #40D0D0",
"G c #E4D0C0",
"H c #ECD0B4",
"I c #AC580C",
"J c #C06410",
"K c #743804",
"L c #884404",
"M c #002C2C",
"N c #4C4C4C",
"O c #848484",
"P c #5C5C5C",
"Q c #2C2C2C",
"R c #B0B0B0",
"S c #747474",
"T c #CC3838",
"U c #700404",
"V c #444444",
"W c #8C8C8C",
"X c #545454",
"Y c #3C3C3C",
"Z c #343434",
"[ c #A8A8A8",
"] c #989898",
"^ c #A0A0A0",
"_ c #7C7C7C",
"` c #D09050",
"a c #001414",
"b c #502400",
"c c #6C6C6C",
"d c #646464",
"e c #BCBCBC",
"f c #CCCCCC",
"g c #C47024",
"h c #043C74",
"i c #E4C098",
"j c #085098",
"k c #044488",
"l c #5090D0",
"m c #002850",
"n c #98C0E4",
"o c #64A0D8",
"p c #2474C4",
"q c #00142C",
"r c #C4C4C4",
"s c #643000",
"t c #7CACDC",
"u c #D89C64",
"v c #1068C0",
"w c #3C1C00",
"x c #0C5CAC",
"y c #003064",
"z c #242424",
"{ c #1C1C1C",
"!!!!!!!!!!!!!!!!!!!!!!!!!!!!!!!!!!!!!!!!!!!!!!!!!!!!!!!!!!!!!!!!",
"!!!!!!!!!!!!!!!!!!!!!!!!!!!!!!!!!!!!!!!!!!!!!!!!!!!!!!!!!!!!!!!!",
"!!!!!!!!!!!!!!!!!!!!!!!!!!!!########!!!!!!!!!!!!!!!!!!!!!!!!!!!!",
"!!!!!!!!!!!!!!!!!!!!!!!!!!!##$$%%%$$#!!!!!!!!!!!!!!!!!!!!!!!!!!!",
"!!!!!!!!!!!!!!!!!!!!!!!!!!!#$%&'''&%$#!!!!!!!!!!!!!!!!!!!!!!!!!!",
"!!!!!!!!!!!!!!!!!!!!!!!!!!##$%(%)*+&$#!!!!!!!!!!!!!!!!!!!!!!!!!!",
"!!!!!!!!!!!!!!!!!!!!!!!!!!#$%'%$'*(&&$#!!!!!!!!!!!!!!!!!!!!!!!!!",
"!!!!!!!!!!!!!!!!!!!!!!!!!!#%'*'''*&%#%#!!!!!!!!!!!!!!!!!!!!!!!!!",
"!!!!!!!!!!!!!!!!!!!!!!!!!#$&*)*+*+&##&$#!!!!!!!!!!!!!!!!!!!!!!!!",
"!!!!!!!!!!!!!!!!!!!!!!!!!#%+)('&*++&&&%##!!!!!!!!!!!!!!!!!!!!!!!",
"!!!!!!!!!!!!!!!!!!!!!!!!#$+)(+#%*'&'+)+$#!!!!!!!!!!!!!!!!!!!!!!!",
"!!!!!!!!!!!!!!!!!!!!!!!#,%)*%#$&&&%&'*)%,#!!!!!!!!!!!!!!!!!!!!!!",
"!!!!!!!!!!!!!!!!!!!!!!!,$$-*&%$%&%$%&*-$$,!!!!!!!!!!!!!!!!!!!!!!",
"!!!!!!!!!!!!!!!!!!!!!!!.$,&+%###'###%+&,$.!!!!!!!!!!!!!!!!!!!!!!",
"!!!!!!!!!!!!!!!!!!!!!!.#$.$#,$#%'%#$,#$.$#.!!!!!!!!!!!!!!!!!!!!!",
"!!!!!!!!!/0///////////.,#,1234$&)&$2341,#,.//////////55!!!!!!!!!",
"!!!!66666700089880000.,$#$$1:;,+(),;:1,##$,.00089<0000//66666!!!",
"!!!!=====>??<@A@79888.,$$#$%$%$)B($%$%$#$$,.88897@AA@<78=====!!!",
"!!!!=CCCCDEEAE>>E@F?<.,%$#$%'+*(G(*+'%$#$%,.9?F@E>D>EA@<=CCCC!!!",
"!!!!CHHHH><<?@A@79888.#&%#$&'**)(-**'&$#%&#.888997AA@<7?CHHHH!!!",
"!!!!=CCCCE88999990000.#%%$#%'*('*)**'%#$%%#.00000099889@=CCCC!!!",
"!!!!IJJJIF000//0/////.,#$$#%'+'$')*+'%#$$#,./////////08AIJJJI!!!",
"!!!!KLLLL798//55//55MM.,#$#%&+''-)*+&%#$#,.MM55//5//9/0AKLLLL!!!",
"!!!!NOPNQ8980////0/55MM.,#$$+'+*-*+'+$$#,.MMMMMMMM0<808>NOPNQ!!!",
"!!!!NRSNQM0F90/000//55MM.,#$**+)B)+**$#,.MMMMTUTM0EF0089NRSNQ!!!",
"!!!!VRWXQ!M9F9008800/55MM.,&))'-B-'))&,.MMMMMMMMMEF80890VRWXQ!!!",
"!!!!YRWPQ!M/9F88800///55MM%+&-*)()*-&+%MMMMMMMMM8F80880MYRWPQ!!!",
"!!!!ZRWNQ!!M/97800/55555MM&$,&)*)*)&,$&MM55555/008000/M!ZRWNQ!!!",
"!!!!5[OVQ!!!M/090/55MMMMMM##,,''%'',,##MMMMMM55/00//5M!!5[OVQ!!!",
"!!!!I]SY6!!!!M///55M5555///#$&%$#$%&$#///5555M55///5M!!!I]SY6!!!",
"!!!!C^_^`!!!!!//MMMMMMM55MM5#$'*(+*&%MMM55MMMMMM555M!!!!C^_^`!!!",
"!!!!IIIIIL!!!!!!MaaaaaaaM!!!M#$%&'&%M!!!Maaaaaaaaaa!!!!!IIIII!!!",
"!!!!KKXKK!!!!!!!!!!!!!!!!!!!M5M/5MMMM!!!!!!!!!!!!!!!!!!!KKXKK!!!",
"!!!!bcdNb!!!!!!!!!!!!!!!!!!!!aM5MaaM!!!!!!!!!!!!!!!!!!!!bNdNb!!!",
"!!!!Y]_PQ!!!!!!!!!!!!!!!!!!!!5/80/5M!!!!!!!!!!!!!!!!!!!!Y]_PQ!!!",
"!!!!Y^WPQ!!!!!!!!!!!!!!!!!!!!55/5MaM!!!!!!!!!!!!!!!!!!!!Y^WPQ!!!",
"!!!!Ye]PQ!!!!!!!!!!!!!!!!!!!!0?E?85M!!!!!!!!!!!!!!!!!!!!Ye]PQ!!!",
"!!!!Yf^PQ!!!!!!!!!!!!!!!!!!!M5095MaMM!!!!!!!!!!!!!!!!!!!Yf^PQ!!!",
"!!!!Y^WPQ!!!!!!!!666666K0///M/7D7///M///56666666!!!!!!!!Y^WPQ!!!",
"!!!!Y^_PQ!!!!!!!!gggggg6800/M5095MaaM/00/ggggggg!!!!!!!!YMMPQ!!!",
"!!!!Y/55Q!!!!!!!!HCCCCCJ>FF0M50800/5M0FF9HCCCCCC!!!!!!!5M9/M5!!!",
"!!!/0hh05!!!!!!!!i``````E<98/M555/5M/8998i``````!!!!!5055?/Ma!!!",
"!!/9hjkh/5!!!!!!!`0555/JA8880/MMMMM/08880`JJJJJJ!!!!505559/M/M!!",
"!!07hlkm05!!!!!!!J5NOV56F000000000000000/J666666!!!!05aM!8/M8a!!",
"!!08hnkm05!!!!!!!6/P]N5K8///////////////56KKKKKK!!!!8aa!!05!85a!",
"!!08hokm5!!!!!!!!L5S[X5b/555555555555555MLbbbbbb!!!!0a!!!05!/5a!",
"!!!0hpkm!!!!!!!!!I5OeP5K5000088999888000MIKKKKKK!!!!/a!!!Ma!/5a!",
"!!!!hqqm!!!!!!!!!!5]rd5!!!!!!!!!!!!!!!!!!!5S[d5!!!!!!5a!!!a!!/M!",
"!!!!hlkm!!!!!!!!!ILLLLL6!!!!!!!!!!!!!!!!!!5S[d5!!!!!!!!!!!!!!5M!",
"!!!!hokm!!!!!!!!!gg=`=gI!!!!!!!!!!!!!!!!!sYX^XYs!!!!!!!!!!!!5M!!",
"!!!!htkm!!!!!!!!!u`CHC`g!!!!!!!!!!!!!!!!!LYX_NYL!!!!!!!!!!!!!!!!",
"!!!!htkm!!!!!!!!!Cg`u=JI!!!!!!!!!!!!!!!!!KKYYYKK!!!!!!!!!!!!!!!!",
"!!!!hlkm!!!!!!!!!=IJJJJJ!!!!!!!!!!!!!!!!!bbbbbbb!!!!!!!!!!!!!!!!",
"!!!!hvkm!!!!!!!!!J65S566!!!!!!!!!!!!!!!!!wwwwwww!!!!!!!!!!!!!!!!",
"!!!!hxkm!!!!!!!!!LM_WNKK!!!!!!!!!!!!!!!!!!ZXSNZ!!!!!!!!!!!!!!!!!",
"!!!!hqqm!!!!!!!!!!5SRPM!!!!!!!!!!!!!!!!!0/MXdN5MM!!!!!!!!!!!!!!!",
"!!!!!yy!!!!!!!!!!!5WRSM!!!!!!!!!!!!!!!!0/55MXM55MM!!!!!!!!!!!!!!",
"!!!!!!!!!!!!!!!!!!5WRSM!!!!!!!!!!!!!!!0/MMMM5M0/5M!!!!!!!!!!!!!!",
"!!!!!!!!!!!!!!!!!55WRPMM!!!!!!!!!!!!!!/M!!!5/M!!/5M!!!!!!!!!!!!!",
"!!!!!!!!!!!!!!!!500?9//05!!!!!!!!!!!!!M5!!!905!!05/!!!!!!!!!!!!!",
"!!!!!!!!!!!!!!!58/5E8579M!!!!!!!!!!!!!!!!!!5/M!!!!!!!!!!!!!!!!!!",
"!!!!!!!!!!!!!!/E/MMA058E7M!!!!!!!!!!!!!!!!!!!!!!!!!!!!!!!!!!!!!!",
"!!!!!!!!!!!!!!E0M!!?/z!!<5!!!!!!!!!!!!!!!!!!!!!!!!!!!!!!!!!!!!!!",
"!!!!!!!!!!!!!!75z!!7/{!!95!!!!!!!!!!!!!!!!!!!!!!!!!!!!!!!!!!!!!!"
};