/* XPM */
static const char *cyborg_boss_walking_f00[] = {
/* columns rows colors chars-per-pixel */
"64 64 92 1",
"! c None",
"# c #60401C",
"$ c #704820",
"% c #805424",
"& c #94602C",
"' c #A06C3C",
"( c #D0B094",
") c #BC906C",
"* c #B08458",
"+ c #A8784C",
", c #503418",
"- c #C4A080",
". c #402810",
"/ c #005C5C",
"0 c #004444",
"1 c #640030",
"2 c #880444",
"3 c #D8649C",
"4 c #CC3880",
"5 c #007474",
"6 c #884404",
"7 c #98084C",
"8 c #AC0C58",
"9 c #008C8C",
": c #00A4A4",
"; c #10C0C0",
"< c #78E0E0",
"= c #5CD8D8",
"> c #00BCBC",
"? c #984C08",
"@ c #98E4E4",
"A c #D8BCA8",
"B c #D8F4F4",
"C c #B4ECEC",
"D c #CC8038",
"E c #AC580C",
"F c #40D0D0",
"G c #28C8C8",
"H c #E4D0C0",
"I c #DCAC7C",
"J c #C06410",
"K c #ECD0B4",
"L c #D09050",
"M c #E4C098",
"N c #002C2C",
"O c #D89C64",
"P c #743804",
"Q c #5C5C5C",
"R c #001414",
"S c #CC3838",
"T c #700404",
"U c #643000",
"V c #4C4C4C",
"W c #A8A8A8",
"X c #8C8C8C",
"Y c #2C2C2C",
"Z c #989898",
"[ c #444444",
"] c #BCBCBC",
"^ c #545454",
"_ c #CCCCCC",
"` c #980088",
"a c #D8D8D8",
"b c #646464",
"c c #3C3C3C",
"d c #E0E0E0",
"e c #F0F0F0",
"f c #747474",
"g c #343434",
"h c #A0A0A0",
"i c #C47024",
"j c #6C6C6C",
"k c #B0B0B0",
"l c #848484",
"m c #502400",
"n c #7C7C7C",
"o c #C4C4C4",
"p c #FCFCFC",
"q c #3884CC",
"r c #B4D0EC",
"s c #64A0D8",
"t c #0C5CAC",
"u c #1068C0",
"v c #5090D0",
"w c #085098",
"x c #043C74",
"y c #044488",
"z c #2474C4",
"{ c #003064",
"| c #00142C",
"} c #242424",
"~ c #1C1C1C",
"!!!!!!!!!!!!!!!!!!!!!!!!!!!!!!!!!!!!!!!!!!!!!!!!!!!!!!!!!!!!!!!!",
"!!!!!!!!!!!!!!!!!!!!!!!!!!!!!!########!!!!!!!!!!!!!!!!!!!!!!!!!!",
"!!!!!!!!!!!!!!!!!!!!!!!!!!!!!##$$%%%$$#!!!!!!!!!!!!!!!!!!!!!!!!!",
"!!!!!!!!!!!!!!!!!!!!!!!!!!!!!#$%&'''&%$#!!!!!!!!!!!!!!!!!!!!!!!!",
"!!!!!!!!!!!!!!!!!!!!!!!!!!!!##$%(%)*+&$#!!!!!!!!!!!!!!!!!!!!!!!!",
"!!!!!!!!!!!!!!!!!!!!!!!!!!!!#$%'%$'*(&&$#!!!!!!!!!!!!!!!!!!!!!!!",
"!!!!!!!!!!!!!!!!!!!!!!!!!!!!#%'*'''*&%#%#!!!!!!!!!!!!!!!!!!!!!!!",
"!!!!!!!!!!!!!!!!!!!!!!!!!!!#$&*)*+*+&##&$#!!!!!!!!!!!!!!!!!!!!!!",
"!!!!!!!!!!!!!!!!!!!!!!!!!!!#%+)('&*++&&&%##!!!!!!!!!!!!!!!!!!!!!",
"!!!!!!!!!!!!!!!!!!!!!!!!!!#$+)(+#%*'&'+)+$#!!!!!!!!!!!!!!!!!!!!!",
"!!!!!!!!!!!!!!!!!!!!!!!!!#,%)*%#$&&&%&'*)%,#!!!!!!!!!!!!!!!!!!!!",
"!!!!!!!!!!!!!!!!!!!!!!!!!,$$-*&%$%&%$%&*-$$,!!!!!!!!!!!!!!!!!!!!",
"!!!!!!!!!!!!!!!!!!!!!!!!!.$,&+%###'###%+&,$.!!!!!!!!!!!!!!!!!!!!",
"!!!!!!!!!!!!!!!!!!!!!!!!.#$.$#,$#%'%#$,#$.$#.!!!!!!!///0!!!!!!!!",
"!!!!!!!!!!!!!!!!!///////.,#,1234$&)&$2341,#,.///////5555/66!!!!!",
"!!!!!!!!!!/5/////555555.,$#$$178,+(),871,##$,.5559:;<<=;>9??!!!!",
"!!!!?????/@=559:;=>:999.,$$#$%$%$)A($%$%$#$$,.999:>=BC@<=9;D?!!!",
"!!!?EDDDDD9C<;=<<C@=FG;.,%$#$%'+*(H(*+'%$#$%,.:GF=@C<<=;>>9IJ!!!",
"!!!DIDIIII;B@<@CB=>:999.#&%#$&'**)(-**'&$#%&#.9999999999995KL!!!",
"!!!LKIKKKK9B@5555555555.#%%$#%'*('*)**'%#$%%#./////////555/I?!!!",
"!!!IMDIIII5C@//////////.,#$$#%'+'$')*+'%#$$#,.NNNNNNN00/550J6!!!",
"!!!DOEJJJE>@G////000NNNN.,#$#%&+''-)*+&%#$#,.NNNNNNN00/55/N?P!!!",
"!!!E?P5Q0N@=://000NNNNRRR.,#$$+'+*-*+'+$$#,.NNNSTSN00/95//NU!!!!",
"!!!?PVWXVYF:9/////0000NNRR.,#$**+)A)+**$#,.NNNNNNNN//:5//0N!!!!!",
"!!!Z[V]W^YN55///////000NNRR.,&))'-A-'))&,.NNNNNNNN0/>55/0N!!!!!!",
"!!!]^[_]QY`N55///55//000NRRR%+&-*)()*-&+%NNNNNNN00/955/0N!!!!!!!",
"!!!abcd]QY`N/55555/0000NRRRR&$,&)*)*)&,$&NNNNN00//555/0NE?!!!!!!",
"!!!efg_hVY``N///5//000NNNNRR##,,''%'',,##NNNNNN00////0NLDi!!!!!!",
"!!!]jcklVY```N0//0000000NRRRR#$&%$#$%&$#///0000N00000NP6??!!!!!!",
"!!!hQVXf[Y````0000NNNNNNNNNNNN#$'*(+*&%NNN00NNNNNNNNNUmmm!!!!!!!",
"!!!lV0fl[Y`````NNNRRRRRRRRRRR`N#$%&'&%N```RRRRRRR```QnQR!!!!!!!!",
"!!!JiE^lV?```````RRRRR````````N0N/0NNNN`````````````QlQR!!!!!!!!",
"!!!DIIOIOL`````````````````````RN0NRRN``````````````QXQR!!!!!!!!",
"!!!OMEEEEE6````````````````````0/95/0N``````````````QZQR!!!!!!!!",
"!!!MK?lf^NP````````````````````00/0NRN``````````````QXQR!!!!!!!!",
"!!!OI6nWX^N````````````````````5G@G90N``````````````QXQR!!!!!!!!",
"!!!JLUPnoW^N``````````````````N05:0NRNN`````````````QlQR!!!!!!!!",
"!!!!JmmVXdk^N``````??????P5///N/>B>///N///0???????`059950!!!!!!!",
"!!!!!!!!VhpX^N`````iiiiii?955/N05:0NRRN/55/iiLOOLi0::;>:9R!!!!!!",
"!!!!!!!!!VXoX^N9>9`KIIIIIJCFF5N05955/0N5FF:KIMKKMIN009/R0R!!!!!!",
"!!!!!!!!!!VZk9>@5//qLLLLL?@;:9/N000/0N/9::9MLLLLLLRRR50RR0R!!!!!",
"!!!!!!!!!!!VZ>@9/rsrqJJJJ6<9995/NNNNN/59995L5000/JRR!/0RR/0!!!!!",
"!!!!!!!!!!!!V9@/tsusrq???PF555555555555555/J0Vl[0?R!!/NR!/0!!!!!",
"!!!!!!!!!!!!vw=:xususrqPPU9///////////////0?/QZV0PR!!0NR!/0!!!!!",
"!!!!!!!!!!!!wy>9z{usus|qmm/000000000000000N60fW^0mR!!RR!!R!!!!!!",
"!!!!!!!!!!!!x{555z{usuqqPU0555599:::999555NE0l]Q0PR!!RR!R!!!!!!!",
"!!!!!!!!!!!!!x{!!!z{usrqN!!!!!!!!!!!!!!!!!!!0W_f0!!R!R!!!!!!!!!!",
"!!!!!!!!!!!!!!!!!!!z{usrq!!!!!!!!!!!!!!!!!!E66666?!!!!!!!!!!!!!!",
"!!!!!!!!!!!!!!!!!!!Nz{usrz!!!!!!!!!!!!!!!!!iiDLDiE!!!!!!!!!!!!!!",
"!!!!!!!!!!!!!!!!!!!0Ntxu||z!!!!!!!!!!!!!!!!OLIKILi!!!!!!!!!!!!!!",
"!!!!!!!!!!!!!!!!!!!5^/Qz||u!!!!!!!!!!!!!!!!IiLODJE!!!!!!!!!!!!!!",
"!!!!!!!!!!!!!!!!!!!?V^b^uu!!!!!!!!!!!!!!!!!DEJJJJJ!!!!!!!!!!!!!!",
"!!!!!!!!!!!!!!!!!!!PPPPPPP!!!!!!!!!!!!!!!!!J?0f0??!!!!!!!!!!!!!!",
"!!!!!!!!!!!!!!!!!!!mmmmmmm!!!!!!!!!!!!!!!!!6NnXVPP!!!!!!!!!!!!!!",
"!!!!!!!!!!!!!!!!!!!!0XhfN!!!!!!!!!!!!!!!!!!!0fkQN!!!!!!!!!!!!!!!",
"!!!!!!!!!!!!!!!!!!!00XhQNN!!!!!!!!!!!!!!!!!!0XkfN!!!!!!!!!!!!!!!",
"!!!!!!!!!!!!!!!!!!055/://0N!!!!!!!!!!!!!!!!!0XkfN!!!!!!!!!!!!!!!",
"!!!!!!!!!!!!!!!!!090059NN0N!!!!!!!!!!!!!!!!00XkQNN!!!!!!!!!!!!!!",
"!!!!!!!!!!!!!!!!/:0NN95N//0N!!!!!!!!!!!!!!055G://50!!!!!!!!!!!!!",
"!!!!!!!!!!!!!!!!50N!!9/!!!/0!!!!!!!!!!!!!09/0@90>:N!!!!!!!!!!!!!",
"!!!!!!!!!!!!!!!!/0}!!9/!!!/0!!!!!!!!!!!!/@/NN<509@>N!!!!!!!!!!!!",
"!!!!!!!!!!!!!!!!/~!!!9/!!!//!!!!!!!!!!!!@5N!!G/!!!;0!!!!!!!!!!!!",
"!!!!!!!!!!!!!!!!!!!!!!!!!!!!!!!!!!!!!!!!>0}!!>/!!!:0!!!!!!!!!!!!",
"!!!!!!!!!!!!!!!!!!!!!!!!!!!!!!!!!!!!!!!!5~!!!9/!!!5/!!!!!!!!!!!!"
};