/* XPM */
static char *ammo_01_auto_charge_pistol[] = {
/* Values */
"45 44 201 2",
/* Colors */
"!! c #3C5A90",
"!# c #443B7E",
"!$ c #65106E",
"!% c None",
"!& c #690C74",
"!' c #3C4E8C",
"!( c #47317C",
"!) c #3C4E8E",
"!* c #4A2F80",
"!+ c #38508E",
"!, c #463180",
"!- c #34528E",
"!. c #41337E",
"!/ c #30558C",
"!0 c #3D367C",
"!1 c #30558A",
"!2 c #3C377A",
"!3 c #335489",
"!4 c #3D3679",
"!5 c #345487",
"!6 c #3F3679",
"!7 c #3F357A",
"!8 c #315589",
"!9 c #3D367A",
"!: c #AD30A5",
"!; c #DE79E1",
"!< c #BD70CE",
"!= c #C17BD3",
"!> c #D17DD5",
"!? c #CD7DD2",
"!@ c #B67DCC",
"!A c #B782D2",
"!B c #C381D8",
"!C c #6B0F72",
"!D c #C554BC",
"!E c #FFC6FF",
"!F c #E8B9FD",
"!G c #D5B5E7",
"!H c #D8B0D3",
"!I c #D2AFCD",
"!J c #D2C3E4",
"!K c #DED4F9",
"!L c #E2D0F8",
"!M c #5A2664",
"!N c #B951B0",
"!O c #F5B0F1",
"!P c #89678C",
"!Q c #604C58",
"!R c #765A4F",
"!S c #664C3B",
"!T c #6D6357",
"!U c #94958D",
"!V c #D5D9D8",
"!W c #523352",
"!X c #BF5BBB",
"!Y c #E7A7E4",
"!Z c #4A2C48",
"![ c #4B383C",
"!] c #94766C",
"!^ c #715643",
"!_ c #372B15",
"!` c #7D7E6C",
"!a c #CEDDD8",
"!b c #493954",
"!c c #B653BD",
"!d c #F8B5FF",
"!e c #86638B",
"!f c #715770",
"!g c #8E6283",
"!h c #825772",
"!i c #74565E",
"!j c #A0969E",
"!k c #D1E2FC",
"!l c #40366B",
"!m c #A746B1",
"!n c #FCBCFF",
"!o c #B598CE",
"!p c #BBA9D3",
"!q c #C4A2D5",
"!r c #C39FCF",
"!s c #B8A0C2",
"!t c #B0AFCE",
"!u c #BCDFFF",
"!v c #333975",
"!w c #BD5EC2",
"!x c #E2ABFC",
"!y c #5A4B90",
"!z c #A1A3DC",
"!{ c #DEDBFF",
"!| c #C0BDE8",
"!} c #797AB2",
"!~ c #7B95C8",
"#! c #95DAFB",
"## c #214275",
"#$ c #CA64C7",
"#% c #E0A0EE",
"#& c #442465",
"#' c #6C5889",
"#( c #8C6F8D",
"#) c #886784",
"#* c #553864",
"#+ c #8281A9",
"#, c #ADE4F8",
"#- c #284169",
"#. c #C049AF",
"#/ c #FFA1E9",
"#0 c #8B3B62",
"#1 c #8E3B4B",
"#2 c #83161C",
"#3 c #A52D2F",
"#4 c #9F2C2F",
"#5 c #CA7E7E",
"#6 c #EAE2E0",
"#7 c #493652",
"#8 c #34538A",
"#9 c #40347C",
"#: c #CC55BB",
"#; c #FFACF0",
"#< c #6C2743",
"#= c #8E4C4E",
"#> c #9E4946",
"#? c #A2443A",
"#@ c #9E4535",
"#A c #BD7F70",
"#B c #E0D5D1",
"#C c #533652",
"#D c #405692",
"#E c #422D78",
"#F c #C55BBD",
"#G c #F2B3F9",
"#H c #8B8AAA",
"#I c #91B2B9",
"#J c #8DB7B3",
"#K c #7CAA9F",
"#L c #8BB9AE",
"#M c #8BB8B3",
"#N c #B8E3EC",
"#O c #424268",
"#P c #6B1667",
"#Q c #30598D",
"#R c #404887",
"#S c #63277D",
"#T c #620767",
"#U c #681776",
"#V c #660E72",
"#W c #690871",
"#X c #5A116B",
"#Y c #6E3584",
"#Z c #7B67A4",
"#[ c #517A9A",
"#] c #206E7A",
"#^ c #2C918D",
"#_ c #1E737A",
"#` c #5598AB",
"#a c #1F3660",
"#b c #4D256C",
"#c c #6B1A77",
"#d c #14587D",
"#e c #3E5A8C",
"#f c #505B93",
"#g c #495D92",
"#h c #43588F",
"#i c #3F528A",
"#j c #47538F",
"#k c #565A99",
"#l c #404483",
"#m c #3C4785",
"#n c #31417D",
"#o c #44528F",
"#p c #40508C",
"#q c #48619A",
"#r c #3B5890",
"#s c #344E87",
"#t c #5069A1",
"#u c #395082",
"#v c #2B4E78",
"#w c #195571",
"#x c #2B6F82",
"#y c #195C6C",
"#z c #175967",
"#{ c #246374",
"#| c #1B5A6C",
"#} c #327089",
"#~ c #28587C",
"$! c #455B8D",
"$# c #464E8C",
"$$ c #454E91",
"$% c #4A5394",
"$& c #46528C",
"$' c #465388",
"$( c #46538A",
"$) c #445488",
"$* c #44538A",
"$+ c #435488",
"$, c #43548A",
"$- c #415588",
"$. c #3B4F84",
"$/ c #394F81",
"$0 c #3A4F84",
"$1 c #3B5284",
"$2 c #3D5488",
/* Pixels */
"!%!%!%!%!%!%!%!%!%!%!%!%!%!%!%!%!%!%!%!%!%!%!%!%!%!%!%!%!%!%!%!%!%!%!%!%!%!%!%!%!%!%!%!%!%",
"!%!%!%!%!%!%!%!%!%!%!%!%!%!%!%!%!%!%!%!%!%!%!%!%!%!%!%!%!%!%!%!%!%!%!%!%!%!%!%!%!%!%!%!%!%",
"!%!%!%!%!%!%!%!%!%!%!%!%!%!%!%!%!%!%!%!%!%!%!%!%!%!%!%!%!%!%!%!%!%!%!%!%!%!%!%!%!%!%!%!%!%",
"!%!%!%!%!%!%!%!%!%!%!%!%!%!%!%!%!%!%!%!%!%!%!%!%!%!%!%!%!%!%!%!%!%!%!%!%!%!%!%!%!%!%!%!%!%",
"!%!%!%!%!%!%!%!%!%!%!%!%!%!%!%!%!%!%!%!%!%!%!%!%!%!%!%!%!%!%!%!%!%!%!%!%!%!%!%!%!%!%!%!%!%",
"!%!%!%!%!%!%!%!%!%!%!%!%!%!%!%!%!%!%!%!%!%!%!%!%!%!%!%!%!%!%!%!%!%!%!%!%!%!%!%!%!%!%!%!%!%",
"!%!%!%!%!%!%!%!%!%!%!%!%!%!%!%!%!%!%!%!%!%!%!%!%!%!%!%!%!%!%!%!%!%!%!%!%!%!%!%!%!%!%!%!%!%",
"!%!%!%!%!%!%!%!%!%!%!%!%!%!%!%!%!%!%!%!%!%!%!%!%!%!%!%!%!%!%!%!%!%!%!%!%!%!%!%!%!%!%!%!%!%",
"!%!%!%!%!%!%!%!%!%!%!%!%!%!%!%!%!%!%!%!%!%!%!%!%!%!%!%!%!%!%!%!%!%!%!%!%!%!%!%!%!%!%!%!%!%",
"!%!%!%!%!%!%!%!%!%!%!%!%!%!%!%!%!%!%!%!%!%!%!%!%!%!%!%!%!%!%!%!%!%!%!%!%!%!%!%!%!%!%!%!%!%",
"!%!%!%!%!%!%!%!%!%!%!%!%!%!%!%!%!%!%!%!%!%!%!%!%!%!%!%!%!%!%!%!%!%!%!%!%!%!%!%!%!%!%!%!%!%",
"!%!%!%!%!%!%!%!%!%!%!%!%!%!%!%!%!%!%!%!%!%!%!%!%!%!%!%!%!%!%!%!%!%!%!%!%!%!%!%!%!%!%!%!%!%",
"!%!%!%!%!%!%!%!%!%!%!%!%!%!%!%!%!%!%!%!%!%!%!%!%!%!%!%!%!%!%!%!%!%!%!%!%!%!%!%!%!%!%!%!%!%",
"!%!%!%!%!%!%!%!%!%!%!%!%!%!%!%!%!%!%!%!%!%!%!%!%!%!%!%!%!%!%!%!%!%!%!%!%!%!%!%!%!%!%!%!%!%",
"!%!%!%!%!%!%!%!%!%!%!%!%!%!%!%!%!%!%!%!%!%!%!%!%!%!%!%!%!%!%!%!%!%!%!%!%!%!%!%!%!%!%!%!%!%",
"!%!%!%!%!%!%!%!%!%!%!%!%!%!%!%!%!%!%!%!%!%!%!%!%!%!%!%!%!%!%!%!%!%!%!%!%!%!%!%!%!%!%!%!%!%",
"!%!%!%!%!%!%!%!%!%!%!%!%!%!%!%!%!%!%!%!%!%!%!%!%!%!%!%!%!%!%!%!%!%!%!%!%!%!%!%!%!%!%!%!%!%",
"!%!%!%!%!%!%!%!%!%!%!%!%!%!%!%!%!%!%!%!%!%!%!%!%!%!%!%!%!%!%!%!%!%!%!%!%!%!%!%!%!%!%!%!%!%",
"!%!%!%!%!%!%!%!%!%!%!%!%!%!%!%!%!%!%!%!%!%!%!%!%!%!%!%!%!%!%!%!%!%!%!%!%!%!%!%!%!%!%!%!%!%",
"!%!%!%!%!%!%!%!%!%!%!%!%!%!%!%!%!%!%!%!%!%!%!%!%!%!%!%!%!%!%!%!%!%!%!%!%!%!%!%!%!%!%!%!%!%",
"!%!%!%!%!%!%!%!%!%!%!%!%!%!%!%!%!%!%!%!%!%!%!%!%!%!%!%!%!%!%!%!%!%!%!%!%!%!%!%!%!%!%!%!%!%",
"!%!%!%!%!%!%!%!%!%!%!%!%!%!%!%!%!%!%!%!%!%!%!%!%!%!%!%!%!%!%!%!%!%!%!%!%!%!%!%!%!%!%!%!%!%",
"!%!%!%!%!%!%!%!%!%!%!%!%!%!%!%!%!%!%!%!%!%!%!%!%!%!%!%!%!%!%!%!%!%!%!%!%!%!%!%!%!%!%!%!%!%",
"!%!%!%!%!%!%!%!%!%!%!%!%!%!%!%!%!%!%!%!%!%!%!%!%!%!%!%!%!%!%!%!%!%!%!%!%!%!%!%!%!%!%!%!%!%",
"!%!%!%!%!%!%!%!%!%!%!%!%!%!%!%!%!%!%!%!%!%!%!%!%!%!%!%!%!%!%!%!%!%!%!%!%!%!%!%!%!%!%!%!%!%",
"!%!%!%!%!%!%!%!%!%!%!%!%!%!%!%!%!%!%!%!%!%!%!%!%!%!%!%!%!%!%!%!%!%!%!%!%!%!%!%!%!%!%!%!%!%",
"!%!%!%!%!%!%!%!%!%!%!%!%!%!%!%!%!%!%!%!%!%!%!%!%!%!%!%!%!%!%!%!%!%!%!%!%!%!%!%!%!%!%!%!%!%",
"!%!%!%!%!%!%!%!%!%!%!%!%!%!%!%!%!%!%!%!%!%!%!%!%!%!%!%!%!%!%!%!%!%!%!%!%!%!%!%!%!%!%!%!%!%",
"!%!%!%!%!%!%!%!%!%!%!%!%!%!%!%!%!%!%!%!%!%!%!%!%!%!%!%!%!%!%!%!%!%!%!%!%!%!%!%!%!%!%!%!%!%",
"!%!%!%!%!%!%!%!%!%!%!%!%!%!%!%!%!%!%!%!%!%!%!%!%!%!%!%!%!%!%!%!%!%!%!%!%!%!%!%!%!%!%!%!%!%",
"!%!%!%!%!%!%!%!%!%!%!%!%!%!%!%!%!%!%!%!%!%!%!%!%!%!%!%!%!%!%!%!%!%!%!%!%!%!%!%!%!%!%!%!%!%",
"!%!%!%!%!%!%!%!%!%!%!%!%!%!%!%!%!%!%!%!;!<!=!>!?!@!A!B!%!%!%!%!%!%!%!%!%!%!%!%!%!%!%!%!%!%",
"!%!%!%!%!%!%!%!%!%!%!%!%!%!%!%!%!%!%!%!E!F!G!H!I!J!K!L!%!%!%!%!%!%!%!%!%!%!%!%!%!%!%!%!%!%",
"!%!%!%!%!%!%!%!%!%!%!%!%!%!%!%!%!%!%!%!O!P!Q!R!S!T!U!V!W!%!%!%!%!%!%!%!%!%!%!%!%!%!%!%!%!%",
"!%!%!%!%!%!%!%!%!%!%!%!%!%!%!%!%!%!%!X!Y!Z![!]!^!_!`!a!b!%!%!%!%!%!%!%!%!%!%!%!%!%!%!%!%!%",
"!%!%!%!%!%!%!%!%!%!%!%!%!%!%!%!%!%!%!%!d!e!f!g!h!i!j!k!%!%!%!%!%!%!%!%!%!%!%!%!%!%!%!%!%!%",
"!%!%!%!%!%!%!%!%!%!%!%!%!%!%!%!%!%!%!%!n!o!p!q!r!s!t!u!%!%!%!%!%!%!%!%!%!%!%!%!%!%!%!%!%!%",
"!%!%!%!%!%!%!%!%!%!%!%!%!%!%!%!%!%!%!w!x!y!z!{!|!}!~#!!%!%!%!%!%!%!%!%!%!%!%!%!%!%!%!%!%!%",
"!%!%!%!%!%!%!%!%!%!%!%!%!%!%!%!%!%!%#$#%#&#'#(#)#*#+#,!%!%!%!%!%!%!%!%!%!%!%!%!%!%!%!%!%!%",
"!%!%!%!%!%!%!%!%!%!%!%!%!%!%!%!%!%!%!%#/#0#1#2#3#4#5#6#7!%!%!%!%!%!%!%!%!%!%!%!%!%!%!%!%!%",
"!%!%!%!%!%!%!%!%!%!%!%!%!%!%!%!%!%!%!%#;#<#=#>#?#@#A#B#C!%!%!%!%!%!%!%!%!%!%!%!%!%!%!%!%!%",
"!%!%!%!%!%!%!%!%!%!%!%!%!%!%!%!%!%!%#F#G#H#I#J#K#L#M#N!%!%!%!%!%!%!%!%!%!%!%!%!%!%!%!%!%!%",
"!%!%!%!%!%!%!%!%!%!%!%!%!%!%!%!%!%!%!%#Z#[#]!%#^!%#_#`!%!%!%!%!%!%!%!%!%!%!%!%!%!%!%!%!%!%",
"!%!%!%!%!%!%!%!%!%!%!%!%!%!%!%!%!%!%!%!%!%!%!%!%!%!%!%!%!%!%!%!%!%!%!%!%!%!%!%!%!%!%!%!%!%"
};
