/* XPM */
static char *ammo_02_slow_fire_protector[] = {
/* Values */
"45 44 148 2",
/* Colors */
"!! c None",
"!# c #BB39B7",
"!$ c #D57CE8",
"!% c #C67CDD",
"!& c #C974CF",
"!' c #D073CC",
"!( c #D676CF",
"!) c #D578D3",
"!* c #CB75D8",
"!+ c #CD6BDA",
"!, c #D966DD",
"!- c #F9CDFF",
"!. c #DACAFF",
"!/ c #D8B8E7",
"!0 c #DDB0D7",
"!1 c #EAB4D8",
"!2 c #EFBAE6",
"!3 c #E8BEFD",
"!4 c #F3B5FF",
"!5 c #D46EDB",
"!6 c #B4B1E8",
"!7 c #496D7D",
"!8 c #566359",
"!9 c #5C583D",
"!: c #6B5B3A",
"!; c #695A45",
"!< c #ABAAB2",
"!= c #D7BAF0",
"!> c #D071D9",
"!? c #A1B2DD",
"!@ c #05403E",
"!A c #385738",
"!B c #7D895B",
"!C c #5C5624",
"!D c #383610",
"!E c #859894",
"!F c #C4BBE6",
"!G c #B2C3EF",
"!H c #487F84",
"!I c #576D60",
"!J c #6D6B56",
"!K c #6E5946",
"!L c #695C56",
"!M c #9BAEBF",
"!N c #CFC8FE",
"!O c #CD72DB",
"!P c #ACCBFA",
"!Q c #6EB6C2",
"!R c #A1BFC1",
"!S c #B0B0B0",
"!T c #CFBBC4",
"!U c #A69DB2",
"!V c #AAC7EF",
"!W c #C0C3FF",
"!X c #C675DE",
"!Y c #82BEF0",
"!Z c #82BCC8",
"![ c #C9E0F2",
"!] c #C9C8E7",
"!^ c #545C8A",
"!_ c #71A3E0",
"!` c #9DB1FF",
"!a c #681694",
"!b c #C675DB",
"!c c #96D2F6",
"!d c #339D99",
"!e c #82BCAD",
"!f c #9CB3A1",
"!g c #B7B6B1",
"!h c #6E7882",
"!i c #8EC4E6",
"!j c #B9D0FF",
"!k c #6B168D",
"!l c #CD74D0",
"!m c #95BBBE",
"!n c #87D49C",
"!o c #ACCA74",
"!p c #A29E3A",
"!q c #D7C15B",
"!r c #D1CC78",
"!s c #B5E3B5",
"!t c #B1BFCC",
"!u c #CE74CE",
"!v c #ADCFD0",
"!w c #7ACC8E",
"!x c #A6D97D",
"!y c #D4EF84",
"!z c #C7D868",
"!{ c #C7DF81",
"!| c #BAEDB5",
"!} c #BBCACD",
"!~ c #BE69CE",
"#! c #95CBE5",
"## c #5FD8C7",
"#$ c #5CD3B7",
"#% c #63D7B4",
"#& c #6AD6B4",
"#' c #71D0BA",
"#( c #84CFD2",
"#) c #ADCBED",
"#* c #532774",
"#+ c #7F53A8",
"#, c #3C7497",
"#- c #247A95",
"#. c #4A75A0",
"#/ c #3A3474",
"#0 c #562576",
"#1 c #6B1A77",
"#2 c #671B7F",
"#3 c #631D7F",
"#4 c #641C80",
"#5 c #6B1880",
"#6 c #3C5687",
"#7 c #395386",
"#8 c #395082",
"#9 c #40558A",
"#: c #405688",
"#; c #41558A",
"#< c #3A4E83",
"#= c #465C8E",
"#> c #3C5085",
"#? c #32487A",
"#@ c #405489",
"#A c #3F5587",
"#B c #394D82",
"#C c #3D5A86",
"#D c #2E5A77",
"#E c #205B6D",
"#F c #14606D",
"#G c #146276",
"#H c #28617E",
"#I c #3C5981",
"#J c #4A5283",
"#K c #544C85",
"#L c #564B87",
"#M c #4F4E88",
"#N c #475288",
"#O c #3C588A",
"#P c #365A8A",
"#Q c #385A8A",
"#R c #3C5888",
"#S c #44538A",
"#T c #4A5188",
"#U c #4D4F8A",
"#V c #43548A",
"#W c #3F5688",
"#X c #3A5185",
"#Y c #335986",
/* Pixels */
"!!!!!!!!!!!!!!!!!!!!!!!!!!!!!!!!!!!!!!!!!!!!!!!!!!!!!!!!!!!!!!!!!!!!!!!!!!!!!!!!!!!!!!!!!!",
"!!!!!!!!!!!!!!!!!!!!!!!!!!!!!!!!!!!!!!!!!!!!!!!!!!!!!!!!!!!!!!!!!!!!!!!!!!!!!!!!!!!!!!!!!!",
"!!!!!!!!!!!!!!!!!!!!!!!!!!!!!!!!!!!!!!!!!!!!!!!!!!!!!!!!!!!!!!!!!!!!!!!!!!!!!!!!!!!!!!!!!!",
"!!!!!!!!!!!!!!!!!!!!!!!!!!!!!!!!!!!!!!!!!!!!!!!!!!!!!!!!!!!!!!!!!!!!!!!!!!!!!!!!!!!!!!!!!!",
"!!!!!!!!!!!!!!!!!!!!!!!!!!!!!!!!!!!!!!!!!!!!!!!!!!!!!!!!!!!!!!!!!!!!!!!!!!!!!!!!!!!!!!!!!!",
"!!!!!!!!!!!!!!!!!!!!!!!!!!!!!!!!!!!!!!!!!!!!!!!!!!!!!!!!!!!!!!!!!!!!!!!!!!!!!!!!!!!!!!!!!!",
"!!!!!!!!!!!!!!!!!!!!!!!!!!!!!!!!!!!!!!!!!!!!!!!!!!!!!!!!!!!!!!!!!!!!!!!!!!!!!!!!!!!!!!!!!!",
"!!!!!!!!!!!!!!!!!!!!!!!!!!!!!!!!!!!!!!!!!!!!!!!!!!!!!!!!!!!!!!!!!!!!!!!!!!!!!!!!!!!!!!!!!!",
"!!!!!!!!!!!!!!!!!!!!!!!!!!!!!!!!!!!!!!!!!!!!!!!!!!!!!!!!!!!!!!!!!!!!!!!!!!!!!!!!!!!!!!!!!!",
"!!!!!!!!!!!!!!!!!!!!!!!!!!!!!!!!!!!!!!!!!!!!!!!!!!!!!!!!!!!!!!!!!!!!!!!!!!!!!!!!!!!!!!!!!!",
"!!!!!!!!!!!!!!!!!!!!!!!!!!!!!!!!!!!!!!!!!!!!!!!!!!!!!!!!!!!!!!!!!!!!!!!!!!!!!!!!!!!!!!!!!!",
"!!!!!!!!!!!!!!!!!!!!!!!!!!!!!!!!!!!!!!!!!!!!!!!!!!!!!!!!!!!!!!!!!!!!!!!!!!!!!!!!!!!!!!!!!!",
"!!!!!!!!!!!!!!!!!!!!!!!!!!!!!!!!!!!!!!!!!!!!!!!!!!!!!!!!!!!!!!!!!!!!!!!!!!!!!!!!!!!!!!!!!!",
"!!!!!!!!!!!!!!!!!!!!!!!!!!!!!!!!!!!!!!!!!!!!!!!!!!!!!!!!!!!!!!!!!!!!!!!!!!!!!!!!!!!!!!!!!!",
"!!!!!!!!!!!!!!!!!!!!!!!!!!!!!!!!!!!!!!!!!!!!!!!!!!!!!!!!!!!!!!!!!!!!!!!!!!!!!!!!!!!!!!!!!!",
"!!!!!!!!!!!!!!!!!!!!!!!!!!!!!!!!!!!!!!!!!!!!!!!!!!!!!!!!!!!!!!!!!!!!!!!!!!!!!!!!!!!!!!!!!!",
"!!!!!!!!!!!!!!!!!!!!!!!!!!!!!!!!!!!!!!!!!!!!!!!!!!!!!!!!!!!!!!!!!!!!!!!!!!!!!!!!!!!!!!!!!!",
"!!!!!!!!!!!!!!!!!!!!!!!!!!!!!!!!!!!!!!!!!!!!!!!!!!!!!!!!!!!!!!!!!!!!!!!!!!!!!!!!!!!!!!!!!!",
"!!!!!!!!!!!!!!!!!!!!!!!!!!!!!!!!!!!!!!!!!!!!!!!!!!!!!!!!!!!!!!!!!!!!!!!!!!!!!!!!!!!!!!!!!!",
"!!!!!!!!!!!!!!!!!!!!!!!!!!!!!!!!!!!!!!!!!!!!!!!!!!!!!!!!!!!!!!!!!!!!!!!!!!!!!!!!!!!!!!!!!!",
"!!!!!!!!!!!!!!!!!!!!!!!!!!!!!!!!!!!!!!!!!!!!!!!!!!!!!!!!!!!!!!!!!!!!!!!!!!!!!!!!!!!!!!!!!!",
"!!!!!!!!!!!!!!!!!!!!!!!!!!!!!!!!!!!!!!!!!!!!!!!!!!!!!!!!!!!!!!!!!!!!!!!!!!!!!!!!!!!!!!!!!!",
"!!!!!!!!!!!!!!!!!!!!!!!!!!!!!!!!!!!!!!!!!!!!!!!!!!!!!!!!!!!!!!!!!!!!!!!!!!!!!!!!!!!!!!!!!!",
"!!!!!!!!!!!!!!!!!!!!!!!!!!!!!!!!!!!!!!!!!!!!!!!!!!!!!!!!!!!!!!!!!!!!!!!!!!!!!!!!!!!!!!!!!!",
"!!!!!!!!!!!!!!!!!!!!!!!!!!!!!!!!!!!!!!!!!!!!!!!!!!!!!!!!!!!!!!!!!!!!!!!!!!!!!!!!!!!!!!!!!!",
"!!!!!!!!!!!!!!!!!!!!!!!!!!!!!!!!!!!!!!!!!!!!!!!!!!!!!!!!!!!!!!!!!!!!!!!!!!!!!!!!!!!!!!!!!!",
"!!!!!!!!!!!!!!!!!!!!!!!!!!!!!!!!!!!!!!!!!!!!!!!!!!!!!!!!!!!!!!!!!!!!!!!!!!!!!!!!!!!!!!!!!!",
"!!!!!!!!!!!!!!!!!!!!!!!!!!!!!!!!!!!!!!!!!!!!!!!!!!!!!!!!!!!!!!!!!!!!!!!!!!!!!!!!!!!!!!!!!!",
"!!!!!!!!!!!!!!!!!!!!!!!!!!!!!!!!!!!!!!!!!!!!!!!!!!!!!!!!!!!!!!!!!!!!!!!!!!!!!!!!!!!!!!!!!!",
"!!!!!!!!!!!!!!!!!!!!!!!!!!!!!!!!!!!!!!!!!!!!!!!!!!!!!!!!!!!!!!!!!!!!!!!!!!!!!!!!!!!!!!!!!!",
"!!!!!!!!!!!!!!!!!!!!!!!!!!!!!!!!!!!!!!!!!!!!!!!!!!!!!!!!!!!!!!!!!!!!!!!!!!!!!!!!!!!!!!!!!!",
"!!!!!!!!!!!!!!!!!!!!!!!!!!!!!!!!!!!!!!!$!%!&!'!(!)!*!+!!!!!!!!!!!!!!!!!!!!!!!!!!!!!!!!!!!!",
"!!!!!!!!!!!!!!!!!!!!!!!!!!!!!!!!!!!!!,!-!.!/!0!1!2!3!4!!!!!!!!!!!!!!!!!!!!!!!!!!!!!!!!!!!!",
"!!!!!!!!!!!!!!!!!!!!!!!!!!!!!!!!!!!!!5!6!7!8!9!:!;!<!=!!!!!!!!!!!!!!!!!!!!!!!!!!!!!!!!!!!!",
"!!!!!!!!!!!!!!!!!!!!!!!!!!!!!!!!!!!!!>!?!@!A!B!C!D!E!F!!!!!!!!!!!!!!!!!!!!!!!!!!!!!!!!!!!!",
"!!!!!!!!!!!!!!!!!!!!!!!!!!!!!!!!!!!!!>!G!H!I!J!K!L!M!N!!!!!!!!!!!!!!!!!!!!!!!!!!!!!!!!!!!!",
"!!!!!!!!!!!!!!!!!!!!!!!!!!!!!!!!!!!!!O!P!Q!R!S!T!U!V!W!!!!!!!!!!!!!!!!!!!!!!!!!!!!!!!!!!!!",
"!!!!!!!!!!!!!!!!!!!!!!!!!!!!!!!!!!!!!X!Y!!!Z![!]!^!_!`!!!!!!!!!!!!!!!!!!!!!!!!!!!!!!!!!!!!",
"!!!!!!!!!!!!!!!!!!!!!!!!!!!!!!!!!!!!!b!c!d!e!f!g!h!i!j!!!!!!!!!!!!!!!!!!!!!!!!!!!!!!!!!!!!",
"!!!!!!!!!!!!!!!!!!!!!!!!!!!!!!!!!!!!!l!m!n!o!p!q!r!s!t!!!!!!!!!!!!!!!!!!!!!!!!!!!!!!!!!!!!",
"!!!!!!!!!!!!!!!!!!!!!!!!!!!!!!!!!!!!!u!v!w!x!y!z!{!|!}!!!!!!!!!!!!!!!!!!!!!!!!!!!!!!!!!!!!",
"!!!!!!!!!!!!!!!!!!!!!!!!!!!!!!!!!!!!!~#!###$#%#&#'#(#)!!!!!!!!!!!!!!!!!!!!!!!!!!!!!!!!!!!!",
"!!!!!!!!!!!!!!!!!!!!!!!!!!!!!!!!!!!!!!#,!!!!!!!!!!#-#.!!!!!!!!!!!!!!!!!!!!!!!!!!!!!!!!!!!!",
"!!!!!!!!!!!!!!!!!!!!!!!!!!!!!!!!!!!!!!!!!!!!!!!!!!!!!!!!!!!!!!!!!!!!!!!!!!!!!!!!!!!!!!!!!!"
};
