/* XPM */
static char *ammo_03_rapid_assault_weapon[] = {
/* Values */
"45 44 192 2",
/* Colors */
"!! c #6B2889",
"!# c #662686",
"!$ c None",
"!% c #5F2184",
"!& c #6B2891",
"!' c #5C2286",
"!( c #672A92",
"!) c #582488",
"!* c #6A2C91",
"!+ c #642B92",
"!, c #552589",
"!- c #662E91",
"!. c #642C91",
"!/ c #542688",
"!0 c #652F91",
"!1 c #5E2E91",
"!2 c #4E2988",
"!3 c #5F328F",
"!4 c #563391",
"!5 c #462D88",
"!6 c #57368F",
"!7 c #57328F",
"!8 c #492C86",
"!9 c #58358F",
"!: c #642D8A",
"!; c #582581",
"!< c #652F8F",
"!= c #6B2A86",
"!> c #61217F",
"!? c #6A2C8F",
"!@ c #C64FC3",
"!A c #DD76E3",
"!B c #C870D6",
"!C c #C773D1",
"!D c #CF76D0",
"!E c #DD84DE",
"!F c #C978D5",
"!G c #D180E6",
"!H c #AF56C4",
"!I c #EB82DF",
"!J c #FFC1FF",
"!K c #F6B7F0",
"!L c #EAB7E0",
"!M c #D2A4BE",
"!N c #E3B7D0",
"!O c #E2BADF",
"!P c #FFD3FF",
"!Q c #D093E0",
"!R c #E48ACA",
"!S c #CF92B1",
"!T c #815D61",
"!U c #6B5941",
"!V c #665A2A",
"!W c #69622E",
"!X c #6A6144",
"!Y c #D0BCBD",
"!Z c #C39BC0",
"![ c #68246D",
"!] c #EE9EDB",
"!^ c #AE8198",
"!_ c #3C2E25",
"!` c #545631",
"!a c #7F8348",
"!b c #474B0E",
"!c c #292B04",
"!d c #B6A9A3",
"!e c #CAA5C6",
"!f c #5F195F",
"!g c #DE95E4",
"!h c #C6A1D4",
"!i c #6A6880",
"!j c #5C656A",
"!k c #76776F",
"!l c #78736D",
"!m c #695F68",
"!n c #D3BADA",
"!o c #D39FDD",
"!p c #641068",
"!q c #CF8EEC",
"!r c #CAB0F7",
"!s c #97A1D2",
"!t c #97AED0",
"!u c #969FBC",
"!v c #BBBCDA",
"!w c #A099C3",
"!x c #D9C1FB",
"!y c #CD98E6",
"!z c #D69CFF",
"!{ c #9482D6",
"!| c #556AA9",
"!} c #ACD1FF",
"!~ c #C0DFFF",
"#! c #A0B6E8",
"## c #5965A1",
"#$ c #AAA0E7",
"#% c #C49AF0",
"#& c #CE9CF3",
"#' c #8E88C4",
"#( c #3B5F81",
"#) c #609BAB",
"#* c #66AAAB",
"#+ c #569698",
"#, c #356879",
"#- c #9FB7DB",
"#. c #B5A3E1",
"#/ c #5D1D73",
"#0 c #C099C6",
"#1 c #ACB6B7",
"#2 c #5C936C",
"#3 c #338F42",
"#4 c #138D1E",
"#5 c #37B643",
"#6 c #4FBB66",
"#7 c #AFF8CB",
"#8 c #9EB3B8",
"#9 c #462457",
"#: c #651F82",
"#; c #640E67",
"#< c #C4A8CE",
"#= c #9BB2AA",
"#> c #4B915F",
"#? c #5ECF77",
"#@ c #47DB5F",
"#A c #46E161",
"#B c #48CA68",
"#C c #A5FEC6",
"#D c #96B6B1",
"#E c #472E58",
"#F c #AA9BD6",
"#G c #95B8D6",
"#H c #72C1C6",
"#I c #66DBC9",
"#J c #4EE0BB",
"#K c #4BDDB6",
"#L c #5DD1BC",
"#M c #93DDE0",
"#N c #92A5C6",
"#O c #613D7B",
"#P c #58348E",
"#Q c #583089",
"#R c #621774",
"#S c #46206D",
"#T c #6066A0",
"#U c #407098",
"#V c #1F738D",
"#W c #3C7F9A",
"#X c #49648F",
"#Y c #3D2F6A",
"#Z c #55216B",
"#[ c #69176C",
"#] c #632B8C",
"#^ c #236389",
"#_ c #256186",
"#` c #365284",
"#a c #3F4C81",
"#b c #3E4D84",
"#c c #405187",
"#d c #43548A",
"#e c #41558A",
"#f c #3D568C",
"#g c #3A588C",
"#h c #39598C",
"#i c #3C578C",
"#j c #41548C",
"#k c #48518A",
"#l c #504F89",
"#m c #535087",
"#n c #4D4F82",
"#o c #394A75",
"#p c #3C6384",
"#q c #226075",
"#r c #126470",
"#s c #0F636D",
"#t c #296379",
"#u c #2F5C79",
"#v c #3E5F82",
"#w c #3C537C",
"#x c #435681",
"#y c #445583",
"#z c #435585",
"#{ c #3F5787",
"#| c #3A5988",
"#} c #365B88",
"#~ c #335C8A",
"$! c #39598A",
"$# c #424F86",
"$$ c #434C83",
"$% c #395084",
"$& c #345382",
"$' c #355385",
"$( c #325784",
"$) c #2A5D88",
/* Pixels */
"!$!$!$!$!$!$!$!$!$!$!$!$!$!$!$!$!$!$!$!$!$!$!$!$!$!$!$!$!$!$!$!$!$!$!$!$!$!$!$!$!$!$!$!$!$",
"!$!$!$!$!$!$!$!$!$!$!$!$!$!$!$!$!$!$!$!$!$!$!$!$!$!$!$!$!$!$!$!$!$!$!$!$!$!$!$!$!$!$!$!$!$",
"!$!$!$!$!$!$!$!$!$!$!$!$!$!$!$!$!$!$!$!$!$!$!$!$!$!$!$!$!$!$!$!$!$!$!$!$!$!$!$!$!$!$!$!$!$",
"!$!$!$!$!$!$!$!$!$!$!$!$!$!$!$!$!$!$!$!$!$!$!$!$!$!$!$!$!$!$!$!$!$!$!$!$!$!$!$!$!$!$!$!$!$",
"!$!$!$!$!$!$!$!$!$!$!$!$!$!$!$!$!$!$!$!$!$!$!$!$!$!$!$!$!$!$!$!$!$!$!$!$!$!$!$!$!$!$!$!$!$",
"!$!$!$!$!$!$!$!$!$!$!$!$!$!$!$!$!$!$!$!$!$!$!$!$!$!$!$!$!$!$!$!$!$!$!$!$!$!$!$!$!$!$!$!$!$",
"!$!$!$!$!$!$!$!$!$!$!$!$!$!$!$!$!$!$!$!$!$!$!$!$!$!$!$!$!$!$!$!$!$!$!$!$!$!$!$!$!$!$!$!$!$",
"!$!$!$!$!$!$!$!$!$!$!$!$!$!$!$!$!$!$!$!$!$!$!$!$!$!$!$!$!$!$!$!$!$!$!$!$!$!$!$!$!$!$!$!$!$",
"!$!$!$!$!$!$!$!$!$!$!$!$!$!$!$!$!$!$!$!$!$!$!$!$!$!$!$!$!$!$!$!$!$!$!$!$!$!$!$!$!$!$!$!$!$",
"!$!$!$!$!$!$!$!$!$!$!$!$!$!$!$!$!$!$!$!$!$!$!$!$!$!$!$!$!$!$!$!$!$!$!$!$!$!$!$!$!$!$!$!$!$",
"!$!$!$!$!$!$!$!$!$!$!$!$!$!$!$!$!$!$!$!$!$!$!$!$!$!$!$!$!$!$!$!$!$!$!$!$!$!$!$!$!$!$!$!$!$",
"!$!$!$!$!$!$!$!$!$!$!$!$!$!$!$!$!$!$!$!$!$!$!$!$!$!$!$!$!$!$!$!$!$!$!$!$!$!$!$!$!$!$!$!$!$",
"!$!$!$!$!$!$!$!$!$!$!$!$!$!$!$!$!$!$!$!$!$!$!$!$!$!$!$!$!$!$!$!$!$!$!$!$!$!$!$!$!$!$!$!$!$",
"!$!$!$!$!$!$!$!$!$!$!$!$!$!$!$!$!$!$!$!$!$!$!$!$!$!$!$!$!$!$!$!$!$!$!$!$!$!$!$!$!$!$!$!$!$",
"!$!$!$!$!$!$!$!$!$!$!$!$!$!$!$!$!$!$!$!$!$!$!$!$!$!$!$!$!$!$!$!$!$!$!$!$!$!$!$!$!$!$!$!$!$",
"!$!$!$!$!$!$!$!$!$!$!$!$!$!$!$!$!$!$!$!$!$!$!$!$!$!$!$!$!$!$!$!$!$!$!$!$!$!$!$!$!$!$!$!$!$",
"!$!$!$!$!$!$!$!$!$!$!$!$!$!$!$!$!$!$!$!$!$!$!$!$!$!$!$!$!$!$!$!$!$!$!$!$!$!$!$!$!$!$!$!$!$",
"!$!$!$!$!$!$!$!$!$!$!$!$!$!$!$!$!$!$!$!$!$!$!$!$!$!$!$!$!$!$!$!$!$!$!$!$!$!$!$!$!$!$!$!$!$",
"!$!$!$!$!$!$!$!$!$!$!$!$!$!$!$!$!$!$!$!$!$!$!$!$!$!$!$!$!$!$!$!$!$!$!$!$!$!$!$!$!$!$!$!$!$",
"!$!$!$!$!$!$!$!$!$!$!$!$!$!$!$!$!$!$!$!$!$!$!$!$!$!$!$!$!$!$!$!$!$!$!$!$!$!$!$!$!$!$!$!$!$",
"!$!$!$!$!$!$!$!$!$!$!$!$!$!$!$!$!$!$!$!$!$!$!$!$!$!$!$!$!$!$!$!$!$!$!$!$!$!$!$!$!$!$!$!$!$",
"!$!$!$!$!$!$!$!$!$!$!$!$!$!$!$!$!$!$!$!$!$!$!$!$!$!$!$!$!$!$!$!$!$!$!$!$!$!$!$!$!$!$!$!$!$",
"!$!$!$!$!$!$!$!$!$!$!$!$!$!$!$!$!$!$!$!$!$!$!$!$!$!$!$!$!$!$!$!$!$!$!$!$!$!$!$!$!$!$!$!$!$",
"!$!$!$!$!$!$!$!$!$!$!$!$!$!$!$!$!$!$!$!$!$!$!$!$!$!$!$!$!$!$!$!$!$!$!$!$!$!$!$!$!$!$!$!$!$",
"!$!$!$!$!$!$!$!$!$!$!$!$!$!$!$!$!$!$!$!$!$!$!$!$!$!$!$!$!$!$!$!$!$!$!$!$!$!$!$!$!$!$!$!$!$",
"!$!$!$!$!$!$!$!$!$!$!$!$!$!$!$!$!$!$!$!$!$!$!$!$!$!$!$!$!$!$!$!$!$!$!$!$!$!$!$!$!$!$!$!$!$",
"!$!$!$!$!$!$!$!$!$!$!$!$!$!$!$!$!$!$!$!$!$!$!$!$!$!$!$!$!$!$!$!$!$!$!$!$!$!$!$!$!$!$!$!$!$",
"!$!$!$!$!$!$!$!$!$!$!$!$!$!$!$!$!$!$!$!$!$!$!$!$!$!$!$!$!$!$!$!$!$!$!$!$!$!$!$!$!$!$!$!$!$",
"!$!$!$!$!$!$!$!$!$!$!$!$!$!$!$!$!$!$!$!$!$!$!$!$!$!$!$!$!$!$!$!$!$!$!$!$!$!$!$!$!$!$!$!$!$",
"!$!$!$!$!$!$!$!$!$!$!$!$!$!$!$!$!$!$!$!$!$!$!$!$!$!$!$!$!$!$!$!$!$!$!$!$!$!$!$!$!$!$!$!$!$",
"!$!$!$!$!$!$!$!$!$!$!$!$!$!$!$!$!$!$!$!$!$!$!$!$!$!$!$!$!$!$!$!$!$!$!$!$!$!$!$!$!$!$!$!$!$",
"!$!$!$!$!$!$!$!$!$!$!$!$!$!$!$!$!$!$!$!A!B!C!D!E!F!G!$!$!$!$!$!$!$!$!$!$!$!$!$!$!$!$!$!$!$",
"!$!$!$!$!$!$!$!$!$!$!$!$!$!$!$!$!$!$!I!J!K!L!M!N!O!P!Q!$!$!$!$!$!$!$!$!$!$!$!$!$!$!$!$!$!$",
"!$!$!$!$!$!$!$!$!$!$!$!$!$!$!$!$!$!$!R!S!T!U!V!W!X!Y!Z!$!$!$!$!$!$!$!$!$!$!$!$!$!$!$!$!$!$",
"!$!$!$!$!$!$!$!$!$!$!$!$!$!$!$!$!$!$!]!^!_!`!a!b!c!d!e!$!$!$!$!$!$!$!$!$!$!$!$!$!$!$!$!$!$",
"!$!$!$!$!$!$!$!$!$!$!$!$!$!$!$!$!$!$!g!h!i!j!k!l!m!n!o!$!$!$!$!$!$!$!$!$!$!$!$!$!$!$!$!$!$",
"!$!$!$!$!$!$!$!$!$!$!$!$!$!$!$!$!$!$!q!r!s!t!u!v!w!x!y!$!$!$!$!$!$!$!$!$!$!$!$!$!$!$!$!$!$",
"!$!$!$!$!$!$!$!$!$!$!$!$!$!$!$!$!$!$!z!{!|!}!~#!###$#%!$!$!$!$!$!$!$!$!$!$!$!$!$!$!$!$!$!$",
"!$!$!$!$!$!$!$!$!$!$!$!$!$!$!$!$!$!$#&#'#(#)#*#+#,#-#.!$!$!$!$!$!$!$!$!$!$!$!$!$!$!$!$!$!$",
"!$!$!$!$!$!$!$!$!$!$!$!$!$!$!$!$!$!$#0#1#2#3#4#5#6#7#8!$!$!$!$!$!$!$!$!$!$!$!$!$!$!$!$!$!$",
"!$!$!$!$!$!$!$!$!$!$!$!$!$!$!$!$!$!$#<#=#>#?#@#A#B#C#D!$!$!$!$!$!$!$!$!$!$!$!$!$!$!$!$!$!$",
"!$!$!$!$!$!$!$!$!$!$!$!$!$!$!$!$!$!$#F#G#H#I#J#K#L#M#N!$!$!$!$!$!$!$!$!$!$!$!$!$!$!$!$!$!$",
"!$!$!$!$!$!$!$!$!$!$!$!$!$!$!$!$!$!$#T#U#V!$!$!$!$#W#X!$!$!$!$!$!$!$!$!$!$!$!$!$!$!$!$!$!$",
"!$!$!$!$!$!$!$!$!$!$!$!$!$!$!$!$!$!$!$!$!$!$!$!$!$!$!$!$!$!$!$!$!$!$!$!$!$!$!$!$!$!$!$!$!$"
};
