/* XPM */
static char *ammo_05_plasma_discharge_unit[] = {
/* Values */
"45 44 151 2",
/* Colors */
"!! c None",
"!# c #671C77",
"!$ c #405486",
"!% c #404C80",
"!& c #444981",
"!' c #484781",
"!( c #4A4681",
"!) c #4D4581",
"!* c #4B4581",
"!+ c #4F4381",
"!, c #514381",
"!- c #CC6DD1",
"!. c #B36FC6",
"!/ c #CD87DD",
"!0 c #D38BDF",
"!1 c #C87AD0",
"!2 c #D17BD6",
"!3 c #CF6DD2",
"!4 c #D967D6",
"!5 c #B630AB",
"!6 c #FCC2FF",
"!7 c #EBCEFF",
"!8 c #DFB7F3",
"!9 c #DEB2E3",
"!: c #CFA0C4",
"!; c #ECBADF",
"!< c #FFC6FF",
"!= c #FFC4FF",
"!> c #C463C2",
"!? c #D7C2FF",
"!@ c #7C84A9",
"!A c #69586A",
"!B c #755755",
"!C c #705037",
"!D c #71563B",
"!E c #7E6463",
"!F c #EBCBE2",
"!G c #9D689C",
"!H c #651264",
"!I c #C2C0FF",
"!J c #5C758B",
"!K c #3A302F",
"!L c #755A45",
"!M c #7C643E",
"!N c #4D3B15",
"!O c #4D4633",
"!P c #D4C9CD",
"!Q c #A684A9",
"!R c #69216B",
"!S c #D5CEFF",
"!T c #7E97AB",
"!U c #665857",
"!V c #83655B",
"!W c #876B6A",
"!X c #6F5C5E",
"!Y c #767175",
"!Z c #E0D4E8",
"![ c #9D72A7",
"!] c #5F0D62",
"!^ c #DDD8FF",
"!_ c #8BA8BA",
"!` c #ADA0B1",
"!a c #C4A5B7",
"!b c #C0A7C5",
"!c c #BEB0D3",
"!d c #9E9EC0",
"!e c #E9DDFF",
"!f c #9661AF",
"!g c #CBCBEF",
"!h c #5A7F92",
"!i c #857BAF",
"!j c #D6BCFB",
"!k c #D0C3FB",
"!l c #A9A5E2",
"!m c #555BA5",
"!n c #CEBFFF",
"!o c #9A5AC8",
"!p c #C8C8EC",
"!q c #5F808F",
"!r c #604E76",
"!s c #A47DAA",
"!t c #927999",
"!u c #786D8F",
"!v c #4D4A81",
"!w c #E1C9FF",
"!x c #A75AC0",
"!y c #D5CEF8",
"!z c #84999A",
"!{ c #9B7161",
"!| c #A46242",
"!} c #9A6136",
"!~ c #A1764C",
"#! c #AB9379",
"## c #FFE6EB",
"#$ c #BE679A",
"#% c #D0C7F4",
"#& c #6D8786",
"#' c #99936F",
"#( c #9D8D52",
"#) c #B2AB67",
"#* c #A1A05F",
"#+ c #A8AA79",
"#, c #DFCAB9",
"#- c #AF6586",
"#. c #4B4680",
"#/ c #CBBFED",
"#0 c #8ABAC6",
"#1 c #71C8B7",
"#2 c #6BDBB7",
"#3 c #59D6AC",
"#4 c #5ACAA6",
"#5 c #8AD4C5",
"#6 c #B5D0DB",
"#7 c #9F7BA7",
"#8 c #67105F",
"#9 c #445281",
"#: c #6B197D",
"#; c #691769",
"#< c #4D1A5D",
"#= c #7877A3",
"#> c #35697F",
"#? c #208188",
"#@ c #477B93",
"#A c #555682",
"#B c #50276B",
"#C c #681B7B",
"#D c #5A287D",
"#E c #345C7F",
"#F c #3E5287",
"#G c #3C5284",
"#H c #3C5085",
"#I c #3A5082",
"#J c #41558A",
"#K c #405688",
"#L c #40558C",
"#M c #3C508D",
"#N c #465694",
"#O c #4B518F",
"#P c #52528E",
"#Q c #4B4B81",
"#R c #464A7A",
"#S c #4C5F87",
"#T c #29506D",
"#U c #1F5C6F",
"#V c #165D71",
"#W c #215974",
"#X c #355B7F",
"#Y c #45608B",
"#Z c #405687",
"#[ c #3D5186",
"#] c #315881",
/* Pixels */
"!!!!!!!!!!!!!!!!!!!!!!!!!!!!!!!!!!!!!!!!!!!!!!!!!!!!!!!!!!!!!!!!!!!!!!!!!!!!!!!!!!!!!!!!!!",
"!!!!!!!!!!!!!!!!!!!!!!!!!!!!!!!!!!!!!!!!!!!!!!!!!!!!!!!!!!!!!!!!!!!!!!!!!!!!!!!!!!!!!!!!!!",
"!!!!!!!!!!!!!!!!!!!!!!!!!!!!!!!!!!!!!!!!!!!!!!!!!!!!!!!!!!!!!!!!!!!!!!!!!!!!!!!!!!!!!!!!!!",
"!!!!!!!!!!!!!!!!!!!!!!!!!!!!!!!!!!!!!!!!!!!!!!!!!!!!!!!!!!!!!!!!!!!!!!!!!!!!!!!!!!!!!!!!!!",
"!!!!!!!!!!!!!!!!!!!!!!!!!!!!!!!!!!!!!!!!!!!!!!!!!!!!!!!!!!!!!!!!!!!!!!!!!!!!!!!!!!!!!!!!!!",
"!!!!!!!!!!!!!!!!!!!!!!!!!!!!!!!!!!!!!!!!!!!!!!!!!!!!!!!!!!!!!!!!!!!!!!!!!!!!!!!!!!!!!!!!!!",
"!!!!!!!!!!!!!!!!!!!!!!!!!!!!!!!!!!!!!!!!!!!!!!!!!!!!!!!!!!!!!!!!!!!!!!!!!!!!!!!!!!!!!!!!!!",
"!!!!!!!!!!!!!!!!!!!!!!!!!!!!!!!!!!!!!!!!!!!!!!!!!!!!!!!!!!!!!!!!!!!!!!!!!!!!!!!!!!!!!!!!!!",
"!!!!!!!!!!!!!!!!!!!!!!!!!!!!!!!!!!!!!!!!!!!!!!!!!!!!!!!!!!!!!!!!!!!!!!!!!!!!!!!!!!!!!!!!!!",
"!!!!!!!!!!!!!!!!!!!!!!!!!!!!!!!!!!!!!!!!!!!!!!!!!!!!!!!!!!!!!!!!!!!!!!!!!!!!!!!!!!!!!!!!!!",
"!!!!!!!!!!!!!!!!!!!!!!!!!!!!!!!!!!!!!!!!!!!!!!!!!!!!!!!!!!!!!!!!!!!!!!!!!!!!!!!!!!!!!!!!!!",
"!!!!!!!!!!!!!!!!!!!!!!!!!!!!!!!!!!!!!!!!!!!!!!!!!!!!!!!!!!!!!!!!!!!!!!!!!!!!!!!!!!!!!!!!!!",
"!!!!!!!!!!!!!!!!!!!!!!!!!!!!!!!!!!!!!!!!!!!!!!!!!!!!!!!!!!!!!!!!!!!!!!!!!!!!!!!!!!!!!!!!!!",
"!!!!!!!!!!!!!!!!!!!!!!!!!!!!!!!!!!!!!!!!!!!!!!!!!!!!!!!!!!!!!!!!!!!!!!!!!!!!!!!!!!!!!!!!!!",
"!!!!!!!!!!!!!!!!!!!!!!!!!!!!!!!!!!!!!!!!!!!!!!!!!!!!!!!!!!!!!!!!!!!!!!!!!!!!!!!!!!!!!!!!!!",
"!!!!!!!!!!!!!!!!!!!!!!!!!!!!!!!!!!!!!!!!!!!!!!!!!!!!!!!!!!!!!!!!!!!!!!!!!!!!!!!!!!!!!!!!!!",
"!!!!!!!!!!!!!!!!!!!!!!!!!!!!!!!!!!!!!!!!!!!!!!!!!!!!!!!!!!!!!!!!!!!!!!!!!!!!!!!!!!!!!!!!!!",
"!!!!!!!!!!!!!!!!!!!!!!!!!!!!!!!!!!!!!!!!!!!!!!!!!!!!!!!!!!!!!!!!!!!!!!!!!!!!!!!!!!!!!!!!!!",
"!!!!!!!!!!!!!!!!!!!!!!!!!!!!!!!!!!!!!!!!!!!!!!!!!!!!!!!!!!!!!!!!!!!!!!!!!!!!!!!!!!!!!!!!!!",
"!!!!!!!!!!!!!!!!!!!!!!!!!!!!!!!!!!!!!!!!!!!!!!!!!!!!!!!!!!!!!!!!!!!!!!!!!!!!!!!!!!!!!!!!!!",
"!!!!!!!!!!!!!!!!!!!!!!!!!!!!!!!!!!!!!!!!!!!!!!!!!!!!!!!!!!!!!!!!!!!!!!!!!!!!!!!!!!!!!!!!!!",
"!!!!!!!!!!!!!!!!!!!!!!!!!!!!!!!!!!!!!!!!!!!!!!!!!!!!!!!!!!!!!!!!!!!!!!!!!!!!!!!!!!!!!!!!!!",
"!!!!!!!!!!!!!!!!!!!!!!!!!!!!!!!!!!!!!!!!!!!!!!!!!!!!!!!!!!!!!!!!!!!!!!!!!!!!!!!!!!!!!!!!!!",
"!!!!!!!!!!!!!!!!!!!!!!!!!!!!!!!!!!!!!!!!!!!!!!!!!!!!!!!!!!!!!!!!!!!!!!!!!!!!!!!!!!!!!!!!!!",
"!!!!!!!!!!!!!!!!!!!!!!!!!!!!!!!!!!!!!!!!!!!!!!!!!!!!!!!!!!!!!!!!!!!!!!!!!!!!!!!!!!!!!!!!!!",
"!!!!!!!!!!!!!!!!!!!!!!!!!!!!!!!!!!!!!!!!!!!!!!!!!!!!!!!!!!!!!!!!!!!!!!!!!!!!!!!!!!!!!!!!!!",
"!!!!!!!!!!!!!!!!!!!!!!!!!!!!!!!!!!!!!!!!!!!!!!!!!!!!!!!!!!!!!!!!!!!!!!!!!!!!!!!!!!!!!!!!!!",
"!!!!!!!!!!!!!!!!!!!!!!!!!!!!!!!!!!!!!!!!!!!!!!!!!!!!!!!!!!!!!!!!!!!!!!!!!!!!!!!!!!!!!!!!!!",
"!!!!!!!!!!!!!!!!!!!!!!!!!!!!!!!!!!!!!!!!!!!!!!!!!!!!!!!!!!!!!!!!!!!!!!!!!!!!!!!!!!!!!!!!!!",
"!!!!!!!!!!!!!!!!!!!!!!!!!!!!!!!!!!!!!!!!!!!!!!!!!!!!!!!!!!!!!!!!!!!!!!!!!!!!!!!!!!!!!!!!!!",
"!!!!!!!!!!!!!!!!!!!!!!!!!!!!!!!!!!!!!!!!!!!!!!!!!!!!!!!!!!!!!!!!!!!!!!!!!!!!!!!!!!!!!!!!!!",
"!!!!!!!!!!!!!!!!!!!!!!!!!!!!!!!!!!!!!-!.!/!0!1!2!3!4!!!!!!!!!!!!!!!!!!!!!!!!!!!!!!!!!!!!!!",
"!!!!!!!!!!!!!!!!!!!!!!!!!!!!!!!!!!!!!6!7!8!9!:!;!<!=!>!!!!!!!!!!!!!!!!!!!!!!!!!!!!!!!!!!!!",
"!!!!!!!!!!!!!!!!!!!!!!!!!!!!!!!!!!!!!?!@!A!B!C!D!E!F!G!!!!!!!!!!!!!!!!!!!!!!!!!!!!!!!!!!!!",
"!!!!!!!!!!!!!!!!!!!!!!!!!!!!!!!!!!!!!I!J!K!L!M!N!O!P!Q!!!!!!!!!!!!!!!!!!!!!!!!!!!!!!!!!!!!",
"!!!!!!!!!!!!!!!!!!!!!!!!!!!!!!!!!!!!!S!T!U!V!W!X!Y!Z![!!!!!!!!!!!!!!!!!!!!!!!!!!!!!!!!!!!!",
"!!!!!!!!!!!!!!!!!!!!!!!!!!!!!!!!!!!!!^!_!`!a!b!c!d!e!f!!!!!!!!!!!!!!!!!!!!!!!!!!!!!!!!!!!!",
"!!!!!!!!!!!!!!!!!!!!!!!!!!!!!!!!!!!!!g!h!i!j!k!l!m!n!!!!!!!!!!!!!!!!!!!!!!!!!!!!!!!!!!!!!!",
"!!!!!!!!!!!!!!!!!!!!!!!!!!!!!!!!!!!!!p!q!r!s!t!u!v!w!!!!!!!!!!!!!!!!!!!!!!!!!!!!!!!!!!!!!!",
"!!!!!!!!!!!!!!!!!!!!!!!!!!!!!!!!!!!!!y!z!{!|!}!~#!###$!!!!!!!!!!!!!!!!!!!!!!!!!!!!!!!!!!!!",
"!!!!!!!!!!!!!!!!!!!!!!!!!!!!!!!!!!!!#%#&#'#(#)#*#+#,#-!!!!!!!!!!!!!!!!!!!!!!!!!!!!!!!!!!!!",
"!!!!!!!!!!!!!!!!!!!!!!!!!!!!!!!!!!!!#/#0#1#2#3#4#5#6#7!!!!!!!!!!!!!!!!!!!!!!!!!!!!!!!!!!!!",
"!!!!!!!!!!!!!!!!!!!!!!!!!!!!!!!!!!!!#=#>!!!!!!!!#?#@!!!!!!!!!!!!!!!!!!!!!!!!!!!!!!!!!!!!!!",
"!!!!!!!!!!!!!!!!!!!!!!!!!!!!!!!!!!!!!!!!!!!!!!!!!!!!!!!!!!!!!!!!!!!!!!!!!!!!!!!!!!!!!!!!!!"
};
