/* XPM */
static char *ammo_04_dual_neutron_disruptor[] = {
/* Values */
"45 44 162 2",
/* Colors */
"!! c None",
"!# c #6A268B",
"!$ c #69268D",
"!% c #68278B",
"!& c #632A8B",
"!' c #5B2E8B",
"!( c #5A2F8B",
"!) c #612B8B",
"!* c #65298B",
"!+ c #DB5DCB",
"!, c #CC75D6",
"!- c #BF74CF",
"!. c #D27BDA",
"!/ c #D072D2",
"!0 c #D176D5",
"!1 c #D07DD7",
"!2 c #BC7BCB",
"!3 c #934599",
"!4 c #FF95FB",
"!5 c #FFC9FF",
"!6 c #E2B8F7",
"!7 c #E7ABE7",
"!8 c #E19DD6",
"!9 c #E9ABDE",
"!: c #F2BEEF",
"!; c #FFDEFF",
"!< c #B67EC7",
"!= c #FB96F4",
"!> c #B092C8",
"!? c #575071",
"!@ c #76566E",
"!A c #79505E",
"!B c #6A4A4B",
"!C c #766168",
"!D c #CBC4E5",
"!E c #A985C3",
"!F c #F99CF5",
"!G c #928BB5",
"!H c #223845",
"!I c #564B4F",
"!J c #7C685D",
"!K c #5A5035",
"!L c #252815",
"!M c #BFD0E2",
"!N c #A08FC5",
"!O c #F09AF3",
"!P c #919FC2",
"!Q c #406D72",
"!R c #68716C",
"!S c #797363",
"!T c #6F7553",
"!U c #5B6F54",
"!V c #B4DAE3",
"!W c #9997C6",
"!X c #EA95F2",
"!Y c #96B2D9",
"!Z c #73B1BC",
"![ c #AEC1C8",
"!] c #ADAFAE",
"!^ c #A6B2A4",
"!_ c #9DBBAF",
"!` c #A7DEE5",
"!a c #8D9BC2",
"!b c #F09AFD",
"!c c #799ACD",
"!d c #468BAA",
"!e c #ADC0EA",
"!f c #CFCEF6",
"!g c #A2ADCD",
"!h c #4A6A83",
"!i c #9ADCEC",
"!j c #839BBF",
"!k c #FBA2FF",
"!l c #577DBE",
"!m c #003A6F",
"!n c #4656A1",
"!o c #6661B5",
"!p c #4B50A2",
"!q c #01215E",
"!r c #94DCF5",
"!s c #7E9CBE",
"!t c #FFA4FF",
"!u c #5176C7",
"!v c #002777",
"!w c #1A2493",
"!x c #190A8B",
"!y c #231DA3",
"!z c #2841A6",
"!{ c #94DEFF",
"!| c #7CA0C0",
"!} c #FEACFF",
"!~ c #5975C9",
"#! c #003E8F",
"## c #4362CC",
"#$ c #374CC3",
"#% c #3255CD",
"#& c #3D6FD0",
"#' c #9BDDFF",
"#( c #879EC8",
"#) c #6A1A6F",
"#* c #CD97F9",
"#+ c #9EACF7",
"#, c #72ACEB",
"#- c #74C0FA",
"#. c #58BCF0",
"#/ c #4EC8F7",
"#0 c #52BDEB",
"#1 c #A8DAFF",
"#2 c #8882C2",
"#3 c #692F84",
"#4 c #662D8C",
"#5 c #641D7D",
"#6 c #4B1B71",
"#7 c #7767B0",
"#8 c #4D619C",
"#9 c #2E6794",
"#: c #207D9C",
"#; c #447FA7",
"#< c #44538A",
"#= c #3E3375",
"#> c #4D2774",
"#? c #631E77",
"#@ c #2E5F88",
"#A c #365486",
"#B c #3B5284",
"#C c #385486",
"#D c #395384",
"#E c #434E86",
"#F c #444D84",
"#G c #424F86",
"#H c #3C5186",
"#I c #3A588E",
"#J c #39588E",
"#K c #3D568E",
"#L c #41548C",
"#M c #46528C",
"#N c #47528A",
"#O c #485188",
"#P c #465387",
"#Q c #3B507F",
"#R c #476790",
"#S c #265476",
"#T c #20607B",
"#U c #00606C",
"#V c #276480",
"#W c #3A6084",
"#X c #485683",
"#Y c #4E4B80",
"#Z c #544983",
"#[ c #584D89",
"#] c #524C88",
"#^ c #4D4F8A",
"#_ c #48518C",
"#` c #47518E",
"#a c #48508E",
"#b c #4B4F8F",
"#c c #4F4C91",
"#d c #4E4D8F",
"#e c #404C86",
"#f c #3B5183",
"#g c #3D5186",
"#h c #3D5385",
/* Pixels */
"!!!!!!!!!!!!!!!!!!!!!!!!!!!!!!!!!!!!!!!!!!!!!!!!!!!!!!!!!!!!!!!!!!!!!!!!!!!!!!!!!!!!!!!!!!",
"!!!!!!!!!!!!!!!!!!!!!!!!!!!!!!!!!!!!!!!!!!!!!!!!!!!!!!!!!!!!!!!!!!!!!!!!!!!!!!!!!!!!!!!!!!",
"!!!!!!!!!!!!!!!!!!!!!!!!!!!!!!!!!!!!!!!!!!!!!!!!!!!!!!!!!!!!!!!!!!!!!!!!!!!!!!!!!!!!!!!!!!",
"!!!!!!!!!!!!!!!!!!!!!!!!!!!!!!!!!!!!!!!!!!!!!!!!!!!!!!!!!!!!!!!!!!!!!!!!!!!!!!!!!!!!!!!!!!",
"!!!!!!!!!!!!!!!!!!!!!!!!!!!!!!!!!!!!!!!!!!!!!!!!!!!!!!!!!!!!!!!!!!!!!!!!!!!!!!!!!!!!!!!!!!",
"!!!!!!!!!!!!!!!!!!!!!!!!!!!!!!!!!!!!!!!!!!!!!!!!!!!!!!!!!!!!!!!!!!!!!!!!!!!!!!!!!!!!!!!!!!",
"!!!!!!!!!!!!!!!!!!!!!!!!!!!!!!!!!!!!!!!!!!!!!!!!!!!!!!!!!!!!!!!!!!!!!!!!!!!!!!!!!!!!!!!!!!",
"!!!!!!!!!!!!!!!!!!!!!!!!!!!!!!!!!!!!!!!!!!!!!!!!!!!!!!!!!!!!!!!!!!!!!!!!!!!!!!!!!!!!!!!!!!",
"!!!!!!!!!!!!!!!!!!!!!!!!!!!!!!!!!!!!!!!!!!!!!!!!!!!!!!!!!!!!!!!!!!!!!!!!!!!!!!!!!!!!!!!!!!",
"!!!!!!!!!!!!!!!!!!!!!!!!!!!!!!!!!!!!!!!!!!!!!!!!!!!!!!!!!!!!!!!!!!!!!!!!!!!!!!!!!!!!!!!!!!",
"!!!!!!!!!!!!!!!!!!!!!!!!!!!!!!!!!!!!!!!!!!!!!!!!!!!!!!!!!!!!!!!!!!!!!!!!!!!!!!!!!!!!!!!!!!",
"!!!!!!!!!!!!!!!!!!!!!!!!!!!!!!!!!!!!!!!!!!!!!!!!!!!!!!!!!!!!!!!!!!!!!!!!!!!!!!!!!!!!!!!!!!",
"!!!!!!!!!!!!!!!!!!!!!!!!!!!!!!!!!!!!!!!!!!!!!!!!!!!!!!!!!!!!!!!!!!!!!!!!!!!!!!!!!!!!!!!!!!",
"!!!!!!!!!!!!!!!!!!!!!!!!!!!!!!!!!!!!!!!!!!!!!!!!!!!!!!!!!!!!!!!!!!!!!!!!!!!!!!!!!!!!!!!!!!",
"!!!!!!!!!!!!!!!!!!!!!!!!!!!!!!!!!!!!!!!!!!!!!!!!!!!!!!!!!!!!!!!!!!!!!!!!!!!!!!!!!!!!!!!!!!",
"!!!!!!!!!!!!!!!!!!!!!!!!!!!!!!!!!!!!!!!!!!!!!!!!!!!!!!!!!!!!!!!!!!!!!!!!!!!!!!!!!!!!!!!!!!",
"!!!!!!!!!!!!!!!!!!!!!!!!!!!!!!!!!!!!!!!!!!!!!!!!!!!!!!!!!!!!!!!!!!!!!!!!!!!!!!!!!!!!!!!!!!",
"!!!!!!!!!!!!!!!!!!!!!!!!!!!!!!!!!!!!!!!!!!!!!!!!!!!!!!!!!!!!!!!!!!!!!!!!!!!!!!!!!!!!!!!!!!",
"!!!!!!!!!!!!!!!!!!!!!!!!!!!!!!!!!!!!!!!!!!!!!!!!!!!!!!!!!!!!!!!!!!!!!!!!!!!!!!!!!!!!!!!!!!",
"!!!!!!!!!!!!!!!!!!!!!!!!!!!!!!!!!!!!!!!!!!!!!!!!!!!!!!!!!!!!!!!!!!!!!!!!!!!!!!!!!!!!!!!!!!",
"!!!!!!!!!!!!!!!!!!!!!!!!!!!!!!!!!!!!!!!!!!!!!!!!!!!!!!!!!!!!!!!!!!!!!!!!!!!!!!!!!!!!!!!!!!",
"!!!!!!!!!!!!!!!!!!!!!!!!!!!!!!!!!!!!!!!!!!!!!!!!!!!!!!!!!!!!!!!!!!!!!!!!!!!!!!!!!!!!!!!!!!",
"!!!!!!!!!!!!!!!!!!!!!!!!!!!!!!!!!!!!!!!!!!!!!!!!!!!!!!!!!!!!!!!!!!!!!!!!!!!!!!!!!!!!!!!!!!",
"!!!!!!!!!!!!!!!!!!!!!!!!!!!!!!!!!!!!!!!!!!!!!!!!!!!!!!!!!!!!!!!!!!!!!!!!!!!!!!!!!!!!!!!!!!",
"!!!!!!!!!!!!!!!!!!!!!!!!!!!!!!!!!!!!!!!!!!!!!!!!!!!!!!!!!!!!!!!!!!!!!!!!!!!!!!!!!!!!!!!!!!",
"!!!!!!!!!!!!!!!!!!!!!!!!!!!!!!!!!!!!!!!!!!!!!!!!!!!!!!!!!!!!!!!!!!!!!!!!!!!!!!!!!!!!!!!!!!",
"!!!!!!!!!!!!!!!!!!!!!!!!!!!!!!!!!!!!!!!!!!!!!!!!!!!!!!!!!!!!!!!!!!!!!!!!!!!!!!!!!!!!!!!!!!",
"!!!!!!!!!!!!!!!!!!!!!!!!!!!!!!!!!!!!!!!!!!!!!!!!!!!!!!!!!!!!!!!!!!!!!!!!!!!!!!!!!!!!!!!!!!",
"!!!!!!!!!!!!!!!!!!!!!!!!!!!!!!!!!!!!!!!!!!!!!!!!!!!!!!!!!!!!!!!!!!!!!!!!!!!!!!!!!!!!!!!!!!",
"!!!!!!!!!!!!!!!!!!!!!!!!!!!!!!!!!!!!!!!!!!!!!!!!!!!!!!!!!!!!!!!!!!!!!!!!!!!!!!!!!!!!!!!!!!",
"!!!!!!!!!!!!!!!!!!!!!!!!!!!!!!!!!!!!!!!!!!!!!!!!!!!!!!!!!!!!!!!!!!!!!!!!!!!!!!!!!!!!!!!!!!",
"!!!!!!!!!!!!!!!!!!!!!!!!!!!!!!!!!!!!!+!,!-!.!/!0!1!2!!!!!!!!!!!!!!!!!!!!!!!!!!!!!!!!!!!!!!",
"!!!!!!!!!!!!!!!!!!!!!!!!!!!!!!!!!!!!!4!5!6!7!8!9!:!;!<!!!!!!!!!!!!!!!!!!!!!!!!!!!!!!!!!!!!",
"!!!!!!!!!!!!!!!!!!!!!!!!!!!!!!!!!!!!!=!>!?!@!A!B!C!D!E!!!!!!!!!!!!!!!!!!!!!!!!!!!!!!!!!!!!",
"!!!!!!!!!!!!!!!!!!!!!!!!!!!!!!!!!!!!!F!G!H!I!J!K!L!M!N!!!!!!!!!!!!!!!!!!!!!!!!!!!!!!!!!!!!",
"!!!!!!!!!!!!!!!!!!!!!!!!!!!!!!!!!!!!!O!P!Q!R!S!T!U!V!W!!!!!!!!!!!!!!!!!!!!!!!!!!!!!!!!!!!!",
"!!!!!!!!!!!!!!!!!!!!!!!!!!!!!!!!!!!!!X!Y!Z![!]!^!_!`!a!!!!!!!!!!!!!!!!!!!!!!!!!!!!!!!!!!!!",
"!!!!!!!!!!!!!!!!!!!!!!!!!!!!!!!!!!!!!b!c!d!e!f!g!h!i!j!!!!!!!!!!!!!!!!!!!!!!!!!!!!!!!!!!!!",
"!!!!!!!!!!!!!!!!!!!!!!!!!!!!!!!!!!!!!k!l!m!n!o!p!q!r!s!!!!!!!!!!!!!!!!!!!!!!!!!!!!!!!!!!!!",
"!!!!!!!!!!!!!!!!!!!!!!!!!!!!!!!!!!!!!t!u!v!w!x!y!z!{!|!!!!!!!!!!!!!!!!!!!!!!!!!!!!!!!!!!!!",
"!!!!!!!!!!!!!!!!!!!!!!!!!!!!!!!!!!!!!}!~#!###$#%#&#'#(!!!!!!!!!!!!!!!!!!!!!!!!!!!!!!!!!!!!",
"!!!!!!!!!!!!!!!!!!!!!!!!!!!!!!!!!!!!#*#+#,#-#.#/#0#1#2!!!!!!!!!!!!!!!!!!!!!!!!!!!!!!!!!!!!",
"!!!!!!!!!!!!!!!!!!!!!!!!!!!!!!!!!!!!#7#8#9#:!!!!!!#;!!!!!!!!!!!!!!!!!!!!!!!!!!!!!!!!!!!!!!",
"!!!!!!!!!!!!!!!!!!!!!!!!!!!!!!!!!!!!!!!!!!!!!!!!!!!!!!!!!!!!!!!!!!!!!!!!!!!!!!!!!!!!!!!!!!"
};
