/* XPM */
static char *enemy_floor1_punching_f01[] = {
"64 64 34 1",
"a	c None",
"b	c #6C6C6C",
"c	c #005C00",
"d	c #2C2C2C",
"e	c #007400",
"f	c #008C00",
"g	c #00A400",
"h	c #000000",
"i	c #C01010",
"j	c #4C4C4C",
"k	c #004400",
"l	c #002C00",
"m	c #747804",
"n	c #C4C824",
"o	c #A4A814",
"p	c #5C0000",
"q	c #700404",
"r	c #840404",
"s	c #00140C",
"t	c #980808",
"u	c #3C3C00",
"v	c #94602C",
"w	c #5C340C",
"x	c #684018",
"y	c #480000",
"z	c #502400",
"A	c #344400",
"B	c #200000",
"C	c #001400",
"D	c #64A0D8",
"E	c #3884CC",
"F	c #402810",
"G	c #2474C4",
"H	c #AC0C0C",
"aaaaaaaaaaaaaaaaaaaaaaaaaaaaaaaaaaaaaaaaaaaaaaaaaaaaaaaaaaaaaaaa",
"aaaaaaaaaaaaaaaaaaaaaaaaaaaaaaaaaaaaaaaaaaaaaaaaaaaaaaaaaaaaaaaa",
"aaaaaaaaaaaaaaaaaaaaaaaaaaaaaaaaaaaaaaaaaaaaaaaaaaaaaaaaaaaaaaaa",
"aaaaaaaaaaaaaaaaaaaaaaaaaaaaaaaaaaaaaaabaaaaaaaaaaaaaaaaaaaaaaaa",
"aaaaaaaaaaaaaaaaaaaaaaaaaaaaacccccccaaadaaaaaaaaaaaaaaaaaaaaaaaa",
"aaaaaaaaaaaaaaaaaaaaaaaaaaacceeeeeeeccadaaaaaaaaaaaaaaaaaaaaaaaa",
"aaaaaaaaaaaaaaaaaaaaaaaaaaceeefffffeeecdaaaaaaaaaaaaaaaaaaaaaaaa",
"aaaaaaaaaaaaaaaaaaaaaaaaaaceeffgggffeecdaaaaaaaaaaaaaaaaaaaaaaaa",
"aaaaaaaaaaaaaaaaaaaaaaaaaceeeefffffeeehbiaaaaaaaaaaaaaaaaaaaaaaa",
"aaaaaaaaaaaaaaaaaaaaaaaaaceeeeefffeeeehjhaaaaaaaaaaaaaaaaaaaaaaa",
"aaaaaaaaaaaaaaaaaaaaaaaaaekffeceeeceffkhaaaaaaaaaaaaaaaaaaaaaaaa",
"aaaaaaaaaaaaaaaaaaaaaacffcclcfecfcefclccffcaaaaaaaaaaaaaaaaaaaaa",
"aaaaaaaaaaaaaaaaaaaaaaaklccmnkokkkoknmcclkaaaaaaaaaaaaaaaaaaaaaa",
"aaaaaaaaaaaaaaaaaaaaaaaackfckkcegeckkcfkcaaaaaaaaaaaaaaaaaaaaaaa",
"aaaaaaaaaaaaaaaaaaaaaaaaclegfckckckcfgelcaaaaaaaaaaaaaaaaaaaaaaa",
"aaaaaaaaaaaaaaaapppppppppckeeffgggffeekcaaaaaaaaaaaaaaaaaaaaaaaa",
"aaaaaaaaaaaaapppqqqrrqqqdccefkssssskfeccdpppppppaaaaaaaaaaaaaaaa",
"aaaaaaaaaaappqrtrrqqqqqueceeksvwxwvskeecuqqqqqqqppppaaaaaaaaaaaa",
"aaaaaaaaaapqrqqqpqrrtttffkeeswssssswseekrrtttrqrqqqppaaaaaaaaaaa",
"aaaaaaaaapqqqqpqrttrrrreekcefsxvxvxsfeckqqrrrrrqqrrqqppaaaaaaaaa",
"aaaaaaaaapqqpqrrqppqqqqeeekkeffgggffekkeqqqqqqrqppqpqrqppaaaaaaa",
"aaaaaaaapqpqqrttrrqppppccccckecfcfcekcccppppppqpqrrrqprrqpaaaaaa",
"aaaaaaaapqqqrrttqyqrrttufeecckkkkkkkeefuttttrrpqrttrrqqrrqpaaaaa",
"aaaaaaaappqqrtrrpqqqqqqqeeeefecccefeeeeqqqqqqqpqrttrrrqqrqpaaaaa",
"aaaaaaaapyqqqrrqpqqrrrrrzeeeeceeeceeeerrrrrrrrpqqrrtrrqprrqpaaaa",
"aaaaaaaaaypqqqqpqrrrrttrqpAeeececeeeApqrrrrrrrpqqqrrrrrqqrqpaaaa",
"aaaaaaaaaByppyyypqrrtttttrrrpqqqqqprrrrrqnnnrrpqqqqqrrrqprqpaaaa",
"aaaaaaaaBBBBBBByppqrrrttrrrrrqpqpqqrrrrrpnnnrrrpqqqqqqqqyqqpaaaa",
"aaaaaacekBypyBBBypppqqrrqppqpqqqqqpqpppqpppqqpyyypqrtrqpypppaaaa",
"aaaaakceekclypyBypqqrrrrrrrrqqpqpqqqrrrrrrrqqrtrrqyyyppyqqrpaaaa",
"aaaackkceekcclpyBpyypqqrrrqqppqqqppqqqrrrqqrrqlkkkyppqrrtrqrpaaa",
"aaaacellceelcclpBpqqpyypppppqqqrqqqppppppyyykkccefkpqqqrrtrqpaaa",
"aaackceclcclceCpByppqqqqqqrrttrqqqrttrqqqqqkccklcefkqqqrrrqpppaa",
"aaacellcekllccCyBpqqqpqrtttrqqqqqqqqqrtttrqkcceffeecpcefecrtqpaa",
"aaaklcelcelkklCyBppqqrqqqppppppyyypppqqqqrrqlkceeefccccefffrtqpa",
"aaacclkeklkclCBBBapypqpyyyyyyyBBBBByyyyppqqkccefcecceffffffftrpa",
"aaakkckkellkCByBaaahyyyyyypppqqppyppppppyyykccceeeeceeefefefrrpa",
"aaaaakkcllCCBBaaaaahhhhhyppqqrrrqpqrrqqpppyllkcceeeceeeeeeeerqpa",
"aaaaaaallaaaaaaaaahhdhdhhhhhhhDhhdhhDhhhhhhlcceecccceeeeeeecqqpa",
"aaaaaaaaaaaaaaaaaahhhjhhhhhhhhEhhdhhEhhhhhhhlkceeeekececcccArpaa",
"aaaaaaaaaaaaaaaaaahFhdhphhhhhhGhhhhhGhhhhhhpkcccceckcccececqqpaa",
"aaaaaaaaaaaaaaaaaaahhhhrqqrrqqppqrqppqrrrrrrhlllkklkkkcckkqppaaa",
"aaaaaaaaaaaaaaaaaaaphhrqqqrtrqqpyqypqrrrrrrrrhhpaaaaaayyyppaaaaa",
"aaaaaaaaaaaaaaaaaaapqrrqpqrtrrqqpypqqrttrrrttrqpaaaaaaaaaaaaaaaa",
"aaaaaaaaaaaaaaaaaaapqrqqpqrrrrqqpapqrttttrqrttqpaaaaaaaaaaaaaaaa",
"aaaaaaaaaaaaaaaaaaapqqqqqqqrrrqpaaaprrttrrrrtqqpaaaaaaaaaaaaaaaa",
"aaaaaaaaaaaaaaaaaaapqpqrrqpqrqqpaaapqrrrqtHtrpqpaaaaaaaaaaaaaaaa",
"aaaaaaaaaaaaaaaaaaapqyqrtrqpqqppaaappqrqtttttyqpaaaaaaaaaaaaaaaa",
"aaaaaaaaaaaaaaaaaaaapyqqrrqpppqpaaapqppprttrqypaaaaaaaaaaaaaaaaa",
"aaaaaaaaaaaaaaaaaaaappyqqqpyqqqpaaapqqqypqqqyppaaaaaaaaaaaaaaaaa",
"aaaaaaaaaaaaaaaaaaaacqpyypprtrqcaaapqrrqppyypqpaaaaaaaaaaaaaaaaa",
"aaaaaaaaaaaaaaaaaaaaaceprqpqreecaaapqrtrqppqrqpaaaaaaaaaaaaaaaaa",
"aaaaaaaaaaaaaaaaaaaaaceceeceeeccaaaacqrrqpqrqecaaaaaaaaaaaaaaaaa",
"aaaaaaaaaaaaaaaaaaaaakccefeeeeecaaaacceeecfececaaaaaaaaaaaaaaaaa",
"aaaaaaaaaaaaaaaaaaaaakceeffeeeccaaaaceeeeefececaaaaaaaaaaaaaaaaa",
"aaaaaaaaaaaaaaaaaaaaaccefeeeeeecaaaacceefffecccaaaaaaaaaaaaaaaaa",
"aaaaaaaaaaaaaaaaaaaacceeeeeefeecaaaaceeeffffeccaaaaaaaaaaaaaaaaa",
"aaaaaaaaaaaaaaaaaaaceeeceeceeecaaaaaceeeeeeeeccaaaaaaaaaaaaaaaaa",
"aaaaaaaaaaaaaaaaaacfcfcfecfeeckaaaaaceefefeeeecaaaaaaaaaaaaaaaaa",
"aaaaaaaaaaaaaaaaaacekekeekeeecaaaaaaeeeceecfeecaaaaaaaaaaaaaaaaa",
"aaaaaaaaaaaaaaaaaaacacaccacccaaaaaaacefecefcfcfcaaaaaaaaaaaaaaaa",
"aaaaaaaaaaaaaaaaaaaaaaaaaaaaaaaaaaaaceeekeekekecaaaaaaaaaaaaaaaa",
"aaaaaaaaaaaaaaaaaaaaaaaaaaaaaaaaaaaaacccaccacacaaaaaaaaaaaaaaaaa",
"aaaaaaaaaaaaaaaaaaaaaaaaaaaaaaaaaaaaaaaaaaaaaaaaaaaaaaaaaaaaaaaa"
};
