/* XPM */
static char *enemy_floor1_punching_sheet[] = {
"192 64 38 1",
"a	c None",
"b	c #6C6C6C",
"c	c #005C00",
"d	c #2C2C2C",
"e	c #007400",
"f	c #008C00",
"g	c #00A400",
"h	c #000000",
"i	c #C01010",
"j	c #4C4C4C",
"k	c #004400",
"l	c #002C00",
"m	c #747804",
"n	c #C4C824",
"o	c #A4A814",
"p	c #587400",
"q	c #7CA400",
"r	c #5C0000",
"s	c #700404",
"t	c #840404",
"u	c #00140C",
"v	c #94602C",
"w	c #5C340C",
"x	c #684018",
"y	c #980808",
"z	c #3C3C00",
"A	c #200000",
"B	c #480000",
"C	c #502400",
"D	c #00C000",
"E	c #344400",
"F	c #001400",
"G	c #505000",
"H	c #64A0D8",
"I	c #3884CC",
"J	c #402810",
"K	c #2474C4",
"L	c #AC0C0C",
"aaaaaaaaaaaaaaaaaaaaaaaaaaaaaaaaaaaaaaaaaaaaaaaaaaaaaaaaaaaaaaaaaaaaaaaaaaaaaaaaaaaaaaaaaaaaaaaaaaaaaaaaaaaaaaaaaaaaaaaaaaaaaaaaaaaaaaaaaaaaaaaaaaaaaaaaaaaaaaaaaaaaaaaaaaaaaaaaaaaaaaaaaaaaaaaa",
"aaaaaaaaaaaaaaaaaaaaaaaaaaaaaaaaaaaaaaaaaaaaaaaaaaaaaaaaaaaaaaaaaaaaaaaaaaaaaaaaaaaaaaaaaaaaaaaaaaaaaaaaaaaaaaaaaaaaaaaaaaaaaaaaaaaaaaaaaaaaaaaaaaaaaaaaaaaaaaaaaaaaaaaaaaaaaaaaaaaaaaaaaaaaaaaa",
"aaaaaaaaaaaaaaaaaaaaaaaaaaaaaaaaaaaaaaaaaaaaaaaaaaaaaaaaaaaaaaaaaaaaaaaaaaaaaaaaaaaaaaaaaaaaaaaaaaaaaaaaaaaaaaaaaaaaaaaaaaaaaaaaaaaaaaaaaaaaaaaaaaaaaaaaaaaaaaaaaaaaaaaaaaaaaaaaaaaaaaaaaaaaaaaa",
"aaaaaaaaaaaaaaaaaaaaaaaaaaaaaaaaaaaaaaaabaaaaaaaaaaaaaaaaaaaaaaaaaaaaaaaaaaaaaaaaaaaaaaaaaaaaaaaaaaaaaabaaaaaaaaaaaaaaaaaaaaaaaaaaaaaaaaaaaaaaaaaaaaaaaaaaaaaaaaaaaaabaaaaaaaaaaaaaaaaaaaaaaaaaa",
"aaaaaaaaaaaaaaaaaaaaaaaaaaaaaacccccccaaadaaaaaaaaaaaaaaaaaaaaaaaaaaaaaaaaaaaaaaaaaaaaaaaaaaaacccccccaaadaaaaaaaaaaaaaaaaaaaaaaaaaaaaaaaaaaaaaaaaaaaaaaaaaaacccccccaaadaaaaaaaaaaaaaaaaaaaaaaaaaa",
"aaaaaaaaaaaaaaaaaaaaaaaaaaaacceeeeeeeccadaaaaaaaaaaaaaaaaaaaaaaaaaaaaaaaaaaaaaaaaaaaaaaaaaacceeeeeeeccadaaaaaaaaaaaaaaaaaaaaaaaaaaaaaaaaaaaaaaaaaaaaaaaaacceeeeeeeccadaaaaaaaaaaaaaaaaaaaaaaaaaa",
"aaaaaaaaaaaaaaaaaaaaaaaaaaaceeefffffeeecdaaaaaaaaaaaaaaaaaaaaaaaaaaaaaaaaaaaaaaaaaaaaaaaaaceeefffffeeecdaaaaaaaaaaaaaaaaaaaaaaaaaaaaaaaaaaaaaaaaaaaaaaaaceeefffffeeecdaaaaaaaaaaaaaaaaaaaaaaaaaa",
"aaaaaaaaaaaaaaaaaaaaaaaaaaaceeffgggffeecdaaaaaaaaaaaaaaaaaaaaaaaaaaaaaaaaaaaaaaaaaaaaaaaaaceeffgggffeecdaaaaaaaaaaaaaaaaaaaaaaaaaaaaaaaaaaaaaaaaaaaaaaaaceeffgggffeecdaaaaaaaaaaaaaaaaaaaaaaaaaa",
"aaaaaaaaaaaaaaaaaaaaaaaaaaceeeefffffeeehbiaaaaaaaaaaaaaaaaaaaaaaaaaaaaaaaaaaaaaaaaaaaaaaaceeeefffffeeehbiaaaaaaaaaaaaaaaaaaaaaaaaaaaaaaaaaaaaaaaaaaaaaaceeeefffffeeehbiaaaaaaaaaaaaaaaaaaaaaaaaa",
"aaaaaaaaaaaaaaaaaaaaaaaaaaceeeeefffeeeehjhaaaaaaaaaaaaaaaaaaaaaaaaaaaaaaaaaaaaaaaaaaaaaaaceeeeefffeeeehjhaaaaaaaaaaaaaaaaaaaaaaaaaaaaaaaaaaaaaaaaaaaaaaceeeeefffeeeehjhaaaaaaaaaaaaaaaaaaaaaaaaa",
"aaaaaaaaaaaaaaaaaaaaaaaaaaekffeceeeceffkhaaaaaaaaaaaaaaaaaaaaaaaaaaaaaaaaaaaaaaaaaaaaaaaaekffeceeeceffkhaaaaaaaaaaaaaaaaaaaaaaaaaaaaaaaaaaaaaaaaaaaaaaaekffeceeeceffkhaaaaaaaaaaaaaaaaaaaaaaaaaa",
"aaaaaaaaaaaaaaaaaaaaaaacffcclcfecfcefclccffcaaaaaaaaaaaaaaaaaaaaaaaaaaaaaaaaaaaaaaaaaacffcclcfecfcefclccffcaaaaaaaaaaaaaaaaaaaaaaaaaaaaaaaaaaaaaaaaacffcclcfecfcefclccffcaaaaaaaaaaaaaaaaaaaaaaa",
"aaaaaaaaaaaaaaaaaaaaaaaaklccmnkokkkoknmcclkaaaaaaaaaaaaaaaaaaaaaaaaaaaaaaaaaaaaaaaaaaaaklccmnkokkkoknmcclkaaaaaaaaaaaaaaaaaaaaaaaaaaaaaaaaaaaaaaaaaaaklccpqkqkkkqkqpcclkaaaaaaaaaaaaaaaaaaaaaaaa",
"aaaaaaaaaaaaaaaaaaaaaaaaackfckkcegeckkcfkcaaaaaaaaaaaaaaaaaaaaaaaaaaaaaaaaaaaaaaaaaaaaaackfckkcegeckkcfkcaaaaaaaaaaaaaaaaaaaaaaaaaaaaaaaaaaaaaaaaaaaaackfckkcegeckkcfkcaaaaaaaaaaaaaaaaaaaaaaaaa",
"aaaaaaaaaaaaaaaaaaaaaaaaaclegfckckckcfgelcaaaaaaaaaaaaaaaaaaaaaaaaaaaaaaaaaaaaaaaaaaaaaaclegfckckckcfgelcaaaaaaaaaaaaaaaaaaaaaaaaaaaaaaaaaaaaaaaaaaaaaclegfckckckcfgelcaaaaaaaaaaaaaaaaaaaaaaaaa",
"aaaaaaaaaaaaaaaarrrrrrrrrrckeeffgggffeekcaaaaaaaaaaaaaaaaaaaaaaaaaaaaaaaaaaaaaaarrrrrrrrrckeeffgggffeekcaaaaaaaaaaaaaaaaaaaaaaaaaaaaaaaaaaaaaaaaaaaaaaackeeffgggffeekcrrrrrrrrraaaaaaaaaaaaaaaaa",
"aaaaaaaaaaaarrrrstttttsstdccefkuuuuukfeccdrrrrrrraaaaaaaaaaaaaaaaaaaaaaaaaaaarrrsssttsssdccefkuuuuukfeccdrrrrrrraaaaaaaaaaaaaaaaaaaaaaaaaaaaaaarrrrrrrdccefkuuuuukfeccdsssttsssrrraaaaaaaaaaaaaa",
"aaaaaaaaarrrsssttttsssssseceekuvwxwvukeecesssssssrrrraaaaaaaaaaaaaaaaaaaaaarrstyttssssszeceekuvwxwvukeeczsssssssrrrraaaaaaaaaaaaaaaaaaaaaaaarrrssssssszceekuvwxwvukeecezsssssttytsrraaaaaaaaaaaa",
"aaaaaaarrstyytsssrsttyyytfkeeuuABrBAuueekftyyyttttstsrrraaaaaaaaaaaaaaaaaarstsssrsttyyyffkeeuwuuuuuwueekttyyytstsssrraaaaaaaaaaaaaaaaaaaaarrssststyyyttkeeuuxvxvxuueekffyyyttsrssstsraaaaaaaaaaa",
"aaaaaarstssssstyyyyyttttsecceuwuuuuuwueccesttttyrttssttsrraaaaaaaaaaaaaaarssssrstyytttteekcefuxvxvxufecksstttttssttssrraaaaaaaaaaaaaaaaarrssttsstttttsskcefkceeeckfeckeettttyytsrssssraaaaaaaaaa",
"aaaaarststsrsrrstrrrssssseekefuxvxvxufekeesssssrtrtsrrsrstrraaaaaaaaaaaaarssrsttsrrsssseeekkeffgggffekkesssssstsrrsrstsrraaaaaaaaaaaaaaBsssrsrrstssssssekkeffgggffekkeeessssrrsttsrssraaaaaaaaaa",
"aaaaarsssrstttsrsstsrrrrrccckeffgggffekcccrrrrrssysrstttsrtsraaaaaaaaaaarsrsstyyttsrrrrccccckecfcfcekcccrrrrrrsrstttsrttsraaaaaaaaaaaaaBssstttsrsrrrrrrccckecfcfcekcccccrrrrsttyytssrsraaaaaaaaa",
"aaaarstrsstyyytsrsssttyyyzfeekecfcfcekeefzyyyttssrrstyyttsstsraaaaaaaaaarsssttyysBsttyyzfeecckkkkkkkeefzyyyyttrstyyttssttsraaaaaaaaaaaBststtyytsrttyykefgfekkkkkkkcceefzyyttsBsyyttsssraaaaaaaaa",
"aaaarssssttyyttsrssssssssseeeekkkkkkkeeeesssssssssrstyytttsssraaaaaaaaaarrsstyttrssssssseeeefecccefeeeesssssssrstyytttsstsraaaaaaaaaaaBsssttyytsrrsskcfgggggggfccefeeeesssssssrttytssrraaaaaaaaa",
"aaaarsrsstytttssrrssttttttCeeeeceeeceeeetttttttstsrssttyttsrtsraaaaaaaaarBsssttsrsstttttCeeeeceeeceeeettttttttrssttyttsrttsraaaaaaaaaaBstsstttssBrstkfgDfggggDgeeceeeeCtttttssrsttsssBraaaaaaaaa",
"aaaarsBssstttssttyttttyyytsrEeeececeeeErstttttttssrsssttttssssraaaaaaaaaaBrssssrsttttyytsrEeeececeeeErstttttttrssstttttsstsraaaaaaaaaaBsttrrsttyyyrkcfffffffffeeceeeErstyyttttsrssssrBaaaaaaaaaa",
"aaaaarBrsssssrBBBBsttyyyyyytttrsssssrttttsnnnttttrrsssssssssrsraaaaaaaaaaABrrBBBrsttyyyyytttrsssssrtttttsnnnttrssssstttsrtsraaaaaaaaaaBssrsytcefeeckceffekkcckssssrtttyyynnnrsrBBBrrBAaaaaaaaaaa",
"aaaarssBrrBBBsttyttttttyyytttttsrsrstttttrnnntttrytrssssssssBsraaaaaaaaaAAAAAAABrrstttyytttttsrsrsstttttrnnntttrssssssssBssraaaaaaaaaaBsrsytfffeeckkefgDgggggDfsrstttttyynnnBrrBAAAAAAAaaaaaaaaa",
"aaarssrsstyyttssrBrrrsstttsrrsrsssssrsrrsrrrssrrtBBBBrstytsrBraaaaaaaacekABrBAAABrrrssttsrrsrsssssrsrrrsrrrssrBBBrstytsrBrrraaaaaaaaaaBrrtyfffffffekeffgffffffesssrsrrsttsrBBrBAAABrBAkecaaaaaaa",
"aaarsrBstyyyyttssBtsstttttttttssrsrsstttttttssttyyyttsBBBrrBssraaaaaakceekclBrBABrssttttttttssrsrssstttttttsstyttsBBBrrBsstraaaaaaaaaaaBrttfefefeeckceffekkcccksrssttttttttssrBABrBlckeeckaaaaaa",
"aaarrsBsttyttttsrarBBrssttttssrrsssrrssttsssttsrBBBssttyytssrssraaaackkceekcclrBArBBrsstttssrrsssrrssstttssttslkkkBrrsttytstraaaaaaaaaaBrstceeeececkefggffeeersssrrsstttssrBBrABrlcckeeckkcaaaaa",
"aaaarsrssttyyttsrarssrBBBrrrrrssstsssrrrrrBBBBBBBBssttyyyytsBrsraaaacellceelcclrArssrBBrrrrrssstsssrrrrrrBBBkkccefkrsssttytsraaaaaaaaaaarsskccccccckeffDggggDestsssrrrrrBBrssrArlccleecllecaaaaa",
"aaaarsrrsssssssrraBrrssssssttyytssstyytsssssssrrrBrsttttyttsBsrraaackceclcclceFrABrrssssssttyytssstyytssssskccklcefkssstttsrrraaaaaaaaaaBrtEkkkkckckceffekcccksstyyttssssssrrBArFeclcclceckcaaaa",
"aaaarsssrrBBBBBrrarsssrstyyytssssssssstyyytsrsssrarsttyyttssrsraaaacellcekllccFBArsssrstyyytssssssssstyyytskcceffeecrcefectysraaaaaaaaaaarsskckckkkkcefgffffesssssstyyytsrsssrABFccllkecllecaaaa",
"aaaarszeffeekefzrarrsstsssrrrrrrBBBrrrssssttssrraarrsssssssrrsraaaaklcelcelkklFBArrsstsssrrrrrrBBBrrrssssttslkceeefcccceffftysraaaaaaaaaaBrrskkkkllllceeeeeecBBBrrrrrrssstssrrABFlkklecleclkaaaa",
"aaaarGecffeeceferaarBrsrBBBBBBBAAAAABBBBrrsstssraarrBBBBBrrsssraaaacclkeklkclFAAAarBrsrBBBBBBBAAAAABBBBrrsskccefceccefffffffytraaaaaaaaaaaaBrrBBrrAAssrrBBBBAAAAABBBBBBBrsrBraAAAFlcklkeklccaaaa",
"aaaarefceffeecfecaahBBBBBBrrrssrrBrrrrrrBBBrsrBhaarzfekeeffezsraaaakkckkellkFABAaaahBBBBBBrrrssrrBrrrrrrBBBkccceeeeceeefefefttraaaaaaaaaaaaaaaahAAABBBBrrrrrrBrrssrrrBBBBBBhaaaABAFkllekkckkaaaa",
"aaaacefecefeecfcaaahhhhhBrrsstttsrsttssrrrBhhhhhaarefeceeffceGraaaaaakkcllFFAAaaaaahhhhhBrrsstttsrsttssrrrBllkcceeeceeeeeeeetsraaaaaaaaaaaaaaaahhhhhBrrrssttsrstttssrrBhhhhhaaaaaAAFFllckkaaaaaa",
"aaaaceefceefececaahhdhdhhhhhhhHhhdhhHhhhhhhhdhdhhacefceeffecferaaaaaaaallaaaaaaaaahhdhdhhhhhhhHhhdhhHhhhhhhlcceecccceeeeeeecssraaaaaaaaaaaaaaahhdhdhhhhhhhHhhdhhHhhhhhhhdhdhhaaaaaaaaallaaaaaaaa",
"aaaaaceeeceeckkkkahhhjhhhhhhhhIhhdhhIhhhhhhhhjhhhaacfceefecefecaaaaaaaaaaaaaaaaaaahhhjhhhhhhhhIhhdhhIhhhhhhhlkceeeekececcccEtraaaaaaaaaaaaaaaahhhjhhhhhhhhIhhdhhIhhhhhhhhjhhhaaaaaaaaaaaaaaaaaaa",
"aaaaaceefeecceeeekhJhdhrhhhhhhKhhhhhKhhhhhhrhdhJhaacecefeecfeecaaaaaaaaaaaaaaaaaaahJhdhrhhhhhhKhhhhhKhhhhhhrkcccceckcccececssraaaaaaaaaaaaaaaahJhdhrhhhhhhKhhhhhKhhhhhhrhdhJhaaaaaaaaaaaaaaaaaaa",
"aaaaaaceeeceeeeeeekhhhhtssttssrrstsrrstttttthhhhhakkkkceeceeecaaaaaaaaaaaaaaaaaaaaahhhhtssttssrrstsrrstttttthlllkklkkkcckksrraaaaaaaaaaaaaaaaaahhhhtssttssrrstsrrstttttthhhhaaaaaaaaaaaaaaaaaaaa",
"aaaaaaceececefecfecrhhtssstytssrBsBrstttttttthhrakeeeecceefeecaaaaaaaaaaaaaaaaaaaaarhhtssstytssrBsBrstttttttthhraaaaaaBBBrraaaaaaaaaaaaaaaaaaaarhhtssstytssrBsBrstttttttthhraaaaaaaaaaaaaaaaaaaa",
"aaaaaacceeeecfeekcarsttsrstyttssrBrsstyytttyytsrkeeeeeeeceeecaaaaaaaaaaaaaaaaaaaaaarsttsrstyttssrBrsstyytttyytsraaaaaaaaaaaaaaaaaaaaaaaaaaaaaaarsttsrstyttssrBrsstyytttyytsraaaaaaaaaaaaaaaaaaaa",
"aaaaaaacecefceeffecrstssrsttttssrarstyyyytstyysrcefcefececeecaaaaaaaaaaaaaaaaaaaaaarstssrsttttssrarstyyyytstyysraaaaaaaaaaaaaaaaaaaaaaaaaaaaaaarstssrsttttssrarstyyyytstyysraaaaaaaaaaaaaaaaaaaa",
"aaaaaaaceeceekkccckrssssssstttsraaarttyyttttyssrackeefceeeeccaaaaaaaaaaaaaaaaaaaaaarssssssstttsraaarttyyttttyssraaaaaaaaaaaaaaaaaaaaaaaaaaaaaaarssssssstttsraaarttyyttttyssraaaaaaaaaaaaaaaaaaaa",
"aaaaaaacefekkccckkarsrsttsrstssraaarstttsyLytrsrceffeecfececaaaaaaaaaaaaaaaaaaaaaaarsrsttsrstssraaarstttsyLytrsraaaaaaaaaaaaaaaaaaaaaaaaaaaaaaarsrsttsrstssraaarstttsyLytrsraaaaaaaaaaaaaaaaaaaa",
"aaaaaaaacecccckkaaarsBstytsrssrraaarrstsyyyyyBsrkccckkeeceecaaaaaaaaaaaaaaaaaaaaaaarsBstytsrssrraaarrstsyyyyyBsraaaaaaaaaaaaaaaaaaaaaaaaaaaaaaarsBstytsrssrraaarrstsyyyyyBsraaaaaaaaaaaaaaaaaaaa",
"aaaaaaaaakkkkkkaaaaarBssttsrrrsraaarsrrrtyytsBraakkccckkefecaaaaaaaaaaaaaaaaaaaaaaaarBssttsrrrsraaarsrrrtyytsBraaaaaaaaaaaaaaaaaaaaaaaaaaaaaaaaarBssttsrrrsraaarsrrrtyytsBraaaaaaaaaaaaaaaaaaaaa",
"aaaaaaaaaaaaaaaaaaaarrBsssrBsssraaarsssBrsssBrraaaakkccccecaaaaaaaaaaaaaaaaaaaaaaaaarrBsssrBsssraaarsssBrsssBrraaaaaaaaaaaaaaaaaaaaaaaaaaaaaaaaarrBsssrBsssraaarsssBrsssBrraaaaaaaaaaaaaaaaaaaaa",
"aaaaaaaaaaaaaaaaaaaacsrBBrrtytscaaarsttsrrBBrsraaaaakkkkkkaaaaaaaaaaaaaaaaaaaaaaaaaacsrBBrrtytscaaarsttsrrBBrsraaaaaaaaaaaaaaaaaaaaaaaaaaaaaaaaacsrBBrrtytscaaarsttsrrBBrsraaaaaaaaaaaaaaaaaaaaa",
"aaaaaaaaaaaaaaaaaaaaacertsrsteecaaarstytsrrstsraaaaaaaaaaaaaaaaaaaaaaaaaaaaaaaaaaaaaacertsrsteecaaarstytsrrstsraaaaaaaaaaaaaaaaaaaaaaaaaaaaaaaaaacertsrsteecaaarstytsrrstsraaaaaaaaaaaaaaaaaaaaa",
"aaaaaaaaaaaaaaaaaaaaaceceeceeeccaaaacsttsrstsecaaaaaaaaaaaaaaaaaaaaaaaaaaaaaaaaaaaaaaceceeceeeccaaaacsttsrstsecaaaaaaaaaaaaaaaaaaaaaaaaaaaaaaaaaaceceeceeeccaaaacsttsrstsecaaaaaaaaaaaaaaaaaaaaa",
"aaaaaaaaaaaaaaaaaaaaakccefeeeeecaaaacceeecfececaaaaaaaaaaaaaaaaaaaaaaaaaaaaaaaaaaaaaakccefeeeeecaaaacceeecfececaaaaaaaaaaaaaaaaaaaaaaaaaaaaaaaaaakccefeeeeecaaaacceeecfececaaaaaaaaaaaaaaaaaaaaa",
"aaaaaaaaaaaaaaaaaaaaakceeffeeeccaaaaceeeeefececaaaaaaaaaaaaaaaaaaaaaaaaaaaaaaaaaaaaaakceeffeeeccaaaaceeeeefececaaaaaaaaaaaaaaaaaaaaaaaaaaaaaaaaaakceeffeeeccaaaaceeeeefececaaaaaaaaaaaaaaaaaaaaa",
"aaaaaaaaaaaaaaaaaaaaaccefeeeeeecaaaacceefffecccaaaaaaaaaaaaaaaaaaaaaaaaaaaaaaaaaaaaaaccefeeeeeecaaaacceefffecccaaaaaaaaaaaaaaaaaaaaaaaaaaaaaaaaaaccefeeeeeecaaaacceefffecccaaaaaaaaaaaaaaaaaaaaa",
"aaaaaaaaaaaaaaaaaaaacceeeeeefeecaaaaceeeffffeccaaaaaaaaaaaaaaaaaaaaaaaaaaaaaaaaaaaaacceeeeeefeecaaaaceeeffffeccaaaaaaaaaaaaaaaaaaaaaaaaaaaaaaaaacceeeeeefeecaaaaceeeffffeccaaaaaaaaaaaaaaaaaaaaa",
"aaaaaaaaaaaaaaaaaaaceeeceeceeecaaaaaceeeeeeeeccaaaaaaaaaaaaaaaaaaaaaaaaaaaaaaaaaaaaceeeceeceeecaaaaaceeeeeeeeccaaaaaaaaaaaaaaaaaaaaaaaaaaaaaaaaceeeceeceeecaaaaaceeeeeeeeccaaaaaaaaaaaaaaaaaaaaa",
"aaaaaaaaaaaaaaaaaacfcfcfecfeeckaaaaaceefefeeeecaaaaaaaaaaaaaaaaaaaaaaaaaaaaaaaaaaacfcfcfecfeeckaaaaaceefefeeeecaaaaaaaaaaaaaaaaaaaaaaaaaaaaaaacfcfcfecfeeckaaaaaceefefeeeecaaaaaaaaaaaaaaaaaaaaa",
"aaaaaaaaaaaaaaaaaacekekeekeeecaaaaaaeeeceecfeecaaaaaaaaaaaaaaaaaaaaaaaaaaaaaaaaaaacekekeekeeecaaaaaaeeeceecfeecaaaaaaaaaaaaaaaaaaaaaaaaaaaaaaacekekeekeeecaaaaaaeeeceecfeecaaaaaaaaaaaaaaaaaaaaa",
"aaaaaaaaaaaaaaaaaaacacaccacccaaaaaaacefecefcfcfcaaaaaaaaaaaaaaaaaaaaaaaaaaaaaaaaaaacacaccacccaaaaaaacefecefcfcfcaaaaaaaaaaaaaaaaaaaaaaaaaaaaaaacacaccacccaaaaaaacefecefcfcfcaaaaaaaaaaaaaaaaaaaa",
"aaaaaaaaaaaaaaaaaaaaaaaaaaaaaaaaaaaaceeekeekekecaaaaaaaaaaaaaaaaaaaaaaaaaaaaaaaaaaaaaaaaaaaaaaaaaaaaceeekeekekecaaaaaaaaaaaaaaaaaaaaaaaaaaaaaaaaaaaaaaaaaaaaaaaaceeekeekekecaaaaaaaaaaaaaaaaaaaa",
"aaaaaaaaaaaaaaaaaaaaaaaaaaaaaaaaaaaaacccaccacacaaaaaaaaaaaaaaaaaaaaaaaaaaaaaaaaaaaaaaaaaaaaaaaaaaaaaacccaccacacaaaaaaaaaaaaaaaaaaaaaaaaaaaaaaaaaaaaaaaaaaaaaaaaaacccaccacacaaaaaaaaaaaaaaaaaaaaa",
"aaaaaaaaaaaaaaaaaaaaaaaaaaaaaaaaaaaaaaaaaaaaaaaaaaaaaaaaaaaaaaaaaaaaaaaaaaaaaaaaaaaaaaaaaaaaaaaaaaaaaaaaaaaaaaaaaaaaaaaaaaaaaaaaaaaaaaaaaaaaaaaaaaaaaaaaaaaaaaaaaaaaaaaaaaaaaaaaaaaaaaaaaaaaaaaa"
};
