/* XPM */
static char *enemy_floor1_punching_f00[] = {
"64 64 34 1",
"a	c None",
"b	c #6C6C6C",
"c	c #005C00",
"d	c #2C2C2C",
"e	c #007400",
"f	c #008C00",
"g	c #00A400",
"h	c #000000",
"i	c #C01010",
"j	c #4C4C4C",
"k	c #004400",
"l	c #002C00",
"m	c #747804",
"n	c #C4C824",
"o	c #A4A814",
"p	c #5C0000",
"q	c #700404",
"r	c #840404",
"s	c #00140C",
"t	c #94602C",
"u	c #5C340C",
"v	c #684018",
"w	c #980808",
"x	c #200000",
"y	c #480000",
"z	c #3C3C00",
"A	c #502400",
"B	c #344400",
"C	c #505000",
"D	c #64A0D8",
"E	c #3884CC",
"F	c #402810",
"G	c #2474C4",
"H	c #AC0C0C",
"aaaaaaaaaaaaaaaaaaaaaaaaaaaaaaaaaaaaaaaaaaaaaaaaaaaaaaaaaaaaaaaa",
"aaaaaaaaaaaaaaaaaaaaaaaaaaaaaaaaaaaaaaaaaaaaaaaaaaaaaaaaaaaaaaaa",
"aaaaaaaaaaaaaaaaaaaaaaaaaaaaaaaaaaaaaaaaaaaaaaaaaaaaaaaaaaaaaaaa",
"aaaaaaaaaaaaaaaaaaaaaaaaaaaaaaaaaaaaaaaabaaaaaaaaaaaaaaaaaaaaaaa",
"aaaaaaaaaaaaaaaaaaaaaaaaaaaaaacccccccaaadaaaaaaaaaaaaaaaaaaaaaaa",
"aaaaaaaaaaaaaaaaaaaaaaaaaaaacceeeeeeeccadaaaaaaaaaaaaaaaaaaaaaaa",
"aaaaaaaaaaaaaaaaaaaaaaaaaaaceeefffffeeecdaaaaaaaaaaaaaaaaaaaaaaa",
"aaaaaaaaaaaaaaaaaaaaaaaaaaaceeffgggffeecdaaaaaaaaaaaaaaaaaaaaaaa",
"aaaaaaaaaaaaaaaaaaaaaaaaaaceeeefffffeeehbiaaaaaaaaaaaaaaaaaaaaaa",
"aaaaaaaaaaaaaaaaaaaaaaaaaaceeeeefffeeeehjhaaaaaaaaaaaaaaaaaaaaaa",
"aaaaaaaaaaaaaaaaaaaaaaaaaaekffeceeeceffkhaaaaaaaaaaaaaaaaaaaaaaa",
"aaaaaaaaaaaaaaaaaaaaaaacffcclcfecfcefclccffcaaaaaaaaaaaaaaaaaaaa",
"aaaaaaaaaaaaaaaaaaaaaaaaklccmnkokkkoknmcclkaaaaaaaaaaaaaaaaaaaaa",
"aaaaaaaaaaaaaaaaaaaaaaaaackfckkcegeckkcfkcaaaaaaaaaaaaaaaaaaaaaa",
"aaaaaaaaaaaaaaaaaaaaaaaaaclegfckckckcfgelcaaaaaaaaaaaaaaaaaaaaaa",
"aaaaaaaaaaaaaaaappppppppppckeeffgggffeekcaaaaaaaaaaaaaaaaaaaaaaa",
"aaaaaaaaaaaappppqrrrrrqqrdccefkssssskfeccdpppppppaaaaaaaaaaaaaaa",
"aaaaaaaaapppqqqrrrrqqqqqqeceekstuvutskeeceqqqqqqqppppaaaaaaaaaaa",
"aaaaaaappqrwwrqqqpqrrwwwrfkeessxypyxsseekfrwwwrrrrqrqpppaaaaaaaa",
"aaaaaapqrqqqqqrwwwwwrrrrqeccesusssssusecceqrrrrwprrqqrrqppaaaaaa",
"aaaaapqrqrqpqppqrpppqqqqqeekefsvtvtvsfekeeqqqqqprprqppqpqrppaaaa",
"aaaaapqqqpqrrrqpqqrqpppppccckeffgggffekcccpppppqqwqpqrrrqprqpaaa",
"aaaapqrpqqrwwwrqpqqqrrwwwzfeekecfcfcekeefzwwwrrqqppqrwwrrqqrqpaa",
"aaaapqqqqrrwwrrqpqqqqqqqqqeeeekkkkkkkeeeeqqqqqqqqqpqrwwrrrqqqpaa",
"aaaapqpqqrwrrrqqppqqrrrrrrAeeeeceeeceeeerrrrrrrqrqpqqrrwrrqprqpa",
"aaaapqyqqqrrrqqrrwrrrrwwwrqpBeeececeeeBpqrrrrrrrqqpqqqrrrrqqqqpa",
"aaaaapypqqqqqpyyyyqrrwwwwwwrrrpqqqqqprrrrqnnnrrrrppqqqqqqqqqpqpa",
"aaaapqqyppyyyqrrwrrrrrrwwwrrrrrqpqpqrrrrrpnnnrrrpwrpqqqqqqqqyqpa",
"aaapqqpqqrwwrrqqpypppqqrrrqppqpqqqqqpqppqpppqqppryyyypqrwrqpypaa",
"aaapqpyqrwwwwrrqqyrqqrrrrrrrrrqqpqpqqrrrrrrrqqrrwwwrrqyyyppyqqpa",
"aaappqyqrrwrrrrqpapyypqqrrrrqqppqqqppqqrrqqqrrqpyyyqqrrwwrqqpqqp",
"aaaapqpqqrrwwrrqpapqqpyyypppppqqqrqqqpppppyyyyyyyyqqrrwwwwrqypqp",
"aaaapqppqqqqqqqppayppqqqqqqrrwwrqqqrwwrqqqqqqqpppypqrrrrwrrqyqpp",
"aaaapqqqppyyyyyppapqqqpqrwwwrqqqqqqqqqrwwwrqpqqqpapqrrwwrrqqpqpa",
"aaaapqzeffeekefzpappqqrqqqppppppyyypppqqqqrrqqppaappqqqqqqqppqpa",
"aaaapCecffeecefepaapypqpyyyyyyyxxxxxyyyyppqqrqqpaappyyyyyppqqqpa",
"aaaapefceffeecfecaahyyyyyypppqqppyppppppyyypqpyhaapzfekeeffezqpa",
"aaaacefecefeecfcaaahhhhhyppqqrrrqpqrrqqpppyhhhhhaapefeceeffceCpa",
"aaaaceefceefececaahhdhdhhhhhhhDhhdhhDhhhhhhhdhdhhacefceeffecfepa",
"aaaaaceeeceeckkkkahhhjhhhhhhhhEhhdhhEhhhhhhhhjhhhaacfceefecefeca",
"aaaaaceefeecceeeekhFhdhphhhhhhGhhhhhGhhhhhhphdhFhaacecefeecfeeca",
"aaaaaaceeeceeeeeeekhhhhrqqrrqqppqrqppqrrrrrrhhhhhakkkkceeceeecaa",
"aaaaaaceececefecfecphhrqqqrwrqqpyqypqrrrrrrrrhhpakeeeecceefeecaa",
"aaaaaacceeeecfeekcapqrrqpqrwrrqqpypqqrwwrrrwwrqpkeeeeeeeceeecaaa",
"aaaaaaacecefceeffecpqrqqpqrrrrqqpapqrwwwwrqrwwqpcefcefececeecaaa",
"aaaaaaaceeceekkccckpqqqqqqqrrrqpaaaprrwwrrrrwqqpackeefceeeeccaaa",
"aaaaaaacefekkccckkapqpqrrqpqrqqpaaapqrrrqwHwrpqpceffeecfececaaaa",
"aaaaaaaacecccckkaaapqyqrwrqpqqppaaappqrqwwwwwyqpkccckkeeceecaaaa",
"aaaaaaaaakkkkkkaaaaapyqqrrqpppqpaaapqppprwwrqypaakkccckkefecaaaa",
"aaaaaaaaaaaaaaaaaaaappyqqqpyqqqpaaapqqqypqqqyppaaaakkccccecaaaaa",
"aaaaaaaaaaaaaaaaaaaacqpyypprwrqcaaapqrrqppyypqpaaaaakkkkkkaaaaaa",
"aaaaaaaaaaaaaaaaaaaaaceprqpqreecaaapqrwrqppqrqpaaaaaaaaaaaaaaaaa",
"aaaaaaaaaaaaaaaaaaaaaceceeceeeccaaaacqrrqpqrqecaaaaaaaaaaaaaaaaa",
"aaaaaaaaaaaaaaaaaaaaakccefeeeeecaaaacceeecfececaaaaaaaaaaaaaaaaa",
"aaaaaaaaaaaaaaaaaaaaakceeffeeeccaaaaceeeeefececaaaaaaaaaaaaaaaaa",
"aaaaaaaaaaaaaaaaaaaaaccefeeeeeecaaaacceefffecccaaaaaaaaaaaaaaaaa",
"aaaaaaaaaaaaaaaaaaaacceeeeeefeecaaaaceeeffffeccaaaaaaaaaaaaaaaaa",
"aaaaaaaaaaaaaaaaaaaceeeceeceeecaaaaaceeeeeeeeccaaaaaaaaaaaaaaaaa",
"aaaaaaaaaaaaaaaaaacfcfcfecfeeckaaaaaceefefeeeecaaaaaaaaaaaaaaaaa",
"aaaaaaaaaaaaaaaaaacekekeekeeecaaaaaaeeeceecfeecaaaaaaaaaaaaaaaaa",
"aaaaaaaaaaaaaaaaaaacacaccacccaaaaaaacefecefcfcfcaaaaaaaaaaaaaaaa",
"aaaaaaaaaaaaaaaaaaaaaaaaaaaaaaaaaaaaceeekeekekecaaaaaaaaaaaaaaaa",
"aaaaaaaaaaaaaaaaaaaaaaaaaaaaaaaaaaaaacccaccacacaaaaaaaaaaaaaaaaa",
"aaaaaaaaaaaaaaaaaaaaaaaaaaaaaaaaaaaaaaaaaaaaaaaaaaaaaaaaaaaaaaaa"
};
