/* XPM */
static char *boss_floor1_firing_f00[] = {
"64 64 33 1",
"a	c None",
"b	c #004428",
"c	c #002C1C",
"d	c #005C38",
"e	c #007448",
"f	c #048C58",
"g	c #04A468",
"h	c #48D09C",
"i	c #04BC78",
"j	c #18C084",
"k	c #30C890",
"l	c #007400",
"m	c #98E898",
"n	c #B8ECB8",
"o	c #00A400",
"p	c #44D444",
"q	c #7CE0BC",
"r	c #60D8AC",
"s	c #00140C",
"t	c #B8ECD8",
"u	c #008C8C",
"v	c #007474",
"w	c #005C5C",
"x	c #78E0E0",
"y	c #40D0D0",
"z	c #00A4A4",
"A	c #840404",
"B	c #700404",
"C	c #5C0000",
"D	c #480000",
"E	c #200000",
"F	c #340000",
"G	c #1C1C1C",
"aaaaaaaaaaaaaaaaaaaaaaaaaaaaaaaaabbbbcaaaaaaaaaaaaaaaaaaaaaaaaaa",
"aaaaaaaaaaaaaaaaaaaaaaaaaaaaaaaabbdddbcaaaaaaaaaaaaaaaaaaaaaaaaa",
"aaaaaaaaaaaaaaaaaaaaaaaaaaaaaaabddeedbcaaaaaaaaaaaaaaaaaaaaaaaaa",
"aaaaaaaaaaaaaaaaaaaaaaaaaaaaaaabeedeedccaaaaaaaaaaaaaaaaaaaaaaaa",
"aaaaaaaaaaaaaaaaaaaaaaaaaaaaaabdedefedccaaaaaaaaaaaaaaaaaaaaaaaa",
"aaaaaaaaaaaaaaaaaaaaaaaaaaaaabbdefdegebccaaaaaaaaaaaaaaaaaaaaaaa",
"aaaaaaaaaaaaaaaaaaaaaaaaaaaabbbefedfgddccaaaaaaaaaaaaaaaaaaaaaaa",
"aaaaaaaaaaaaaaaaaaaaaaaaaaaabdbfgfdghdbbccaaaaaaaaaaaaaaaaaaaaaa",
"aaaaaaaaaaaaaaaaaaaaaaaaaaabbebefdghgdbdbcaaaaaaaaaaaaaaaaaaaaaa",
"aaaaaaaaaaaaaaaaaaaaaaaaaaabdfdddehgfbbdbcaaaaaaaaaaaaaaaaaaaaaa",
"aaaaaaaaaaaaaaaaaaaaaaaaaaabfgebbfifbbbebcaaaaaaaaaaaaaaaaaaaaaa",
"aaaaaaaaaaaaaaaaaaaaaaaaccbbdgfbdifbcbdfbcaaaaaaaaaaaaaaaaaaaaaa",
"aaaaaaaaaaaaaaaaabbbbbabbbbbbegbfidccbdfbcccaaaaaaaaaaaaaaaaaaaa",
"aaaaaaaaaaaaaaaabdddddbbeebecbfdgdccbdedbcbbcaaaaaaaaaaaaaaaaaaa",
"aaaaaaaaaaaaaaabdfhjgededbcddcfegccbdbedbcdcbbbbbaaaaaaaaaaaaaaa",
"aaaaaaaaaaaaaabdfkifggedfdclmdgedcbnbdedbcbbbddddbaaaaaaaaaaaaaa",
"aaaaaaaaaaaaaabdfiggjgfeegbbobedfbpodfebbcbdeighgdbaaaaaaaaaaaaa",
"aaaaaaaaaaaaaabdegfggffeefcbdbdeibbdfedbccdefgqrhgdbaaaaaaaaaaaa",
"aaaaaaaaaaaaaacbdfefeeffedcbdeefrdefedbccsedefqighdbaaaaaaaaaaaa",
"aaaaaaaaaaaaaaacbddddbeffdccbdegqfeedbcssdbddejfegdbaaaaaaaaaaaa",
"aaaaaaaaaaaaaaaccbbbccbegeccbbditkebbcssbdcbddfefedbaaaaaaaaaaaa",
"aaaaaaaaaaaaaacbdcdedcsbffbcbcbdedbbcsscbbccbbdddbbaaaaaaaaaaaaa",
"aaaaaaaaaaaaaacecbefebccbedccbegkfdbcscbsssccccbdbcaaaaaaaaaaaaa",
"aaaaaaaaaaaaaacdcdigdbcscbdccbbefbbcscdsscbbccbdebcaaaaaaaaaaaaa",
"aaaaaaaaaaaaaacbcefdbccsscbccbcbbdbcsbsscbeebbeedbaaaaaaaaaaaaaa",
"aaaaaaaaaaaaaabccddbbccssscbcbbfedbcssscbefebegedbaaaaaaaaaaaaaa",
"aaaaaaaaaaaaaabbbdccccssssssscbddbbcsscbegfdbgedbcaaaaaaaaaaaaaa",
"aaaaaaaaaaaaaabdefdbccssssuuscbbbbdcscdegfdbegedbaaaaaaaaaaaaaaa",
"aaaaaaaaaaaaaacbdefebcassussvscbdfecsbeiedbegedbcaaaaaaaaaaaaaaa",
"aaaaaaaaaaaaaaacbdegebsssusswsscbddbsbfebdddbbbcaaaaaaaaaaaaaaaa",
"aaaaaaaaaaaaaaaaccdegebsccvwsssscbccbbbbeebbbbcaaaaaaaaaaaaaaaaa",
"aaaaaaaaaaaaaaaaaaccefebdexyssssscbbdgfdbccccaaaaaaaaaaaaaaaaaaa",
"aaaaaaaaaaaaaaaaaaaaccbfgxsszsscbbdegeedcccbbaaaaaaaaaaaaaaaaaaa",
"aaaaaaaaaaaaaaaaaaaaaacgjysszcbdefifeddbcbbbbbbaaaaaaaaaaaaaaaaa",
"aaaaaaaaaaaaaaaaaaaaaacfjdzzbeegggfedbcsssccbbbbaaaaaaaaaaaaaaaa",
"aaaaaaaaaaaaaaaaaaaaaabdgeefgkgeedbcsssssscbefgebaaaaaaaaaaaaaaa",
"aaaaaaaaaaaaaaaaaaaaacbcdffdedbbcsssssssssbdfqrgdbaaaaaaaaaaaaaa",
"aaaaaaaaaaaaaaaaaaaaacbsccccbccABCDDsEsssssbdefedbaaaaaaaaaaaaaa",
"aaaaaaaaaaaaaaabaaaaacdbbssccdbCABFDDEscssccbbbdbcaaaaaaaaaaaaaa",
"aaaaaaaaaaaaaaadbaaaacdbbbbbfddDBBDFFscbbcbbdddbccaaaaaaaaaaaaaa",
"aaaaaaaaaaaaaaadebbaacbfedbgjfbDCBDFFscbdcbdfqgbcaaaaaaaaaaaaaaa",
"aaaaaaaaaaaaaaaadedbbbbedbdegecDCBDFscbccbbbegfecaaaaaaaaaaaaaaa",
"aaaaaaaaaaaaaaaaadfffdbbbbbbebcDDBDssccbdefedeedcaaaaaaaaaaaaaaa",
"aaaaaaaaaaaaaaaaaadddfgiigedbbcDDCFscbbdeghgebbcaaaaaaaaaaaaaaaa",
"aaaaaaaaaaaaaaaaaaaabbdefihifdbDDCsbddgedegffbcaaaaaaaaaaaaaaaaa",
"aaaaaaaaaaaaaaaaaaaaaabbbbefgjdbCDcdegqgebdedcaaaaaaaaaaaaaaaaaa",
"aaaaaaaaaaaaaaaaaaaabbdcbcccefjdbDcbdejgdbcbccaaaaaaaaaaaaaaaaaa",
"aaaaaaaaaaaaaaaaaaabdfcbdefdcefebDscbdfdbccccbbaaaaaaaaaaaaaaaaa",
"aaaaaaaaaaaaaaaaaabdbbbbdfidbcedbEEscbbccccbdedbaaaaaaaaaaaaaaaa",
"aaaaaaaaaaaaaaaaaabegfbbefjedbdbaaasscccbbbdfjfdbaaaaaaaaaaaaaaa",
"aaaaaaaaaaaaaaaaaabfhfdbegkeebcaaaacccbbdedbdfebbaaaaaaaaaaaaaaa",
"aaaaaaaaaaaaaaaaaabdfgbbdgjefcaaaccbbbbdekfdbdbbaaaaaaaaaaaaaaaa",
"aaaaaaaaaaaaaaaaaaabegfdbbbbbcbbbddegfdbdeddbbbaaaaaaaaaaaaaaaaa",
"aaaaaaaaaaaaaaaaaaabdhgfegfddbbdbbdfqedbbbbbaaaaaaaaaaaaaaaaaaaa",
"aaaaaaaaaaaaaaaaaaaabdfejjggeegfdbbeddbbssaaaaaaaaaaaaaaaaaaaaaa",
"aaaaaaaaaaaaaaaaaaaaabddeffedfheddbbscecsaaaaaaaaaaaaaaaaaaaaaaa",
"aaaaaaaaaaaaaaaaaaaaaabbbdddbdddbbbscsbcaaaaaaaaaaaaaaaaaaaaaaaa",
"aaaaaaaaaaaaaaaaaaaaaaaacbbbbbbbaaascsdccaaaaaaaaaaaaaaaaaaaaaaa",
"aaaaaaaaaaaaaaaaaaaaaaaaacccbaaaaaaaccddcbaaaaaaaaaaaaaaaaaaaaaa",
"aaaaaaaaaaaaaaaaaaaaaaaaacdbecaaaaaccdbebecaaaaaaaaaaaaaaaaaaaaa",
"aaaaaaaaaaaaaaaaaaaaaaaaccebdcaaaaaaccccccaaaaaaaaaaaaaaaaaaaaaa",
"aaaaaaaaaaaaaaaaaaaaaaaccbdccGaaaaaaaaaaaaaaaaaaaaaaaaaaaaaaaaaa",
"aaaaaaaaaaaaaaaaaaaaaacebebdccaaaaaaaaaaaaaaaaaaaaaaaaaaaaaaaaaa",
"aaaaaaaaaaaaaaaaaaaaaaaccccccaaaaaaaaaaaaaaaaaaaaaaaaaaaaaaaaaaa"
};
