/* XPM */
static char *lives_14[] = {
/* columns rows colors chars-per-pixel */
"192 48 190 2 ",
"   c #020208",
".  c #050719",
"X  c #0C111C",
"o  c #13151C",
"O  c #040D26",
"+  c #0B152A",
"@  c #12182B",
"#  c #04053A",
"$  c #0D1933",
"%  c #121B34",
"&  c #1E212C",
"*  c #16223C",
"=  c #2A2C2D",
"-  c #2D2E33",
";  c #2F3136",
":  c #343539",
">  c #030649",
",  c #071247",
"<  c #101242",
"1  c #020A57",
"2  c #08135A",
"3  c #141854",
"4  c #152544",
"5  c #1B2C57",
"6  c #1E325C",
"7  c #25314C",
"8  c #363A42",
"9  c #202F57",
"0  c #26375B",
"q  c #323B5D",
"w  c #020C65",
"e  c #03146B",
"r  c #101A6B",
"t  c #010C77",
"y  c #011776",
"u  c #141E79",
"i  c #1A2B68",
"p  c #1D3366",
"a  c #1C2B76",
"s  c #1F3770",
"d  c #202B62",
"f  c #263963",
"g  c #313F63",
"h  c #263D74",
"j  c #3B3F79",
"k  c #403F41",
"l  c #3B4046",
"z  c #3A445D",
"x  c #2B426A",
"c  c #36476A",
"v  c #2C447B",
"b  c #364A78",
"n  c #3D5178",
"m  c #444546",
"M  c #4C4F57",
"N  c #555556",
"B  c #424B66",
"V  c #47526A",
"C  c #5A5C61",
"Z  c #424C74",
"A  c #46547A",
"S  c #576177",
"D  c #666769",
"F  c #686B74",
"G  c #797B7A",
"H  c #000B87",
"J  c #031C87",
"K  c #141E84",
"L  c #000D96",
"P  c #041D94",
"I  c #06218C",
"U  c #152489",
"Y  c #062298",
"T  c #122C9C",
"R  c #1E349D",
"E  c #27368D",
"W  c #2E3896",
"Q  c #303C9C",
"!  c #031AA6",
"~  c #011AB4",
"^  c #0826A6",
"/  c #1228A8",
"(  c #0C31AB",
")  c #1A36AA",
"_  c #0A2CB8",
"`  c #112DB6",
"'  c #0C31BB",
"]  c #1233B9",
"[  c #2F3EA9",
"{  c #313EA4",
"}  c #2F4780",
"|  c #354B82",
" . c #3D5385",
".. c #34429A",
"X. c #3E5794",
"o. c #3646A9",
"O. c #2845B2",
"+. c #354CBA",
"@. c #3E52B1",
"#. c #42488C",
"$. c #445888",
"%. c #565B89",
"&. c #4B5C92",
"*. c #555C94",
"=. c #566287",
"-. c #4F6298",
";. c #586A98",
":. c #636D8C",
">. c #69738C",
",. c #7C7E8E",
"<. c #606393",
"1. c #67759A",
"2. c #707899",
"3. c #434FAF",
"4. c #4757AB",
"5. c #5259A8",
"6. c #455AB7",
"7. c #5669A8",
"8. c #5E71A1",
"9. c #4D63BC",
"0. c #5466B8",
"q. c #6164A1",
"w. c #6977A4",
"e. c #727CA5",
"r. c #6376B5",
"t. c #707AB4",
"y. c #0B2FC3",
"u. c #122FC0",
"i. c #0C31C3",
"p. c #1133C4",
"a. c #3F5CC4",
"s. c #485EC0",
"d. c #4B65C4",
"f. c #5C71C5",
"g. c #6579C8",
"h. c #77819D",
"j. c #7983A8",
"k. c #7B89B3",
"l. c #7E87CC",
"z. c #7A8BD7",
"x. c #7E93DB",
"c. c #868C9D",
"v. c #9FA19C",
"b. c #8288AB",
"n. c #9498AC",
"m. c #838DB4",
"M. c #8894B8",
"N. c #979CB7",
"B. c #9BA3BE",
"V. c #AFAAAA",
"C. c #A8AABD",
"Z. c gray69",
"A. c #868CCA",
"S. c #8996C8",
"D. c #979CC9",
"F. c #8895D5",
"G. c #949DD8",
"H. c #9CA4C5",
"J. c #8BA2D9",
"K. c #99A5D7",
"L. c #A4AAC7",
"P. c #A0AFDE",
"I. c #AAB3DA",
"U. c #B7BAD9",
"Y. c #8897E2",
"T. c #99A7E3",
"R. c #A4AFE6",
"E. c #A6B4E2",
"W. c #B5BEE7",
"Q. c #BEC1DE",
"!. c #B9C2E8",
"~. c #C9C8CF",
"^. c #C7C8D9",
"/. c #DAD9DA",
"(. c #E0DDDA",
"). c #EDE8DF",
"_. c #C7CBE3",
"`. c #CCD2EB",
"'. c #D6D8E9",
"]. c #C5CFF5",
"[. c #CBD6F3",
"{. c #D4DAF3",
"}. c #DAE2F6",
"|. c #E6E5E8",
" X c #F2EBE5",
".X c #EAECF6",
"XX c #F2EEF8",
"oX c #EEF1F9",
"OX c #F9F9FB",
"+X c None",
/* pixels */
"+X+X+X+X: k k k l : : : : : : : ; - - = : : : : : : : : : : : : : : : : : : : : : : : k : ; ; ; = : : : : 8 : : : : k : : : : : : : ; ; = ; : : : : : : : 8 : 8 : : : : : ; : : : : : : : : : = : : : : : : ; : : : : : : : : : : : : : : : ; : : : : : : : : : ; : : ; ; ; - - : - : : : : 8 : : : : ; ; : - - - : : : : : : : : - : : : : : : : ; : ; ; ; : : : : : ; ; : : : : : : : D +X+X+X",
"+X+X+X+X  & = @ @ @ @ @ @ @ @ @ + @ @ @ @ @ + + @ @ @ % % % @ @ @ % @ @ % % $ @ % @ @ @ o + o + o @ + + @ @ % % @ % % + + @ $ $ % @ @ + + + @ o @ @ @ + @ @ % % % % @ @ @ @ @ % @ % % & @ @ @ + @ @ @ @ % % @ @ @ @ @ @ @ @ @ + + @ @ @ + @ + @ @ @ + + @ @ + + + + @ X @ @ + + @ @ @ @ @ + % @ + @ @ @ @ @ @ @ @ + @ @ @ @ O X @ o @ @ + @ % @ @ + @ @ @ @ @ @ @ $ @ @ % & % * & @ o o M +X+X+X",
"+X+XG k   C.n.2.1.=.n n c c n c n c b n n n n A Z A n n n n c n n c c n n Z A n n Z c c c b b n n n n n n n Z n n c n n Z n n n A n n n n n n n c n n c n n n c b c n n c n n V n Z A n c Z n b c Z Z n n n n c b c c n n n n n b c b b b b c n c c n n n c Z c b n n n c n b c n c B c c n b n b b c b n c n n n b n n c c n n b c c b n n n c c c c c b c c n b b c n n A >.:.:.j.h.z X : +X+X",
"+X+Xm     (.~.e.j.w.$.$.&.$.$.$. .$.$.$.$.&.$.&.&.$.&.$.$.$.$.$.$.$.&.$.$.$.$.$.$.$.$.$.$.$.$.$.$.$.$. .$.$.$.$.$.$.$.$.$.$.-.$.&.$.$.$.-.$.$.$.$.$.$.$.$.$.$.$.$.$.$.$.$.$.$.$.$.&.$.$.$.$.$.$.$.$.$.$.$.$.$.$.$.$.$.$.$.$.$.$.$.$.$.$.$.$. . .$.$. .$.$.$.$.$.$. . .$.$.$.$.$. . .#.$. .$. . .#.A  . .$. .$.$.$.$.$.$.$.$.n  .$.A $.$. . .n  .|  . . .$. . . . . . . .&.&.1.j.h.L.L.A X   +X+X",
"& : C V.V.n.b.%.&.A f 0 0 0 9 7 9 7 7 9 0 q f 0 z x 0 x 0 0 0 0 0 0 0 0 0 0 7 0 0 0 0 0 x 0 0 0 0 0 0 0 f 0 q 0 9 0 0 0 0 q 0 0 0 0 0 0 0 0 0 0 0 0 0 0 9 0 0 0 0 q 0 0 g g g g z x 0 0 q 0 f 0 0 q 0 0 0 0 0 0 0 0 f q f 0 0 0 0 0 0 0 0 0 0 0 0 0 9 0 0 0 0 0 0 0 q f x 0 0 f 0 0 0 0 0 0 0 0 0 0 0 0 0 f g f f 0 0 0 0 0 7 0 7 0 0 0 0 0 0 9 0 0 0 f 0 f f f x 0 0 0 x z n n n 1.h.M.h.S X   ",
"@ * F /.).:.;.s s 5 @ + + + + + + + + + + + $ $ + $ @ % @ % @ + + + @ + + + + + @ X + + @ @ $ $ % + @ + + + + + + + + @ + + $ + + $ $ + % % + $ + @ + + + + + + + + @ $ + + + + + + + + + + + + + + + + + + + @ + $ $ $ $ @ $ $ + + $ $ $ @ $ + + + + + + + + @ + + + $ @ $ $ @ $ @ $ + + % $ + + + + + + + $ + $ $ + + + + + + + $ $ $ + @ + + + + $ $ $ $ % $ $ $ + + O + 5 p 5 8.$.Q.B.S $ . ",
"o = F ).).;.;.i s i @ + + + + + + + + + + + @ $ + $ $ $ % $ + + + + + + X + O + + + + + + $ + + + + + + + + + X + + + + + + + + + + $ $ + $ + + + $ + + + + + + + + $ $ $ + @ + + + + + + + + + + + + + + + + + $ $ $ + @ $ + + + + + + + + + + + + + + O + + + + + + + + @ + + @ @ + + + @ $ $ + @ + + + + $ @ $ + + O + X O + + + $ $ + $ + + + + + $ $ $ @ + + + + + + X 5 6 p 8.-.Q.M.S +   ",
"X & V j.b.5 4 . . + y y y y y y y y e y y y y y y y y y e y e y y e e e e e y y y y y y y y y y y e e e e e e e e y e e y y y y y y y y y y y y y y y y e y e e y y y y y y y y e y e y y e e e y e t e e e e e y y y J y y y y y y y y y y y y e e y e y y y y y y y y y y y y y y y y y y y y J y y J y J y J y y y y e e y y y J y y y y y y y y J y J y y y e e e e e e + X . 4 , Q.C.>.+ . ",
"X @ B k.k.p 5 O X O y y y e e e y e y y y e y y y y y y e e e y e e y e y e y e e y y t y e y y y e e e e e e e e e e e e e y e t y e y e y y y y y e y e e e e y e y e y y y y e y t e e y e t e e e e e e e y y y y y y e e y e y y e y e y e y e y e e e y y e y t e y e e y e y y y y y y y y y y y y y J y y y y e e e y e y y y y y y y y y y J y y y y y e e e e e e $ + O i 5 I.H.>.O . ",
"X @ z 1.h.7 * $ , , y y y y y y y y y y y y e y y y e e y e e e e y e e e y e y y y e e t y e y y e e e e e t e e y y y y e e t e e y y y y e y y y y y e y e e e e t y y y y t y e e e t e e e e e t e t e y y y y e y y y t e e y e y t y e y t y y y y y y e y e e y e y y y y y y y y t y e y y y y y y y y y e y e y e y y y y y y y y y y y I y y y y e y y e y y y y r 2 2 4 $ k.e.A O . ",
"X & q -.;.* $ 2 y y y y y y J y y J J y J y y J y y y y y y y I y y J y y y J y y y y y y y y J J J y y y e y y K J J J J y J y y J y u y y J J J J J y y y y y u J y J J J y y y J y J y J y y J y y y y J I I J J J y y y y y J J J y y J y y y J y y y J J y J y J y y J y J y J y J y J y J J y J J J J J J y J J y y J J J J J J y y I I J I J I J J I J y y J J J y I y y y $ $ w.;.V O . ",
"+ @ z &.=.* + e y y y y J y y J y J y J J J y y e w t t y y J y J J y J J J y J y y e y e e u y y H J J J J y e y t y J J J J J y y t y y y y u J J J H u u y t t y y u t e y u y t u t y J J J J J y J J u J K K K y t r t e u K y J J J J J J J y J J J y J H y J y y J y J y y J J J J y J y y U y K K u y y y y H J J y J J J J y J y w t H J P J J J y J J J J y y I y y y I $ + 1.;.A O . ",
"X @ 0 $.A % + y y I I J Y P Y Y Y Y P Y P Y P I ..OXOXOXOX0./ Y Y Y Y Y P Y Y Y P J J P F.OXOXOXOXP Y P P P 7.OXOXOXOXK ! Y J J J J t OXOXOXOXOXU I Y t OXOXOXOXOXOXOXOXOXOXOXOXOXOXOXOXOX6.T Y P P Y Y ( OXOXOXOXOXOXOXOXOXOXOXOXOXd./ ^ P ^ Y Y P ^ Y Y Y P Y Y Y J Y Y I Y Y Y Y Y Y T Y Y T Y oXOXOXOXOXP P Y Y P Y Y ^ Y ^ Y ^ Y P L.OXOXOXXXL T Y Y Y Y Y Y Y Y Y Y I I y y + O $.$.b $ . ",
"X & q $.$.< $ y y I P J Y J J Y P Y Y P Y I P I Q OXOXOXOX5.T Y Y Y P J Y I P J P P J J l.OXOXOXOXP Y ! Y P 6.OXOXOXOXP Y Y Y Y J J t .XXXoXOXOXK I Y H OXOXOXOXOXOXOXOXOXXXOXOXOXOXOXOXOX3.Y Y Y Y Y Y ( OXOXOXOXOXoXXXXXOXOXOXOXOX6.Y P ^ P Y Y Y P P P Y Y P P P Y P Y Y P Y Y Y Y Y Y Y ^ Y P .XOXOXOXOXP I I Y ^ P Y Y Y ^ Y Y Y Y F.OXOXOX{.H Y P I Y P Y Y P P Y Y Y J J I + + n  .b # O ",
"X @ 0  .$.4 * I I J I J J I P P P Y P Y P Y Y I Q OXOXOXOX5.Y J I P Y J J P J Y P Y P P F.OXOXoXOXH T P P P 6.OXOXXXXXH P P I J P J H .XXXXXXXOXK J I t OXOXOXOXOXOXOXoXOXXXOXOXOXOXOXOXOX6.Y Y Y ^ Y ^ T OXOXOXOXOXXXOXOXOXOXOXOXOX6.! ^ Y Y ! ^ P P Y Y P P P Y Y P Y P Y Y I P Y Y I P P J P P .XOXOXOXOXP P Y Y Y Y Y ^ P Y Y Y Y ^ G.OXXXOX{.H I I Y P I Y Y P Y Y Y I P J I X X  .| c # O ",
". @ 0 $.$.4 $ I I J Y P P P J Y J J Y J P P Y Y o.OXOXOXOX5.T J J J J Y J Y Y Y Y Y ^ P F.OXOXOXOXJ K P P Y 9.OXOXXXXXJ I I Y Y Y Y H .XOXoXOXOXu I I t OXOXOXOXOXOXOXOXXXOXOXOXOXOXOXOXOX4.^ Y Y P P I Y OXOXOXXXXXXXOXOXOXOXOXOXOX6.^ P / P P P P P Y J Y P I J Y Y Y P Y Y Y Y P Y P P J OXOXOXOXOXOXOXOXP Y P Y ^ P Y P Y P P H P J G.OXOXXX{.H I P I I P Y Y Y P P Y Y J J I + X  .b b + O ",
"X @ 9  . .4 * Y ^ P ^ P Y P ^ P Y Y Y Y Y ^ ^ ^ o.OXOXOXOX*.y w Y Y Y Y ^ Y ^ Y ^ ^ _ ^ Y.OXOXOXOXw r J Y Y 9.OXOXOXXXw y y ^ ^ ^ ^ P XXOXoXoXOXr 2 K t OXOXOXOX_./.^.^.^.^._.`.'.'.'.`.|.Q I ^ P z.F.D.A.{.!.!._.^._._.'.'.'.'.|.|.o.^ ^ ! T.J.J.F.P ^ Y ^ Y ^ ^ ^ ^ ^ ! ^ ^ ^ ^ Y / Y Y P OXoXOXOXOXOXOXOXt 1 _ ^ ^ ^ ^ ^ ^ Y L !.W.W.{.oXOXOX'.1 2 ! P / ^ ! ^ ^ ^ ^ ! ^ Y Y Y + X  .n n $ O ",
"X @ 7 b  .* $ ^ ^ ^ ^ ^ ^ ^ ^ ^ ^ ^ Y ^ Y ^ P ^ @.OXOXOXOX%.r > ^ ^ ^ ^ ^ ^ ^ ^ ^ ^ ^ ^ F.OXOXoXOX> > J Y Y 9.OXOXOXOX1 w y ( ^ ^ _ ! oXOXOXOXOX> < J t XXXXOXXX> r r 2 e r r r y r e 2 2 1 > ( L ].OXOXXX0.( _ 1 2 2 r e r e r e r w y _ ! OXOXOXXXL ^ ^ ^ ^ ^ ^ ^ ^ ^ ^ ^ ^ ^ ^ ^ ^ ^ ^ / OXoXXXOXOXOXOXOXw 1 _ ^ ^ _ ^ ^ ^ Y L OXOXOXoXOXoXOX{.1 , _ ^ ^ ^ ^ ^ ^ ^ ^ ^ ^ Y Y I + O  .n b O . ",
". @ x n  .* $ ^ ^ ^ ^ Y ^ ^ ^ P ^ ^ Y ^ ^ Y Y / o.OXOXOXOX%.e > ^ ^ ^ ^ ^ ^ ^ ^ ^ ^ ^ ! F.oXoXOXOX> , J ^ ^ d.OXOXOXOXw t y _ ^ ^ / P oXOXOXOXOX3 # J t oXXXOX.X> 1 1 1 1 w w w w w w 1 1 1 > T L ].OXXXXX0._ ^ 1 1 1 w e w e w w 1 w y _ P OXOXOXoXL Y / ^ ^ ^ ^ ^ ! ^ ^ ^ ^ ^ ^ ^ ^ / ^ ) `.`.^.XXXXXXXXOX1 1 _ ^ ^ ^ ^ ^ Y ^ P OXOXOXXXOXOXOX}.1 1 _ ^ ! ^ ^ ^ ^ ^ ^ ^ ^ Y Y Y + X  .| c + . ",
"X @ 6  . .4 * T ^ Y ^ Y ^ P ^ ^ Y Y ^ Y Y ^ Y Y o.OXOXOXOX%.w 1 ^ ^ ^ ^ ^ ! Y ^ Y ^ ^ P z.oXOXoXOX> > P ^ ^ d.OXOXOXOX1 w w ^ Y ^ ^ P XXOXOXOXOX3 > J H oXXXoX.X# , 1 1 2 2 2 w w w 2 1 1 1 > Y L [.oXXX.X0.^ / w e e e r e w w 1 1 1 e ^ ! OXoXoX.XL Y P Y ^ ^ / ^ ^ ^ ^ ^ ^ ^ ^ ^ ^ ^ ^ ^ / J # !.XXOXOXOX1 1 ^ ^ ^ ^ ^ Y / Y L OXOXOXOXOXOXOX.X1 1 _ ^ _ ^ ^ ^ ^ P ^ Y ^ Y Y Y + +  . .b + . ",
"X % z |  .4 4 Y Y Y ^ Y ^ Y Y Y ^ Y ^ P ^ Y ^ P o.OXOXOXOX%.e 1 _ ^ ^ ^ ^ Y / ! Y Y Y P z.oXOXOXOX> > T ^ ^ d.OXOXOXOX1 w w ! P Y ^ L oXOXOXOXOX3 2 J L oXoXXX.X# > > 1 1 1 1 w t t w e w 1 1 I L {.OXOXOX;.J K w w r t w y t e w 1 1 w ^ L oX`.`.`.H Y Y ^ ^ ^ ^ ^ ^ ^ ^ ^ ^ ^ ^ T ^ ^ ^ ^ ^ ^ % `.OXXXOXOX1 > ^ ^ P ! ! [ T R T !._._..XOXOXOX.X1 > ^ ^ ! ^ ! Y ! ^ P ^ ^ Y Y ^ + + $. .n # . ",
"X % 0  .&.4 $ ' _ ' _ ' _ ' _ y._ ' _ ' ' _ _ _ a.OXOXOXOX<.y 2 i.y._ _ _ _ _ ^ _ _ ^ ~ z.OXOXoXOX, > / _ y.d.OXOXOXOX> 1 w _ _ ^ ^ ^ .XOXOXOXOX3 1 ] _ ` / ..OXOXOXOXOXOXXXXX.Xg.^ ^ ^ ^ ( _ _ ' ' ' ( r '.XXXXOXXXOXXXXXK.p.u._ _ ^ _ ^ ( ( ` 2 2 1 > y._ _ _ _ _ _ y._ _ _ _ _ _ ' ' ' _ y._ 2 `.OXOXOXOXw 1 y._ ^ _ ~ OXoXOXXXL / t N.OXOXOX.X> > y._ _ _ _ _ _ _ _ _ ^ ^ _ y.$ $ X. .b +   ",
"X % 0  .$.4 % ] ` _ _ _ _ _ ' _ _ ' _ _ _ _ y._ +.OXOXOXOX<.y 1 i.y._ _ _ _ _ _ _ ^ _ _ z.OXOXOXOX, 1 / ' _ 0.OXOXOXOX> 1 w _ _ _ _ ! .XOXOXOXOX3 > _ ] g.}.OXOXXXOXOXOXOXXXXX.Xf.^ ^ ^ _ _ _ _ ' ' ' I r '.OXOXOXOXOXOXOXG.p._ ( _ ^ ( _ ^ _ _ 1 1 1 1 y.u._ _ _ _ _ _ _ _ _ _ _ _ u.y._ ' _ _ 1 {.OXOXOXOXw 1 y./ ( _ ~ OXXXoXXXH / w L.OXOXOX.X1 > y.^ _ _ ^ _ _ _ _ _ _ ^ _ _ $ + &.X.n O . ",
"X & 0  .$.4 $ ( _ _ _ _ _ _ _ _ _ _ ' _ ' u.u.y.+.OXOXOXOX<.u 1 y._ / _ _ _ ` _ _ _ _ _ z.OXOXOXOX1 > / ' _ d.XXOXXXXX> 1 e _ y.y._ ~ .XOXOXOXOX3 1 i.' W.OXOXOXOXOXOXOXOXOXoXoXg._ _ ^ _ _ _ _ _ ' u.J 2 '.OXOXOXOXOXOXoXG.) / ^ / ( ^ ^ _ ^ i.1 1 w 1 y._ _ _ _ _ _ _ _ / _ ' _ _ _ _ _ _ _ _ p.}.OXOXOXOXw 1 y.( _ ^ ~ OXXXoXoXH T w L.OXOXOXXX1 1 y._ _ _ _ _ _ _ _ ^ _ ^ ^ ' $ + -. .c O . ",
"X % 0  .$.* $ ( ( _ _ ` _ ` _ ' ' _ _ _ _ y.y.u.+.OXOXOXOX<.e 1 y._ _ _ _ _ _ _ _ _ _ y.x.OXOXOXOX, 1 / _ _ s.oXXXOXXX> 1 w y.y.u.y._ XXOXoXOXOX< > ] ` !.OXOXOXOXOXOXOXOXOXOXXXg./ / ^ ( _ _ _ _ _ _ / I J.U.U.L.L.H.N.n.t.E [ +.@.^ _ _ _ _ y._ y.y.y.i.i.' _ ' _ _ ` _ _ _ _ ' _ _ ' ` _ _ _ ] [.OXOXOXOXw 1 y.( _ ^ ~ OXOXOXXX1 r U U.OXOXOXOX1 2 y.~ y._ _ ^ _ ^ _ _ _ ^ ^ _ + +  . .c +   ",
"X @ 0 X.$.* $ ( / _ _ _ _ _ _ _ ' y._ u._ ' u.u.a.OXOXOXOX=.r > y./ _ _ _ _ y._ _ _ y._ z.OXOXoXOX2 > / ' ' s.oXXXXXXX# w r y.u.y.i._ oXOXoXoXOX< # ( ( E.OXoXoX# < , < < , , , w 1 y _ ^ _ _ _ _ _ _ _ ` ] i.p.w e w r 2 #..XXXoXOXO._ _ _ {.OXOXOX] i.i.y._ ' _ _ _ _ _ _ _ _ _ ` y._ ' _ _ _ i.[.OXOXOXOX1 > y.^ ^ _ _ OXOXOXOX'.}..XOXOXOXOXOX[.`.[.{.~ _ _ _ _ _ _ _ _ _ _ i.$ + X.| n + . ",
"X @ 7  .X.4 $ ( _ _ _ _ ' ' _ y._ y.u.' u.' ' ' +.OXOXOXOX%.w > u._ _ _ _ _ _ _ y._ _ _ z.OXOXOXOX2 1 / y._ 6.oXOXOXXX> 1 w y.' ' ' ~ oXOXOXOXoX> # ( ( E.OXOX X1 2 w e r e y e e w P ` _ _ ` _ _ ^ _ _ u.p.u.p.e e e e 3 Z XXXXoXOXO._ _ _ {.oXoXOX_ y.y.' i._ _ _ _ _ _ ' _ _ _ ' _ ' _ _ ' ' ' [.OXoXOXOX1 > ' _ _ _ ~ OXOXOXOXOXOXOXOXOXOXOXOXOXXXXXOX~ _ ^ _ _ _ _ _ _ _ _ ' + +  . .b O . ",
"X @ 7  .$.4 $ ( / _ _ _ ' ' _ _ y._ _ y._ _ _ ' +.OXOXOXOX%.w # _ _ _ _ _ y.u.' _ _ ^ _ z.OXOXoXOX, > T _ _ a.OXXXOXOX1 w t y.` _ _ _ XXoXXXi 1 > # ( ( P.oXOXoX> 1 2 w w e w r w 1 Y _ _ _ / ^ / _ _ ` y.p.i.p.1 1 2 1 , %.|.XXOXOXO._ ^ ~ {.OXOXOX_ y.y.i.' _ _ _ _ _ ` ' _ u.' _ ' _ _ ' ' ' ' [.OXoXoXOX1 > _ _ _ y._ OXOXOXOXOXOXOXXXOXOXXXOXXXXXOXOX! _ _ _ _ _ _ _ _ _ _ ' + + $.| c O . ",
"X @ 5  . .4 $ _ _ _ _ _ u.y._ y._ _ _ ' _ _ ' u.a.OXOXOXOX=.r , ` _ / y.u.p.u._ _ ' ' _ z.OXOXOXOX> , Y _ _ a.OXOXOXOX2 r y i.] ` ` ^ .XoXOXw 1 > > ( ( P.XXOXoX> r r w r w w w 2 1 U _ ` _ ( _ ` ^ ^ _ _ _ ` _ / J w 2 2 %..XoXOXOXE J ^ ! `.oXoXOX_ i.' y._ _ _ _ _ y.' u.' _ _ _ _ _ _ _ ' ] y.[.XXoXoXOX2 1 y._ y.y._ OXOXOXOXOXOXXXXXXXXXOXXXOXXXXXOX! _ _ ~ _ _ _ _ _ _ _ i.+ +  .n b O . ",
"X @ 7  .n % $ T ^ _ _ ^ ^ ^ ^ _ ^ _ ^ ^ ^ ^ ^ ^ o.OXOXOXOXC.e.b.F.F.F.Y.T.T.T.Y.~ ^ _ ^ F.OXOXXXOX# # I Y ^ ( @.5.| | #.t.A.T.K.G.G.R.o.U a 1 1 1 w ( ( I.oXoXOXm.M.S.H.D.K.K.L.G.D.F.F.G.P Y ^ L T.W.].!.!.!.!.!.E.A.A.A.t.a a i 5 1 2 ^ ^ 4.5.*.&.t P ^ ^ ^ ^ ^ ^ ^ ^ ^ ^ ^ ^ _ ^ _ ^ ^ ^ ^ ^ _ [.OXXXXXOX1 1 _ _ _ _ _ f.f.7.=.&.%.$.N.OXXXOXOXj A #.*.t e ^ ^ ^ ^ ^ ^ ^ Y Y Y + X $. .c O   ",
". @ 7 | | * $ ^ ^ ^ _ ^ ^ ^ ^ ^ ^ ^ ^ ^ ^ ^ ^ ^ o.OXOXOXOXOXOXOXoXOXOXOXOXOXOX.X! ~ ~ ^ z.OXOXOXOX> # I ^ Y ^ ^ / w t ^.OXOXOXOXOXOX.X[ U r > 1 _ ( ^ ( P.oXOXOXOXOXOXOXOXOXOXOXOXOXOXOXOXP P Y L [.OXOXOXOXOXOXoXXXOXXXXXU.P K 2 > , 1 Y ^ ^ _ 1 w 1 1 ^ ^ ^ ^ ^ ^ ! ^ ^ ^ ^ ^ ^ ^ ^ ^ ^ ^ ^ ^ ^ [.OXOXOXOXw 1 _ _ ^ _ ^ _ ! J 1 1 1 1 j.XXXXXXOX> 2 w e w 1 ~ ~ ^ ^ ^ ^ ! J J I + + $. .b + . ",
"X @ 7 b  .$ $ T ^ ^ _ _ ^ ^ ^ ^ ^ ^ ^ ^ ^ Y ^ ^ o.OXOXOXOXOXOXOXOXOXXXOXoXOXoX|.! _ _ ^ l.OXOXOXOX# > I Y ^ ^ _ / t w Q.OXOXOXOXOXOXF.! T w > > ^ Y ^ / K.OXOXOXOXOXOXOXOXOXOXOXOXOXOXOXOXT ! / P [.OXOXOXOXOXOXOXoXXXoXOX_._ ^ 1 1 1 2 ^ ^ ^ ^ w w w 1 _ ^ ^ ^ ^ ^ ^ ^ ^ ^ ^ ^ ^ ^ ^ Y Y ^ ^ ^ Y {.OXOXOXOXw 1 _ ^ ^ ^ ^ ! ^ J 1 1 1 , b.XXOXXXOX1 2 w e e w _ ^ ^ ! ^ ^ ^ Y I I + X  . .b O   ",
". @ 7  . .* + Y ^ Y ^ ^ ^ ^ ^ ^ ^ ^ ^ ^ ^ ^ ^ ^ { OXOXOXOXOXOXOXOXOXOXoX.XoXoX.XH y ^ ~ z.oXOX.XXX> < I ^ ^ ^ ^ ^ w t U.oXOXOXoXOX}.! P > > J e ^ T Y ^ T.OXOXOXOXOXOXOXOXOXoXOXOXOXOXOXOXP Y ^ L [.XXOXOXOXOXOXOXXXXXOXoXU.! T 1 1 1 1 ^ ^ Y ^ 1 1 1 1 ^ ^ ^ ^ ^ ^ ^ ^ ^ ^ ^ ^ ^ ^ ^ ^ ^ ^ ^ ^ ^ `.XXOXOXOXw 1 ^ ^ ^ ^ ^ ^ ^ J 1 1 1 > 2.XXXXXXOX> 2 w w e w ^ ^ ^ ^ ^ ^ ^ I I I X X $. .b O . ",
"o @ 0 n  .* $ Y Y Y Y Y ^ ^ Y ^ Y ^ ^ P ^ P I P o.OXOXOXOXOXOXOXOXOXOXOXOXOXOX.Xw 1 P P x..X.X|..X> > P ^ Y ^ ^ ^ ^ ^ [.OXOXOXoXOXa y J J J Y Y Y Y I Y !.OXOXOXOXOXOXOXOXOXOXOXOXOXOXOXOXJ Y Y L .XOXOXOXOXOXOXOXOXOXOXOXQ.P Y P Y Y I Y Y Y ^ Y Y Y I Y ^ ^ Y Y Y Y ^ ^ P ^ Y Y ^ Y P Y Y Y Y Y T.I.U.U.^.w 1 Y Y Y Y Y Y ^ Y Y I I I t.U.U.I.`.> 1 Y Y Y Y ^ ^ Y Y Y Y Y y I I X X $. .b O . ",
"X % 0  .$.* * I I Y Y Y Y Y P Y P Y P P P J P P J H H w > 1 1 > > > > > > > > > > > P J J I J 1 1 1 1 Y P ! Y Y Y ^ Y Y Y P y , > , > I Y Y Y I I Y I I J J t > 1 1 1 > 1 > > # > # # > > 1 e ^ ^ P L y > > > > > > > > > > 1 1 P P P P Y P P Y Y Y Y I J Y Y I P Y Y Y Y I P J J Y P P P Y Y Y Y I Y y 2 2 1 1 Y J P Y Y P Y Y Y P Y I I I I 2 , 1 1 Y Y Y Y Y Y P I Y I I y y y + X $.$.c # . ",
"X & 7 b | 4 $ I Y I I Y J P Y Y I Y Y P P P P J I P Y y 1 w w w 1 1 1 > 1 > 1 > 1 > H J P J P 1 1 w 1 P Y Y Y Y Y Y Y Y Y I y 1 1 > > J P J Y I Y I J Y Y P y 1 2 1 w 1 1 1 1 1 1 > 1 > 1 1 e ^ ! P Y y > > 1 > > 1 > > > 1 1 w Y Y P Y P Y Y Y Y Y Y Y Y I Y Y I Y I Y J Y I Y Y P Y Y Y P Y Y Y Y Y y 1 1 1 1 Y I Y Y Y Y Y Y Y I I Y I I I 2 2 1 1 Y Y Y Y I J Y Y I I Y J y I + O $.n c O . ",
"X @ B e.j.4 % I Y J P I J J J I J P J J J J J J J P P e w 1 1 1 1 1 1 > 1 > 1 1 > > J J J P Y 1 w 1 1 P J J I I I I I I P J y 1 1 1 > y J J J y I I J I Y J y 1 1 1 1 1 1 1 > 1 > 1 > 1 1 1 e Y P P P y 1 > 1 1 1 > 1 1 1 1 1 1 P J J J J J J P J P J I J J J J I J J J J I I I J J J P J J J J J P J y 1 1 1 1 Y J P J J I I I J J I J I J I w w w 1 Y I I I I J J J J J I y I I + + k.2.=.+ . ",
". @ B j.m.* % I I I Y J I J J J J P J J P J P P J P P y w w 1 1 1 1 1 1 1 1 w 1 1 > J J J J I w w w w J I J I I J J I I I Y y 1 1 1 2 y y J I J y I I J I I y 1 1 1 1 1 1 1 1 1 1 1 1 1 1 1 w Y Y J J y 1 1 1 1 1 1 1 1 1 1 1 2 J J J P J P J Y P I J I J I J I I I I J J I I I J J J J Y J I J I J J y e e e e J J J P J I I I J I I I I Y Y y y y y I y I I y J I J I J Y J y y @ + k.e.%.O   ",
"X @ c.(.XXq x     # J y J y y y y y y y y y y y y y y J y y y y y t y y y y y y y y y y y y y y J y H y y y y y y y y y y y y y y y y y y y y y y y y y y y y y y y y e e y y y y y y y y y y y y y y y y y y y y y y J y y y y y y y y y y J y y y y J J y y y y y y y y y y y y y J y y y y y y y y y y y y y y y y y y y y y y y y y y y y y y y y y y y e y y y e y J y O O X l & |.~.c.O   ",
"o & G ). Xz q   . O J y y y y y y y y y y y y y J y y y y y y y y y y y y y y y y y y y y J y y y y y y y y y y y e e e e y y y y y e y e y y y y y J y y y y y e y e e e e e y y y y y y y y y e e y y y y y y y y y y y y y y e y e y y y y y J y y y y y y y y y y y y y y y y y y y y y e y y y y y y y y e y y y y y y y y y y y y y y J J y y y e e e e y e e y y y y O X X x * oX/.n.O   ",
"o @ ,.^.(.q 7     O y y y e y e y y y y y y y y y e y e e e y y y y y y y y y y e y y y y y y e y y y e y e y e e e e e e e y y y e y e y y y y y y y y y y e e e e e e 2 e e e y e y y y y y e y e y y y y y e y e y y y y e e y y y y y y y y y y y y y y e y y y y y y y y y y y y y e e e e e e y y e y e e e y e y y y y y y y y y y y y y y y y e e e e e e e y y y y $ + O 7 + |.~.B.+   ",
"o o f &.$.S.H.h v 6 X X O + + + + + + + + + + + + + + + + + + + + + $ $ $ + + + + + + + + + + + + + + + + + + + + X + O X + + + + + + + + + @ + + $ + + + X + + X + X + + X X + + + + + O + + + + + + + + + + + + + + + + + + + + + $ + $ + + + + + + + + + + @ $ + + + + o + + @ + + $ + + + + + X + X + O + + + + + @ + + $ @ + + + + $ $ $ $ + + + + + + X + + X X + @ + 7 0 4 /./.=.8.=..   ",
"& o g $.$.S.L.h c 5 . O X O + O + + + + + $ + + + O O + + O + + + + + + + $ $ + + + + + + + + O + + + + + + $ + + + + + + + + + + + + $ + $ + + + O O + + + + + O + + + + + + + + O + + + + O O + + + O + $ + $ $ + + + + + $ + + + $ + $ + + + + + + + + $ + + $ + + $ + $ + + + + + + + + $ + + + + + + + + + + + + + + + + $ + + + + + + + + + + + + + $ + + O + + + + + 4 7 < /.|.$.;.=.O . ",
"D D = @ + X.} | | | h c x s v v v h v v v b v v v b v b v b b v b v v v v v v } v v v v v  .b b b b v  .b | } v b v | | b } | b b b } | | |  .b | | | b b v v b b | v } } } b v b v v v b v b v v v b v b b v b b | b | | | | | | b | b b v b b b v v v v b | b | | | |  .b v b | b } b b b b b v b b v | b v | |  .| n |  .|  .| | |  .| | | b v b v b b b v v v v v b v b $.&.&.-.&.} 5 - m : ",
"+X+XN   o -. .n b b v x h h h h v h h v v v v v v v v v v v } v v v v v v v x h v v v v v | v | b v v v b v v v v v v } } | } b v | | } } v b } v v v v v v } v v v } } } } | } } v v v x v v v v v } v v b v | } } | } } | } } } b } } v b v v v v v x v v v b } } } } b v v v v v v v b v b v } } b } } b v | v } } } v | v b } b } b } b v v v v v v v v v v v v v v v v  . . .;.8.x *   +X+X",
"+X+Xv.G   x x x x x p 6 p 6 6 6 6 6 6 6 6 6 6 6 6 6 p 6 f f f 6 6 6 6 5 5 5 6 6 6 6 6 p 6 0 f 6 0 6 0 6 p p f 6 p p f f 0 p f p 0 6 f 0 p x 6 p 0 9 9 f 6 6 6 6 9 6 f 0 f p p x 0 p 6 6 6 5 5 5 6 6 9 9 p f f f x x x s x x h f x p p 6 6 f p 6 f 6 6 6 6 p f p f f x f f 6 0 6 6 6 6 0 6 6 6 f 6 x p 6 0 p 0 6 f f f f f f f 6 6 f p 0 p f f f f 6 6 p p 6 p 6 p p p p p 6 x x 0 c n 4 & D +X+X",
"+X+X+X+X  o o @ @ $ $ % $ $ $ $ $ + $ $ $ $ @ $ $ + + $ @ $ @ % + $ @ X + @ + % $ $ % $ $ $ % + + @ + + $ + $ + $ $ $ $ $ $ % % * $ % $ $ $ + @ @ + + + @ + @ @ % $ $ $ % $ $ $ $ @ @ + + + + X + + + @ @ + $ + $ $ $ $ $ $ $ $ % + $ @ + + + $ $ + $ + $ + $ $ + $ $ $ $ * $ $ @ X + + + @ @ $ % * % * % % $ $ + $ $ @ $ $ @ @ $ @ + @ @ + + + + + $ $ $ $ $ $ % $ $ % % $ @ @ @ o X X : ).+X+X",
"+X+X+X+X= = ; : ; : : 8 : ; ; ; : : : ; ; ; ; ; ; ; = ; : : 8 8 l 8 : : ; ; ; ; ; : : 8 : l : : 8 8 : 8 : : 8 ; ; ; : ; ; l 8 : 8 : ; : ; ; - = = - - - - ; : : l l l l : 8 : : : : ; : ; = : : ; : : : : 8 8 8 8 8 8 : 8 ; : 8 : l : ; : ; ; = ; ; : ; ; ; ; ; l : 8 l l : : ; ; ; = ; = ; ; ; : ; : : l ; ; : : ; ; ; ; ; ; ; ; : ; ; : : 8 8 l ; : : : 8 : 8 8 l l l l l 8 : : : = ; N +X+X+X"
};
