/* XPM */
static char *lives_20[] = {
/* columns rows colors chars-per-pixel */
"192 48 201 2 ",
"   c #020309",
".  c #040719",
"X  c #0D111D",
"o  c #12151C",
"O  c #060D23",
"+  c #0B152B",
"@  c #121B2C",
"#  c #020438",
"$  c #0B1733",
"%  c #111C33",
"&  c #1D212B",
"*  c #16223B",
"=  c #232526",
"-  c #2C2E37",
";  c #2E313F",
":  c #353435",
">  c #02064A",
",  c #020A57",
"<  c #08135A",
"1  c #10145E",
"2  c #1C2A4B",
"3  c #1D2C53",
"4  c #1C315E",
"5  c #212D4E",
"6  c #28324B",
"7  c #383B4A",
"8  c #212F51",
"9  c #253354",
"0  c #3C3F50",
"q  c #030D65",
"w  c #03136B",
"e  c #111C66",
"r  c #010B7B",
"t  c #011777",
"y  c #132D62",
"u  c #1C3366",
"i  c #032271",
"p  c #1F2E75",
"a  c #1C3678",
"s  c #283967",
"d  c #353A69",
"f  c #273978",
"g  c #363B73",
"h  c #3C404F",
"j  c #3E4152",
"k  c #2E436B",
"l  c #374668",
"z  c #2E4475",
"x  c #354A79",
"c  c #3F5078",
"v  c #47484B",
"b  c #424454",
"n  c #454E69",
"m  c #5B5E69",
"M  c #43487B",
"N  c #48567A",
"B  c #505876",
"V  c #51607E",
"C  c #696A68",
"Z  c #66697A",
"A  c #6C7173",
"S  c #727274",
"D  c #000B87",
"F  c #031C87",
"G  c #141A8B",
"H  c #000794",
"J  c #031D94",
"K  c #121F99",
"L  c #06218B",
"P  c #15248B",
"I  c #1F348C",
"U  c #052297",
"Y  c #162696",
"T  c #193190",
"R  c #222D8F",
"E  c #23378E",
"W  c #323B88",
"Q  c #222C95",
"!  c #253699",
"~  c #333D9B",
"^  c #0003A2",
"/  c #031BA5",
"(  c #0726A7",
")  c #122AA6",
"_  c #0C31AD",
"`  c #1E39AB",
"'  c #0A2CB7",
"]  c #102FBB",
"[  c #0D31BB",
"{  c #1133B8",
"}  c #293CA8",
"|  c #3339A2",
" . c #2A3EB4",
".. c #2D4188",
"X. c #374D83",
"o. c #3B5386",
"O. c #36459B",
"+. c #3747A6",
"@. c #3851A6",
"#. c #354AB6",
"$. c #3A55BB",
"%. c #41478A",
"&. c #455989",
"*. c #575A89",
"=. c #4C5D93",
"-. c #525C98",
";. c #4D618D",
":. c #57628B",
">. c #4E6193",
",. c #566898",
"<. c #5D709D",
"1. c #676E82",
"2. c #6C7289",
"3. c #767988",
"4. c #616693",
"5. c #69759A",
"6. c #727E9E",
"7. c #4958A8",
"8. c #555EAB",
"9. c #465BB9",
"0. c #4E61AC",
"q. c #5766A9",
"w. c #4C63BB",
"e. c #5B69B4",
"r. c #5C70B5",
"t. c #676CA4",
"y. c #6B74A5",
"u. c #7579AA",
"i. c #616DB5",
"p. c #6674B8",
"a. c #787EB9",
"s. c #092DC1",
"d. c #0C33C3",
"f. c #1235C4",
"g. c #1239D0",
"h. c #445DC1",
"j. c #4A64C3",
"k. c #5469C0",
"l. c #5F73C2",
"z. c #6879C9",
"x. c #717EC2",
"c. c #7B849C",
"v. c #7883A9",
"b. c #7C85B5",
"n. c #6D82CA",
"m. c #7988C9",
"M. c #6B82D6",
"N. c #7686D2",
"B. c #7395D9",
"V. c #828688",
"C. c #818799",
"Z. c #919395",
"A. c #8387A9",
"S. c #8C92AC",
"D. c #8187B9",
"F. c #8993B5",
"G. c #929AB4",
"H. c #99A1BE",
"J. c #A8A8A7",
"K. c #B2AFBD",
"L. c #848EC6",
"P. c #8894C5",
"I. c #989CC5",
"U. c #8796D8",
"Y. c #9296D3",
"T. c #9CA5C5",
"R. c #9AA4D9",
"E. c #A4A7C7",
"W. c #ACB1CB",
"Q. c #B5B5CA",
"!. c #A8ADD5",
"~. c #A9B1D9",
"^. c #B6B8D7",
"/. c #9AAEE4",
"(. c #9FB1E6",
"). c #A2AEE6",
"_. c #A3B4E3",
"`. c #B5BBE4",
"'. c #BAC1CF",
"]. c #BEC3D8",
"[. c #D6CFCE",
"{. c #C4C6D7",
"}. c #D3CFDE",
"|. c #D7D5D9",
" X c #E4DED9",
".X c #DFE2DF",
"XX c #C7CCEA",
"oX c #CCD3EC",
"OX c #D5D8EA",
"+X c #CDD3F3",
"@X c #D6DBF2",
"#X c #E1DEE3",
"$X c #DBE1E9",
"%X c #DDE3F5",
"&X c #EBE6E3",
"*X c #F2F1EB",
"=X c #E9EBF6",
"-X c #F1EEF6",
";X c #EEF2F8",
":X c #F8F8FB",
">X c None",
/* pixels */
">X>X>X>X            .     .                                                                                                                                                                                 .                                                                                                                                                                 . X X X X v >X>X>X",
">X>X>X.X  X .     . O O + @ + $ @ @ $ @ + + + + + + + + + O O + + O + + + O + + O + + O + + O + O O O + O @ + O + + O @ + + $ + @ + + + + + + + + + + + $ $ O + O O X O O X + + O + + + O O O O O O O O + % + % + + + + + O + O O + O + + O + + + O + + @ @ @ $ + + + O + @ O + + + + + + + O + + @ + + + O + @ + O O + + O + + + + + @ + + O + O + + + @ @ + $ + + + O o O X . . . . . v >X>X>X",
">X>Xv     :XOXH.T.v.>.,.,.,.,.,.<.,.,.<.<.,.q.,.<.t.<.<.<.<.,.<.<.,.,.,.,.,.,.,.>.,.,.,.,.,.,.,.,.,.,.,.,.,.,.4.,.<.<.<.<.<.<.<.<.,.,.<.<.<.<.<.,.<.,.<.,.<.<.<.,.<.,.,.>.,.,.,.,.,.,.,.q.<.<.,.<.,.<.<.,.<.<.<.<.<.q.,.<.<.,.,.,.<.4.<.,.<.,.,.,.,.,.<.<.,.,.<.<.,.,.,.,.,.,.,.>.,.:.,.,.,.,.,.,.,.,.,.,.,.,.,.,.,.,.,.,.,.,.,.,.,.,.<.,.,.,.,.,.>.,.>.:.,.,.>.>.>.>.;.,.<.F.G.H.].{.Z @   >X>X",
">X>Xv o o *X|.A.S.5.=.>.=.=.=.>.=.=.>.-.>.>.,.>.-.>.,.,.>.>.>.-.>.>.=.=.=.=.=.>.>.=.=.=.;.=.&.=.=.;.>.>.>.,.:.,.,.>.>.>.>.>.>.>.>.,.>.,.,.>.,.,.,.>.,.>.,.,.>.-.,.>.,.>.>.>.>.>.>.>.>.>.>.,.>.>.>.,.>.>.,.>.,.,.,.,.,.,.>.,.,.-.,.>.>.>.>.>.=.=.:.=.;.>.>.,.>.-.>.>.:.=.;.=.=.=.>.;.>.>.=.=.;.=.=.;.>.>.>.;.=.=.=.&.=.=.=.=.&.>.>.>.=.;.>.>.>.=.>.>.;.>.=.=.=.&.&.&.=.=.,.t.F.F.S.{.'.Z o   >X>X",
"X X C *X*X1.*.d s 8 % @ % % + $ $ @ + @ @ @ @ % $ % % % % $ % $ $ @ + $ % + % + @ % + + % $ $ + $ + + $ % % $ % % % + % % $ $ @ @ % % % $ $ + + + + + + + + @ @ % $ $ $ + + $ $ % $ $ @ % $ % % % @ $ $ % @ % @ $ @ @ % % % $ $ + @ % $ $ $ $ + + + + + + $ @ $ $ @ $ $ $ $ $ % % $ $ + $ + $ $ @ $ $ $ % % @ $ $ + + + $ @ + $ @ % % @ % $ $ @ % + + $ + @ + @ $ @ % % * * 4 k 3 ;.;.^.W.c.    ",
"X & m |.*X:.,.f I u & $ + % + @ @ $ + $ $ @ + % @ % @ + % @ @ @ $ @ @ @ @ @ + @ % + % + @ % % + @ @ @ $ & @ @ @ % % % + @ @ @ $ @ @ % $ @ @ $ $ @ + + $ + @ $ @ % $ @ @ * @ @ % @ % $ % @ @ % % @ % % @ @ % % @ % % % % % @ % $ % % % % @ % % % $ @ @ @ % @ + @ $ $ % % @ % % % + @ @ $ @ @ $ + + @ @ $ @ @ + % + $ @ @ $ + @ + @ @ % $ % % % % % @ % + @ + + $ $ % % % % % u u 4 <.>.W.H.1.O   ",
"X @ m .X&X;.;.a a y % @ @ $ $ + + + + + + + + $ $ $ $ $ $ $ $ $ + + + $ + + $ + + $ $ $ $ $ $ $ $ $ $ $ $ $ $ $ $ $ $ + + $ + $ $ $ $ $ $ $ $ $ + + + + + $ $ $ $ $ $ $ $ $ $ $ $ $ $ $ $ $ $ $ $ $ $ $ $ $ $ $ $ $ $ $ $ $ % 2 $ $ $ $ $ $ $ $ $ $ + + $ + $ $ + $ $ $ $ $ $ $ $ $ $ $ $ $ $ $ $ $ $ $ $ $ $ $ $ $ $ + + $ $ $ $ $ $ $ $ $ $ $ $ $ $ $ + + + $ $ $ % % $ $ 3 4 3 ,.>.E.A.B + . ",
"X & l b.F.9 6   . $ t t t t w t w t t t t t r t t t t t t t w t t w t w w t t t t t w t w t t t t t t t t t w t w r w t w t t t t t t t t r w w q t w r w w r w t w t t t w t t t t t t t t t t t r t t t t t t t t t t t t t t t t t t t t t t t t t t t t t t t t t t t t t t t w t t w t t w w w t t t t t w t w r t t t w t t t t t t t t t t w t w w w t t t t F t t t . .   2 $ T.H.c.$ . ",
"@ & n b.F.0 2 .   + w w t t w t t t t t w t t w w t t t w t t w t w w t w w w w w t w w t t t t r t w t w w w q w w t w w t t t t w t t w w w w w w w t w t w w t w t w w r t w t w t t t w t t t t t t t t t t w t t w t t w t t w w w t t t t r t t w t t w w w t t t t w w w w w w w w t w w w w t w w w w w t w t t w t t t r w w t r w w t w w q w t w t t t t w t w w . .   2 2 ^.E.C.$ . ",
"@ & l ,.,.* + < i w t t t t t F t t t t t F t t t t t t t t t t t t t t t t F t t t t t t t t t t F t t t t t t t t t t t t t t t F t t t t w t r t t D t t t r t t t t t t t t t t t t t F t t F t F t F t t F t t t t t t t t t F t F r t F t F t t F t F t t t t t t t t t t t t F t t t t t t F t t F t F t t F F t F t t t t t t t t F t t t t F t t t t t F t t t i t < < < + O 5.5.N # . ",
"@ * l <.,.2 + w w t t t t F F t F r t F F t t t t t t t i L L t t t t t F t F t F t t t t F F F F F F t t t t t t t F F F F F t F F t t t t t F F F F F F F F t t t t F F F t F F F F F F F t F F F F F F J F F F t t t t F F F F t t t F t F F F F F t t F F F F t t t t t t F F t t F F t t F F t t t t t t t F t t F t F F t t t t t F F F F F t t t t F F F t F t t t t w w t + + y.y.N + . ",
"o * 9 &.&.2 % i L i L L F F L F J L J J F F F F P 7.9.7.0.! U U U L U F J L F F F F F t ~ 8.0.e.0.J J J L F E r.p.i.i.F F F F F F F D p.p.p.b.m.D U F t p.i.i.i.i.i.p.p.e.e.p.i.p.p.p.b.m.P F F F F F J U e.p.x.p.e.e.e.q.i.i.i.e.r.P F F J L J F J F J U F J J L J L F F F F F J L L F ! | ~ +.O.~ | +.~ 7.F F F F J J J U L L F 8.9.7.8.0.8.8.! J J J J J J F U L U F L L t L L $ + <.;.N # . ",
"X @ 9 &.&.2 % L F F J F L J L J J F L J J J F U +.:X:X:X:Xi.( J U J U U U J J J J J L F L.:X:X:X:XJ U U U U 0.:X:X:X:XG J F U J F U r =X:X-X:X:XJ J L D :X:X:X:X:X:X:X:X:X:X:X:X:X:X:X:X:XT U U J J U ( ( @X:X:X:X:X:X:X:X:X:X:X:X:X! F J U U J ( J U / J J J U U J U U F U F J J U U F :X:X:X:X:X:X:X:X:X:XJ J U U ( J U U ( U F :X:X:X:X:X:X:Xp.U ( U U / U U U J J J J U F F L + + ;.&.c O . ",
". o 5 &.o.2 % L L L L F J J J J J J J J F J U F +.:X:X;X:Xe.Y J J U J J J U J U U J J J N.:X:X:X:XD U U U U r.:X:X:X:XD U F L J L F D =X;X;X:X:XD J J r :X:X:X:X:X:X:X:X:X:X:X:X:X:X:X:X:XY J J J J U U ) @X:X:X:X:X:X:X:X:X:X:X*X:X! L J J U U J U J J U U J U J U J J U J J U U L U D :X:X:X:X-X:X-X;X:X:XJ J L J J U J U U U J :X:X:X-X:X:X:Xz.( / ( ( J U J U J L U J J F F L + + &.o.k + . ",
"o o 6 X.&.2 $ L J J J J F L J F F J J F J J J U +.:X:X:X:X8.U F L J J J J J J J J J J J L.:X:X-X:XD P U ( U w.:X:X:X-XD U G U U U U D =X:X:X:X:XD J U r :X:X:X:X:X:X:X:X-X:X:X:X:X:X:X:X:XY F J J J U U Y %X:X:X:X:X:X:X:X:X:X;X:X:X! J U K U J U K J J / J U J U J J U J F J J J U L F :X:X:X;X;X:X:X:X:X:XU J U J U J U J U L J :X:X:X:X-X-X-Xp./ U / ( J ( J J U J U U J F L U $ + &.o.l O . ",
"X @ 5 x X.% $ L F L J L J J J J J J U J K U U U @.:X:X:X:Xq.P L J J U J J J J J J J J J N.:X:X:X:XD L F U U w.:X:X:X:XD U U U U U U D =X:X:X:X:Xr F U F :X:X:X:X;X:X:X;X;X;X:X:X:X:X:X:X:XP F F J Q R R ! %X:X:X:X:X:X:X:X:X:X:X:X:X! U J J +.~ ~ | J U J J J ( J J U J U J J J U J J D :X:X:X:X:X:X:X:X:X:XY P Y T ( J U 7.O.7.| =X=X=X#X=X=X=XL.| } } O./ U / U U J J U U L U U $ + &.o.l # . ",
"X @ 8 X.o.$ % U J ( ( ( ( U U ( ( ( ( ( ( ( ( ( +.:X:X;X:X&.q > ( U ( ( ( ( ( ( ( ( ( ( N.:X:X:X:X> > F ( ( w.:X:X-X:X, q r ' ( ' ( / =X;X-X-X:X> > J D :X:X:X:X> , > , > , , > , , > , > , , U H @X:X:X:X9.H J q 1 1 1 < < < , 1 , , r ( K :X:X:X:XH / ( ( ( ) ) ( ( ( ( ( ) ( ( ( ( J J H q , q < q , q t.:X:X:X:X( ( { :X:X-X:X! D q > > , q OX:X:X:X:X^ ' ( ( ' ( ( ( ( ( ( _ + + ;.o.x O . ",
"X @ 9 o.o.2 % L U U J U ( / ( U U ( ( U ( ( ( ( +.:X:X;X:X*.w > ( ( ( ( ( ( ( ( / ( ( / N.:X:X-X:X> < J U ( w.:X:X:X:X, q F ' ' ( ' J =X;X-X;X:X> > U D :X:X:X:X, w w w q w q q , q q q q q , ( J +X:X-X-X9.' ( q q w e < < , < < q q t [ ) :X:X:X:XH ( U ( ( ( ( ( ( ( ( ( / ( ( / / ( U ' w w w w w e e u.:X:X:X:X' _ _ :X:X:X-XO.Y t q w q q OX;X-X;X:X^ ( ( ( ( ( ( ( ( ( / ( $ + &.o.l # . ",
"X @ 6 o.o.* % L U ( ( ( U ( ( ( J ( ( ( ( ( ( U +.:X:X;X:X*.w , ' ( ( ( ( ( U ( ( U J / n.:X:X:X:X> > F ( ( 9.:X:X:X:X, q F ( ( ( ( J ;X:X:X:X:X> > U D :X:X:X;X> q q w q q q , , > , , > , > ( H +X:X:X-X8.( J q q q q , < , , , , q r ' / :X:X:X;XH U U ( ( ( ( ( ( ( / ( ( ( ( ( U ( / U , q q , < , 1 y.;X:X:X:X( U ) :X:X:X-XW U t q w w t @X;X;X;X:XH Y / ( ( ( / ( ( / ( ( $ + &.o.x O . ",
"o % 6 o.o.2 $ L U U U ( U ( / ( ( ( ( J J ( ( ( +.:X:X:X:X*.w , ( ( U ( ( / ( U J ( ( U M.:X:X;X:X> , F ( ( j.:X:X:X:X> , t ( ( ( ( H ;X:X:X:X:X> > U H :X:X:X:X> < q q q q 1 , , , > > > > , U H @X-X:X:X8.J G t q w q q q , , , q , w ' ) :X:X:X;XH K ( ( U ( ( ( ( ( ( ( ( ( ( U ( U J J q , , < < 1 < t.;X-X:X:XU U _ :X:X:X;Xg q 1 r w q t @X;X:X;X:XH U ( / ( ( ( ( ( U U U + O &.o.c + . ",
"X @ 9 X.o.% % ( ) ( ' ( ( ' ( _ ( ( ' ( ( ' ( ' #.:X:X:X:X*.t , ' ( ' ( ( ( ) ( ( ( ' ( M.;X:X:X:X> < P ' ( j.:X:X:X:X> , r ( ( ( ( / ;X:X:X:X:X, > ( / 7.O.%.g -.4.5.y.u.5.t.4.} J J J J J J ( / B.).!.I.A.u.t.u.u.u.u.D.9./ K U ( U ( ' / ~.P.D.D.r t ) ( ( _ ( ' ) ( ( ' ' ( ( ( ' / ( ( ( k.z.z.x.x.m.Y.XXXXoXOXt G _ :X:X:X:Xg 1 q s.] [ f.%X:X:X:X:Xq , ' ( ( ' ( ( ' ( ( ( + O &.o.x O . ",
"X @ 6 o.o.2 $ _ ' ] ] [ s.s.s.] s.s.s.' [ ' ' s.#.:X:X:X:X*.t > s.] ' ' ' ' ' ' ' ' ' ' M.:X:X:X:X> < U ' ' j.:X:X:X:X> , w ' ) ' ' ( ;X:X;X:X:X, , s.' ) K 7.:X-X:X:X:X:X:X:X=Xz./ ( ( ( ( ( ( ' ' s.J w }.:X:X:X-X:X-X-XY.f.] ' ' ' ' ' ' ] d.< < , , ' ' ' ] ' [ ] ' ' ] ] ] s.' ' ' ' ( ( oX;X:X-X:X:X:XJ F > > > i { :X:X:X:Xg q , ] ' [ f.=X:X:X:X:Xq < s.' _ ' ' s.' ' ( _ + + ;.&.c # . ",
"X @ 9 X.&.% % ] ' ] ' ' ] ' ] ] [ ' ] ] ' ' ' ] #.:X:X:X:X*.t > [ ( ' ' ' ' ' ' ' ' s.' M.:X:X:X:X> > Y ' ' j.:X:X:X:X# , w ' _ ( ' / ;X:X:X:X:X, > s.( =X:X:X-X-X:X:X:X:X:X:X-Xl.' ( ( ' ' ' ( ' ] d.J t }.:X:X-X-X:X:X:XY.g.s.s.[ _ ' ( ' ( [ > , , , [ ' ' ' ' ' ' ' s.' ] ' ] ' ' ' ' ' ' +X:X:X:X:X:X:X' J > , , F _ :X:X:X:Xd 1 > ' ' ' { @X:X:X-X:X, e [ ' ' ' ' ' ' ( ( ( + O &.&.c + . ",
"X @ 6 %.X.2 $ _ ' s.' ] ' ] ' ' [ ' ' ' [ ' ' s.$.:X:X:X:X4.e , [ ' ( ' ' ' ' ' ' ' ' ' M.:X:X;X:X> , U [ ' h.:X:X:X-X> , w ' _ ) ' ( ;X:X:X:X:X, , d./ %X-X;X;X-X:X:X:X:X:X-X=Xz.' ' ( ' ' ' ' ] ' s.F w XX-X-X-X=X-X-X-XI.f.s.s.' ( ( _ ' ' [ q q q , ] ' ] ' [ [ s.' ' ] ' ' ' ' ' ' ' ' ( @X:X:X:X:X:X:X( ( , , , F { :X:X:X-Xd 1 > ( ( ) _ @X:X:X:X:X, < s.( ' ' ' ' ' ( ( _ @ O &.o.l # . ",
"X @ 6 o.&.2 $ _ ' ] ' ' ' ' ' ' [ ] ' ' ' ] ] ] #.:X:X:X:X4.t , [ ' ' ' ' ' ' ' ' ' ' ' z.:X:X;X:X> < U ' ' h.:X:X:X-X> , t [ ' ' ] / =X;X:X:X:X> > d.( %X:X;X:X-X:X:X:X:X:X-X=Xn.( ( ' ' ' ' ' ' ' ' U L ~.%X$XOXOX}.}.}.t.Q  .#.#.' ( ( ' ( ( ( Y ' ' ' ' ' ] ' ] ' s.' ' ' ' ' ' ' ' ' ' / @X:X:X:X:X:X:X/ / r q w J s.:X:X:X:Xd 1 > ' ( ' ] oX-X;X;X:X, < ' ' ' ' ' ' ' ( ( ( X O &.o.l $ . ",
"X + 6 X.&.% $ _ ' ' _ ' ' ' [ ] ' [ s.s.' s.' ' $.:X:X:X:X4.t > s.' [ ' ( ' ' ' ' ' ' ' M.:X:X:X:X> , ( ' ' h.:X-X-X-X> , G [ [ s.] ' =X:X-X:X:X> > d./ $X:X:X;X# > > , > > > > > , D ' ' ' ' ' ' ' ' ' ' ( / ( > > > > < t.:X:X:X:X/ ( ( / =X:X:X:X/ ] ' ' s.' ] ' ' ' ' ' ' ' ' ' ' / /.).).=Xh.j.7.X.M M , q s.' ' ' f.:X:X:X-Xd 1 , ' _ ' ] OX-X;X;X:X> < ] ' s.' ' ' ' ( ( ) + . ;.&.c + . ",
"X @ 6 X.X.2 $ _ ( _ ' ' ' ' ] ' ' ' ] ' s.] [ [ #.:X:X:X:X*.e , d.[ ' ' ] ' ' ' ' ' ' ' M.:X:X:X:X< > Y ' ' h.-X-X:X:X> q G d.f.f.s./ =X-X:X-X8 , # [ ( @X:X:X:X> q q q q q q < q < F ' ' ( ( ' ( ' ( ) ) ' ' _ w w w w e *.-X-X;X:XJ ( ( / +X:X:X:X/ d.] s.] s.[ ' [ ' [ ' ' ' ' ' ' H -X;X:X;Xs.' F e w r q q ] _ ( ' { :X:X:X-XM 1 q s.s.f.f.@X:X:X-X:X> < s.s.s.' ' [ ' ( ( _ + O ;.&.x O . ",
". @ 6 o.o.2 $ _ ' ' ( ' ' ] ' ' ' ] s.' ' ' ] ' #.:X:X:X:X*.e > s.' ] ' ' ' ' [ ' ( ( ' M.:X:X:X:X> > Y ' ' 9.:X:X-X:X, q G d.d.s.d.' =X;X-X# < > > ( ( OX:X:X:X, w , e < < , q q q G ' ' ( _ ' ' ) ' ( ' ' ' ] q w q q < B *X-X;X:XH ( ( / +X;X:X:X/ s.s.s.' ] ' ] ' ' ' ' ] ' ' ( ( / :X:X:X:Xs.] w q w w w q ] ( ' ( { :X:X:X:XM w 1 [ ] s.f.@X-X:X;X:X> q g.s.s.' s.' ' _ ( _ + O ;.&.x $ . ",
"X @ 9 o.&.* $ _ _ ' ( ' ' ] [ [ ' ' ' ' ] [ [ ' #.:X:X:X:X*.e , ' [ ] f.f.s.' ' _ ( ' ' N.:X:X:X:X> > U ' ( h.=X-X:X:X, t Y g.f.f.f.' =X-Xm., > > > _ ( $X;X:X:X, q q w 1 < , q q w K s.] ' _ ( _ ( ' { [ ] s.s.Y G , < < N =X=X=X:Xq J ( / +X=X;X:X/ s.s.s.] ] ] [ ' _ ' ' ' ' ( ( ' / :X:X:X:Xs.J Y e e r r w g.] ' ' [ :X;X;X-X%.1 q s.] ] ] %X;X:X;X:X, < d.s.s.' s.' ' ' ' [ + + ;.&.l $ . ",
"o & 9 o.o.2 $ U ( ( ( ( ( ( ( ( ' ( ( ' ( ( ( ( #.:X:X:X:X6.f p }  . . . . . .` / ( ( ( z.:X:X:X:X# > i U ( ) $.7.O.X.D.I.R._._.~._.).G e w > > U F U ( @X:X:X:X-.t.4.q.-.-.-.-.-.8.8.k.p.( / ( J U.(._._.(././.).U.p.r.p.t., , # # > w ( ( J K q < F t ' ( ' ( ( ( ( ( U ( ( ( ( ( ( J :X:X:X:Xk.e.r.q.i.i.i.p.z.n.( ' _ XX`.`.].u.W ~ #.#.#.h.XXXXXX{.%X> q ' ( ( ( ( ( ( U U ( + + ;.;.x O . ",
"@ @ 9 o.o.* $ L U U ( ( ( ( ( ( ( ( ( ( ( ( ( ( #.:X:X:X-X:X:X-X*X:X:X:X:X:X:X=X/ ( ( ( N.:X:X:X:X> # L ( U ( ( ) q t :X:X:X:X:X:X:X;X! t q > # ) ( Y ( $X;X:X:X:X:X:X:X-X-X:X:X:X:X:X:X:X) ( ( / +X:X:X:X:X:X:X:X:X-X*X-X:XJ U > , , w ( ( ( _ < q q q ( ( ( U ( U ( ( ( U ( U ( ( ( H :X:X:X:X:X:X:X-X-X:X:X:X:X:X' ' ' ' _ _ , :X:X:X:X-X-X-XN.' ( < q q q ' ( ( J U ( ( J U U $ + ;.c l + . ",
"@ @ 9 o.o.2 $ L J J ( ( ( ( ( ( ( U ( ( ( ( ' ( 9.:X:X:X:X-X:X-X:X-X-X:X:X:X:X=X/ ( ' ( z.:X:X:X:X# > L U ( ( ( ) q w :X:X:X;X:X:X:XB.' t q , > ( U ( U oX:X:X:X:X:X:X:X-X:X:X-X:X:X:X:X:XY ( ) J oX:X:X:X:X:X:X:X:X:X:X:X:XH ( , , q t ( ( ( ' q q q q ) ( ( ( ( ) U U ( ( U ( ( ( ( / :X:X:X:X:X:X:X:X-X-X:X:X:X:X/ ' ' ( ( ( , :X:X:X:X:X:X-Xm.( U q q q q ( ( ( ( ( ( U J U ( $ + ;.&.l +   ",
"@ & 9 %.N % $ L U U ( U ( ( ( ( ( ( ( ( ( ( ' ( +.:X:X:X;X;X;X;X;X;X:X;X:X:X:X=XD L ( ( l.:X:X;X;X> > L U ) ( ( ( w w ;X:X;X:X*X:X!.J L , q ( U ( U ( J oX;X:X:X:X:X;X:X:X:X:X:X:X:X:X:X:XG U U H +X:X:X:X-X:X:X:X-X:X-X:X:XD J , q q t ( ( ' ( q q , , ( ( ( ( U ( ( U ( ( ( ( ( ( U H :X:X:X:X:X:X:X;X-X-X;X:X:X:X' ' ' / ( U , :X;X:X:X:X:X*Xp./ U < q q q ' ( U ( U U ( U U ( $ + ;.=.l O   ",
"o @ 9 N o.% $ t F L J U U U U U U U U U U U U U } L.m.L.I.G.T.I.T.I.I.T.I.I.G.I., , / ( $.m.m.b.a.> > t J U U J ( U ( @.O.O.....f q q L L U U J U J U F z.P.T.E.W.!.W.^.^.^.^.^.^.^.W.E.W.< w U J T T E f I.E.!.!.!.!.W.E.T., t J J ( / ( J / U U J U U U U U U U U U U U U J U J U F J 0.q.t.b.b.v.b.u.u.u.v.v.A.P.w w ( J J L i 0.7.>.*.,.,.,.f , w L L L U U U U U U U U F L L % + ;.;.l # . ",
"o @ 9 &.&.% $ F F J L U U U U U U U U U U U U U U L J w > > > > > , , , > > > > , , J J J J U , , q , t F U J U U U U U U U w < < , , U ( U U U L U U L L t , > > > > , , , , , > > > > # , , L F L i i , > , , , , > , , > > < J U J J U U J U U J U L U U U U U U U U U U U U U U U L L L > , , , , > > > > > , , q w ( J J F L L F t , , , , , , q L J L U U U U U L U U F F L + + ,.;.c + . ",
"o @ 6 o.&.2 $ i U F J L J J U U U U U U U L U L U L L w , > , , , q , , , , , , , > F J J U U , , , , F U F J L U U U ( U U w < < , > L U U L U U U U L L L q > > , , , q , q q < , , , > > , L F L F t , , , , , q , q , , , < J J J U U U J J U L L J L L U L U U U J F U U J U J U U L L , , , , , , , > , > , , q w ( J J L L F L t q < q < , > q F F U F J U L U L U L F F i + O ;.;.c + O ",
"O @ 0 u.v.2 % L F L F F J L F J F J F F L F L F F t L w , , , , , , , , q , , , , , F F F F L , , , , F F F F F J F L U J F q , < , , L F J F J F J F L F t q , , , , , , < , , , < , , > , , L i t L t > , , , , , q < < , , , F F F J F F F F F F F F F F J L J F J F F F J F F F J F F L > , , , , , , > , , , < q q U L J F F F F w , , q , , , q i F F F F F F F L L F t t i O . v.c.V $ O ",
"@ & l 5.6.@ X L U L F F t F F t F F F F F F t F L t t w w w w t w t t t t t w w w w r t t t t w t w t F F F F F F t F t t t t t t w w t t t F t F t F t F t t w w t t t t w t w w w w w t w w t F t t w w w w t t t t w t w t F F F F F F F F F t F F F F F F t t F t F F F F F t F t F t t w w w t w t w i i w w w t t F F t t t F t t t t t w t w t F t t t t t t F t F i t i i . . 2.5.N > O ",
"@ = 3. X#Xl 0     O t t t t t t t t t t t t t t t w t t t t t t t t t t t t t t t t t t t t t t t t t t t t F t t t t t t t w w w t t w t t F t t t t t t t t t t t t t t t t w w t t t t t w t t w t t t t t t t t t r t t t t r t t t t t t t t t t t t t t t t t t t t t t t t t w t t t t t t t t w t t w t t t t t t t t t t t t t t t t t t t w t t t t t t t t t w w .     % . *X[.3.$ . ",
"@ = Z |.[.j 9 . . O t F t t t t F t t t t t t t w t t t i t w t t t t t t w w t t t t t w w t w t t F r t t t t t w w t t t t t t t t t t t t t t t t t t t t t t t t t w t t t w w t t t t t t t t w t w w t t t t t t t t t F t F t t w t r w t t t F t t t t t t t t t t t F t t t w w w t w t w t w t t t w w t w t w t t t t t t t t w t t t t t t t t t t t t w w t i O .   2 O $XK.2.# . ",
"o @ 3.&X&X9 9     O t L t t L t i t t t F t i t t t t t t t t t t i t t t t t t t t t t t t t t t i F t t t t t i t t t t t i t t t i t t t i t t t t t t i t F F t t t t t t t t w t t t t t L t t t t t t t t i t t t t t t t i t t t t t t i t F t t i t t t t t i F F t t i i t t t t w t t t w t t t t i t t t i w i w t i t t t t t t t t t t t t t t t i t i t t w t . . . +   =XQ.3.O   ",
"o X k &.&.P.T.x X.s $ $ $ + + + + + $ + + + + + + $ $ $ $ $ + $ $ + $ + + + + $ + + + + + + + + + + $ $ $ $ + + + + + + + + $ + $ $ $ $ $ $ + + $ + + $ $ $ $ $ $ $ + + + + + + O + + + $ $ + $ $ $ + + + $ + + + + + $ + + $ + $ + $ + $ + $ + + $ + + $ $ $ $ + + $ $ $ $ $ $ + + + + @ + + + + + + + + + $ + $ + + + + + + + $ $ $ $ $ $ + @ $ + + $ + $ $ + + + + + @ @ 3 k 2 [.|.o.,.N .   ",
"@ o 9 &.&.T.'.X.%.f + + + O O . O O O O O O X O X O O O O O + O O O O O . X O O O O O O O O O O O O O O O O X O O . O O X . + + O O + O O O O O O . . + O O + O O O O O O . . X O O X O O O O O O O O O O O O O O O O X O O O . O O O O O O O O X . O O O . O O + + + + + + O O . . X . . . X . O . . X O + O + O O . O . O O O O + O + + O . O O O O O + O O O X O O + O + 3 3 2 $X&XX.=.c .   ",
"V.Z.h & @ q.=.q.,.=.X.....X.z z z ..z z X.X.X.X.X.o.X.X.o.X.X.X.X.X.X.x o.o.o.o.o.o.o.o.o.o.o.o.o.o.o.o.o.o.o.X.o.o.o.o.o.o.o.o.o.o.o.o.o.o.o.o.o.o.o.o.o.o.o.o.o.o.o.o.o.X.o.o.X.o.o.o.o.o.o.X.X.o.X.o.o.o.o.o.o.o.o.X.x o.o.o.o.o.o.o.o.o.o.o.X.o.X.X.x X.o.x X.X.x X.X.X.x x o.o.&.o.o.o.o.x o.o.o.o.o.o.o.o.o.o.o.o.o.o.o.o.o.o.o.o.o.o.o.o.o.o.o.o.o.o.o.o.o.o.o.o.o.o.;.;.>.q.>...* X A S ",
">X>Xv o   <.;.>.;.o.z k k s k a k k z z z z x z z z z z z z z z z z z z c x x x x x x x x x x x x x x x x x x x x x x X.x x x x x x x x x x x x x x x x x x x x x x x x x x x x x x x x x x x x x x x x x x x x x z x z x x x x z x x x x x x x x x z x x x x z x z z k z k z k c c x x x x x x x x x x x x x x x x x x x x x x x x x x x x x x x x x x x x X.x x X.X.x x X.o.&.=.q.,.z =   >X>X",
">X>XJ.Z.  k k 9 9 3 2 2 3 3 3 2 3 3 2 2 3 3 2 2 3 8 3 8 2 5 5 2 3 2 3 3 8 2 9 8 8 8 6 5 3 3 5 5 8 3 8 2 2 2 2 3 3 2 8 3 8 2 3 5 5 2 3 2 2 3 8 8 6 4 9 3 3 5 5 2 2 2 2 3 3 3 5 2 8 3 3 3 3 8 3 8 3 3 8 3 8 8 9 3 8 3 8 2 2 2 5 3 8 8 8 8 9 3 6 3 8 5 3 3 3 3 9 2 3 3 2 2 2 2 2 2 3 8 2 8 2 2 5 3 2 2 3 2 2 3 3 3 5 5 9 3 3 3 5 5 3 3 3 2 2 3 3 3 8 3 2 2 8 3 3 3 9 3 3 3 4 3 9 8 3 9 k 3 & C >X>X",
">X>X>X>X  = & o @ o @ @ @ % % % % * % % % % @ @ @ @ & % % % % @ @ * @ % * % % * * * % * % * % % % @ @ @ @ @ @ @ % % % % * @ % & & @ @ @ @ % % % $ % % $ % * + @ @ @ & @ % * % % % % % % % % % % % * * * * & $ % @ % @ @ & + % % % * * % * @ @ @ @ @ % % * % * % % % @ @ @ @ @ @ % % @ @ @ @ % % % * * % @ @ @ @ * @ % % * % % $ & % & @ @ * % % * % % % % % $ % * % % % @ % % @ @ X o o : >X>X>X",
">X>X>X>X= : 6 ; ; ; ; 6 h h j j b j j h h h 7 h h 6 h h 0 h j b h j b j 7 h h 7 h 7 h h h b b b j h 7 h 7 7 7 7 7 7 h h h b j h 7 h h 7 7 7 7 7 7 7 7 7 7 h 7 h h h h j h j h h 7 7 7 7 7 7 j b j b h h h b h 7 7 ; 6 7 7 7 7 j b b b b b j j 7 7 7 7 7 h j j j b b v b b b b b 7 7 7 7 6 7 h h j j j h h h h h h h h 7 h h 7 7 h j j j j j j j j h h h h h 7 7 7 7 7 7 7 h h 7 7 7 7 - v >X>X>X"
};
