/* XPM */
static char *lives_8[] = {
/* columns rows colors chars-per-pixel */
"192 49 193 2 ",
"   c #030305",
".  c #040717",
"X  c #0C111E",
"o  c #15171D",
"O  c #040C25",
"+  c #0A1429",
"@  c #151A27",
"#  c #01033A",
"$  c #0A1738",
"%  c #121C34",
"&  c #1C212B",
"*  c #15223B",
"=  c #24252D",
"-  c #2A2C37",
";  c #2F303B",
":  c #32333D",
">  c #030548",
",  c #0D114B",
"<  c #16164C",
"1  c #030A57",
"2  c #091259",
"3  c #121554",
"4  c #162443",
"5  c #1A2D58",
"6  c #1C315C",
"7  c #222F4B",
"8  c #25324E",
"9  c #363742",
"0  c #263455",
"q  c #343F5D",
"w  c #020C66",
"e  c #02156C",
"r  c #010C74",
"t  c #011676",
"y  c #111A78",
"u  c #182C63",
"i  c #1D3567",
"p  c #06207D",
"a  c #132976",
"s  c #1F3973",
"d  c #273C6B",
"f  c #343A6E",
"g  c #212B74",
"h  c #253D73",
"j  c #343B7C",
"k  c #3B4459",
"l  c #2D416D",
"z  c #34446B",
"x  c #2C4375",
"c  c #334A7B",
"v  c #3B507E",
"b  c #454647",
"n  c #404856",
"m  c #444D65",
"M  c #595E69",
"N  c #404F77",
"B  c #4B567D",
"V  c #5F6060",
"C  c #53607F",
"Z  c #63666E",
"A  c #6B6B78",
"S  c #6F7070",
"D  c #77767B",
"F  c #010C85",
"G  c #031B86",
"H  c #101A8D",
"J  c #000D94",
"K  c #041D94",
"L  c #101C92",
"P  c #08218A",
"I  c #062297",
"U  c #17309B",
"Y  c #2F388A",
"T  c #343C80",
"R  c #2A3A97",
"E  c #313E99",
"W  c #000FAA",
"Q  c #0219A6",
"!  c #001BB1",
"~  c #0826A7",
"^  c #102EAD",
"/  c #0D31AD",
"(  c #1433AC",
")  c #0B2DB9",
"_  c #102EB7",
"`  c #0C31BB",
"'  c #1334BA",
"]  c #2738A2",
"[  c #333FA9",
"{  c #273DB3",
"}  c #374D82",
"|  c #3C5384",
" . c #384497",
".. c #2F45AE",
"X. c #3746AA",
"o. c #3B52AC",
"O. c #2C43B4",
"+. c #394DB6",
"@. c #3C53BA",
"#. c #44468E",
"$. c #445989",
"%. c #555A86",
"&. c #4A4D92",
"*. c #475892",
"=. c #535797",
"-. c #4C618F",
";. c #596189",
":. c #4B6396",
">. c #576895",
",. c #5D7196",
"<. c #636A87",
"1. c #6E778F",
"2. c #646E97",
"3. c #67759B",
"4. c #747B98",
"5. c #4A5AAA",
"6. c #5154A2",
"7. c #4858B8",
"8. c #565EB3",
"9. c #4C69A0",
"0. c #5868A4",
"q. c #5D71A0",
"w. c #4B62B9",
"e. c #5767B8",
"r. c #626BAB",
"t. c #6976A5",
"y. c #717AA2",
"u. c #6373B8",
"i. c #0A2EC2",
"p. c #0C32C5",
"a. c #1239C6",
"s. c #4E67CE",
"d. c #556DC7",
"f. c #5B72CB",
"g. c #4B6AD3",
"h. c #6576C8",
"j. c #717CCC",
"k. c #647DD4",
"l. c #7D8396",
"z. c #7A84A7",
"x. c #7A87B2",
"c. c #6980CD",
"v. c #7988CE",
"b. c #6A81D5",
"n. c #798AD6",
"m. c #7B90D3",
"M. c #838488",
"N. c #818299",
"B. c #8189AB",
"V. c #8A90AD",
"C. c #919AAA",
"Z. c #838DB8",
"A. c #959AB6",
"S. c #A29EB7",
"D. c #9FA1BC",
"F. c #8693CB",
"G. c #959BC5",
"H. c #808FD3",
"J. c #8695DA",
"K. c #9FA6CB",
"L. c #9AA4D6",
"P. c #A4AACB",
"I. c #BABBC9",
"U. c #A3ACDB",
"Y. c #ABB1D5",
"T. c #B5BBD7",
"R. c #8DA4E4",
"E. c #92A8E1",
"W. c #A8B5E4",
"Q. c #B2BAE3",
"!. c #BFC0CB",
"~. c #BFC3D5",
"^. c #BCC8EB",
"/. c #CAC6CD",
"(. c #C9CBDD",
"). c #D1CED6",
"_. c #D8D5D8",
"`. c #E1DDDC",
"'. c #E6E1DD",
"]. c #C5CAE5",
"[. c #D1CFE7",
"{. c #CAD3EA",
"}. c #D5D7EA",
"|. c #CAD3F3",
" X c #D5DBF3",
".X c #E2DEE8",
"XX c #DCE2F5",
"oX c #E5E1EA",
"OX c #EAEBF6",
"+X c #F1EFF7",
"@X c #EFF1F9",
"#X c #F9F9FC",
"$X c None",
/* pixels */
"$X$X$X$X$X$X$X$X$X$X$X$X$X$X$X$X$X$X$X$X$X$X$X$X$X$X$X$X$X$X$X$X$X$X$X$X$X$X$X$X$X$X$X$X$X$X$X$X$X$X$X$X$X$X$X$X$X$X$X$X$X$X$X$X$X$X$X$X$X$X$X$X$X$X$X$X$X$X$X$X$X$X$X$X$X$X$X$X$X$X$X$X$X$X$X$X$X$X$X$X$X$X$X$X$X$X$X$X$X$X$X$X$X$X$X$X$X$X$X$X$X$X$X$X$X$X$X$X$X$X$X$X$X$X$X$X$X$X$X$X$X$X$X$X$X$X$X$X$X$X$X$X$X$X$X$X$X$X$X$X$X$X$X$X$X$X$X$X$X$X$X$X$X$X$X$X$X$X$X$X$X$X$X$X$X$X$X$X$X$X$X$X",
"$X$X$X$X- : 9 b 9 : : ; - ; - - - - ; - ; 9 9 9 ; 9 9 9 ; 9 ; ; - - - = - - ; ; ; - - = = = - - - - - - - - - ; - - - - - - - - - ; ; ; ; ; 9 9 9 9 9 9 9 : ; ; ; ; : ; : : : - ; : ; ; ; = - = - - = - - - - - - - ; ; ; ; : ; ; ; ; ; - - - ; ; : 9 : 9 ; - - - ; : : : : : ; : ; ; ; ; : ; - - - - = = - = - - ; : : ; ; - - ; ; - ; - - = - = - ; : : ; - = & = - - - ; ; ; ; : : : D $X$X$X",
"$X$X$X$X  o @ % + + X o X o + o X X + + + + + + + + + + + + + + + X + X + + X + + O + + X + + + + + + + X + + X + X X + + X X X X X + + + + + + % + + X X X X + + X X X + + + + + @ + + @ + + + + X X X X X X + X + + + + + + @ + + + X X X X + + + + + + + + + + + + + + + + + o + + X + + + + + + X X X + + + + + + + + + X + + + + + O X X + + + @ + + % + + X X X X X X + % % @ & + M $X$X$X",
"$X$Xb     #X.XA.A.z.*.$.$.$.$.$.$.$.$.$.$.$.$.$.$.$.$.$.$.$.$.$.$.$.v v v | $.v B $.v $.$.| v | | v v | | | v $.| | | } v | $.| | $.$.$.-.$.-.$.| $.$.$.| $.$.$.$.$.$.-.$.$.$.-.$.$.$.$.$.$.$.*.$.$.$.$.$.-.$.$.-.-.$.-.$.-.$.$.$.| $.$.| | | | v v v v v v c c c v } } | v v c c c c c c c v c v v v | | | | $.$.| $.$.| $.$.| $.| $.$.v v v c | | | | | | | | | | v | -.>.z.x.x.{.~.<.@   $X$X",
"$X$Xb     _./.z.B.>.| | } | } } c c c v | | } | | | | v | | c } c c c c c c c c c c } c } c c } c } c c c c c } x c c c c c c c c v } } | } } } c } c c v } | v | | | | | | | | v | | | | | | | | | | | | v } | | } | | | | | | v } } } } } } x c x c x x x c x x c } x } x c x x c x x x x x c } x x c c c c } c } } | | c | c } c c } x c c c c c } } } } } } c c } c | | ,.3.3./.I.;.O   $X$X",
"- : b M.D C.V.2.t.:.x x l x d x l l l l l l l l l l l d z l z l l l z l d l d l l l l l l l d l x l l l d f d l l l l l d l d l l l l x x l l l l l l h l l l l x x z x l l l l l l l l x l x x x z l l z l l l l x x c c x l l l l l l l l l d d d d d d d d d d s d l d l h l d d l l s x d l h l x l l x x x x x x x x x l x l l l l l s 0 l l l h x l l x x x x l d l z B -.%.z.z.N.A k + . ",
"o = Z /._.2.,.u s 4 + + + + + + + + + + + + + $ + + O + + + + + + + + O O + + + + + + + + + O + O + O + O + O + + O + + + + + + + $ + + + + $ + + + + + + + + + + + + + + + + + + O O + + + + + + + + O O O O O O + + $ + $ $ + + $ + + O $ + + + + + O + + + + + + + O + + + O + O O O O + + O + + + + O + + + + $ + + + + + $ + + + + O O O + + + + + + $ + + + $ + + + X 5 u 5 -.$.D.A.C % . ",
"o @ M I.I.>.>.u i 5 % $ $ $ $ $ $ $ $ , $ $ $ $ $ $ $ $ $ $ $ $ $ $ $ $ $ $ $ $ $ $ $ $ $ $ $ $ $ $ $ $ $ + $ $ $ $ $ , $ $ $ , $ $ $ $ $ $ $ $ $ $ $ $ $ $ $ $ , $ $ $ , $ $ $ $ $ $ $ $ $ $ $ $ $ $ $ $ $ $ $ $ $ $ $ 4 $ * $ $ $ $ $ $ $ $ $ $ $ $ $ $ $ $ $ $ $ $ $ $ $ $ $ $ $ $ $ $ $ $ $ $ $ $ $ $ $ $ $ $ $ $ $ 4 $ $ < , $ $ 4 $ $ $ $ $ $ $ $ $ $ $ $ $ $ $ $ + + 6 i u -.-.A.z.A + . ",
"o & m x.x.6 4 . . + t t t t t t t t t t t t t t t e t e t e e t t t e t t e t t e e e e e t e e t e e e e e e t r e t t t t t t t t t t t e t t t t t t t t e t t t t t t t t t e t t t t r t t t t e t t e e e t t t t t t p t t e e t e t t t t t t e t t e t e e e e t e t t e e r t t e e e e e t t t t t t t t t t t G t t t t t t t t t t p t t t t t t p t t t e e t . . . * O [.Y.1.+ . ",
"o @ z x.x.0 4 . X + t t e t t t t t t t t e t t e e e e e e e e e e t e e e e e e e e e e e e e e e e e e t e e t e t e e t e e e e e e e e e e e e e e e e e e t e e e e t e t e e e e e e e e e e e e t e e e e e r e t t e e e t e t e e e t e e e e e e e e t t e t e e e e t e t e e t e t e t e e e t e e e t t e e t t e t e t t e e e t t e t t t e t t t e t t e t X . . , $ (.P.4.$ . ",
"X @ 8 $.$.% X u t e t t t G G t G G G t t t t t t t t t t t t t t t t t p t t t t t t t e t t t t t t t t t t t t t t F t t G t t G t t t e t t t t t t t t t t t t G t G G t t t G t t t t t t t t t t t t t G t t t t t t t y p t t t t t t t t t G t t t t t t t t t G t G G t G G t G t G t t G G t G t t t t t p t G t t t t p t t t G t t p G t t t t p t t P P t p t p t e + O -.,.z $ O ",
"X @ 0 >.-.* + e t t G G G t G G t G t G G t t t G t G t p t t G t G G G G t P t t t t t e t t t t t t t t G H G G G G G G G G G G G P t t t t y t G G G G G t G P t y p t P P G P t t G t t t G G G G G G G G G P G t t t t G G p P t t G G t G G G G G G G G G t G G t G t G t G G t G G G t G G t G P t G P t P G t p t G G G t G G t G G G G G t P t P G t P G G t G P P t t p + + t.3.B $ . ",
". @ 0 &.$.% + p t t G t G G G t G G G t G t G t t e e r e r G t t G G t G t G t G t t t w w r e w r t G G G G t t F t G G G G t G G t r e r r e t t F G t t t r r t y r t y t t t t r r y t G G G G G G K t t y t e e e r e r t t t t G G G t G G G G G G G G G t G G G G G G t G G G t G G G G G G G t G G P G t t e r e r r e e G G G G G G G G G G G G t G t t G G G G G t t t + + q.>.v $ . ",
"X @ 0 } | 4 + p P P G I K K K I K I K K G I K I  .#X#X#X#Xu.I K K I K I K K K K I K G G m.#X#X#X#XJ P K K K u.#X#X#X#XL I I P K G P r #X#X#X#X#XJ P G r #X#X#X#X#X#X#X#X#X#X#X#X#X#X#X#X#XK K ~ I I I ~ ^ #X#X#X#X#X#X#X#X#X#X#X#X#X] L P K I I I I K I K K K K I I K I K K I I K K I I I I K I I I G I I I I I 5.#X#X#X#X#X#X#X@XI I I I I I I K K I I I I P I K P I P I I I P I + + :.$.z $ . ",
"X % 8 $.$.4 $ p P P G I I I K K K I K K I I L I E #X#X+X#X8.~ I I K P I P K G I K K K G v.@X#X@X#XG L I K I e.#X#X#X+XF K G P I K G r OX@X#X#X#XL L P F #X#X#X#X#X#X#X#X#X#X#X#X#X#X#X#X#XK I ~ I I ~ I ~ #X#X#X#X#X#X#X#X+X#X#X#X#X] I K I I I K I I I I I I I I I I K I I I I I K K I I I K I I I I I I I ~ I O.#X#X+X#X#X#X+XOXI I I I G K P I K I G I I I I K K G P I I I I I % + $.$.f O . ",
"X + 8 | $.4 $ P P G I G G K G I G G I G G K I P E #X#X#X#X8.U I I I K G K K I G I I I K v.#X#X@X#XH P I I Q w.#X#X#X+XF H P P G G G r OX#X#X#X#XH I K F #X#X#X#X#X#X#X#X+X#X#X#X#X#X#X#X#XK I I I I I I U #X#X#X#X#X#X#X#X#X#X#X#X#X] I I I I I I G I K K K I K I K I I I K K I K I I K K I I I I I I I I I I I ..#X@X#X+X#X#X+XOXU I I I L I I K I I I G G P I P K I I K P P P I $ $ $.| h + . ",
"X % 0 | | 4 % P G P H P K G K G I G P K H G K P  .#X#X#X#Xe.~ L I P I P G I G K K I I K H.#X#X#X#XF P P I I w.#X+X+X+XF K G K G G K r OX@X#X#X#XL K I F #X#X#X#X#X#X#X+X+X+X#X#X#X#X#X#X#XK I I K K P P P #X#X#X#X@X#X#X+X#X+X#X#X#XR I I I I P I P K I I K I I K I K I I I I I K P I I K K K K I K I I I I I I o.#X#X#X#X#X#X+XoXP H G G I I I I I I I P I I K P K I I P I P I I % + $.| l + . ",
"X % 0 | $.* % ~ ~ ~ ~ ~ ~ ~ ~ ~ ~ ~ ~ ~ ~ ~ ~ ~ 7.#X#X#X#X2.t 1 ~ ~ I ~ I ~ ~ I ~ ~ ~ ~ J.#X#X#X#X2 > K I ~ e.#X#X#X+X1 1 w ~ ~ ~ I J OX@X#X#X#X3 1 ~ J #X#X#X#X# > > > # > # # > > > > > w e I J OX#X#X#X7.Q K 1 1 > > > > # > > > w t ~ J #X#X#X#XQ ~ ~ ) ) ~ ) ~ ~ ~ ~ ~ ~ ~ ~ ~ ~ ~ ~ ~ ^ ~ ~ ~ ) ~ K #X#X#X#XW e > , , , 3 &.#X#X#Xw.~ ~ I ~ ~ ~ ~ ~ ~ ~ ) ~ ~ ~ ~ ~ ~ I I I % + $.| z O . ",
"X % l | $.4 $ I I ~ ~ ~ I ~ ~ ~ ~ I I ~ ~ ~ ~ ~ o.#X#X#X#X=.y 1 ~ ~ ~ ~ ~ ~ ~ ~ ~ ~ ~ ~ H.#X#X#X#X3 > G ~ ~ e.#X#X#X#X1 w w ~ ~ ~ ~ J OX@X#X#X#X2 1 ~ J #X#X#X#X1 w 1 1 2 1 1 1 w w w w w w e / Q  X@X@X@X@.^ ~ w e w e 2 1 2 w 1 w w r ~ Q #X#X#X#XQ / ~ ~ ~ ~ ~ ~ ~ ~ ~ ~ ~ ~ ~ ~ ~ ~ ~ ~ ~ ~ ~ ) ~ ) Q #X@X@X#X~ y 1 1 1 , , &.#X@X+X7.~ I ~ ~ ~ ~ ~ ~ ~ ~ ~ ~ ~ ~ ~ ~ ~ I I I + + $.| z $ . ",
"X @ 0 | $.4 % I ~ I ~ I ~ ~ ~ ~ ~ ~ ~ ~ ~ ~ ~ ~ o.#X#X#X#X%.e > ~ I Q ~ ~ ~ ~ ~ ~ ~ ~ ~ v.#X#X+X#X1 1 G ~ K d.#X+X#X#X> w e ~ ^ ~ ~ J @X@X#X#X#X> 1 ~ J #X#X#X@X> w 1 1 1 1 1 1 1 w w w w w r ~ Q  X#X#X@X@.~ U 1 w e w w w 1 1 w w w r ~ K #X#X#X#XJ ) ) ) ~ ~ ~ ~ ~ ~ ~ ~ ~ I ~ ~ ~ ~ ~ ~ ~ ~ ~ ~ ) ~ K #X#X#X#XQ G 1 1 1 > , &.@X#X#X7.^ I ~ ~ ~ ~ ~ ~ ~ ~ ~ ~ ~ ~ ~ ~ ~ I I I + O | | z + . ",
"X % 8 | $.4 $ U I I I ~ ~ ~ ~ ~ ~ ~ ~ ~ ~ ~ ~ ~ 5.#X#X#X#XB w , ~ ~ ~ ~ ~ ~ ~ ~ ~ ~ ~ Q b.#X#X#X#X1 , H ~ ~ s.#X#X#X+X> w w Q ! ) ~ Q @X#X@X#X#X> > I K #X+X#X+X> 1 w 1 1 1 1 1 1 1 w w w w e / Q  X@X#X+XX.L P e w 2 w w w w w w 1 1 e ~ K #X@X@X#XJ / ~ ~ ~ ~ ~ ~ ~ ~ ~ ~ ~ ~ ~ ~ ~ ~ ~ ~ ~ ~ ~ ~ ~ ~ K #X#X@X#XJ L e e w w y =.+X#X+X7.~ I ~ ~ ~ ~ ~ Q ~ ~ ~ ~ ~ ~ ~ ~ ~ ~ I I @ + $.| z O . ",
". @ 0 | $.4 % I ^ / ~ ^ ~ ^ ~ ~ ^ ~ ~ ^ ) ~ ) ~ +.#X#X+X#X%.w > ) ~ ~ ~ ~ ) ~ ~ ) ~ ~ Q j.#X#X+X#X3 1 I ) ) d.@X#X#X#X> 1 w _ ) ) ) Q @X#X#X#X#X, 1 ~ Q L.F.A.S.g j T }  .Y Y Y U ~ / ) ) ) ) ` ! ^.|.[.].t.j  .5.@.o.o.5.O./ ~ ~ ~ ~ I ~ W |.^.T.~.G I ) ~ ~ / ~ ~ ~ ~ ~ ~ ) ~ ~ ~ ~ ^ ~ ) ~ ) ~ ) ~ ~ J |.[.[._.E 8.h.u.e.e.w.v.T.Q.Y. .P I ^ ) ~ ~ ~ ^ ) ~ ~ ^ ~ ) ~ / ~ ~ I ~ + + -.| x O . ",
". % 0 | $.% $ / ) / _ ) ` i.` i.) i.` i.) i._ ` @.#X#X+X#XB w 1 a.i.i.) i.) i.` ) ) ) ~ c.@X#X#X#X1 1 ~ p.` h.+X+X#X+X> w w p.p.i.p.) @X#X#X#X#X> > ~ ) ^ { r +X#X#X#X#X#X@X#XOXf.` ` i.i.i.p.i.` ) p.U u }.#X+X#X#X#X@X@XU.p.) / ) ~ ) ` ` ) p.w e e 1 p.` i.) i.) ) ) ` ) i.i.p.i.` i.i.i.) ) ) ) i.) ) ) / P < #X+X+X#X#X@X+X Xp.r 3 1 1 G ) ) ) ) ) _ ) ) i.i.) ) ) ) ) ^ ~ ` + + -.*.z O . ",
". @ 0 | $.% % / ^ ) ) ` i._ i.i.i.` ` ) ) ) ) _ +.#X#X#X#XC w 1 p.) i.) i.) ) _ ) ) ~ ) b.#X#X@X#X1 1 U p.) f.#X#X#X+X# 1 w i.p.p.p.) #X#X#X#X#X1 > ~ ~ m.U.#X+X#X#X#X#X#X#X#X@Xg.) / ) ) ` ) ) _ _ i.K e OX#X#X#X+X#X@X#XU.a.) / ^ ^ _ ) p.` a.1 2 2 1 p.) ) ) ) ) ) ) ) ) ) ) ` ` ) ) ) ) ) ) ) ) ) ) ) _ / y < #X#X#X#X#X#X@X Xa.e 2 1 2 G ) ) ) ) ) ) ) ) ) ) ) ) _ / ) ~ ^ ) + + -.| c O . ",
"X @ 7 | $.% $ ' ^ _ _ ) ` ` i._ ` ` i.) ` ) ) ) @.#X#X#X#X%.y 1 a.i.i.) ` ) ` / ) ) ) ) b.#X#X+X#X, 1 ~ ` _ f.#X#X#X#X> w w p.p.p.p.! #X#X@X#X#X, # U ~ ^.@X@X#X#X#X#X#X#X#X#X#Xh.) / ) ) ) ) ) ) ) ) G 2 OX#X@X#X+X+X+X+XU.( _ ) ~ / ) i.i.p.a.1 1 1 1 ) ) ) ) ) ) ) _ ) ) ) ) ) ) i.) ) ) ) ) ) ) ) ) ) ` ' y 2 #X@X@X#X#X+XOX X~ e 1 > 1 G ) ) ) ) ) ) ) ) ) _ ) ) ) _ ) ~ ~ ` + + $.| z $ . ",
". + 8 } | % $ / ) ) ) ` ` i._ i.` ` ` ) ` ) ) ) @.#X#X#X#X;.t 1 a.p.` ) ` ) ) ) ) ) ) ) k.#X#X#X#X1 > U ` i.f.#X#X#X#X> w w p.i.i._ ) +X#X#X#X#X# # ~ ~ ^.#X@X#X#X#X#X#X#X#X#X#Xc.) ~ ) ) ) ) ) ) ) ^ ~ ( |.XXOX[.].(.].}.Z.J J Q K ) ) ) i.i.p.p.p.) ) ) ) ) ) ) ) ) i.) ) ) i.i.) ) ) ) i.) ) ) ) ) ) ~ w.@.5.*.@X X}.}.[.[.(.(.I / ~ ) ) ) ) ) ) ) ) i.) ) ) ) ) ) ) ) ) ) ~ _ + O $.| z $ . ",
"  + 7 | | * % ' ) ) _ ` ` i._ ) ` ` _ ` ) ) _ _ @.#X#X#X#X%.t w a.` ) ) _ ) ) ) ) ) ` ) k.#X#X#X#X> > I ` i.s.#X#X#X#X> w w a._ ) _ ! OX@X#X#X#X# # / ~ ^.#X#X+X, 3 3 < < < < 3 w 1 G ) ^ ) ) ) ) ^ ) ) ~ ) ) i.1 w 1 2 w t.+X+XOXOXW ) ) ) W. X X X! ) ) ~ ) ) ) ) ) ) i.) i.) ) ) ) ) _ ) ) ) i.) ) ) ~ #X@X@X#X) I 1 2 1 1 w #.#X#X#Xj.) ) i.) ) ) i.) ) _ ) ) ) ) ) ) i.) ) ` + X v } z O . ",
"X @ 8 | $.4 $ / ) ) ` ) ` ` ` ` ) ) ) ) ) ` _ ` @.#X#X#X#X%.y 1 p.) _ _ ) ) ` ) _ p.` ) k.#X#X@X#X, , I ) p.s.#X#X#X#X1 w r _ _ ) ) ! OX#X#X#X#X# > / ~ {.@X#X@X> 3 2 e y e r y w w K ) ) ) ) ) ) ) ) ~ _ ) ) i.1 e e e 2 3.OX+X@X#XW ) ~ ) W.@X@X@XW / ~ ) ) ) i.) ) i.) ) ) ) ) ) ) ) ) ) ) ` ) ) i.` ! #X#X#X#Xi./ w w w w 2 =.+X@X@Xj.i.) ) i.i.) ) ) ) ) i.) ) ) ) ) ) ~ ) / + . $.} h + . ",
". @ 0 | | 4 $ ( _ _ _ ) ) ` ` ) ) ` ) _ _ _ ` _ 7.#X#X#X#X<.r 2 a._ ) ^ _ _ ` ` ) ) ) ) h.#X#X@X#X# > I i.i.g.#X#X#X#X1 w y p._ _ _ ! oX@X@XP.1 1 > ) / {.@X#X@X> , 1 1 w w w w w 1 L ^ ) ) ) ) _ ) i._ ^ ) ~ i.r y w w 2 4.OX@X#X#X! ' ) ) W.@X+X+XW ) ) ) ) ) ) i.) ) ) ) ) ) ) ) ) ) ) ) ) _ ` _ i.p.! #X#X#X#X^ I 1 2 , 3 3 6.@X+X+Xj.) ) ) ) ) i.) ) ) ) ) ) ) ) ) ) ) ~ ~ ) + X | | z $ . ",
"X * 0 | $.4 $ / ^ _ ) ) ` i.) ` i._ _ i.p.` i.p.@.#X#X#X#X2.y 2 a.' _ ' ` p.a.p.i.` ) ) h.#X#X@X#X# , I i.i.g.#X#X#X#X, y y a.' a.' _ OX#X#Xa w 1 > / / {.#X#X#X# 2 1 1 2 2 e w y w I _ ' ~ ^ ) ` _ _ _ ) ^ _ _ ^ P w w 2 4.#X#X#X#XQ ` ) ~ |.@X#X+XW ) i.i.) i.) ) ) ) ) ) ) ) ) ) ) i.` i.) i.` p.p.p.! #X#X#X#XL y y t e e e 5.@X+XOXh.i._ ) ) ) i.i.i.) ) ` ) ) ) _ _ ) ^ ~ ` X + $.| z O . ",
". & 0 | | 4 % ~ ~ ~ ~ ~ ~ ~ ~ ~ ~ ~ ~ ~ ~ ~ ~ ~ +.#X#X#X#Xl.j f @.[ [ { O.O.O.{ ~ ~ ~ ~ f.#X#X+X#X, > G ) ) ' 7.6.#.} j &.=.h.h.h.h.j.[ E R 1 > t e / / {.#X#X#XG.P.P.P.y.r.r.r.r.r.8.8.e.K ~ K K n.J.J.J.H.H.J.J.m.h.h.h.e.Y T f f 1 r ) ! ( E T j G G ! ~ ~ ~ ~ ~ ~ ~ ! ~ ~ ~ ~ ~ ~ ~ ~ ~ ~ ~ ~ ~ ) ~ K #X@X@XOXZ.H.J.R.R.R.E.W.OXoX.X6.t G ~ ~ ~ ~ ~ ~ ~ ~ ~ ! ~ ~ ~ ~ ~ K I I + + $.$.c +   ",
". % 0 | -.4 $ U ~ ~ ^ ~ Q ~ ~ ~ Q ~ ~ ~ ~ ~ ~ ^ X.#X#X#X#X+X+X+X+X@X+X@X#X#X@X XW ~ ~ ! f.#X#X#X#X, 1 K ~ ~ ~ ~ ~ w w (.+X#X#X#X#X#X+XE L G 1 > / / ^ ~ ^.@X#X#X#X#X#X#X+X+X+X#X#X#X#X+X#XL ~ ~ Q |.#X#X@X@X@X@X#X#X#X@X@XU._ ~ w w w t ~ ~ K ~ 1 1 1 w ~ ~ ~ ! ~ I ~ Q ~ ~ ~ ~ ~ ~ ~ Q ~ ~ ~ ~ ~ ~ ~ ~ ~ ) ) y =.#X+X+XOX#X#X#X#X~ y w 1 1 t ~ ~ ~ ~ ~ ~ ~ ~ Q ~ ~ ~ ~ Q ~ I P I + + $.| c $ . ",
"X @ 0 | $.4 % I / ~ ~ ~ ~ I ~ ~ ~ ~ ~ ~ Q ~ ~ ~ X.#X#X#X#X+X#X@X#X#X#X#X#X#X@XXXJ ~ ~ ! f.#X#X#X#X, > P ~ ~ ~ ~ ~ 1 1 ].@X#X+X#X#X#XXX( ^ G 1 > / ^ ^ ~ ^.@X#X#X#X#X#X#X@X#X#X#X#X#X#X#X#XK ~ ~ Q |.#X#X@X@X#X#X#X#X#X#X@XL._ ~ w w w r ~ ~ ~ ~ 1 1 w w ~ ~ ~ Q ~ I ~ Q ~ I ~ ~ ~ I ~ ~ ~ ~ ~ ~ ~ ~ ~ ~ ~ ~ ~ w %.#X+X#X@X+X#X#X#XQ r w w w G ~ ~ ~ ~ ~ ~ ~ ~ ~ I ~ I ~ ~ ~ I I I + + $.$.c O . ",
". % 0 | *.4 $ ~ I I ~ I ~ ~ ~ I ~ ~ I ~ I ~ ~ ~ +.#X#X#X#X#X+X#X#X#X#X#X#X#X#X.XF I ~ ~ f.#X#X+X#X, > H K ~ ~ ~ ~ 1 1 ].@X@X@X#X#X#XJ ~ F r 1 > / ~ ~ ~ ].@X#X#X#X#X#X#X#X+X#X#X#X#X#X#X#XK ~ ~ J }.@X#X#X#X@X@X#X#X#X#X+XL.~ ~ 1 1 w e Q ~ Q ~ 1 1 1 1 ~ ~ ~ I ~ ~ ~ ~ ~ ~ ~ ~ ~ ~ ~ ~ ~ ~ ~ ~ ~ ~ ~ ~ ~ ~ ~ e *.#X+X+X+X@X+X+X#XJ t 1 w w F ) ~ Q ~ ~ Q ~ K ~ ~ ~ ~ ~ ~ ~ I I / $ + $.| x O . ",
". + 0 | $.4 $ P I I I ~ ~ I I ~ ~ I I I I ~ I ~ 7.#X#X#X#X#X#X#X#X#X#X#X#X#X#XoXw 1 K Q b.#X#X#X#X> > G ~ ~ I ~ ~ I Q OX#X#X#X#X#Xt.p t r r ~ I ~ ~ ~ I  X#X#X#X#X#X#X#X#X#X#X#X#X#X#X#X#XL ~ ~ J XX#X#X#X#X#X#X#X#X#X#X#XK.L G I I K ~ ~ ~ I ~ G I I I ~ I I I I ~ ~ I I ~ I I I ~ Q I ~ I ~ ~ I I ~ I I ~ ~ y =.#X#X@X@XOXOXOX#Xr G K K K I ~ ~ ~ ~ I I I I I I I I I I ~ I I I $ + -.$.f O . ",
". % 0 | | * $ P I I I I K K K K I K K K K I I I K G G w > > # # # > # > > > > # 1 > K K K K G 1 > 1 1 G K K K I I Q K K K K > # # > 1 G K I ~ I I I I I G F 1 # > > > > # > > # > > > > > w e I I J J t > > # > # # > # # > > 1 K K K K I K K K K K I I I G I I G K I I K K I I I I I I I K K I K K K I I P I G P P I , 1 , 1 , , 1 e I I I I I K K K P K I I I K K K I K I G I P + O -.$.z O . ",
"X @ 7 v v % + P I G I I I I I K I I I I K I I I K I I t 1 > > 1 1 1 1 1 1 1 1 1 1 > G P I I I 1 1 1 1 K I I I I I I I I I K 1 > > > > p K K I K I I I I I I w , 1 1 1 1 1 1 1 1 > 1 1 1 1 1 w I G K K G 2 1 1 1 1 > 1 1 1 1 1 1 G K K G K K K K I K I G P I G I I I G I I I I I I I I I K P I I I K K K G I G I G P G 1 1 1 1 1 1 1 e K I K I I I I I P I G I I I L I G I I t t P + X -.$.z + . ",
"X % k 3.y.% + t G G K G G K G G K G G G G G G G G G G e 1 1 1 > 1 1 1 1 1 1 1 1 1 1 G G G G I 1 w 1 1 G K G G I K G G I G K 1 1 1 1 1 t G G G G G G G G G G w > 1 1 1 1 1 1 1 1 1 1 1 1 1 1 w P G K K G 1 1 1 1 > 1 1 1 1 1 1 2 G G G G K G K G G K G G G G G G G G G G G G G G G G G G G G G G G G G G G G G G P G G 1 1 w 2 1 1 1 w G G G G G K H G G G G G G G K G G G I t t t X X 3.3.C + . ",
"X @ k ,.3.+ . a I p G G G G G G G G G G G G G t G G t t e e e e e t e e t e e e e e t G G t t e t r r G G G P t G G G G G G t t t t t t t G G t G t G G G G t e t e e e w e e e e e e e e e e t G G G t t t e e t t t t t e w e G t G G G G t G G G G G t G G G t G G G t G G G G t G G G t G t t G t G t G t G G G G t t t t t t t G G G G G G G t t G G G G G G G G G t t e p p O . ,.>.B # . ",
"X @ A /._.f z . . O G t G t t t t t t e e t e e e e e e e e t t e e t t t t t t t t t t t e e t e t t t t e e t e e e e t t t t e e t t t e e e e e t t t t t t e t t e t t t t e e e e e t t t e e t t t t t e t r t t t t t t t t e t e t t t t t t t t t t t t e t e t e t t t t t t t t t e e t t t e e e t e t t t t t t t t t t t t t e e t t t t e t t t e e t e e e X . . 7 + oX/.l.+ . ",
". @ S _.'.z f . . $ G t t t t t t t t t t e t t e p t t t t t t e p t t e t e t t t t t t e t e e e t t t e e e t e t t t t t t t t t t t e e e t e t t t t t t t t t t t t e t t t e e t e e e t t t t t p e t t t t t t t e t t t t t t t e t e t t t e t t e t t t t e t e t e t t t t e t e e t e e e e t t t t t t t e e e t t t t t t t t t e t t e t t t t t e e e e . . . 7 * OX/.l.+ . ",
". @ S }.#Xq 9 O . $ t t t t t t t e t t t t t t t t t t t t t t t t t e t e t t t t t t t t t e e p t t t t t t t t t t G t G t t G t t t e t t e t t t t t t t e t e t e t t e t t e t e t t t t t t t t t t t t t G t P t t t t t t t t t t t e t e t t t t t t t t t t t t t t t e e t t e t t t e t t t t t t t t t t t e e e t t t t t t t r t t t t t t t t t t e t e . . . ; & oX/.l.O . ",
"o o k 9.:.T.!.x } 0 + + + + + + + + + + + + + + + + + + + % + + + + + + o + + + + + + + + + + + + + + + + + + + + + + + + + $ + + $ + + + + + + + + + + + + $ + + O + O + + + + + + + + + + + + + + $ + + $ + + + + + + + + + + + % + + $ + + + + + + + + + + $ + + + + + + + O + + + + + + + + + + + + $ + + + $ + $ + $ + + + + + $ + + + + + + + + + + + + + + + + + + X 7 8 4 ).`.:.,.v O . ",
"o o l :.:.I.!.h | u + + O + O + O + O + + + O + + + O + + O + + + + + + + + + + + + + + + + + + + + + + + + + + + + O $ + + + O + + O + O + O + O + + + + O O + + $ + + + + + + + + + + + + + $ $ O $ + + + O + + + + + + + $ + + + $ + + + + O + O O + + + + + + O $ + + + + $ + + O + + + O + + O + + O + + + + O + + + + + + + + O + + + + + + + + + $ + $ + + + % + + + 7 k 4 ).oX*.:.c .   ",
"b 9 - 8 * >.$.$.| } x x x x x x x x x x x x x l x l x l l x x l x x x s d l x h x h x x x x x x x x x x x x x x x x x x x x x x x x x x x x x } x x x x x x x x x x x x x x x x l x x x x x x x x c l c x x x x x x x x x x x x x x x l x x l l l l l l x d l h h x h x x h h d l s d d d d h d x x l x x x h l l x h h l l h l x l j h x l x h d x x c c c c c } x x x x } | $.$.*.*.s 5 7 o . ",
"$X$XV X + >.*.#.} c s s s s s s s x h s s h h l s h s s h h h h x x s i s i s h h h h h s h x s h s h h Y h x x x s h x s x s x s h s x s x s s h h h h h h h h s h x h s h h h h x h x x x x x h h s x s x x h s x x x x x h x s s h s l h s h s s i s s s s s s s h s h s i s i s s i i i h h s s s s s s h d i s d d h h d h h h d d s h h h h j h h h x h h s x h l h x | -.$.q.0.d &   !.$X",
"$X$XS : X N z d d 0 6 6 6 6 i 6 i 6 6 6 6 6 5 5 5 5 5 5 6 6 0 6 6 6 5 5 5 5 5 6 6 6 6 6 5 5 5 6 6 5 6 5 6 6 6 6 6 6 u 6 6 6 5 5 5 5 6 5 6 6 u 6 6 5 5 5 5 5 5 5 6 5 6 5 5 5 5 5 5 5 6 6 u u 6 6 6 6 6 6 6 6 6 6 i 6 6 i i 6 i 6 6 6 6 6 6 u 6 i 6 6 6 6 6 6 6 5 5 6 u 6 6 5 5 5 5 5 5 5 5 5 5 5 5 6 6 5 5 5 5 4 5 5 4 5 5 5 5 5 5 5 6 6 6 i 6 5 u 5 5 5 u 6 6 5 5 5 5 5 5 6 l l l v v 0 @ o `.$X",
"$X$X$X$X  @ o o @ + @ + % % + % + @ + + @ + + @ + @ + @ @ + % @ @ @ + + + % + % + % @ + % % % + % @ + % + % % % + % + % + @ % + + @ + @ + @ + + + + @ + % + % + + @ + @ + % @ + % + @ + % @ @ @ @ + @ + + @ + @ % + @ + + @ @ + + @ + + + @ + + @ % % % + @ + + % + @ @ + + @ @ + @ + + % @ + @ $ + % + + + + + + + + % + + + % + + + @ + + @ + + @ % + % @ + @ + + @ X + @ + % % % & @ = $X$X$X",
"$X$X$X$X& o & o o & & o & & o o & o o o o o o o & o = @ o & & o @ o o @ o & & & & @ & & @ o o & o o @ @ & & & & & & & & @ & @ & & @ @ @ @ o o @ o & & @ & o o o & @ & o & o = @ = & @ & @ & o @ o @ @ o o & o @ & & o & @ @ @ o @ o @ @ @ @ @ @ o @ = @ = & @ o o @ & o & o o @ & & & & & & & & = o @ @ o @ o o o o @ o = o = @ @ @ @ o @ @ & o & o = @ @ = o & & o o o o o o & & & = = k $X$X$X"
};
