/* XPM */
static char *lives_17[] = {
/* columns rows colors chars-per-pixel */
"192 48 196 2 ",
"   c #020209",
".  c #04091A",
"X  c #0A111D",
"o  c #11141D",
"O  c #060E23",
"+  c #0A152A",
"@  c #141B2B",
"#  c #03073B",
"$  c #0B1833",
"%  c #131D34",
"&  c #18202E",
"*  c #182234",
"=  c #292828",
"-  c #252A38",
";  c #343435",
":  c #03074A",
">  c #091448",
",  c #111E41",
"<  c #020B58",
"1  c #081359",
"2  c #131A5A",
"3  c #19294B",
"4  c #1B2D52",
"5  c #1E3056",
"6  c #262648",
"7  c #28354B",
"8  c #232F59",
"9  c #263556",
"0  c #343E5A",
"q  c #020C66",
"w  c #02146B",
"e  c #000C77",
"r  c #021777",
"t  c #10197B",
"y  c #1F2A69",
"u  c #1E3467",
"i  c #09217D",
"p  c #1A287A",
"a  c #1E307E",
"s  c #242968",
"d  c #2C3E68",
"f  c #313B69",
"g  c #222976",
"h  c #273674",
"j  c #323673",
"k  c #35415C",
"l  c #2F406B",
"z  c #34456D",
"x  c #2D457B",
"c  c #394A74",
"v  c #3E517A",
"b  c #42454C",
"n  c #4A4F57",
"m  c #4E535B",
"M  c #52565D",
"N  c #424A62",
"B  c #565B63",
"V  c #424F74",
"C  c #445377",
"Z  c #53567F",
"A  c #615F60",
"S  c #5C6169",
"D  c #56607E",
"F  c #636162",
"G  c #676976",
"H  c #716F75",
"J  c #737478",
"K  c #010A85",
"L  c #041D89",
"P  c #000A98",
"I  c #041D94",
"U  c #05218A",
"Y  c #172788",
"T  c #1E318A",
"R  c #062298",
"E  c #17289C",
"W  c #1A329B",
"Q  c #212B80",
"!  c #253081",
"~  c #272F9E",
"^  c #283798",
"/  c #313A95",
"(  c #021AA7",
")  c #021AB3",
"_  c #0826A5",
"`  c #102CA6",
"'  c #0E31A8",
"]  c #1731AA",
"[  c #0C2DB8",
"{  c #0D31BB",
"}  c #1134B9",
"|  c #2738A9",
" . c #313DA1",
".. c #2D3EB1",
"X. c #374D82",
"o. c #3C5286",
"O. c #3A4599",
"+. c #3D5090",
"@. c #3847AD",
"#. c #3D56AA",
"$. c #2843B6",
"%. c #374AB7",
"&. c #3C55B6",
"*. c #4A4C82",
"=. c #44588B",
"-. c #555886",
";. c #495D92",
":. c #545997",
">. c #4C618E",
",. c #586488",
"<. c #4C6194",
"1. c #536797",
"2. c #5E709F",
"3. c #666987",
"4. c #6B7389",
"5. c #747987",
"6. c #636A99",
"7. c #68739A",
"8. c #717C99",
"9. c #474EA0",
"0. c #4E55A5",
"q. c #525AAB",
"w. c #485BB9",
"e. c #505AB0",
"r. c #556AA6",
"t. c #4E61BE",
"y. c #586BB9",
"u. c #616AA5",
"i. c #6977A5",
"p. c #7479A6",
"a. c #6A77B6",
"s. c #001EC1",
"d. c #0B2EC2",
"f. c #132FC2",
"g. c #0C33C4",
"h. c #1438C4",
"j. c #344EC4",
"k. c #3B54C1",
"l. c #465DC6",
"z. c #4762C6",
"x. c #566BC6",
"c. c #6778C9",
"v. c #717DC6",
"b. c #677DD2",
"n. c #7784A8",
"m. c #7885B7",
"M. c #7885CB",
"N. c #6E83D9",
"B. c #798AD6",
"V. c #8C928F",
"C. c #838692",
"Z. c #8D929E",
"A. c #91959D",
"S. c #868BAA",
"D. c #838EB6",
"F. c #8A94B6",
"G. c #939BB9",
"H. c #9FA2BE",
"J. c #ACB1AC",
"K. c #A3A4B9",
"L. c #BBB9BB",
"P. c #838BCE",
"I. c #8A99DB",
"U. c #999FD5",
"Y. c #9FA4C0",
"T. c #9AA3DB",
"R. c #A5AAC7",
"E. c #AEB3CB",
"W. c #B6B8CA",
"Q. c #A0AADB",
"!. c #B9B9D0",
"~. c #98A9E1",
"^. c #9FB0E1",
"/. c #A9B7E7",
"(. c #B0BDEC",
"). c #B8C7EC",
"_. c #BFCEF3",
"`. c #C7C8D7",
"'. c #CED1D9",
"]. c #D6D5DA",
"[. c #E3E4DF",
"{. c #C7CEE9",
"}. c #CBD1E9",
"|. c #D6D9EA",
" X c #C4CFF1",
".X c #C8D6F2",
"XX c #D3DBF5",
"oX c #DCE3F6",
"OX c #E8E7EA",
"+X c #F2ECE9",
"@X c #F7F1EE",
"#X c #EAECF6",
"$X c #F2EEF8",
"%X c #EFF1F9",
"&X c #F8F8FB",
"*X c None",
/* pixels */
"*X*X*X*X= m m M M M S S B M B m m m m m n m M m m m M B S S S B S M B B M m m m M M M M S M S B B B B S M M M M m M m M M B S S S S S S S B n m m M B M B M B M S B B M M M M M B M M n n n m M M M B B B B S B B B B B M M B S S S S S S M M m n m M m M M B m M M m M M S S S m n m m M M S B B B B B B B M B B m m M B B B B B M M B S B S B S M M M m n m M M M S B B B B S S A m B H *X*X*X",
"*X*X*X*X  o o o o + @ @ & & & & @ @ & @ & & & & * * % * * * * * & * & & & & @ & & & & & & * & & & & & & & & & & @ & & % @ * & & @ & & & & & * * * * * * * * & * & & & & & & & * & & % & @ @ @ & & @ & & & * * & & & * & & * * * & * * & & & & @ @ & * & * * * % * @ @ @ @ @ & & & & & @ & & & & * * * * & & @ @ & @ * * * & * & & & & & & & & & & & & & @ & @ & % * * & & & & o X X X X b *X*X*X",
"*X*XF ;   A.Z.4.4.>.v z c l z f z x z z z z l l d l z z z c c z z z l z z l l z z c c c c c c c c c c v z c c z l z z z z z z z z l l l l z c v c c c v c x z z z l z z z z z c z c c z c c c c c c z z c l l l l l z l z z z z l x z z z x l l l z l x z z z x c z z z z l z l l l l l z z z c c c z z z z z z z z c z z l l l z l l z z z c z z l z l l l l z z c z z c v D D D 5.5.C - = *X*X",
"*X*Xb     OXL.S.D.n.<.>.=.=.=.=.=.=.=.;.=.=.=.=.=.o.=.=.=.=.=.=.=.=.=.v <.>.<.;.>.<.>.>.>.>.>.>.>.<.<.<.1.1.<.<.<.>.>.>.;.>.;.;.;.>.<.<.<.1.1.1.1.1.<.<.<.<.<.<.>.>.>.>.<.<.<.<.<.<.;.;.<.=.>.>.;.>.;.<.;.;.;.<.>.<.>.>.<.+.>.+.>.=.;.<.+.<.=.>.o.o.o.=.+.o.>.=.>.o.=.=.o.=.=.o.1.<.1.1.1.>.1.>.<.<.<.>.<.<.<.<.>.<.>.>.<.=.>.;.=.=.;.<.<.<.<.<.<.<.<.+.>.>.=.>.+.<.<.>.>.1.n.n.n.E.W.,.k   *X*X",
"    A '.L.K.K.8.n.7.z z z z z z z z c z c z c c z z c z c c c c z z z z z c c V V c V c c N c c c v c v v v c V c V c c N c z c c V V c C C v C C C C C C v v c c v c v C c c v c V c V c N v c V c V c c c c c c v c v c c c c c z c c c v c c z z z z z z v c c c c c c c z c c C C v C C C c V c c c c c V V v V V C V c N z c V c C C C C C C c v c c c z c c c z z c c >.>.,.F.H.S.3.G .   ",
"o @ J OX+X1.r.h a 5 X o + + + + @ $ $ + + @ $ + @ + + + + + + + + + @ + + o + + + @ + + + + @ + @ + @ $ + + + + + + o + + + + + @ + + + + + o + + + + + + + + @ $ + o + + + @ + + + + + + + + + @ + $ + @ @ + + + + + @ @ @ + + $ + + $ $ + + $ + + + X + + + + + + + + + + @ $ + + + $ & o $ $ + + + + + + + + + + + + + + + + + + + $ $ $ $ + o + + $ + $ & % % $ @ + + O 4 4 4 2.1.|.'.5.$   ",
"  o H OX@X=.2.h x 5 X + + + + + + + $ $ @ + + + + @ + + + + O + + + + + + o + + + + + + + @ + + + + @ + + + + + + O + + + + + + + + + + + + + + + + + + + + + + $ + + + + + @ + + + + + + + + + + + + + @ + + + + + + + + + + + + + + $ @ + @ + o + + + + + + + + @ + + + @ $ + + $ + $ + $ + + + + + O O + + + + + + + + + + + O + + + + $ + + + + + + + + $ $ @ $ + + + X 4 u 4 r.1.{.`.4.$   ",
"X o n D.F.s % . . $ w r w w w w w w w w w w w w w w w w q w w w w w 1 q w w w w w w w w w w w w w w w w w w w w w w w w w w w w w w w w w w w w w w w w w w w w w w w w w w w w w w q w w w w w w w w w w w w w w w w w w w w w w w w w w w w w w w w 1 w w w 1 w w w w w w w w w w w w w w w w q w w w w w w w r w w w w w w w w w w w w r r w w w w w r r i w w w w 1 w w # O O 3 $ Y.F.4.+   ",
"  o N F.G.9 3 O X $ w r w w w w w r w w w w w w w w w w w w w w w w w w w w w w w w w w w w w w w w w w w w w w w w r w w w w w w w w w w w w w w w w e w w w w w w w w r w w w w w w w w w w w w w w w w w w w w w r w w w r w w w w w r w r w w w w w w w w w w w w w w w w w w w w w w w w w w w w w w w r r w r e w w w w w w w r w w w w r i w r r r r r w r w w w w w > O O 4 $ T.G.4.O   ",
"o @ z m.m.7 * $ > 1 r w r r r r r w r e r w r w w w r w w r r r w r w w w w r r w r w w w r r r w i w w w w r w r r r r r r w r w w w w w w w w w w w w w w w w r r r r r w w w w w w w w r w w w w w w r r r w r w r w w r r w r w r r r r w w w i w r w w w w w w r r r r w r r w r r w r r r r r r r r r r r r r r r r w r w r r r r r r r r r r r r r r r r r r r r r r w 1 < , + Y.n.,.+   ",
"X @ k 7.2.3 & w i r r r r r L r r L L r r r r L i r i r r r r L r r r r r r r r r r r r r r t r i r i w r w r t U U U L L L L r r r r w w w w t r r L r r r r r L L U r i i i i L t i i L L r L r r L r r r i U t r r t r t i t r r r r r r L r i U r r r r L r r L r L r r r L r r r r r r r r t L U U U U L L L L r L r U r t r i i t L i t r i L i t r L L L r r r r i r r L U $ + 7.2.C O . ",
". @ 0 2.2.3 $ w r r U r L r r r r L r L r L r r r q q w w r r r L r L r L r L r r L r r w w q r w r r r r r r w r t r L I L L r L L r q q w w r r L r r a T T T T T T T i i t r i t i t U r L L L L r L L i t t r w w w w r w r q w r r r L r r r r r L L L r L L r L r L L L r r L L r r L r L L i r r r r L L L r L L L r w r e r r e e w w e w e e r w e L L L L L L U U U r L + O 7.1.B # . ",
". @ 9 o.=., $ i U U I U R R I R I R I R I R I R O.&X&X&X&Xq.R R R R U R I R I R R I R L M.%X&X%X&XL U L U U #.&X&X&X&XI R I R R L L e #X%X&X%X&XK L L e &X&X&X&X&X&X&X&X&X&X%X%X&X&X&X&X&XE _ R R R R R ' &X&X&X&X%X%X&X&X&X&X&X&X&X~ L I U I I I R I R I I R I R I R I U I I U R U U I L R I I L #X&X&X&X&X( _ R R R R _ }.&X&X&X%X&X&X&X%X&X%X%X%X&X&X&Xa.R R R R R R R R I U U + O o.v l + . ",
". @ 8 o.+.% $ i i L R U R I R I I I U I L R I U / &X%X%X&X9.E U R U R I R R U R R R I I M.&X%X%X%XK U R R R #.&X&X&X&XI E R U R R R e #X@X%X%X&XK L L e &X&X&X&X&X&X&X&X@X%X&X%X%X&X&X&X&XE R _ _ R R _ ' &X&X&X&X%X%X%X&X&X&X&X$X&X~ L L R I R U I U I I R I R U I I U I I U I I L U I R R R E L #X%X&X&X&XI _ R R _ R _ }.&X%X&X%X%X#X#X#X#X#X&X&X&X&X&Xc._ R R R R U R R L U R + O o.X.l O . ",
". @ 7 o.o., $ i L U I R I I R R I U I I L I I R / &X&X%X&X:.Y R R R R R R I U R I R I I M.&X%X%X&XK U R R R &.&X&X%X%XK I I R R R I e #X&X%X&X&Xe U U K &X&X&X&X&X&X%X%X%X%X&X&X&X&X&X&X&X` ( _ R R _ _ _ &X&X&X&X%X%X%X&X&X&X&X&X&XW U I I U I I I I I I I U I I R R I R I I U L I I I I I K e e XX$X$X&X&XR U R R R _ _ }.&X&X&X&X&X%X%X%X@X%X&X&X&X&X&Xv._ I I R I R R R R I U + X o.v d # . ",
". @ 7 o.=.% $ i L U U I I U I I I I I R R L L U / &X%X&X&X0.R U I R I I U I I I I R I I B.&X&X&X&XK U R I I #.&X$X&X$Xe I I R R R I e %X%X%X&X&Xe U U K &X&X&X&X&X%X@X%X@X%X%X&X&X&X&X&X&XI _ _ _ R I R R &X%X%X%X%X%X@X%X%X&X%X&X&XW U I I I I I U I I I R I I R L I L I L U L I I I U I R %X#X#X#X&X$X&X&XI Y U R R R R }.&X%X&X&X%X#X#X#X%X#X&X&X&X&X&Xv.` R R R U I R R U R U O X o.o.l O . ",
"X $ 9 o.=., * U R R _ R _ I _ I _ R _ R _ R R R  .&X&X&X&X:.r 1 _ R _ R _ R I R _ I _ I P.&X&X&X&X< 1 L R R &.&X&X$X$Xq q r _ _ _ _ P &X&X$X%X&Xq q I e &X&X&X&XR.E.E.K.K.K.K.R.R.R.L.E.!.q r I P ~.U.U.U./.Q.Q.Q.E.R.R.R.R.E.W.!.`.g L I I /.I.U.T.P _ R _ _ ( _ R R I _ I R I _ R _ _ ` ` &X$X&X&X&X&X&X&Xq < R R R R R x.M.M.D.a.n.p.7.7.p.p.S.&X&X&X&Xa.i ` R _ I _ _ _ ( R R + O o.v c + . ",
"X % 9 o.=.* $ R ` R _ _ _ _ _ _ _ _ _ _ _ _ _ _ @.&X&X&X&X-.w : _ _ _ _ _ _ _ _ _ _ _ _ P.&X&X&X&X: : K _ _ #.&X&X&X&X: < q _ _ _ _ I $X&X&X&X&X< q ( K &X&X&X#X# 2 1 1 q w 2 w w w q q 2 1 < ` P XX$X&X$Xl.[ ' q 2 q w q 1 1 q w w e L [ I &X&X&X$XP _ _ _ _ ` _ R _ _ _ _ _ R _ _ _ _ _ ] &X$X&X&X&X&X&X&Xq : ' _ _ R _ _ _ [ t t q 1 1 : 1 > : &X&X&X$X6.q _ _ _ _ _ _ _ R _ ' + + =.o.c # . ",
"X @ 5 o.=., $ R _ R _ _ _ _ _ _ R _ _ _ _ _ _ _ @.&X&X&X&X-.q : _ R _ R _ _ _ _ _ _ _ ( B.&X&X%X&X> < L _ _ &.%X&X&X&X: < w _ _ ` _ ( &X&X&X&X&Xq q _ K &X&X%X@X# < : : < q q q q < < < < < < R K XX$X&X$Xe.[ _ < q q q < 1 1 < q q q r ` P &X&X&X&XP _ _ _ _ _ ( _ _ I ( ( R _ _ _ ( ` _ _ |.#XOX&X&X&X&X&X< : _ _ _ _ _ ' _ [ r q q q < < < : : &X$X&X@X6.1 _ _ _ _ _ _ _ R R _ + X >.o.c $ . ",
"X @ k o.=.% $ ' _ _ _ R _ _ R _ _ _ _ _ _ _ _ [ @.&X&X&X&X-.q # ` _ R _ R _ R _ R R _ _ B.&X&X&X&X: < L _ _ &.&X&X&X&X: q q _ _ _ _ ( &X&X&X&X&X< < [ P &X%X#XOX# : 1 1 q 2 w q q q q 1 < : < ( P XX$X$X#Xe._ E < q w w q q w q w q q L [ I &X$X#X&XP ( _ _ _ _ _ _ _ _ E _ _ _ _ _ _ _ _ _ ( ( : XX&X&X&X&X: : _ _ [ _ _ _ _ [ r q w q q q q 1 : &X@X@X$X6.< _ _ _ _ _ _ ` R R R + X =.o.c $ . ",
"X @ 9 o.=., $ R R _ _ R _ ( R _ R _ _ _ _ _ _ _ %.&X&X&X&X-.w : _ R _ _ _ _ R _ _ R ( ( B.&X&X&X&X: 1 U ( _ &.&X&X$X&X: q q _ _ _ _ I %X&X&X&X&Xq q [ ( a.u.6.-.# : : < g g ! Y I I K K L L L _ P #X&X&X&X:.e w t Y Y Y L I ( R R _ I R [ I &XoXOX#X( _ _ _ ( E ( _ ( ` _ _ ( ( _ _ _ _ _ ) _ [ : oX&X$X$X&X< : [ _ _ _ ' _ [ [ _ _ _ _ R _ _ _ P &X&X&X%X7.< _ _ _ _ _ _ _ R R R + X o.o.z # . ",
"X + 9 o.=., % ' [ } { f.d.d.{ { { { { d.d.{ d.g.&.&X&X&X&X,.w : { [ [ [ [ [ { { { [ d.[ B.&X&X%X&X1 : E [ [ z.&X&X&X&X< q w g.f.g.d.[ %X&X&X&X&X< q [ [ ] L Y &X&X&X&X&X&X&X&X$Xc.[ ` [ [ [ _ _ [ _ [ I < |.&X&X&X&X&X&X&XP.h.f.{ [ [ [ [ [ [ { q q < e { [ [ [ [ d.[ [ [ { { f.f.{ [ f.{ f.f.{ q XX&X$X&X&X< # { [ { { [ { { { g.g.g.h.h.g.f.{ ( &X&X&X&Xi.: g.{ d.[ [ d.f.[ [ [ + O >.o.z + . ",
"X & k o.=.* % ' [ [ [ d.f.[ [ f.{ [ { [ { [ d.{ %.&X&X&X&X-.t : h.[ [ } [ [ [ [ [ [ [ [ B.&X&X&X&X: : R [ [ l.$X&X&X&X< q e g.g.g.f.) %X&X&X&X&X< : { { x.}.&X&X&X&X&X&X&X&X&X#Xc._ _ _ ) ] ` [ [ [ [ I 2 |.&X&X&X&X&X&X&XP.h.f.{ [ ] ` ] [ ` { q q < w [ [ [ [ [ [ [ [ [ [ [ d.[ [ f.d.[ { d.[ < }.&X@X$X&X< : { [ [ { [ [ { { d.g.g.g.h.x. X(.^.(.j.O.*.p < d.{ [ [ [ [ [ _ [ [ + X =.o.c +   ",
"X $ k o.;.* $ ` [ [ [ [ [ [ d.[ [ d.[ { [ [ [ [ &.&X&X&X&X-.e < f.[ [ [ [ [ [ [ [ [ [ [ N.&X&X%X&X: : E [ [ l.&X&X&X&X: q e g.g.g.g.[ %X&X&X&X&X: : ' [ I.$X&X&X&X&X&X&X&X&X&X#Xc._ [ [ [ [ [ [ [ { d._ w XX&X&X&X&X&X&X&XP.h.{ [ } [ [ [ ` [ [ : < : q [ [ [ [ [ [ d.[ f.[ d.[ [ d.[ [ { [ [ [ [  X&X&X&X&Xq : g.[ [ [ [ [ { [ { g.g.g.h.v.&X&X$X(.d.e w q q d.[ [ [ [ [ [ _ _ } + O =.o.z # . ",
"X @ 9 =.=.3 $ ` [ [ [ [ [ [ { [ { f.{ { [ [ { { k.&X&X&X&X-.w < g.{ { { [ [ [ [ [ [ [ [ b.%X&X%X&X: < E d.d.z.&X&X&X$X< q q d.f.d.f.) #X%X&X%X&X: # _ ' I.&X%X&X&X&X&X&X&X&X&X%Xc._ [ _ [ [ [ [ [ [ [ _ t ).XXXX}.|.'.}.'.:.P I [ _ _ [ [ [ I ( ( _ [ [ [ [ [ d.[ [ [ [ [ d.[ [ [ { { } [ [ [ ` [ _.&X&X&X&Xq < g.g.d.{ [ [ [ [ [ { [ g.h.b.&X&X&X).[ e w q w { [ [ ' [ [ [ R [ [ O X o.v z O   ",
"X $ 9 o.=.* $ ` _ [ [ [ { } [ f.{ [ d.{ { { [ { &.&X&X&X&X-.q : g.[ { [ [ { { [ [ [ [ [ b.&X&X&X&X: : _ g.d.z.&X&X&X&X: q q [ [ [ [ ) #X%X&X&X&X: : [ [ ~.%X&X%X: 1 > 1 : : < : < < r [ [ [ _ [ [ _ [ [ g.) ( _ : : : : # u.$X$X#X&X( _ _ ( oXoX#XoX) f.[ [ d.[ d.[ [ [ [ [ [ [ [ [ [ [ [ [ [ [ '  X%X&X&X&Xq < g.g.d.{ [ [ [ { [ _ ( ) _ c.&X&X&X.X) q e e e g.[ [ [ [ [ [ ' _ [ X . >.v l O . ",
"X @ 9 =.o.3 $ ' ` [ { [ { [ f.{ [ f.f.[ { { { { k.&X&X&X&XZ q : d.[ [ [ d.{ { { d.[ [ _ b.&X&X@X&X# : _ g.g.z.&X&X&X$X: < q [ [ [ [ ( #X&X&X&X$X< : { } T.&X&X%X: q q w w w w w q < t _ _ [ ` [ [ [ [ [ { d.[ [ < w < 1 > 6.+X$X$X&XP [ [ _ #X%X%X%X) g.d.d.[ d.{ [ [ [ [ [ [ [ [ [ [ [ [ [ [ ] [ .X&X&X&X&Xq : g.g.{ { [ [ [ { [ b.#XoX#X&Xl.j.%.^ q ( d.g.g.d.{ [ _ [ [ [ _ ' ' + O >.v z O . ",
". @ 9 o.=.* $ ' [ [ { { { { [ [ [ { { [ { d.{ { k.&X&X&X&XZ 1 : [ ` } [ { { [ { [ [ [ _ c.&X&X&X&X> : E g.g.z.&X&X&X&X: q q [ [ [ [ ) %X&X&X! t q < g.} ^.&X&X&X: 1 < 1 < 1 1 < q 1 L [ [ [ _ [ _ [ [ [ [ [ { [ : < < > > ,.#X$X$X&XP [ [ [ &X&X&X&X) d.f.f.g.[ d.[ [ [ [ [ [ [ [ [ [ [ [ [ [ [ { XX&X&X&X&Xq : g.{ { { { { [ [ [ x.&X%X%X&X$.[ w e q I d.d.[ { [ { [ [ [ [ [ _ [ + X =.o.l # . ",
". + k o.=.3 $ [ { [ { { d.f.{ [ { [ d.{ { f.} h.l.&X&X&X&X-.2 # } } } h.h.h.h.} [ [ [ [ b.&X&X&X&X: : Y [ [ z.&X&X&X&X< w t g.{ } f.) &X&X&Xe 1 q < { h./.&X&X&X: 2 w 2 : < : < < q L [ [ [ [ ` _ [ [ } [ d.{ [ E U w 1 1 6.&X&X&X&XK [ [ ) &X&X&X&Xs.g.g.g.g.f.f.[ f.[ { { [ { [ [ [ [ f.g.{ { h.XX&X&X&X&X< : g.g.{ { { { { { h.c.&X$X$X&X$.} < < < I { [ { { d.{ [ d.[ [ [ [ { + + >.=.c $ . ",
"  @ 5 o.=.* % R _ _ [ _ _ _ _ _ _ _ _ _ _ [ [ _ &.&X&X&X&X4.j s ~ ......%.%....._ _ _ _ b.&X&X&X&X# : L R _ ] 0.:.*.-.*.:.u.c.c.c.c.c.r.0.g < < q q [ ' ^.&X&X&Xj j j j a.a.a.m.m.m.M.M.M.( _ _ ( w.x.x.x.x.x.x.x.y.t.y.y.u.2 2 8 6 : q _ _ | | g g I I [ _ _ _ _ _ _ _ _ _ _ _ _ _ ` _ _ _ [ [ [ XX&X&X&X&X< : [ _ [ _ _ _ [ [ [ v.&X%X&X&Xh w w q w I _ _ _ _ _ _ _ _ _ _ R R _ + + >.=.c $ . ",
"X @ 5 =.=.3 , _ [ _ _ _ _ _ _ _ _ _ _ _ _ _ _ _ %.&X&X&X&X&X&X&X&X&X&X&X&X&X&X%XP _ _ [ v.&X&X&X&X# # L R R _ ` W 2 r &X&X&X&X&X&X&X$X^ g w : < _ ` _ ' ^.&X&X&X&X&X&X&X@X@X&X@X&X&X&X&X&X( _ _ I {.&X&X&X&X&X&X&X&X&X@X&X&XK L > 1 < < _ E _ } q 2 w q [ [ _ _ _ _ _ _ ( ` _ _ _ ` ( ` _ _ ` _ [ XX&X&X&X&X< : _ R _ _ _ [ _ [ _ M.&X&X&X&Xs 1 _ _ R R _ _ _ _ _ _ _ _ _ _ I R R + + 1.>.x $ . ",
". @ 9 =.>.3 $ _ _ _ _ _ _ _ _ _ _ _ _ _ _ _ _ _ w.&X&X&X&X&X&X&X&X&X&X&X&X&X#XoX( _ _ [ M.&X&X&X&X# : r _ ( R _ R < < OX$X&X%X&X&X&XXXY w 1 < R R _ R ` T.&X&X&X&X&X&X&X%X%X%X&X&X&X&X&X&X_ _ _ P XX&X&X&X&X&X&X$X$X$X&X&X&XK L q < < q _ _ _ _ < w q q _ _ _ _ _ _ _ ` ( _ _ I _ _ R ( _ _ _ _ ` XX&X$X&X&X< : [ R _ _ _ _ _ _ _ c.&X&X&X&Xs 1 _ R _ _ _ _ _ ( _ _ _ _ _ _ U U R + + 1.>.v $ O ",
"X @ 9 =.<.3 $ R _ R _ R _ _ _ _ _ _ _ _ _ _ _ _ &.&X&X&X%X%X%X&X&X&X&X&X%X%X#XOXK L _ _ b.&X&X&X&X# : L I _ _ ( R < q OX%X%X%X%X&X%X( r : < < _ _ _ ` R ~.%X&X&X&X&X&X&X@X%X%X%X&X&X&X&X&XI _ _ ( |.%X&X&X&X&X%X%X#X$X%X%X&XK I < q q q _ _ _ _ < < < < _ _ _ _ _ _ _ _ _ _ _ _ _ _ _ _ _ _ _ _ _  X%X@X$X&X1 < [ _ _ _ _ _ R _ R c.&X%X&X&Xy 1 _ _ _ _ _ _ _ _ _ _ _ _ _ _ U U U + O 1.;.c # O ",
"o & 0 =.;.* + U U R R R R R _ R _ R R _ _ R R R &.&X%X%X%X%X%X%X%X&X&X%X%X%X#X|.< : _ ( b.#X#X#XOX: : r ( I R _ R R R #X#X#XOX#X#XT I L L L L _ R R _ _ /.#X#X$X&X&X&X&X%X&X&X&X&X&X&X&X&Xq I _ I  X#X#X%X&X&X&X&X&X&X&X&X&Xq I I I R I _ R R R L R R U _ R _ R R R R R R ( R R I R _ R R R R R I ).|.|.|.#X< < _ _ R _ R I R R R x.|.|.|.|.y 1 _ I R R _ I _ _ _ _ R R R R U L U O X >.=.c $ . ",
"O & 9 +.=.@ + i U L I U U I R I R I U R I R I R U R R r < > < 1 1 : : > < > > < < : L I R R R 1 < < : L I I R R ( I R _ R R 1 : < : : U I R R R R R R R R U w > < 1 1 < 1 1 1 < : < > : > < w _ R _ R U 1 > : : : : : < < < < q R _ R R R R R R R R R R R R I R I U I I R R I R R R I I R R R R I R R L 1 < < < R R I I R I R R R R R _ 1 1 < < R I R R I I R R I I R R R R L L U + X >.=.z O O ",
"X & 9 X.o.$ + i U U R I I R I R R R I R I R U R R R U r < < 1 < < < < < < < < < < : L I U L L : < < : L R I I ( R _ I R R R < : : : : L L U R R R R R U U L w : < < q 1 q < q 1 < < : : : < < R I I U r : < : : : 1 1 < < < < w _ _ R R R R R U R I U R I U I I I I I L I U I R I I R R R I R R U I L L < : < : U U I L I R U R R R R _ < q < < R I U I I R U R I R U R R R L I U + X =.v l # O ",
"X @ 0 7.i.% + r L L L L I I L L L L I L L L U U U U I w < q < < < < < < < 1 < < < < L L L L i : < : < L I L L I I I I I I U < < < : : U L L L L U U U U L r w : : < q < q < < < < < : < : < < L L L L r < < : < < < q < < q < q I I I I L L L I L L L L L L L L L L L L L I L L I I L L I R I L I L L L < < : : L L L L U L U U U R U R q q < < U L L L L L L L L U L L L U L L U + X n.n.C + O ",
". o 0 7.i.@ + r L L I L L U L U L I L L L U U U L U I w < < q q < < < < < < q < < : L L U U U : : < : r L L I I U L I I I R < < < < : U L L L L U U I U L L w < < < < q < q q < < < < < : < q L L L L w < < < < < q < q q q < w R U I L I U L I I L I L L L L L L L L L L L L L L L I I I L I I L I L r < < < < L L L L L U U U U U R R w r w w U L U L L L L L L L L L I U L L U + + n.p.B +   ",
". o G [.#XC c .   # L r r r r r r w w r w w w r r r L L L r L r r r r r r r r r r r r w r r w w w w w e r e w r r r r r r r r r r r r r r w r r r r w r r L r r e r r r K r r r e r w r r r r r r w r r r r r r r r K r r L r L r r r L r r r r r r r r r r w r r r r r e r r r r r r e w r r r r r L r r r w w w r w r w r r r r r r r L r K r r r r r r L r r r r w r r w $   X 7 & &X].5.$   ",
"X @ G ].[.C z . . # L r r r r w r w r w r r r r w r r r r r r r r r r r r r r r r r r w w r w w w e w r r w r w w r w r r r L r r r r r r r w r w r r r r r r r r r L r r r r r r r r r r w e r r w r r r r r L L r r r r r r r r r r r r r r L r r r r r r r r r e r r w r r r r r r r r r r r r L r r r r r r r w r w r w w r r r r U r r r r r r r r r r r r r r r w w w O     7 * &X'.C.#   ",
"o @ 5.].+Xd d     + r w r w w w w w w w w w w w w w w r w r r r w w w w w w w r w w w w w w w w q q w w q w w w w w w w w w w r r r w w w w w w w w w w w w w w w r w w w w w w w w w w w w w w w w w w w w r w w w w i w r w r w r w r w w w r r r w r r w r w w w w w r r w w r w w r w w r w w w w r r r w w w w w 1 w w w w r r r r w i w w w w w r r r i r r r w w w q X . . * O &X'.A.$ . ",
"o @ c 2.r.R.W.c C 9 X + + $ $ $ + + + $ @ $ $ $ & $ $ + @ $ + + + + + + + + + + + + + $ + + + + $ + + + + + + + + + + $ $ @ $ $ $ $ $ $ $ + + @ + $ + + $ $ $ $ $ + + + $ + + $ + + + + + + + + + $ @ + + + + + $ + + + + + + + $ + $ + % $ $ $ $ + + + + + + $ $ + $ + + + $ + $ $ $ + $ $ + + + + + + + + + + $ $ + $ + + + o + + + + $ $ $ $ + + $ $ $ + $ $ $ + + + + O * 3 * ].OX7.i.Z $   ",
"o & c 1.1.T.E.c *.9 . O + + + + + + + + + $ + + + + $ $ + + + + + + + $ + + + + + $ + + + + + + + + O + + + + + + + + + $ + + + + + + $ + $ + + + O + + + $ + $ + + + $ + + + $ $ $ + + + + + + + $ $ + $ $ $ $ + + + X + O O + + + + $ + + + + + + O + + + + + O + O + + + + + + + + + + + + O + O O + O + + $ $ @ + + + + + O O + + + + + + + + + + + + + + + $ $ + $ + O 3 3 , '.].r.i.=.$   ",
"; b - 3 * <.+.=.o.o.x x x x x x x x x x x x x X.X.X.X.X.X.X.X.X.X.o.X.X.X.X.X.X.X.X.X.X.o.o.o.o.o.o.o.X.v X.x X.v v X.v o.o.o.o.o.o.o.o.o.o.o.o.+.o.o.o.o.o.o.o.o.o.X.X.X.o.X.o.o.o.o.o.o.X.X.+.o.o.o.o.o.o.X.X.X.X.X.v X.X.o.X.X.o.X.o.o.X.X.X.X.X.X.X.x X.x v v X.X.X.X.X.X.X.X.x X.X.X.x X.v X.v X.X.o.X.o.o.o.o.o.o.o.X.v X.v X.v X.X.o.o.v o.X.X.X.X.o.o.X.o.o.o.o.o.v >.>.=.;.1.u $ + @   ",
"*X*XM   @ o.o.=.o.X.x x x x x x x x x x x x x x X.x X.x X.X.x v X.X.X.X.X.X.X.X.X.X.X.X.X.o.o.o.X.X.X.v X.X.X.X.x X.X.X.X.o.X.X.X.v o.X.o.X.o.o.o.o.o.o.X.o.o.X.X.X.X.X.X.X.X.X.o.X.o.X.o.X.X.X.o.X.o.o.o.o.o.X.X.X.X.X.x X.X.X.X.X.o.X.X.X.x X.x X.x X.X.x v X.X.x x x X.x x X.v X.X.x x x X.x x X.X.x X.X.X.X.o.o.X.o.o.X.v X.x X.v v X.v X.X.o.v X.X.X.x X.X.X.o.X.o.X.X.=.=.+.<.<.5 o   *X*X",
"*X*XJ.V.  k 5 3 3 3 , 3 , 3 3 3 3 4 4 4 4 4 4 3 3 3 3 3 3 6 4 4 5 4 4 3 4 4 3 3 3 3 3 3 4 5 5 5 8 8 8 4 4 3 4 3 4 3 4 4 6 3 4 4 4 4 4 5 5 5 5 5 8 8 5 5 5 4 4 5 5 5 5 8 5 5 5 5 8 8 5 5 4 4 8 4 4 5 5 5 5 5 5 5 4 4 3 4 5 3 4 4 4 4 4 3 4 3 4 3 3 3 3 3 3 3 4 3 3 4 8 4 4 4 4 4 3 4 3 3 , 3 3 3 3 3 3 4 3 4 6 8 5 4 5 5 5 5 4 4 4 4 4 4 4 4 4 5 4 4 4 3 3 3 3 3 3 3 4 4 4 5 5 4 3 3 3 %   H *X*X",
"*X*X*X*X  X X O + + + O + + $ $ $ $ $ $ $ + + $ + + + + + + @ @ $ + $ + $ + + O O + + + + $ % $ $ + + $ $ + + + + + + + + + + $ + + $ + $ + % $ % $ + + + + + + + + + + + + + + $ + $ + + + + + + @ + + + $ + + + + + + + + + + $ + + $ + + + + + + + + + $ $ + + $ $ $ $ @ + + + + + O . + + + + + + + $ + + + + + $ $ $ $ $ $ + $ + + + + + + + + + + + + + + + O $ $ $ $ $ + + X O X ; *X*X*X",
"*X*X*X*X    . . . . . X X + + + + + O O . O O . . . . . O O $ @ @ @ $ O . O O O . O . X + @ $ & @ + @ @ O O + X + O . X . @ + + @ + O + @ + + $ + + O O O . . X O + + + + O O O O . O O O O O O + O O + O O O O O + O X X . O + @ @ @ + + O O . . . . . . O O O @ @ @ @ + + + O . . . . . . . . O O + + @ @ + + O + X O o O X O X + + o + O X + O . X + O . . . . . O + $ @ + + O X X X b *X*X*X"
};
