/* XPM */
static char *lives_4[] = {
/* columns rows colors chars-per-pixel */
"192 48 186 2 ",
"   c #01020D",
".  c #030515",
"X  c #0B111D",
"o  c #141519",
"O  c #050D26",
"+  c #08132A",
"@  c #151B2D",
"#  c #01013B",
"$  c #0C1937",
"%  c #131D37",
"&  c #1C202E",
"*  c #1B2334",
"=  c #20232F",
"-  c #232836",
";  c #2E323C",
":  c #32353E",
">  c #02064A",
",  c #0C1749",
"<  c #111E41",
"1  c #030B58",
"2  c #081259",
"3  c #151A58",
"4  c #152344",
"5  c #1A255B",
"6  c #1E335C",
"7  c #202F4E",
"8  c #29334A",
"9  c #373B45",
"0  c #26265E",
"q  c #25365B",
"w  c #030C65",
"e  c #01146C",
"r  c #111A6C",
"t  c #010B76",
"y  c #011777",
"u  c #0C2869",
"i  c #1B2566",
"p  c #1E3562",
"a  c #153274",
"s  c #242865",
"d  c #263C6B",
"f  c #243C71",
"g  c #323779",
"h  c #3E414B",
"j  c #3F4550",
"k  c #2A406E",
"l  c #374769",
"z  c #2A4172",
"x  c #344B7C",
"c  c #3D517B",
"v  c #43464D",
"b  c #454850",
"n  c #504F51",
"m  c #55575B",
"M  c #434D68",
"N  c #495878",
"B  c #606669",
"V  c #63677C",
"C  c #000D87",
"Z  c #031C88",
"A  c #000696",
"S  c #041E92",
"D  c #06228D",
"F  c #172788",
"G  c #052196",
"H  c #182A98",
"J  c #222D86",
"K  c #242E9E",
"L  c #283999",
"P  c #000FA7",
"I  c #0117A7",
"U  c #031AB5",
"Y  c #0826A7",
"T  c #132AA7",
"R  c #0D30AC",
"E  c #1C37AE",
"W  c #0B2DB8",
"Q  c #122AB7",
"!  c #0D31BB",
"~  c #1634B9",
"^  c #2034AE",
"/  c #323CAA",
"(  c #233AB8",
")  c #364E81",
"_  c #3B5385",
"`  c #384699",
"'  c #2E4EAF",
"]  c #374AA6",
"[  c #3749B7",
"{  c #3E52B7",
"}  c #444D87",
"|  c #44598A",
" . c #525A88",
".. c #444A98",
"X. c #475B94",
"o. c #585D95",
"O. c #4B618F",
"+. c #576482",
"@. c #4C6394",
"#. c #586996",
"$. c #65688C",
"%. c #6D7A89",
"&. c #777B8D",
"*. c #676C96",
"=. c #6A7397",
"-. c #747899",
";. c #444DA7",
":. c #4753A7",
">. c #555CA9",
",. c #465AB5",
"<. c #4C69A6",
"1. c #5569A7",
"2. c #4F75AE",
"3. c #5B71A7",
"4. c #4862B7",
"5. c #5260B2",
"6. c #6367A4",
"7. c #6676A6",
"8. c #757EA9",
"9. c #6E76B7",
"0. c #767BB9",
"q. c #0A2EC3",
"w. c #0C31C2",
"e. c #1235C4",
"r. c #485EC2",
"t. c #4A68C5",
"y. c #5171CD",
"u. c #6A77C3",
"i. c #7179C1",
"p. c #7A86A9",
"a. c #7B83B8",
"s. c #7B88CB",
"d. c #7789D4",
"f. c #7E90D2",
"g. c #828385",
"h. c #858AA9",
"j. c #8488BA",
"k. c #8993B6",
"l. c #9499B9",
"z. c #9EA2A0",
"x. c #9FA3BF",
"c. c #A4A5A4",
"v. c #B3B3B4",
"b. c #868AC4",
"n. c #8894C6",
"m. c #9399C4",
"M. c #8694D3",
"N. c #9699D7",
"B. c #9DA7C8",
"V. c #8FA0DB",
"C. c #9AA7D9",
"Z. c #A8ACC7",
"A. c #ADB2CB",
"S. c #B8B8C8",
"D. c #A5A8D3",
"F. c #B2AFD1",
"G. c #A9B2D6",
"H. c #B5B9D4",
"J. c #9FABE2",
"K. c #A5ACE1",
"L. c #B2BEE7",
"P. c #C0BFCE",
"I. c #BCC2D5",
"U. c #B9C2E6",
"Y. c #CFC7C7",
"T. c #C8C9D4",
"R. c #CED0DC",
"E. c #D8D7D9",
"W. c #E0DBDA",
"Q. c #E5E2DE",
"!. c #C4CBE9",
"~. c #D1CFE1",
"^. c #CBD3EB",
"/. c #D6D8E9",
"(. c #D6DDF3",
"). c #E1DBE1",
"_. c #DFE2EE",
"`. c #DDE0F1",
"'. c #E5E5EC",
"]. c #F4EEEB",
"[. c #F4F0EC",
"{. c #E9EAF4",
"}. c #F1EFF8",
"|. c #EFF1F9",
" X c #F8F8FB",
".X c None",
/* pixels */
".X.X.Xg.            . .     .         . . . . .     .           . . .   .     .                     . .   . .                       . . . .     . . .     .                     . .                       .   . .     .                             .     .     . .                       .   .                 . . . .           .   . .   . . .   . . . .   . . . . X . .   .       o v..X.X.X",
".X.X.Xz.o o o o . X . . . . . . . . . . . O . . . . . . . . . . . . . . . . . . X . . . . . . X . . . O X . X . X . . . . . . . . . X . . . . O . . . . . . . . . . . . . . . . . . . . .   . . . . . . . . . . X . . X . . . . . . . . . .   . . . . . . X . . . . . . .     .   . . . . . . . X . . . .     . . . . . . . . . . . . . . . . . . . . . X . . . . . O O + X O + @ O X . c..X.X.X",
".X.X    o  X Xl.l.9.1.@.X.X._ _ _ _ _ | _ X.@._ | _ O._ _ O.X.X.O.| | O.| O.O.O.O.@.| | O.O.O.O.X.O.X.O.| | _ | | _ | _ _ | _ _ X._ | | O.O.@.@.@.X.O.O.O.@.@.@.@.@.@.@.@.X.O.X.O.O.O.O.O.O.O.O.| O.O.O.@.O.| | X._ | _ _ _ | _ _ _ _ _ _ _ ) _ _ _ _ _ _ _ _ _ _ ) ) ) ) ) ) ) ) ) c ) ) ) _ ) ) _ _ _ _ _ _ _ _ _ _ _ _ _ _ _ _ _ _ _ _ ) _ _ _ _ _ _ ) _ ) _ _ _ _ _ 3.3.I.T.A.B.l.%.    .X.X",
".X.Xo o o [.Q.k.k.7.X.| _ _ _ _ _ _ _ _ _ _ _ _ _ _ _ _ _ _ _ _ _ _ _ _ _ _ _ _ _ _ _ _ _ _ _ _ _ X._ _ _ _ _ _ _ ) ) c _ ) _ _ _ _ _ _ @.O.X._ | | _ | | | | | | | | | | _ | | | _ O._ _ | _ _ | _ | | | _ | _ _ _ _ _ _ _ ) ) x ) x c ) ) ) _ ) ) ) _ _ ) ) _ ) ) ) x x x x ) ) ) ) x ) x ) ) ) ) c ) x ) _ _ _ ) _ ) ) x c ) x ) ) x x ) ) ) ) ) x ) x x ) ) ) ) ) x @.#.A.x.x.k.h.V     .X.X",
"& . %.[.[.O.#.z _ q % $ % $ $ $ < < < $ < < < $ $ < $ < 4 < < < % $ < $ < % $ < 4 4 < < < < < < < < 4 % % $ $ % % $ $ $ $ % $ % 4 < 4 $ 4 < 4 < < % $ $ * $ % < $ $ < $ $ 4 4 4 4 4 4 4 4 4 % < < % 4 , 4 4 4 < < , 4 * < < $ < % < < < $ 4 $ < < $ < < < < $ < $ < $ $ $ $ $ < $ $ $ $ $ < < < < $ < < < * < 4 < 4 < < $ < < < $ < % < < $ $ % < % $ $ $ $ % % % % < < 4 * k z d 7.#.k.k.l +   ",
"= o p.W.Q.O.@.s z < + + + + + O + + + + + + + + + + + + + + + + O + + X O + + + + + + + + + + + + + + + + + + + O + + + + + + + + + + + + + + + + + + O O X O O + + + + + O + + + + + + $ + + + + O + + + + + + + + + + O + + + + + + + + + + + + + + + + + + + + + + + + + + + + + + + O + + O + O + + + O + + + + + + + O O + + + + + + + + + + + + + + + X + O + + + @ + a a u #.O.l.p.x $ . ",
"= o p.E.E.@.2.z f , $ + + + + + + + + + + + $ + + + + + + + + + + + + + + + + + + + $ + + $ + + + + + + + + O + + + + + $ + $ + + + + $ + + + + + + + + + + + + + + + + + + + + $ + $ $ $ + + + + + + + + + $ + + + + + + + + + + + + + + $ + + + + + + + + + + + + + + O + + + + + + O + + O + + + + + + + + $ + + + + + + + + + + + + + + + + + + + + + + + + + + $ + + $ a a a 3.#.p.p.l $   ",
"= + =.B.B.6 6 . X w e e e e e e e e y e e y e y y y e e y y e y e e e e e e e e y e y e y y y y y y e e e e e e e e y y y y y e y y y e e e e e e e e e e e e e e e t e e y e y e y e e e y y y e y e e y e e e e y t e e e e e e y y e e y e y y y y e e y e e e t e e y e e e e e e e e e e e e e e e t e y e y y y y e y e y y y y e y e y e e e t e e e y e e e y y y y . X O 6 6 R.I.6 $   ",
"- $ +.x.B.7 6 .   2 e e e e e e e e e e e e e e e e y e e e y e e e e e e e e e e e e e y e y e e e e e e w e e e e e y e y e y e e e e e e e e e e y e y e e t e y e y y y e e e e e e e y e e e e e y e e e e e e e e e e e e e e y e y e y e e e e e e e e e e e e e e e e e e e e e e e e e e e e e e e e e e y e e y e y e y e e e e e e e e e y e e e e e y e y y e y     . 6 7 R.T.q +   ",
"* @ l #.=.+ $ y y y y y y y Z y y Z y y y y y y y y y y y Z y y y y y Z y y y y y y Z Z y Z y y y y y Z y y y y C Z y Z Z y y Z C Z Z Z y y y y y y y y Z Z Z Z y Z C y Z y Z Z y y y y y y y y y D Z y Z y y t y y y C y Z C Z Z Z C y Z y Z y y y y y y Z Z y y Z Z y y C Z y C y Z y C y y Z y y y Z Z y y Z C y y y y Z Z y Z y Z y y Z y y y Z y C y Z y Z y y y y y y e e 2 $ + 8.*.4 @   ",
"* + l #.#.+ + y y Z D y y Z Z y Z y y y Z y y y y y y D y Z D Z Z y Z y Z y y Z y Z y y y y y y y y y Z y Z y y y Z Z Z Z Z Z Z Z Z y y y y y y C y Z D Z D Z y Z y F y y Z Z y y a r y y y Z Z y Z Z Z Z y r y e y y D Z y y Z Z Z Z Z Z y Z y Z y y y y y y Z Z y y Z D y Z y y Z Z y y Z y y y Z Z y y Z Z y y y Z y y Z Z Z Z Z Z Z Z Z y Z Z y Z y y Z Z y y Z Z y D y y e y * % 7.#.4 +   ",
"* + j N N O + Z D D D D Z Z Z Z Z Z Z Z Z Z Z y ..] ..:.>.S G Z Z S Z Z Z S S Z Z Z Z F >.....` J y Z D S ` 6.1.1.>.:.G S Z Z Z Z D ;.>.:.:...t y Z t B.n.n.m.m.m.n.b.n.b.b.j.b.b.i.0.0.Z Z D Z S S G D J 9.9.0.9.a.a.a.j.a.j.0.j.D S S Z S Z Z D Z S S S S Z Z Z Z S Z D Z Z S D D Z Z Z D Z Z Z Z Z S S Z S S D D D C n.j.j.j.a.D D S Z S S Z Z S Z Z Z Z Z Z Z Z D Z D D D D D + $ } _ 4 @   ",
"* + q c c + + G D S G S S S D S S S S Z S Z Z Z  X X X X XS Y S G G S G S G G S Z Z D 9. X X X X9.D D G H f. X X X XH.G D D D D D D /. X X X'.C Z D C  X X}. X X X X X X X X X X X X X XH D D D G G G D :.}. X X X X X X X X X X XK G G G Z G S G S G S G G S G S G S G G S G S G S G S S G D G G S G D S G S G G G G Z  X X X X{.G G G G G S D D S S S S S S S S S D G G S S G D $ + ) z 4 @   ",
"* $ q c _ + + S S D D S S D S Z S Z S Z Z Z D D  X X X X XS G S G G G G G G S G G D D u. X|. X}.9.H G G R n. X X X}.G.D Z Z Z Z Z D !.}.|. X'.C Z D C  X}. X X X X X X X X X X X}. X|.|.H G D D D Z D D ;. X X X X X X X X X X X XH G G S G D S S G G G G G G G G G G S S D G G D G S G S G S G G G S G G S D G S G G A  X|.}.|.{.G D G D G G S S S S D S S S Z D Z G S G D Z D D + + c x 4 +   ",
"* + l | | + $ G Z S D S Z G Z S Z S Z S Z G G G  X X X X XC G S G G S G G S G S Z D D s. X|. X|.9.G G G H p. X X X}.G.D Z Z Z Z y D !.{. X X{.C D D C  X X X|. X X X X X X X X X X X[.}.H D Z Z Z C F D :. X X X X X X X X X|. X XH G G G D G G S S S G G G S G G D S G S G S D G G D S S G G D S S S D G D S S S S Z Z  X X X|._.D D G G S S D S S S S S S S S S S G S G S D D D + $ x z 4 + . ",
"* + k c | + @ D D Z Z S Z S S Z Z Z S Z S G G H  X X X X XC G Z Z Z S S G S S S G G D s. X|.|.|.9.D G R R f. X X X XA.D Z Z Z Z Z D !.}.}. X}.C G G S  X X X}. X X X X X X X X X X X X Xa G S S t C t C '  X X X X X X X X X X X XK R G Y C C C C S G S G S G S S S D Z S S S S S S G S S S Z G S G G S S S Z Z Z S S Z  X X|.|.{.D D Z Z S S Z S Z S D Z S S S S S S D S Z y y Z @ + ) x 4 $ . ",
"- + d | X.+ $ Y G Y Y Y Y Y G Y Y Y Y Y Y Y Y R  X X X}. X> 1 Z G Y Y Y Y Y Y Y Y Y R s. X X}.[.*.2 Z R R M.}. X X XZ.2 1 Y G G G H !.|.|. X{.t w Y I  X X X Xx.s d g s g g s 0 5 0 i 0 2 1 G S  X X X X|.P C > > > > > > # # # > w w R I  X|. X X[ Y W Y Y Y G Y Y Y Y Y Y Y Y Y Y Y Y Y Y Y Y Y Y Y Y Y Y Y H  X X X X X X X X{.> 1 G Y G Y Y Y Y Y Y Y Y Y Y Y Y Y Y Y G G D G + @ _ x 7 % . ",
"- $ d X.| + + G G G S S G G Y I Y S I Y Y Y Y W  X X X}. X1 1 D Y Y Y Y Y Y Y Y Y Y R s. X X[.|.*.w y W R n.|. X|.|.Z.w e Y Y G G Y !.|. X X{.1 w Y I  X X X Xl.4 , 2 2 , , 2 , , 2 2 2 w w R I  X X X}. XY W w w w 1 1 > , 1 2 2 w e w.I  X X|. X[ Y Y I Y Y Y G Y G Y S Y I Y G Y Y Y Y Y I Y Y Y Y Y T Y Y I  X X X[. X X X X|.1 w Y Y Y Y Y Y G I Y Y Y Y Y Y Y Y G Y G D D D + + | _ 4 $ . ",
"- @ j _ | + + G Y S G Y G Y G Y Y S G Y Y R Y Y  X X}. X X> w G I Y Y Y Y Y G S Y Y R s. X X|.|.*.w y Y Y f. X X X[.Z.1 w Y Y I Y Y ^. X X X'.> > Y I  X X X Xk.2 1 w 1 > 2 > 1 1 1 w w w w W U  X X X X XW T 1 1 1 2 > 1 1 1 1 1 w 2 W P  X X X X;.Y Y Y Y Y G Y Y Y Y Y Y Y Y Y Y Y Y Y S S Y G R Y Y G R R Y  X X X X X X X X|.w w G I Y Y I Y Y I Y Y Y I Y Y I Y Y Y G G S G $ * _ ) 5 $ . ",
"; + q | | + + Y G Y Y S Y S Y G Y Y G Y G Y Y Y  X X X}. X1 e G Y Y Y Y Y Y Y Y G G T s. X X}.|.=.2 y W Y s.|. X|.|.Z.2 w Y Y U W Y ^.|. X X(.> 2 G I  X X X Xh.3 w r r r 2 w w w e w e w w G U |. X|.}.}.y Z r y e e r e e t y Z Z y R P  X X X X:.Y Y Y Y G Y G Y I S Y Y S Y G Y Y G Y Y Y Y Y G G Y R R ~ Q  X X X X X X X X|.1 w Y G Y G Y Y Y Y Y Y Y G Y Y Y G Y G G G G G $ $ _ ) 4 + . ",
"- $ q N } O + W W Y Y Y I Y Y U Y Y Y Y W Y Y W  X X X X X1 t Y W W Y R Y R R Y Y Y Q s. X X X[.*.2 y Q U d.|.}.[.|.Z.2 e W W Q W W !. X X X'.> > Y P K.D.D.A.h.x ` ] ] ] ] ` W W W q.W W W W U ^.^.^./.E.) :.t.t.4.4.4.' I R W W ! ! ! P {.{.{.'.:.W W Y W Y Y Y Y W W Y Y Y Y T W Y Y Q Y Y Q R R Y W { [ { {  X X X X X X X X{.1 w W Y Y W Y Y W Y Q Q Y Y T Q Y R Y R Y Y G Y $ + _ ) 4 + . ",
"- + q _ | O + ! W W q.q.W q.W W W W W W W W W !  X X X X Xw t R w.w.w.W W W W W W ! e.f. X X X|.-.2 y Q W d.|.}. X|.A.w e w.q.W ! e.!. X X}.(.> > Y Y C A C T. X X X X X X X X~ W W q.W W W R Y I I > # 2  X X X X}.|.}.f.W W ! ! ! w.~ w.I P # > 1 W W W W W W W w.W W w.w.q.! W W W w.W w.W ! ! ! W W  X X X XA U w > (. X X}.{.1 w q.w.w.q.W q.w.q.W q.q.q.! ! q.W q.w.W W Q W $ & ) x % $ . ",
"= + l } | O O q.W W W W W W W W W W W W W W W !  X X X X Xw t R w.! ! W W W ! Q Q ! ~ f. X X X|.=.2 y Q W d. X X X XH.e e q.W W Q W U.|. X X{.1 1 Y I  X X X X[. X X X X X X X~ W q.W W W W Y R R T e , g  X X|.|.|.|.|.N.W W w.! w.! w.w.! ! > 1 1 R W q.! q.W W W w.W W ! W W W w.W W ! W W W W W R Y  X X X XI e.1 > {.|. X X}.w w e.! q.W W ! W W W ! ! ! ! W ! W ! W R Y Q W + @ ) x < $   ",
"= + q | X.O + W W q.W W W W W W W W W Y W W W !  X X X X Xw t R w.! W W Q W W W W ! e.f. X X X}.*.2 y W W f. X X X XH.w w q.Y Q Y R L.}. X}.{.> > W I  X X|.}.}.}.}.|.|. X X X[ q.q.q.W W W W R Y R t 2 g }.}. X|.}.}.}.C.W ! q.q.w.e.w.w.W W > 1 1 Y W W W q.W q.! W W W Q ! ! W W W W W ! w.W W W W Y  X}. X XA Q > > (. X X X Xw t q.q.W W W Q ! ! ! ! Q ! ! ! ! ! q.! W W R W $ + ) x 4 + . ",
"& + k |  .+ + W W W W W W W W W W W W Y R W W !  X X X X Xw t T w.w.Q Q ! W W W W W W d. X X}.|.*.2 y w.e.d. X X X[.H.e w W Y Y Y T L.{. X X{.1 1 q.P  X X X X X X X X X X X X( e.w.q.! W W R W W W T E :. X X X X X X XZ.t I W W q.w.w.q.Y Y Y Y W W W W W W W w.W ! W ! W W W W W ! W W ! W q.W W W Y  X}.}. Xw t 1 > (. X X X}.w t q.q.W W W W ! ! W ! ! ! w.w.! ! ! ! W Y T W $ $ _ x < @ . ",
"* + k | | + $ q.W W W W W W W W W W W W W W R W  X X X X Xw t Y q.! ! W W W W W R W W d.|. X X[.*.2 r w.e.M. X X X XI.w 2 W Y Y R R L.}.}.|.'.1 1 q.U  X X X XZ.s i i 5 5 i s e w t W W Q W W W W W W Q Y A t O # # # > } }.`.|.{.' w.! W J.J.K.K.' Y Q W W ! W W ! ! ! w.! ! W ! W ! ! W ! W W W W W Q  X X X X3.7.6.7.}. X X X Xj.b.C.U W W W q.W W ! Q ! w.Q ! w.w.! W W R Y R + @ _ x 4 + . ",
"* @ l | X.+ + q.W W W W W W W W W W W W W R W W  X X X X Xw e R W ! ! ! Q ! W W W W W s. X X}.|.-.w r q.e.s. X X X XI.w 1 W W W R Q L.}. X XZ.> 1 q.U  X X X XZ.2 1 1 2 1 w w w w t W W W W W W W ! ! W Y Y Y > 1 w w w .. X X X X( ~ W U ^.}.|.|.{ W W W W ! W w.W W W W W ! ! ! W W W ! W W W w.! w.W  X X X X X X X X X X X X X X X XU W W q.! W ! ! ! ! Q w.! w.! ! ! W R Y R + @ _ ) 4 $ . ",
"* + k N | + $ W W W W W W W W Y W W Y W W Y Y Y  X X X X X1 e G Y R Q Q W ! Q R R Y W d.[. X X}.-.w D q.e.M. X X X}.H.w 2 W Y W W W !.}.|.!.2 2 1 q.U  X X X XZ.w 1 1 1 2 w w 2 2 w Y W Y Q W ! Q ! ! W W W T y Z 2 w w  . X X X X( ! Q I ^.}. X X[ Q ! W W ! W W ! W W ! ! ! W W W ! W W W W W W w.! Q  X X X X X X X X X X X X X X X XU W W W W w.W W ! ! ~ ! ! ! ! ! ! Q R Y R $ @ _ ) 4 $ . ",
"& + d | | + $ W W W W Q W W W W Y W W W Y Q Q W  X X X X X1 w H Y Y R Q ! ! W W Y R W d. X X}.}.-.w Z q.e.d.}.}. X'.S.3 2 R Y W W W !. X'.# 1 1 1 W U  X X X XZ.3 2 2 2 2 2 2 2 , w Q T W Q W ! ! w.W W R Y W W W e y t #. X X X XK Q Y P (.{. X X[ ! Q ! ! ! ! W W W W ! W W W W q.Q ! W W W W W W W W  X X X X X X X X X X X X X X X XU W W W ! Q ! ! W ! e.! ~ ! W ! W W R Q R + $ _ _ 4 $   ",
"= @ d | | + O W Y R W Y Y Y Y Y Y Y Y I Y Y Y W  X X X X X$ 2 F T T T T ^ ^ ^ R W Y R f. X X}.[.=.r y W W y.L.!.F.H.h.2 w ~ ^ ^ E E N.m.C.1 1 w 1 Y I  X X X XZ.3 3 3 3 3 5 3 3 3 r U Y Y Y W Y r.,.,.{ ,.[ :.,.5.4.,.5.0.8.p.0.8.i w G S M.b.j.k./ R W W Y R Y W Y R W R W Y Y R Y Q Y Y Y W Y W R W W `.U.H.H.F.H.S.H.}. X X X XH.H.H.C S Y Y Y W Y Y W Y Y R W Q R W Y Y Y G Y $ * _ _ 4 $ . ",
"* $ q } _ O + Y Y Y R G Y I Y G I Y Y Y Y Y Y R  X X X X|.{.{.{.{.{.|. X}.}. X[ Y Y Y M. X X}.{.$.2 y Y Y W T R 2 2 >  X X[.}. X|.|.T T y 1 1 Y I Y I  X X X}.[.[. X X X X}. X}.{.{.}. XS Y Y U  X X|. X|.|. X|. X X|. X XI H 1 2 > # Y S S G # , 1 Z Y Y Y Y Y G Y Y Y Y Y Y Y Y Y Y Y Y Y Y Y Y Y Y Y Y Y 2 r w 2 % > F. X}.}.{.2 , 2 w w Y Y I Y Y Y Y Y Y Y Y Y Y Y Y G G D G $ @ _ ) 4 +   ",
"* + q _ N O X Y Y I Y Y G Y Y G Y Y S Y Y Y Y ~  X X X X|.}.}.}. X|. X X X X X/ Y Y T M. X X X].$., e U Y Y Y W w 1 >  X X X X X X{.G G t > > Y Y Y S  X}.}. X X X X X X X}.}.}.}. X X XI R W I  X X X X X X X X X X X X XA Y 1 1 1 > G G G S > 1 w S Y Y Y Y I Y I Y Y G Y Y Y G Y Y G Y G Y Y G Y Y Y Y W 1 w w 1 , > F.|.}.[.{.2 2 w e w W U Y Y Y Y Y I Y Y Y Y Y Y Y G G G G % @ _ ) 4 +   ",
"* + q N N O X Y G Y Y G Y Y Y Y Y Y G Y Y Y Y Q  X X X X X[.|. X X X X X X X X/ G Y T n. X X X}.$., e Y Y Y Y W w w 1  X X X X X X,.S Z e w e G Y R I  X X X X X X X X X X}.|.|. X X X XS W W I  X X X X X X X X X X X X XS G 1 1 > > S G G G > > 1 S Y Y Y Y Y Y Y Y Y Y Y G Y Y Y Y G Y Y Y Y Y Y Y Y Y Y w w w 1 > > H.|.}.}.[.w 1 1 w w W Y Y Y Y Y Y Y Y Y Y Y Y R Y G G D D + @ | ) % +   ",
"- X q } | O O Z Z S S D S G S S S S S S S S G S  X|.{.{._._._._._.'.{.{.'.'. Xg > D G s.{.{.{./.7.2 w S Z S S S G G C }.{.'.`.{.=.w t 1 w D D S S G S  X`.{.{.{.|.{.'.'.'.{.'.{.{.|.}. X2 1 Y S (.(./././.~.E.~./.(.'./.!.C D G S S S S D S G S S G Y G S S S S G S S S S S G G G S G G G G G G G S G S G Y Y S G G D Z u.G.F.F.Z.w y G S Y S G I S S S S S Y G S Y S G G D y y y + $ _ ) 4 $   ",
"= + 7 | | O + S Z S G G G G S S S D G S S G S G Z Z Z > > > > > > 2 2 > > > > > > D D S Z Z 1 > 1 1 e S S S G G G G G G G 2 2 > 1 1 G G G S D G S G G S G Z > , > > > > > > > 1 > > 1 1 1 1 G G S Y y 1 1 1 1 > > 1 1 1 1 1 w G D S D S G S D G G G G G G G S G S G G G S G G G G G G G G G G G G G G Y S G S S S G S G G Y D 2 2 1 y G G G G G G G G Y Y S G G G Y G G G S Z Z y @ + } ) 4 $ . ",
"= O 7 N | O + S G G G G G S S S S S S D S D D Z D D D > > 1 2 2 2 w 2 2 2 > , > > y D S S G 2 w 1 w e G S S D G G G D G G 1 2 2 1 w D G G G G D D S G G G S 1 2 1 , 1 1 2 2 2 w w 2 1 2 2 1 G D G G y w 1 2 1 2 1 2 2 1 1 > w D D G D G G S G G G G G G G S Y S G G G G S G S G S G G G G G G G G G G G G G G G G D S G G I D 2 1 1 y G G G G G G G G S Y G G G S S G G G Z Z y y + @ ) x 4 $ . ",
"= X M $.=.. + D D Z S D S Z S Z Z Z Z Z Z D Z Z Z y D > 2 1 1 1 1 1 1 1 1 > 1 > > y Z Z Z G 2 w e w e S Z D Z D Z D D S G 1 1 1 w w Z G D D S S Z S Z D D Z 1 2 1 2 1 1 2 1 1 2 2 2 1 1 1 , D Z D D y e w 1 w 2 w 1 2 1 > 1 2 Z S Z D Z Z S S S S S D Z S S Z S Z Z Z Z Z D Z Z S S S Z D S S Z Z S Z D S Z Z Z Z S Z Z S G Z w e 1 e S Z D Z D S S S S D G S S S G Z S D Z y y u @ % p.=.4 @   ",
"& + M =.-.. . G Z S Z G Z Z Z Z Z Z Z Z Z y Z Z y Z y e w e e e e e e e e w w w 2 y y Z Z Z y y y y y S Z Z Z Z Z y y Z D e u e e y Z Z Z D y Z Z y y Z Z y e e e e e y y y y y y e y e e e Z Z D D y y y y y y y e y e y e y Z Z Z Z Z Z Z Z S Z Z Z D S Z Z Z Z Z Z C y Z Z Z Z Z Z D Z Z Z Z Z Z Z D Z Z Z C y Z Z Z Z Z Z Z D Z y Z D D Z Z Z Z Z Z D D Z Z S Z Z D D S y D u + $ p.8.4 +   ",
"& X &.S.I.l c O . e y y y y y y y y y e e e e e y y e e e y e y t y y y e e e e e e e y y e y y y y y y e y e e e e e y e y y y y y y y y e e y y e y y y y y y y y y y y Z C y Z y y y y y y y y y y y C y y y y y y t y y e y e y y y y e y y y y y y y y e e e y y y y y y y y y y y e y y y y e y e y e e e e y y e e e e y y y y y y y y y y y y e y y y y y e y y y y . X O c N [.P.8 +   ",
"= X p.Y.T.N c   . 2 y y y y e y e y y y y y y y e e e e e y y y y y y e e y y y t y e y e e y e y y y y y y y y y e y u e e y e y y y y y y y e y y e y y y y y y y y y y y y y y y y y y y y e y e y y y Z y y y y y y y e y y y e e y y y y y y y y y y y y y y y e e y e y y y y y y y y y y y y y e y y e y y e y y e y y y y y y y y y y y y y y y y y y y y y y y y Z .   . N V ].S.9 O   ",
"- + h./.'.7 l . . 3 y y y y y y y C y y y C y t t e e e e e e y y e y e e e y e y e y e e e e e y y y y y y y t y y y e e e e y e y y y t y y y Z y y C y y y y y y e e y y y y y y y y y y e y u e y y y y y e y r e e y y y e y y C y y y C y y y y Z y y y C t y y y y y y C y Z y C Z y C y y y y C y y y y C t y y y e y e y y y y C y Z y y y C y Z y y y y y y y y D .   . l M [.Y.q X   ",
"; @ c 5.@.T.I.| _ 7 O + $ $ + + + + + + + + + + + + + + + + + + + + + O + O + + + + O + O + X + O + + + + + + + O + + + + + + + + + + + + O + + + + + + + + + + + + + + + + + + + + + + + + + + + + + + + + + + + + O O O + + + + + + + + + + + + + + + + + + + + + O O + + + + + + + + + + + + + + + + + + + + + + + + O O + X + + + + + + O + + + + + + + + + + + & + @ + +.N +.E.S.#.<.q +   ",
"9 @ | <.<.I.R.c N 4 X + O O O + + + + + + + + + + + + + $ + + + + + + + + + + + + + + + + + + + $ + + + + $ + $ + $ + + + + + + + + + + + + + + + + + + + + + + $ + + + + + + + + + + + + + + @ $ + $ + $ + + + + + + + + + + + + + + + + + + + + + + + + + + + + + + + O + + + + + + + + + + + + + + + + + + + + + + O + + + + + + + + + + + + + + + + + + + + $ + + $ @ + N |  .E.S.<.<.q @   ",
"m B 9 7 * 3.@._ _ ) z z z z z k z z z z z z z f d f f k f f z z z k k f d d z k z k d f f d k k d d f d d d d d d d d k k k k k k d z k f k z z z z z z z k z z k k d k z k z z z k z k k k z z k z k z d f d d k d d k z z f d z f z z d z d d f k f d f z d d k d f k f d d z z z z z k z z z z k k k k k d k k k d d d d z z k z z z f z d z k k z z z d z f k k z z z z c | _ | @.p q X n & ",
".X.Xm o   =.@.x ) x f f f f f f f f f z f f f f f f f f f f f f p a z f p f f z f f z p p f a k a f f f f d a p a k a k f p f a k a z p f z z f d z f z f f z a f f f f z a k f d f f k z z z z z a f f f f f f f f f f f f f f f f f f f f d f f k a p d f p z a k f k f f d f d d f f d f f z a z a d z f f f f f f p f f d p f f f d f f f f d f f f k z f f f k z z z z c x k _ O.6 @   .X.X",
".X.Xz.n   l c l k d p 6 p p p f p d d 6 6 p q 6 6 p 6 p p p p p p p 6 6 6 6 p p 6 6 6 6 p p 6 p 6 p q 6 6 6 6 6 q 6 6 6 6 6 6 6 6 p p 6 6 s 6 6 6 q 6 6 6 p q 6 p d p p 6 6 6 q q 6 6 6 p p p d q d 6 6 6 6 p q 6 6 6 6 6 6 p 6 p 6 6 p 6 6 6 6 6 6 q 6 s q 6 6 6 6 6 p p q 6 q 6 6 6 6 6 q q 6 6 p 6 6 p p d q 6 6 6 6 6 6 q q 6 p 6 d q 6 6 6 6 6 6 6 6 p 6 6 6 6 p 6 p p p 6 k l l 4 m n .X.X",
".X.X.XW.  o o X X o + @ @ + * @ @ @ & @ & @ @ @ % * * * % * * @ @ @ @ @ @ @ @ @ & @ @ @ + @ & @ @ @ @ @ @ @ % @ @ @ @ & @ @ @ $ @ $ & @ $ & & & @ @ @ @ @ @ @ @ @ @ @ @ % @ & @ @ @ @ @ % @ * @ * * $ $ @ @ @ @ @ @ @ @ @ @ @ % @ % @ @ @ @ & @ @ & @ * @ @ * $ @ & @ @ @ @ @ @ & @ @ @ @ @ @ @ @ $ @ @ @ $ @ @ @ @ @ @ @ @ @ @ @ @ % @ @ @ @ @ & @ * + * @ + + @ @ @ @ @ @ o X X o o o T..X.X.X",
".X.X.XE.h v : 9 9 9 h ; h h 9 h 9 9 9 9 h 9 9 : 9 9 9 h j h 9 9 9 9 : 9 9 h h h h h 9 9 9 9 8 9 9 9 9 9 9 9 9 9 h h 9 9 9 9 9 9 9 : ; : h h h h v 9 9 9 h 9 9 9 9 9 9 9 9 9 9 9 9 : ; 8 9 9 9 9 9 : : 9 9 9 h h h v v v 9 v v j j j h 9 9 h j v h j h h h h h h 8 9 ; 9 9 9 : v : 9 9 : h : 9 : : ; ; ; ; 9 9 9 h 9 : : ; ; ; - 8 9 9 9 9 9 9 9 h h h h h h h h h h 9 9 : 9 9 h h v v v E..X.X.X"
};
