/* XPM */
static char *lives_13[] = {
/* columns rows colors chars-per-pixel */
"192 48 201 2 ",
"   c #00020A",
".  c #020514",
"X  c #110F11",
"o  c #0C121C",
"O  c #13161A",
"+  c #060E29",
"@  c #0A152B",
"#  c #131A2C",
"$  c #01033B",
"%  c #0B1834",
"&  c #111C34",
"*  c #1D212A",
"=  c #1D2334",
"-  c #2C2D2C",
";  c #262A37",
":  c #302F35",
">  c #2E3137",
",  c #32343A",
"<  c #01064A",
"1  c #081842",
"2  c #12164D",
"3  c #020A58",
"4  c #09125A",
"5  c #13175D",
"6  c #1B2848",
"7  c #1E304D",
"8  c #0E225C",
"9  c #1B2C57",
"0  c #1E325C",
"q  c #232F4B",
"w  c #2B3140",
"e  c #383B43",
"r  c #212C54",
"t  c #24355B",
"y  c #313F5F",
"u  c #030C65",
"i  c #03146C",
"p  c #121B65",
"a  c #020C77",
"s  c #011777",
"d  c #12197E",
"f  c #18276A",
"g  c #1E3463",
"h  c #07237E",
"j  c #16237D",
"k  c #1C3772",
"l  c #23286C",
"z  c #243867",
"x  c #313E63",
"c  c #252C72",
"v  c #263D73",
"b  c #383C79",
"n  c #3D414A",
"m  c #32435E",
"M  c #2F4066",
"N  c #364567",
"B  c #2C4377",
"V  c #32467A",
"C  c #4C4D4D",
"Z  c #4D4E54",
"A  c #4E5253",
"S  c #58595A",
"D  c #424D69",
"F  c #475169",
"G  c #5A5F62",
"H  c #41437B",
"J  c #485675",
"K  c #505C7A",
"L  c #59627E",
"P  c #030D87",
"I  c #031B87",
"U  c #000C95",
"Y  c #041E94",
"T  c #101F94",
"R  c #08218C",
"E  c #15268B",
"W  c #1A338F",
"Q  c #062298",
"!  c #142899",
"~  c #1B3091",
"^  c #333A84",
"/  c #27389C",
"(  c #303C97",
")  c #000EA3",
"_  c #0119A6",
"`  c #001DB3",
"'  c #0826A7",
"]  c #132CA8",
"[  c #1C31A3",
"{  c #0C2DB8",
"}  c #122FB6",
"|  c #0D31BC",
" . c #1434B9",
".. c #2439A8",
"X. c #233AB7",
"o. c #364A84",
"O. c #3C5386",
"+. c #384998",
"@. c #3548AB",
"#. c #3E53A8",
"$. c #2542B6",
"%. c #3646B5",
"&. c #3F52BA",
"*. c #484884",
"=. c #465A8A",
"-. c #5C5E89",
";. c #465996",
":. c #605F90",
">. c #4B618F",
",. c #57618B",
"<. c #4E6392",
"1. c #526795",
"2. c #64668D",
"3. c #7D7C8D",
"4. c #676B95",
"5. c #697597",
"6. c #707499",
"7. c #404EAB",
"8. c #4A59A7",
"9. c #525EA2",
"0. c #485AB5",
"q. c #4E62AD",
"w. c #5769A4",
"e. c #5D73A9",
"r. c #4862B8",
"t. c #556CBE",
"y. c #6569AD",
"u. c #6878A9",
"i. c #747CAA",
"p. c #6979B4",
"a. c #0A2EC1",
"s. c #122FC1",
"d. c #0D33C3",
"f. c #1235C5",
"g. c #5A73C8",
"h. c #466CD5",
"j. c #5473D1",
"k. c #6878C8",
"l. c #7A7EC1",
"z. c #677BD1",
"x. c #727FD5",
"c. c #7A85AB",
"v. c #6E82BD",
"b. c #7886B8",
"n. c #6E81C8",
"m. c #7883CC",
"M. c #7F90C3",
"N. c #6E80D0",
"B. c #7A88D7",
"V. c #80828F",
"C. c #8B8A93",
"Z. c #9A9E9E",
"A. c #8A91A6",
"S. c #9394A6",
"D. c #838DB7",
"F. c #8994BA",
"G. c #979DBB",
"H. c #A3A1BA",
"J. c #BCC0BD",
"K. c #838EC9",
"L. c #8995C7",
"P. c #959BC8",
"I. c #808FD6",
"U. c #8996D5",
"Y. c #949DD6",
"T. c #9BA2C8",
"R. c #8DA2D7",
"E. c #9AA4D5",
"W. c #A8ACC9",
"Q. c #ADB2CB",
"!. c #B3B5CC",
"~. c #A5ABD7",
"^. c #A9B2D6",
"/. c #B5B9D6",
"(. c #8C9EE2",
"). c #8AA2E3",
"_. c #99A7E4",
"`. c #A0ACE7",
"'. c #A9B6E8",
"]. c #B4BDE3",
"[. c #BDC3DC",
"{. c #B4C0E8",
"}. c #C6C6CA",
"|. c #C6CBDB",
" X c #CFD2DB",
".X c #D8D6D9",
"XX c #C7CCE6",
"oX c #CCD4E9",
"OX c #D7DAE9",
"+X c #CCD6F3",
"@X c #D5DBF2",
"#X c #DBE0EE",
"$X c #DCE3F5",
"%X c #DCF1FF",
"&X c #E7E7E8",
"*X c #FAF4EE",
"=X c #EAEBF5",
"-X c #F0EFF9",
";X c #EFF1F7",
":X c #F8F8FB",
">X c None",
/* pixels */
">X>X>X.XX X                           .     . .   . . .                   . .                     .   . . . . .   .   .                     .     . . . . . .         . . . .     .                         .   . .                         . .   . . . . . . + . . . . . .                   . . . .     . . . . .   .                   .   .     . .         . .                     .X>X>X>X",
">X>X>XH.X O O # + + + + + @ + + @ + + + + @ + + @ + @ @ + @ + + + @ + @ @ @ + @ @ + + + + + + @ @ @ % % + @ + + @ @ @ + + @ + + + + + @ + @ @ + + + @ + + + @ + + @ + @ % + @ @ + + + + + + + + + + + + . + + + @ @ + + + + + @ + @ + + + @ @ + + + % + + + + @ % @ % + + @ @ + + + . + + @ + + + + + + + + + + @ @ + + + + + + + + + + + @ @ + + + + @ + + + + + + + + + . @ @ o @ o X .X>X>X>X",
">X>X- X : :X;XF.L.c.<.1.1.1.1.<.>.>.>.>.<.<.<.<.<.1.1.1.1.1.1.<.>.>.>.<.<.1.1.1.1.1.<.<.>.>.<.<.<.<.<.<.1.1.1.<.>.<.>.=.=.=.>.>.>.>.>.>.1.<.<.1.1.1.1.1.1.1.<.1.1.1.1.1.1.1.1.1.1.1.1.<.<.<.<.<.>.<.1.,.1.1.1.1.1.1.1.1.1.<.<.>.<.<.1.<.<.<.<.1.1.1.1.1.1.1.<.1.<.>.<.<.<.>.<.1.>.>.<.<.1.<.<.1.<.<.<.<.=.<.<.<.<.<.1.<.1.>.>.>.<.<.1.1.<.<.<.1.1.1.1.<.>.>.>.;.<.>.1.1.u.v. X.X#XG.G.Q.    >X>X",
">X>X, X * &X&Xc.c.w.;.O.;.>.;.>.=.=.=.=.=.=.>.=.=.=.=.=.=.=.=.=.=.=.=.=.=.=.>.=.=.>.;.=.=.=.>.=.=.>.>.;.=.=.=.;.=.=.=.=.O.=.=.O.=.O.=.O.=.=.>.;.<.<.<.>.=.=.=.;.>.;.>.=.;.=.;.>.=.=.=.=.>.=.=.=.=.=.>.=.>.<.=.<.<.>.<.>.=.=.=.=.=.=.=.;.=.>.>.>.<.;.<.<.=.;.=.=.O.=.=.O.=.=.O.;.=.=.=.=.=.=.=.=.=.=.=.=.=.=.=.=.=.>.>.=.=.=.=.=.>.>.>.>.>.=.>.;.;.=.>.O.=.=.=.=.=.O.>.O.w.e.[.!.Q.F.A.F.    >X>X",
"* X C.*X*X,.,.t z = @ @ @ @ @ @ + @ @ @ @ @ @ % @ % @ @ @ @ % @ @ @ + + + @ @ @ @ @ @ @ @ @ @ @ % @ % % & @ @ @ + % @ @ @ @ + @ + + @ @ @ @ @ @ @ @ + @ @ @ % @ @ % @ % % @ @ @ # @ @ @ % + @ @ + @ @ @ @ @ @ @ @ % @ @ + @ @ @ @ @ @ % @ @ @ @ @ @ @ @ @ @ @ @ + @ @ @ @ @ @ @ @ @ + % @ % % @ % @ + + @ @ @ @ @ @ @ + @ @ @ @ @ % % % % @ @ @ @ % @ % @ @ @ + @ % % % % % g g g ;.;.b.F.N * . ",
"= O V.}.}.1.1.z z 6 % % % @ @ @ @ @ @ @ @ % & % & % & % # & & & % @ @ @ @ @ @ @ % # @ @ % % & % % & & % & % & & % % @ % @ @ @ @ @ @ & @ @ @ % % @ & % % & @ @ & % % & # % % % & % & % % % % & @ % @ % % % # & @ @ % % % % % % & & @ % % % & % & % % % % @ & % @ % + % @ @ % @ % & @ @ % % & % % @ @ % @ @ @ @ @ @ @ @ @ @ % % & % & % % @ % % % % @ % + @ @ @ @ % % & & & & k k g ;.>.D.b.N & . ",
"; @ c.J.[.1.w.0 z 6 % % % % % % % % + % % % % % % 1 % 1 1 % % % % % + @ @ % % @ % % % % % % % % % % % % % % % % % % % + % @ % @ % % % % % % % % % % % % % % % % % 1 % % % % % % % % % % % % @ @ % % % % % % % % % % % % % 1 % 1 % % 1 % % 1 % % % % % % % % % % % % % % % % % % % % % % % 1 1 1 % 1 % % % + % % % $ % + + % 1 1 % 1 % % % % + + % % % % % % % % % % 1 1 1 1 k z 0 ;.O.b.c.m % . ",
"; @ L D.F.q t   . 4 s s s s i i s i s s s s s s s s s s s s s s i s s i i i i i i s i s s s s s i s i a s i s s s s s s s i i s s i s s s s s s s s s a s s s s s s s s s s s s s s s s s s s a i s s s a s s i a s s s s s s s s s s s s s s s s s i i s i s i i i i s i s i s s s s s s s s s s s s s s s i a i i a s i I s s s s s s s a s s i s s s s s I s s s s s s h     . g g F.F.N &   ",
"; @ K D.D.q 7     4 i i i i s s i i i i i i s i s i s i i i i i i i i i i i i i i i i s s i i i i i i i i i i s i i s i s i i s i i s s s s i s a i i i i i s s i i s i i s i s i s s s s i i i i i s s s i s i i i i s s s s s s i s s s s s s i i s i i i i i i i i i i s s i i s s s s s s s i s i s i s i s i s i i s s i s s s s i i i i s s i s i s s s s s s i i s s     . g 0 L.D.N @   ",
"; @ y =.,.+ @ s i s s h s s s s s s s s s s s s s s s s s s s s s s s s s s s s s s s s s R s s s s s s i s s s s R I s s s s s s I s s s s I I I s s s s s I s I s s s s s s s s s I s s I I s I s s I I s s s s s s s s s s s s s s s s s s s s s s s s s s s s s s s s s s s s s s s s s s s s s s I I I s s s s s s s I I s I I s s s s I s s I I s s I s s s s h s s s s i 4 + . 4.<.r o   ",
"- @ y 1.1.# % s s s h s s I s s I s I s s s s s s s R s s s h s s I s I I s s s s R I I R R R s s s s s s h s s s R I I I I I I R I R R R R R I I s I I s I I I I s s s i i d s I I R R I I I I I I Y I Y I I s s s s I I I I I s s s s h I I s s s s s I s s R s s s I h I s s h I s I I s s s s s I I I I I I I s s s s I I I s s s s s I I I Y I I I I I R I s I I s s s s i i @ + 1.1.y +   ",
"= @ q =.=.% # Y R R I I I I Y I I Y Y I I I I s p.n.v.v.b.P R R Y Y R Y Y Y Y Y Y R R q.b.L.L.D.+.R I I R +.L.L.L.M.v.Q Q Q R Y R Q K.P.R.R.U.U Q Q P {.].'./.^.~.W.E.T.E.T.T.E.E.^.~.^...Q Q Y Q Q Q Q +.L.L.L.L.F.L.L.L.L.P.L.P.R R Y R R I Y Q R Q R R I Y R Y Y Y Y R R Y Y R I R I Y R s E v.p.b.v.n.Y Q Q R Y Y I 8.8.q.w.;.7.;.8.8.8.e.! Q Y Q Q Y R R Y Y Y R I R Y R s R @ + =.=.t @   ",
"= @ t =.;.@ # Y R Y Y Y I R Y Y Y Y Y Y Y Q Y Q :X;X;X=X:XU Q Q Y Q Y Y Y R Y Y R Y R K.=X;X;X=Xy.Q Q Q ! u.*X-X;X=X{.! Q Q Q Q Q Q oX=X;X-X&XY ' Q Y :X:X:X:X:X:X;X=X=X=X=X;X-X;X;X=X&X#.' Q ' Q ' Q ' 8.-X:X:X-X=X-X-X;X:X-X&X;XT R R Y Q T Q Y Y Y Y Q Y Q Y Q Y Q Q Q Q Y Q Y Y Y Y R Y I / ;X=X=X=X#XU ' _ ' Y Q Y -X:X:X:X:X:X-X*X:X:X:X! Q _ ' Y Q Q Y Y Y Y Q Y R Y R s h @ @ O.=.r %   ",
"- @ t =.;.@ @ Y I Y I Y Y Y I Y Y Y I Y Y Y Y Q :X:X:X:X:XY Q Q Y Q Q Y Y Y Y Y Y Y R K.:X-X*X-Xy.! ' Q Q k.:X:X;X;XXXQ Q Q Q Q R Q @X=X-X-X=XU Q ' ) :X:X:X:X:X:X:X:X:X:X-X:X:X:X:X:X-X#.Q ' Q Q ' ' ] 8.:X:X:X:X:X:X:X:X:X:X:X:X! R Y Q Y Y Q Q Q Y Q Q Y Q Y Y Q Q Y Y Y Q Y Q Y Y I I R E ..:X*X-X-X=XU Q ' ' ' Q U ;X:X:X:X:X:X:X-X:X:X:X..' ' Y ' Q Y Q Q Q Y Q Y Y R s R I @ @ O.O.r & . ",
"# # z =.=.% @ Y R Y I Y I I Y Y Y Y Y R Y Q Q ! :X:X:X;X:XP Q Q Q Q Q Y Q Y Y Y Y I R K.;X-X;X:Xp.Q Q Q ] k.:X:X:X;XXXQ R Q Q Y Y R @X=X-X:X=XU Q ' Y :X:X:X:X:X:X:X:X:X:X:X:X:X:X:X-X*X#.Q Q ' Q ' Q Q 0.:X:X:X:X:X:X:X-X:X-X-X:XR R R T Q Y R Y Y Y Q Y Q Q Y Y Y Y Y Y Q Y Q Y R Y I P P P / :X:X:X:X&XP Q ' Y ' Q Y :X:X:X:X:X:X-X:X:X:X:X! Q Q Q Y Y Q Y Q R Y Y Y R Y s I R @ + O.O.t % . ",
"; @ t =.=.+ @ Y Y I R Y Y Y R Y Y Y R Y Y Y Y Q :X:X:X:X:XP R Y Y Y Y Q Q Y Q Y Y Y R U.:X;X:X;Xy.E Q Q Q k.:X:X:X;XoX! Q Q Q Q Q Q @X;X;X:X$Xa R Y U :X:X:X:X:X:X:X:X:X:X:X:X:X:X:X:X:X+.Q Y Q U Y Y T 0.:X:X:X:X:X:X:X:X:X:X:X:X! ' Q Y P Y P I Y Y Y ' Y Q Q Q Y Q Q Y Y Y Q Q Q Q Q L.&X=X-X:X:X:X:X$XP R Y Y Q ' Y :X:X:X:X:X:X:X:X:X:X:XE a I P Y Q Q Y Q Y Q Q Q Y Y R s R @ + O.O.r @ . ",
"; @ y O.=.@ @ _ Y ' ' _ _ ' ' ' ' ' ' Q ' Q Q ] :X;X-X;X:X< 3 I Q ' ' ' ' ' ' ' ' ' ' U.:X:X*X;X:.1 s ' ' k.:X:X:X:XXXu u { { { { ] $X:X:X:X$Xu i ' U :X:X:X:XQ.c c l c c c c l l c v z 5 u R U :X:X:X:X:XX.+.b ^ H b b b b b ^ =.u 3 { U :X:X:X:X&.' { ' ' ' ' ' ' Q ' Q ' ' ' ' ] { ' Y.=X=X-X:X:X:X-XOX$ d ' ' ] ' { ' ' Q 4 4 5 5 5 4 u < :X:X:X:XY ' { { ' ' ' ' ' ' ' Y Q Q # @ O.O.9 @   ",
"; @ t *.=.@ @ ' ' ' Q ' ' ' Q _ ' Q Q ' Q Q ! Q :X:X:X:X:X3 3 d ' Q ' ' ' Q ' ' _ ' ] R.:X:X:X-X:.5 s ! ' k.:X:X:X:X|.a a { ' ' ] { =X:X:X:X@Xu 3 ' U :X:X:X:XH.p p i p p a u p i p u 4 3 3 ' Y $X:X:X:X:X{ } u p i p i 5 4 4 4 p u u ' U :X:X:X:X@.' { ' ' ' ' ' ' ' ' Q ' Q ' ' ' ' ' ~.=X-X-X:X:X:X-X#X< d Q Q ' ' ' ' ' R 4 3 4 i i i i 5 :X:X-X:X) ' ' ' ' ' ' ' ' ' ' Q R Q @ @ O.O.7 +   ",
"= % t =.=.+ @ ' ' _ Y ' Q ' ' ' Q Q Q ' Q ' Q Q :X:X:X:X:X< 3 I _ ' ' ' ' ' ' ' ' ' ] R.:X:X:X;X-.4 s ' ] k.:X:X:X:X|.i u ' ' ' ' ' =X:X:X:X=Xu u ' U :X:X:X;XP.3 4 u u u u u u u u u 3 3 3 Q _ %X-X:X:X:X| ' u u u 4 3 3 3 3 3 3 u 3 ' U :X:X:X:X@.{ ' ' ' ' ' Q ' ' _ ' _ Q ' ' ' ' ' Q E / c :X:X:X;X#X< I ' ' ' ' ] ' ' R 3 3 4 3 3 u u 3 :X:X:X-XU ' ' _ ] ' ' ' ' ' Q Q Q Q % % O.O.9 @ . ",
"* @ t =.=.+ % ' ' ' ' ' Q ' Y ' ' ' Q Q Q ' ] ] :X:X:X:X:X< 3 h Y ' Q _ Q ' ' ' ' ' ] Y.:X:X:X;X-.4 s ' ' g.:X:X:X*X|.u u Q Y Y ' ' $X:X:X:X@Xu u ' Y :X;X:X*XG.2 3 4 u 4 4 4 4 3 i 3 3 3 3 Q Y =X:X-X-X:XI T i i i i u 3 3 3 3 u 3 3 { ) :X:X:X:X@.' ' ' ' ' ' ' ' ! Y ! ' ' ' Q ' ' Q Q ! ! f :X:X-X-XOX< I ' ' ' ' ' ] Q R 3 3 u u p i p u :X-X-X-XU Y ' Q ' ' ' _ ' ' ' Q Q ' & @ O.O.7 %   ",
"= @ y O.=.@ % { ' { ' ' ` ' ' ' ' ' ' ' ' ' ' { :X:X:X:X:X< u I ' { ' ] { ' ' ' ' ' ' Y.:X:X:X;X:.4 s |  .n.:X:X:X:X[.u 3 ' ' ' ' ' @X:X:X:X=Xu i ' ` B.K.m.i.!.i.c.b.i.y.4.9.I R R Q Q Q Q ' ' ).E.~.^.P.-.,.4.y.w.9.;.~ I s I I I I { ' E.E.~.~.~ ' { ' { ' { ' { ' { ' ' ] ` ' { ' ' { ' | f :X:X:X:XOX< I {  .{ { { { ' } { @.7.7.0.0.8.7.;X+XXXXXa R ' ' ' ' ' { ' ' ' ' ' { % + O.=.r %   ",
"= @ t =.;.+ @ a.a.a.a.a.a.{ a.{ { { { { { { { | :X:X:X:X:X3 i R a.{ { { { { | { { { } U.;X:X:X;X-.4 s | d.N.:X:X:X;X|.u 3 { { ' ] } @X-X:X:X#Xa a { { _ _ T :X:X*X;X;X*X-X-X=X' { ' { { | | a.{ d.d.R f c =X*X:X-X:X:X-X0.{ { a.a.{ a.a.| d.d.4 p 4 ' | { { { { a.{ { a.a.a.{ a.{ { { { a.a.f.l :X:X:X:XOX< R | | | | { | |  .{ +X:X:X:X:X:X:Xh._ i 3 3 3 { { { { { { { { { { { | % @ =.O.r % . ",
"= @ y =.=.+ + { { { { { a.{ { { { { { { ' { ] { :X:X:X:X:X3 a Q a.s.{ { { { { ] ' { { B.:X:X;X;X-.4 I | f.B.:X:X:X:X[.u u { ' { { } +X-X-X:X=Xa s a.` =X:X:X:X:X:X:X:X:X-X-X=X' { ] { { { | | | | | I p c :X-X-X-X-X-X-X0.{ a.a.a.a.a.{ a.{ a.< 3 < Q } { | { { { a.{ | a.{ { { { { { a.s.s.d.[ :X:X:X;XOX< R { { } { | d.d.d.{ +X:X:X-X:X-X:Xj.f.i 3 u 3 ' { { { { { { { ' ' { { & @ =.=.r @ . ",
"; & x =.;.+ @ { { | { { { { { { { { ' { { ' { { :X:X:X:X:X3 s ! a.{ } { { } { { { ] { B.;X:X:X;X-.5 I d.f.m.:X:X:X;X[.4 3 { { | { { +X-X-X:X$Xu P a.` $X:X:X:X:X:X-X-X-X-X;X-X! ' { ' { { { { | | d.i 4 l -X-X-X=X=X*X-X8.' { f.a.a.| d.a.{ { s s s Q ] { | { { { { { { s.{ { { { { a.{ s.d.d.$.:X:X:X:XOX< R { | } | | { s.f.{ $X:X-X-X-X;X:Xg.f.s 3 3 < } { { { { { { { { { ' | % @ =.O.t %   ",
"; % y =.=.@ @ { { { { { { a.{ { { { { { ' { { | :X:X:X:X:X4 a Q a.{ { { { { { } { {  .B.:X:X:X-X2.p I f.f.N.:X:X:X;X/.4 3 { { a.{ | @X-X:X-X=Xu a a.` @X:X:X:X#XQ.Q.Q.W.W.Q.Q.T ] ] { { { { } | | | Y E ~ ].]./.!.W.W.!.^ 3 E  .} d.d.{ a.{ ' _ ' { ' } { { { { { s.{ a.{ { { a.{ { | | | |  .$.:X:X:X;XOX< T { } | | | | | d.{ %X-X=X=X=X=X:Xy.Y ! T Y Y { { { a.{ { { { { ' ' | % @ =.O.t % . ",
"; & t =.*.@ @ { { { | { { { { { { ' { { | } } d.:X:X:X:X:Xu a ! { { { } { } { { { {  .I.:X:X:X;X4.i Y f.f.x.:X:X*X;X/.4 3 a.{ | s.d.+X:X:X:XOX3 3 { ` $X:X:X:XH.3 3 4 3 3 4 u u 3 u { } { { { | | { { { } _ ! < < < 3 3 -.:X:X:X:X .d.d.` @X:X-X;X&.} { {  .{ | { a.| { { a.{ | { | | { | | }  .:X:X:X:XOX< R | | | | | { }  .f.{ ' u < $ < $ |.:X:X-X..{ { ' { { { { a.{ { { ' | % @ O.O.q @   ",
"w @ y =.=.+ @ a.{ { { { { { { { { { { { | | d.f.:X:X:X:X:X3 i Q { ] { } { { { | { '  .B.:X:X-X*X6.u T f.d.z.-X-X-X;X/.u 4 d.a.a.s.{ OX:X:X:Xf 3 3 { ` =X:X:X:X!.4 u 3 u u i i u u s { } { } { { { { ' ] { ] ' 4 u p u u *.:X:X:X:XX.| { _ +X:X:X;X&.' { { { | | { { | | | a.{ a.a.{ | { | { }  .:X:X:X:XOX3 Q | | } | | } } | | s.f.R i u p 4 oX-X:X-X$.{ { | | { | a.{ | { ' { | @ @ O.O.q @   ",
"w % t =.=.% @ a.{ { { { { { { { { { { { | | | | :X:X:X:X:X3 i R { { { } { { s.{ { { } I.:X:X:X;X4.5 I } d.z.-X:X-X-X|.i u d.d.a.d.s.oX:X:X1.s 3 3 { _ @X;X:X;X/.4 4 3 4 u i u u u d { { { ] { { { } } { { { ' u a a u u b :X:X:X:X] | { _ @X;X:X;X&.| | { d.{ | a.{ { | { { { { { { } { { } }  .:X:X:X:XOX3 Q { { { { { { | | | s.f.I i u u 4 oX:X:X-X$.| { | { { a.{ a.{ { { ' | @ + =.V 6 o   ",
"> % t =.=.% + a.{ { { { { { { { { | | | d.d.| d.:X-X-X-X:X4 i E } ] } s.f.f.f.| ] {  .I.:X:X:X*X4.4 I d.| z.;X:X:X-X|.d d f.f.s.| | OX:X[.u i i u { _ $X-X-X:X/.5 4 4 u u p u u u d | } } { { | { { ] ' _ ' } } ] i i p b :X:X:X:XE ' ] ) @X-X;X-X0.a.{ d.a.{ a.| | | | | { { { { { } { { |  . .:X:X:X;XOX3 T { | } } { {  .f. . . .] ] R j i OX;X;X-XX.{ f.d.{ a.a.| | | { ' { | @ @ O.O.7 @   ",
"w @ y =.=.% % ' ' ' ' ' ' ' ' ' ' ' ' ' ' ' ' ] :X-X-X;X:Xi.p.i.z.z.z.x.B.B.m.X.' ' } L.:X:X:X;X2.4 i ' '  .@.@.o.o.b *.w.(.E.`._.Y.X.....u u Q Y ' ` =X-X:X:X&XP.F.F.F.F.P.W.^.~.^.'.'.' ] { _ ].`._.`.`.`.'.'.'.~.~.E.F.2 9 0 r 4 3 ' ' / / c c I U { { ' ' ' ' ' ' ' ' ' ' ' ' ' ' ] ' ' ' ..:X:X:X:XOX3 I ' Q ' ' Q (.(._._.(.(.).)._._.^.n.0.;.o.I Q ' { ' ' ' ' ' ' Q R R Q @ @ =.V 7 @   ",
"w % M =.=.@ + ' ' ' ' ' ' ' ' ' ' ' ' ' ' Q ' ] :X:X-X:X;X;X;X;X:X:X:X:X:X:X:Xq.] ' ] L.:X:X-X;X4.2 i ' ' ' ' } u d 3 :X:X:X:X:X:X:X] Q a 3 u | { { _ $X:X:X:X:X:X:X:X:X:X:X:X:X:X:X:X:X! ' { _ :X:X-X;X-X:X:X:X:X:X:X:X$XU E 3 3 3 < ' Q ' Q 3 u i s { ' ' ' ' ' _ ' ' ' ' ' ' Q ' _ ' ' ' ' ..:X:X-X-XOX3 I ] ' { ' _ -X:X:X:X:X:X:X:X:X:X:Xj.{ d 3 u 3 { ' { { ' ' ' ' Q R h Q @ o =.O.7 &   ",
"w & M =.=.+ + Q Q ' Q ' ' ' ' ' _ ' ' Q ' Q ' ] :X:X:X:X:X:X;X:X:X:X:X:X:X:X:X0.] ' ] U.:X:X:X-X4.4 s ' ' ' { { a i 3 :X:X:X:X:X:XXX` ' u 3 u ' ' ' _ =X-X:X:X:X:X:X:X:X:X;X:X:X:X:X:X:XT  .' U :X-X;X:X:X:X:X:X:X:X:X:X@X) R < 3 < < ' ' ' ' 3 u u a { { ' ' ' Q ' ' Q ' _ Y ' ' ' ' ' ' ] ' ..:X:X:X-XOX3 Y ' ' ' { ' :X:X:X:X:X:X;X-X:X:X:Xg.' I i u u ' ' ' ' ' ' ' ' Q R R R @ o O.O.7 & . ",
"; % M =.=.+ o ' Q ' ' ' ' ' ' ' Q ' ' Q ' ' ' ' :X:X:X:X:X;X;X*X;X:X:X:X;X-X*X;.a ' ] U.-X:X;X&X6.4 i ' ' { { { u i u -X:X:X:X:X&X] P a u I I ' ' ' ) $X;X:X:X:X:X:X:X:X;X:X:X:X:X:X*X:Xd P Q U ;X-X;X:X:X:X:X:X:X:X:X*X@XU R < < < < ' ' ' ' 3 u u a { ' ' ' ' ' ' ' ' ' ' ' ' Q ' ' ' ' ' ' [ :X:X:X=XOX3 Y ' { ' ' _ -X-X:X:X:X;X*X;X-X-X-Xt.' s u i u { ' ' ' ' ' ' ' Q R R T + o O.O.r % . ",
"= @ y =.=.+ o R R Q Y R Q Y Y Y Y Y Y Y Y R Y ' /.]././.W.Q.W.W.W.Q.Q.Q.W.W.H.z < R ' ! ( +.^ c f u s ' Y ' Y ' ' Q Y b.b.c.c.F.f i R R R Y R R Y Y I R.T.^.Q.!./.!.!.Q.Q.W.H.W.W.Q.!.[.4 3 Q P ~.R.W.W.W.Q.Q.Q.!.W.W.W.G.3 u Q R R R R Y Y Y ' _ ' ' Q Y Q Y Y Y Y Y Y Y Y Y Y Y Y Y Y Y Y Q E W.U.T.P.G.3 I ' Q Q Q Y U.R.T.T.G.G.G.G.G.G.H.+.s ' ' ' Q Y ' Q R Q Q Q Q R s s s # o O.O.q % . ",
"- + t =.=.@ @ Q Q Q Y Y Y R Y Y Y Y Y Y Y Q Q Q I Y I < < $ $ < < < < < < 3 < 3 < Y Y Y Q Q 4 5 u u s _ Y Y ' Q Y ' Q I Q 3 < < u 3 Y Q Q Q Y Y Y Y Y P I s < < < < < < < < $ $ $ $ < $ < < Q R I P u < < 3 3 3 3 3 3 < < < 3 Y I Y Y Y Y Q Q Q Q Q Y Y R Y Y Y R Y Y Y I I Y Y Y Y Y Y Q Q R Y I I P 3 3 u I Y Q Y Y Y I I U < < $ $ < < < < 3 3 ' ' Y Y Y Q Q Q Q Q R Q R R s R @ @ =.=.q % . ",
"# o t J =.@ @ Q Q Y Q Q R Y Y Y Y Y Y Y Y Q Q Q Y Y R < < < 3 < 3 3 4 3 3 3 3 3 < I Y Y Y Y 3 u 3 u s ' ' Y Y Q Q Q Q Y Q 3 4 3 3 3 I R Y Q Y Y R Y Y I I I 3 3 u 3 3 3 3 3 4 < 3 < < < 3 < R R Y I 3 3 3 3 3 3 3 u 3 3 3 3 i R R R Y R R Y Q Q R Q Y R Q Y R Q Y Y Q R Y Y Y R Y Y Q Q Y Q Q I Y I I 3 u u Y Y R R R Y Y Y R 3 3 3 < 3 < < 3 3 3 Q Q Q Y ' Q R Q Q Q Q Q Q I I R = @ =.O.r @ . ",
"# o F 5.u.@ @ Q R Y I Y Y I I I I I U I I I R R I I R < < < 3 3 3 3 3 3 3 3 3 3 < I I I I Y 3 3 3 u i Y Y I R Y Y Y Q R ' 3 3 3 3 3 s s I I I I Y I I Y I s 3 3 3 3 3 3 3 3 3 < < < < 3 3 < R I I R 3 < < 3 3 3 3 3 3 3 3 3 i Y Y I I I I I I I I Y I I I I I I I I I I I I s R I Y I Y Y I Y I Y I s 3 3 3 I Y I Y I I I R R 3 < 3 < 3 3 3 3 3 3 Y I I R R Y I R R R I R I I I R & # c.c.e @   ",
"# @ F 4.4.. o R R Y I I I I I I I I I I I I s s s I s i i i i s i s s s s s i a i s I s s s s s s I I P I I I R I I I I Y s s i i i h s s I I I I I I I I I i s i i i i i i i i i i i i i s I I s s i u i i a i i s i s s s s Y I I P I I s I s s I s I I I I s s I I s s I s h I I I I I I I I s s s s s a I I I I s I I s s i i i i i s i i i i I I I s I I I s I s I I I h R h + @ 5.6.t &   ",
"# o S..X Xt m     i I s s I s s s s s s s s s s s s s s s s s s s s s s s s s s s s s s s s s i s s s s s s s s s s s s s s s s s s s s s s s I s s s s s s s s s s s s s s s s s s h s I s s s s s s s s s s s s s I s P s I s s s I s s s s s s s s s s s s s s s s s s s s s s s s s s P s s s s s s s s s a P s s s s s s s s s s s s I I s s s s s s s s s s s s s s s     . m = :X&XF &   ",
"* # S..X.Xy M . o i I I I s s s a s s i s s s i s s s i h s s I s I s s s s s s s s s i i i i s s s s I s s s s s i i i i i s s i s i s s s s s I P s I s s i h i i s i i s s i s s i s s s I s s s s s i s i s i i s s s I s I s s s s s s s i i s s s s s s s s s s s s s s s i s s s s s s s s s s i i i s s s s s s i s i s s i s s s s s s s s i s s s s s s s s I h s o . . m 7 *X.XJ #   ",
"# # A. X#X7 t o o 8 h s s s s s i i i s s s h h s s s s h s I s s s h i i i i i s s s s i i i s s s i h s s s s s i i i i i s i s i s i s h h s h s R s s s i i i i i i i i s s i h i h s s s h s s s i i i i i i i s s h s h s s h s h s s s i s i i s i i s s h i s s s i h s s i h i i h s s s s s s i i i i h i h s i s i i i s h i s h s s s s i s s i h i s s h s h h o o . ; & &X!.K @ . ",
"; @ x q.<.|. XM z = o @ @ @ @ o + o @ o o @ @ @ # @ % @ @ % @ @ @ @ @ o @ @ @ @ @ + @ @ @ @ @ @ @ @ @ @ @ @ @ @ @ o @ o @ o @ @ % @ # @ # # # @ % % @ @ @ @ @ o + + o + @ @ @ o @ @ @ @ @ @ @ @ @ % @ @ @ o o @ o @ o @ @ @ % @ % @ @ @ @ @ @ @ @ @ @ + @ @ o @ @ @ @ @ @ # @ @ @ @ @ @ @ o @ + + @ @ @ @ @ o @ o + @ + @ @ @ @ @ @ @ % @ @ @ @ @ @ @ @ @ o o o o o @ @ @ o k k 8 .X&X;.1.N #   ",
": # N 1.w.oX&XM M & o + + + o + + + @ @ @ % % % @ % @ % @ % @ @ @ @ + + @ @ @ @ + % + @ @ @ @ @ @ @ @ @ @ @ @ @ @ o + o + + @ @ @ % % % % % @ @ @ @ @ @ @ @ @ @ + + + @ @ @ @ @ @ % @ + @ @ @ @ @ @ @ @ @ + + + @ @ @ @ % @ @ % @ @ @ @ @ @ @ @ @ @ + @ @ @ @ @ @ % @ @ @ @ @ % @ @ @ @ @ + + @ @ + @ @ + + + @ @ @ @ + @ % @ @ @ @ @ @ % % @ @ % @ @ @ @ @ @ + + + @ @ @ + B B 8 .X#X=.<.V O   ",
"S Z ; 6 = >.O.O.=.V B v B M v v v B v B V B B B B B B B B B B B B B B B v M B B B B B B B B B B B B B B B M B k M B B B B N B B V o.V o.o.o.V V B B B B B V V V V N B N B V V V V V V V V V V V V V B B V B B B B B B B B V B B V B V B B V V B B B B v B B B V B V B B V V V V V V B B B B B B B B B B B B B B B B B B B B B B B B B V B V V V V V V B V B B B B B B B V V >.;.=.>.<.9 6 . S , ",
">X>XA X o >.=.O.O.B k k g k B v B v v B v B k B v v v g z z v v g B g k v v v k v v g B v k k B k g B g g v k k k k B v v v B v B B B B B B B B M k k v k B v B v B B v B M v B B B B B v B z B B M B B k B B B M v v v k M k M B v B v B B v B v v M k k k B B B v v B v B v B v B v v B k B k k v B k g v z v k k B v v v B v v v v v B B k B B B k B k B B B v B B B B B O.O.O.<.1.6 X   >X>X",
">X>XZ.G X m M M M M t 0 0 0 0 0 0 0 g g 0 0 0 0 9 9 7 9 9 t 9 9 0 9 0 0 0 0 0 0 0 g 0 0 0 0 9 9 0 0 0 9 0 0 7 0 0 g g 0 0 0 0 0 0 z g z g g g g 0 7 0 9 7 0 0 0 t 0 t 0 t 0 0 0 0 t 9 0 0 0 0 t 0 0 0 g g 0 0 0 g 0 0 0 0 0 0 0 0 0 g 0 g g g g 0 0 0 0 0 0 0 0 g 0 0 g t z g t z z g z 0 0 0 0 0 0 0 0 0 0 0 0 7 0 0 0 g g 0 0 0 0 0 t 0 0 g 0 0 0 9 0 0 0 g 0 g g 0 0 0 0 m t q m m # C A >X>X",
">X>X>X.XX O O O # @ % & & & & & % & & % % @ # o o o @ @ # @ @ & @ % % # % % % % % % # @ @ # @ o @ o O @ @ @ @ # # % % % & = & % # @ # & & & & % @ # @ o @ o @ # % & % # # @ @ @ @ @ @ # @ # # @ % % % # & % % % @ @ @ @ + @ @ * & @ % & # # % % # % % % # % @ @ & & & % & # % % @ # % & % # @ # @ # @ # @ @ @ @ @ @ # @ % % @ @ @ @ @ @ @ @ @ @ @ # # # % @ @ # % % & & % & @ O O O O X [.>X>X>X",
">X>X>X}., , > > , , n n n n n n n e , e , , : > > : : , , , w , , > , > , , , > > - - , : > , , , , , , - > > , , , , e n , n n e e , > > > , , , , > > > e , e , n e e e , , > > > > > , , , , , n e e n > > , , , , , , > e , e e n e e , - - > , , , , , , , , , , , , > , > , , , , , , : , , : , , , e , > > , , , , , , , , , , , , , , , ; > , , , , , > , n , n n n , , , - , , }.>X>X>X"
};
