/* XPM */
static char *lives_3[] = {
/* columns rows colors chars-per-pixel */
"192 49 193 2 ",
"   c #01020C",
".  c #030515",
"X  c #08121E",
"o  c #13141A",
"O  c #040C27",
"+  c #08132A",
"@  c #141B2D",
"#  c #010337",
"$  c #0A1735",
"%  c #131D36",
"&  c #1F2127",
"*  c #17223A",
"=  c #23252C",
"-  c #272933",
";  c #2F323C",
":  c #32353E",
">  c #03064A",
",  c #0D1945",
"<  c #111F41",
"1  c #030B58",
"2  c #071159",
"3  c #10165A",
"4  c #172545",
"5  c #18265B",
"6  c #1D325C",
"7  c #222E48",
"8  c #24314C",
"9  c #373A44",
"0  c #24365C",
"q  c #030B64",
"w  c #01156B",
"e  c #141966",
"r  c #000779",
"t  c #021777",
"y  c #10187A",
"u  c #142469",
"i  c #1E3564",
"p  c #08237D",
"a  c #182773",
"s  c #1A3675",
"d  c #242C6B",
"f  c #253B6C",
"g  c #313F61",
"h  c #292C72",
"j  c #243C72",
"k  c #363D7B",
"l  c #3E4149",
"z  c #2B416D",
"x  c #364464",
"c  c #2B4273",
"v  c #384C7B",
"b  c #42444B",
"n  c #504A4E",
"m  c #434557",
"M  c #5A5A5E",
"N  c #454E6A",
"B  c #4D5369",
"V  c #454D76",
"C  c #405278",
"Z  c #585F72",
"A  c #5F656B",
"S  c #59627E",
"D  c #67686A",
"F  c #6A6E75",
"G  c #72757A",
"H  c #000986",
"J  c #031C89",
"K  c #000D97",
"L  c #041E93",
"P  c #06228B",
"I  c #162586",
"U  c #062296",
"Y  c #142998",
"T  c #223289",
"R  c #243595",
"E  c #000EA4",
"W  c #031BA6",
"Q  c #031BB6",
"!  c #0826A7",
"~  c #1429A8",
"^  c #0C31AC",
"/  c #1E34A8",
"(  c #0B2DB8",
")  c #162DB5",
"_  c #0C31BB",
"`  c #1737B5",
"'  c #2539A9",
"]  c #353FAE",
"[  c #243AB4",
"{  c #354E82",
"}  c #3B5386",
"|  c #3A449A",
" . c #3E5890",
".. c #2840AC",
"X. c #3046AB",
"o. c #2744B8",
"O. c #374BB6",
"+. c #3454BE",
"@. c #455A8A",
"#. c #535087",
"$. c #434997",
"%. c #455C91",
"&. c #565693",
"*. c #49608F",
"=. c #5A6786",
"-. c #4D6392",
";. c #566996",
":. c #7E7F87",
">. c #626A9B",
",. c #67779C",
"<. c #737C9F",
"1. c #4955A8",
"2. c #545AA7",
"3. c #4D58B1",
"4. c #4F67AA",
"5. c #5A66A8",
"6. c #5F77A9",
"7. c #4269BF",
"8. c #5B66BD",
"9. c #5876B5",
"0. c #636CA8",
"q. c #6673A6",
"w. c #717EA3",
"e. c #686DB1",
"r. c #6C73B5",
"t. c #7278B5",
"y. c #0B2FC1",
"u. c #0C32C2",
"i. c #1034C2",
"p. c #1340CE",
"a. c #2548C3",
"s. c #2D51C7",
"d. c #3356C7",
"f. c #505DC4",
"g. c #496AC9",
"h. c #5467C2",
"j. c #5170CE",
"k. c #4C6FD3",
"l. c #6E7CC0",
"z. c #6D81AE",
"x. c #7784AA",
"c. c #7D83B4",
"v. c #7783C2",
"b. c #768CD3",
"n. c #87878A",
"m. c #858796",
"M. c #8E9091",
"N. c #858FAF",
"B. c #8D92A4",
"V. c #9396AD",
"C. c #8787BA",
"Z. c #8A92B6",
"A. c #949CB8",
"S. c #98A0B9",
"D. c #A1A4A6",
"F. c #A0A7BA",
"G. c #B3B1BD",
"H. c #8F96C8",
"J. c #8493D8",
"K. c #919ED5",
"L. c #97A2C6",
"P. c #98A7D9",
"I. c #9FB0DC",
"U. c #A7ADC7",
"Y. c #AAB2C6",
"T. c #BABBC8",
"R. c #A8B6DB",
"E. c #B7BCDB",
"W. c #8FA3E2",
"Q. c #98AAE3",
"!. c #A7B5E4",
"~. c #B1BEE3",
"^. c #C4BBC3",
"/. c #BAC2CE",
"(. c #BFC2D9",
"). c #B9C4E6",
"_. c #C8CAD6",
"`. c #D2CBD5",
"'. c #D7D6D9",
"]. c #C5CAE5",
"[. c #CCD3EB",
"{. c #D6D9E9",
"}. c #CFD7F2",
"|. c #D4DAF3",
" X c #E6DEE5",
".X c #DCE2F5",
"XX c #E5E5EA",
"oX c #F0EEEE",
"OX c #EAECF6",
"+X c #F1EFF6",
"@X c #EFF1F8",
"#X c #F8F8FB",
"$X c None",
/* pixels */
"$X$X$X$X        . . .                 . .                           . .           . . . . . . . . . . .                           .   . .                     .       . .   . . . . .   .       .   . . . . .             .   . . . .       .   .               .           . .     .   .               .                 .   .   . . . .   . . . . . .   . . . . .     .               $X$X$X$X",
"$X$X$X$X    . o O O X . . . . .   . . .   . .     .   . . . . . . . . . . . . X . . . X . X . X . X . . . . . . . . . . .   .   . . . . . . . . . . . . . . . . . . . . . . . . . . . . .   . . . . . . . . . . . . . . . . X . . O . . X . . . . . . . . . . . . X . . . . . . . . . . . . . . . . . . . . . . . . . X . . . . . . . . . . . . X . X O . . . . . . . O . . O . o O .   $X$X$X$X",
"$X$X=   F oXXXZ.A.q.%.@.@.%.}  . . .}  . . .} } } }  .} } @.@. .*.} @. .@.} *.} @.@.@.-.-.-.-.*.*.*.*.@.@.@.@.@. .C  .@.*.@.@.*.*.*.*.*.*.@.%. .*.@.*.*.-.;.;.-.;.-.-.-.-.-.-.-.-.-.-.-.*.-.*.*.-.*.*.-.-.*.*.-.*.-.-.*.-.-.-.;.;.-.;.-.-.-.*. . . . . . . .} } { } } { } { } { { } { { { { { { } } } } }  .} } } }  .} } } }  .}  . . . .}  .} } } } { { { } } { } } { *.;.L.Z.L.Y.Y.v   o $X$X",
"$X$X= o M {.`.x.x.;.{ } } } } } { } } { } { { { { { { { } { { } { } } } } } v } } } } @.@.@.@. . .} } } } } } { } v } } } } } } } }  .}  . .} } } } } } *.@.*.*.*.*.*. .*.*.*.%.*.@.@.*.@.*.*.*.*.*.*. .@.@.@.@.@. .@.*.%.%.%.@.*.@.@.*.@.%.} } { } } { { { } { { { { { { { { { { { { { v { { { { { { { v { v { { { v { { { { { { { { v } { { { { { { { { { { { { { v { @.-.Z.N.Z.G.S.v . o $X$X",
"& o n.#X_.;.-.f c 8 % * % * 4 4 4 < 4 < < < * < < % $ , $ % % < % < < * < * , % * < 4 < 4 < * < * % $ % $ % % < * * < < < < < % * % * < < < * % % $ $ % % % < < * < < * < * 4 4 * 4 4 * < < 4 4 4 4 4 4 4 * < < * < % < * 4 < 4 < < * < % < * < < 4 * 4 4 < < < * , < 4 < 4 4 < , < % < < < % , < < , % 4 $ * < % , % $ $ $ < % * < * , % , < < % , % < < $ % $ $ % % $ $ $ i i j ;.x.`.S.9 @ ; ",
"& o n.oX`.4.4.0 i * O + + + O + + + + + + + + + + + + O + + + + + + + + + + + + + + + + + + + + + + + X + X O + + + + + $ + + + + + + + + + + + + + + + + + O + + + + + + + + + X + + + + + + + + + + + + + + + + + + + + + O O + + + + + + + O + + + + + + + + + + + + + + O O + + O + O + + + + + + + + + + + O + + + + + + + + + + + + + + + + + + + + + + + X O + + O X i u j 4.<.XXS.0 $ - ",
"= o x. X_.9.9.0 i * X X O + O + + + $ + $ $ $ $ $ + $ + + + + + + + + + + $ $ + + $ + + + + $ + + + + O + + + + + $ + $ $ $ $ $ $ $ + $ $ + $ $ + + + + + + + + + + $ + + + $ + + + + + + $ + $ $ + + + + + O + + + $ + $ + + $ + + $ + + $ + $ $ $ $ + $ + + $ + $ + $ $ + $ + + + $ + + + + + $ + + $ + + + + + + + + + $ + $ + + $ + + $ + + + + + + + + + + + + + + + O s s c 9.,.G.B.0 % - ",
"& & S L.A.5 0   . > w w w w w w w t w t t w w w t w w w w w w w w w w w w w w t w w w t w w w w w w w w w w w w w w t t w t t t w w w w w w w w t w w w w w w w w w w w t w w w w w w w w w w w w w w w w w w w w p w t w w w w w w w w w w w w w w w w w w w w w w w w w w w w w w w w w w w w w w w w w w w w w w w w w w w w w w w w w w w w w w w w w w w w w w w w w w , + + % B Y.Y.8 % - ",
"= & S A.A.6 f     > w w w w w w w w t w t w t w w w w t w w w w w w w w w w w w w t w w w w w w w w w w w w w w w w t t w t t w w t w t t w w t t w w t w w w w t w w w t w w w w w w w w w t w t w w w w t t w t w t t t w w w w t w w t w w w w w w w w w w w w w t t w r w w t w w w w t w w w t w w w w w w w w w w w w w w w w w w w w t w w w w w w w w w t w w w w t > . $ % x U.U.8 % = ",
"- & v ;.,.+ % p w t t p t t t J t J t t J t J J J J J t t J J J t t J t t t t t H t t t t t t t t t J J J J J H J t t J J t J t J t t t t t t t t P J J J t t H t t t J t J J t t J t t J t J t p J J t t t J J J J J H t t t t t t t t t t H t t t t t t J t t t t t t t t t J t t t t t t t J t t t t t t t t J t t H t J J t J t J t t J t t t J t t J t t J t t t J J t p t 2 @ 7 ,.>.4 $ = ",
"- & C ,.,.+ $ t t J P J J J t J H t t J t J J t t P t t J J J t t J J t J t t H J t y t y t t w t J J J J J J t J t J J J J J J J t t y t p t t P J J J J t t t t t t y t t y y t J t J J J J J J J t J J J J P J J t J t y p t t H J J J J t J J t t J t J J t t J t J t J t t J t t J J t t t J t t t t t y t t J t t y t y t t J t J J t J t J t t J t J J t J t t J t t t t w + 8 ;.>.4 % = ",
"- * x } *.X + p t J J P L P J J J L J J J J J t | | 1.1.1.L L P J J J J J J J J J J J R $.| | $.T J J L U L 2.5.5.2.J J J J J J P L 2.0.1.2.e.H P P L 4.t.t.t.t.e.e.e.r.r.e.r.r.r.r.r.C.Y J U P J J J J I 5.5.5.5.5.2.5.2.2.2.2.5.J L J J J J J J J P J J J J J J J J J J J J J J J J J P L J J J J J J t 1.5.0.e.5.0.e.5.5.5.r.J L U L L J J J J J J P J P J J L J P J U J p t w + * C @.* % = ",
"- * 0 @.@.. + P P U U L U L L L P P L L J L J J I.#X#X#X#XY U U U L J L P J L J L L P !.#X#X#X#Xv.U U Y U L #X#X#X#XR U P P L L U Y {.@X#X#X#XJ P P U E.+X#X#X#X#X#X#X#X#X#X#X#X#X#X#X#X1.Y U U L U U U 1.#X#X#X#X#X#X#X#X#X#X#X#XK U L L P L P U L L U L L L L L L P L L L L U L L L U U U L L U P P P r #X#X#X#X#X#X#X#X#X#X#XL U U U U U P L L P P L U U U L U U U U P P J p p X * } { 4 @ = ",
"= * 0 } } O + U P U U U U P P P P L P L P J J t P.#X#X#X#XY U U L U P U L P L L J L J P.@X#X#X#Xl.L P U Y H #X#X#X#XR P P L J J J U {.+X#X#X#XL P P U E.#X@X#X#X#X#X#X#X#X#X#X#X#X#X#X#X3.^ ! U U U U ^ O.#X#X#X#X#X@X#X#X#X#X#X#XK ! U L L L L L P L U L L L P L P L P P P L L L P L U L U U U U U U P r #X#X#X#X#X@X#X#X#X#X#XW Y U U U U U U U U L U U P U U L U U L U J J J p + 4 v { 7 $ = ",
"& @ 0 } @.+ + U P J P U L U P L U P L L L L J H P.#X#X#X#XP P P P L L L L P L L L J J P.#X#X#X#Xl.P P P L H #X#X#X#XT P J P L L L Y {.#X#X#X#XH P P L ~.@X@X#X#X#X#X#X#X#X#X#X#X#X#X#X#X3.Y U L U U U U O.#X#X#X#X#X#X#X#X#X#X#X#XK U L L L L J L P L L U L L U L L L L L L L P L P L P J P L L L P U P r #X#X#X#X#X@X#X#X#X#X#XW U U U U U U U U L L U U U L U U U P U U J P t y $ 4 } { 4 $ = ",
"& * x } @.+ @ P P P P L L J L L L L L L L U U J I.#X#X#X#XU P J J P L L L L L L J J J P.#X#X#X#Xv.! ! U U H +X#X#X#XR U P U L J J L |.@X#X#X#Xt I P L ~.#X#X#X#X#X#X#X#X#X#X#X#X#X#X#X#Xe.P ! ! J K K J ' #X#X#X#X#X#X#X#X#X#X#X#XH ! U L r r H H L P L L U J L L P J J L J J L L L L L U L L J L L U U r #X#X#X#X#X#X#X#X#X#X#XH H r H J J L U U L P L L L P L P L L L P t P t t + 8 } } 7 $ & ",
"& & x } *.+ $ ! U ! ! ! ! ! ! ! ! ! ! ! ! ! ! ! P.#X#X@X#X2 > w ! ! ! ! W U ! ! U ! U P.+X#X#X#Xq.q q ! ^ K +X#X@X#Xe 1 > ! ! ! ~ ! |.+X#X#X#X1 > Y ! ).+X#X+XOX> > > > > > 1 1 > > > > > 1 ! L #X#X#X#X[.K q # # > > > 1 > 1 > > q q ( ~ #X#X@X#X..! ! ! ! ! ! ! ! ! ! ! ! ! ! ! ! ! ! ! ! ! ! ! ! ! ! ( E K q > > > > > > > # #X#X#X#XK ! ! ! ! ! ! ! ! ! ! ! ! ! ! ! U P P P P + 7 { } 4 % & ",
"& * 0 @.*.$ + ! U U U ! ! ! W ! ! ! W ! ! ! ! W I.@X@X@X#X3 2 e L ! ! ! ! ! W ! ! ! ! P.+X#X#X#X0.w q ( ! L +X+X@X+Xu w 1 ( ( ! ! ! |.@X+X@X#X1 1 ! ~ ).#X#X@XOX3 2 2 1 2 1 q q w 2 1 > 1 > ^ W #X@X#X@X).Y J > > 1 1 1 q q 1 2 2 q 1 ( ~ #X@XOX#X` ! ! ! Y ! ! U W ! U ! U ! ! W ! ! U ! ! ! ! ! ! ! ! ! ! W w 1 1 1 2 q 2 2 > #X#X#X#XK ^ ! ! ! ! ( W ! ! ! ! ! ! ! U ! L U L P @ 6 v  .4 % = ",
"& * z v *.+ + U U U ! ! ! W ! ! W ! ! ! ! ! ! W !.#X@X@X#X2 2 w W ! W ! ! ! ! U ! ! ! Q.#X#X#X#Xq.q q ^ ( K +X@X@X+Xu q 1 ( ( ( ! Q |.@X@X+X#X1 > ~ ! ~.#X#X@XXX1 > 1 1 1 2 q q q 1 1 1 > 1 ! K #X#X#XOX).U J > 1 1 1 1 q q 2 1 1 1 1 ^ ~ #X#X#X#X' ^ ! ! ! U ! ! ! ! ! ! ! ! ! ! ! ! ! ! L ! ! ! W ! ! ! ! ! q 1 1 2 w 1 q 1 > #X#X#X#XE ! ! ! ! ! ! ( ! ! ! ! ! ! ! ! ! U U P p @ 4 } } 4 @ @ ",
"& % x v @.+ $ ! U ! U ! ! U ! W U ! ! U ! U ! W P.#X#X@X#X3 2 w ! U ! U L W U ! ! ! ! Q.#X#X#X#X0.q 2 ! ^ K #X@X+X+Xu q > ! ! ! ( ~ |.@X@X+X#X1 1 ! ^ R.@X#X+XXX2 1 3 y t t y t w q q 1 1 1 Y K #X@XOXOXE.L y q t t y y w q w q w w q ^ ~ #X+X+X#X' ! ! ! U ! ! U ! ! ! ! L ! L L ! U ! ! ! ! ! ! U U ! ! U ! J t t t y t t y q #X#X#X#XE ! ! ! W ! ! ! ! ! ! W L ! U ! ! U U L P % 4 { } 4 % = ",
"- % z v @.O + ^ ! ! ( ! ! ! ( ! ! ! ! ! ( ! W W I.#X#X#X#Xe q t ! ! ~ ! ! ! ! ! ( ( ( Q.#X#X#X#X>.1 1 ! ! E #X@X#X#Xu 2 > ( ( ( ( ! }.@X#X#X#X1 1 ! ( b.).E._.`.h h h d.+.+.+...( ! ! ! ! ! ( W ].].[.[.U.k $.h.j.j.k.g.7.! ! ! ! ( ( ( ^ ~.R.U.T.T J ( ^ ( ! ( ! ! ( ! ( ! ( ! ! ! ! ( ! ! ! ! ! ! ( ! ! ( ! ! ( +.s.d.+.+.+.O.#X@X#X#Xr J ( ! ! ( ! ! ! ! ( ! ! ! ! ! ! U ! U P + 4 v { 7 $ = ",
"& & 0 v } + @ _ ^ _ _ y.( y.y.( y.y.( y.y.( ( ( Q.#X#X#X#Xe q y _ ( ( ( ( ( _ ( ( ( i.Q.#X#X#X#X6.1 1 ( ( E #X#X#X#Xu 1 > _ ( ( _ y.|.#X#X#X#X1 1 ( ! ( K Y e.#X#X#X#X#X#X#X#XP.( ! ( ( ( ( ^ ( ( ! # # N #X#X#X#X#X#X+XOX^ ^ ( ( ( _ u._ ( ( r 1 1 1 y._ _ _ ( _ y.( ( ( ( ( ( u.y.( ( y.y.y.y.u._ y._ y.( y.( ..#X#X#X#X#X#X#XW Q q # 1 1 i._ _ ( y.( y.y.( ( y._ y.y.( ( ( ( Y + 7 v v 4 $ = ",
"& @ 0 v @.+ + u.( ( ( ( ( y.( ( ( ( _ ( ( ( ( Q Q.#X#X#X#Xe e t _ _ _ ( ( _ ) ( ( ( ( Q.#X#X#X#X0.q 1 ! ( W #X#X#X#Xa q > ( ) ( ( ( |.#X#X#X#X1 > ^ ^ _ L.#X#X#X#X#X#X@X@X@X@XJ.! ( ( ( ( ( _ _ ( ( 1 1 V @X#X#X#X#X#X@XOX_ ! ( ( _ y.y.( ( ( t 1 q q y.y.y._ ( ( ( ( ( ( ( ( ( _ ( _ _ ( ( ( ( ( y._ ( _ ( ( _ a.#X#X#X@X#X#X#X) i.J 1 q 1 u._ ( y.( ( _ ( ( y.y._ _ ( _ ! ! ! Y + < v { 7 % = ",
"& & 0 v @.+ $ y.) y.( ( ( ( ( ( ( ( ( _ y.( y.( Q.#X#X#X#Xe q t y.y.y.) ( _ ( _ ) ( ( W.@X#X#X#X0.q 1 ( u.W #X#X#X#Xa q > ( ! ( ! ( |.#X#X#X#X1 > ^ ^ _ #X#X#X#X#X#X#X#X@X@X@XJ.( ( ( ( ( ( _ _ ( _ q 1 &.@X#X@X#X#X+XOXOX` _ y.y.y.y.y.y.( ! t q q q _ _ y.( _ _ y.( ( ( ( _ ( _ ( ( ( ( _ _ ( _ _ ( _ _ _ _ _ s.#X@X@X#X@X#X#Xi.i.J 1 1 1 ` ( ( _ ( ( ( ( ( ( _ ( y.( _ ( ^ ! Y + 7 v { 4 % = ",
"& & 0 @.@.O @ u.^ ( ( ( ( ( ( ( ( ( ( ( ( ( y.( Q.#X#X@X#Xe 2 t u.i.y._ _ _ _ _ ( ( ( W.+X+X#X#X>.q 1 y.y.Q #X#X#X#Xa q > ` ( ! ( ( }.@X#X#X#X> # ^ ( ( #X#X#X#X#X#X#X#X#X#X#XJ.y.y.y._ ( ( _ ( _ ( H t 6.#X#X#X#X#X#X+XXXr U ( ( y.y.i.y.( ( ! ( y.y._ _ ) ( _ _ _ ( _ ) ( ) ( _ ( ( ( ( _ _ _ ( y.( _ ( y._ _ d.#X#X#X#X#X#X#XE ( ! L W ! _ ( ) ( ( ( ( ( ( ( ( ( ( y._ ! ) ( Y + 4 v } 4 * = ",
"& $ 0 } @.+ $ _ ~ ( ( ( ( ( ( ( _ ( ( ( ( ( ( Q I.#X#X@X#X3 1 y y.u.i._ _ _ _ y._ ( ( W.+X#X#X#X0.1 1 i.i.W #X#X#X#Xa q > _ ( ~ ( ( |.@X#X#X#X> # ^ ( ( #X#X#X#Xk k k j d d d e q q u.( ( ( ( _ ( ( ! ! W E q # # # O # > OX#X#X.XQ y.y.( #X|.|.|.[ y._ _ _ ( _ _ y._ ( ( _ _ _ ( ) y._ ( ( ( ( _ _ _ ( _ ( _ y._ W ! 1 1 1 1 > #X@X@X#X( ( ( _ _ ( ( _ _ ( ( _ ( y.( ( _ ^ ! ! U @ 4 v } 4 % = ",
"& * z } *.+ + _ ! ( ( ( ( _ _ y.( _ ( ( y.( ( ( Q.#X#X@X#X2 2 w y.i.i.i.y.i._ _ _ ( _ W.#X#X#X#X>.1 1 y.i.W #X#X#X#Xa 1 > _ _ _ y.i..X#X#X#Xt.> # ( ^ ( #X#X@X#Xe q q q q 2 1 2 2 q y._ ( ( ( ( ( ( ( _ ( ( ! 1 q q q 3 e +X#X#XOXQ ) y.W #X#X@X#Xa.i._ ( _ _ ( ( ) y.( _ y.( ( ( _ _ _ _ _ ) ( ) _ ( ( ) ( _ _ i.y.i.q q 1 2 1 #X#X#X#X^ _ ( ( ( ( ( _ _ ( ( ( ( ( ( ( ( ! ! ! Y $ 7 { v 4 % - ",
"& * x v @.+ @ _ ! ) ( ( ( _ _ ( ( _ ( ( ( ( ( ( Q.#X#X@X#X2 2 y y.i.i.) _ _ _ ) ( ^ ( W.#X#X#X#Xq.q 1 ( ( E #X#X#X#Xd q > ^ ( _ ( ) |.@X+XR.1 1 # ) ( ! @X@X#X#Xq q q 1 q 2 1 1 q 2 _ ( ( ( ^ ( ( ( ( _ _ _ ! q w 1 1 2 e +X#X#X.XQ ^ ( W #X#X#X#Xo._ ) y.( y.( _ ( ( _ ( ( ( y.( ( ( ( ) _ ( ( ( ( _ _ y._ _ y.i.y.i.w 1 1 > 1 #X#X#X#X! ( ( ( _ _ _ ( ( ( ( ( ( ( ( ( _ ! ( ( Y @ 4 { } 4 % - ",
"- % 0 @.@.+ + _ ^ ( ( ( ( y.( ( ( ( ( ( _ ( ( ! P.#X#X#X#X3 3 y ( y.y.i._ ) ( ( ! ( ( Q.#X#X#X#Xq.q 1 _ ( K OX@X#X+Xh 3 , ) Q ( ) ~ |.OX#X3 1 1 > ( ( ( OX#X#X#X3 3 3 1 3 1 2 1 2 w y.( ( ^ ! ( ^ ( _ _ _ _ ( ( ^ e e 3 e +X#X#XOXW ( ! W #X#X#X#X[ y._ _ ( ( ) _ _ _ y.( ( ( ) ( ( ( _ _ _ ( _ ( _ ( _ _ _ _ _ u._ ( Y U U I t #X#X@X#X^ _ ( ( ( ) _ ( ( ( ( ( ( ( ( ) ( ! ! ! P @ 6 v v 7 * = ",
"= @ 0 @.@.+ + ^ ! ! ! ( ( ! ( ! ( ! ( ! ! ! ! W P.#X#X#X#X, > 3 ~ ~ ~ ) ~ ! ! W ! ! ! P.#X#X#X#Xq.q 1 ! ! L ~.^.E.^.3 3 e ~ [ ) [ ) ).E.~.1 1 q 1 ^ ( Q +X#X#X#X, > > 3 3 3 e e e e ~ Y L ! ! ! Y Y ~ ~ / / / / Y I I p y C.Z.C.J.1 1 ( U H.t.t.N.Y ! ( ! ( ( ! ! ! ~ ! ! ( ! ! ! ( ( ! ! ! ! ( ~ ( ! ^ ! [ [ [ [ / ` ` [ [ [ X.OX[._.XXy J ! ! ! ! ! ! ! ! ! ! ! W ! ~ ( U Y ! P $ 4 v { 4 * * ",
"- @ 0 V @.O + ! ! ! ! ! ! ! ! ! ! W W ! U ! ! L P.#X#X#X#XOXOXOX+X@X@X@X@X+XOX8.! ! ! Q.#X#X#X#Xq.1 > ! ! ! ( ~ > , #.+XXX+X#X#X+X@XO.Y J q q y.( ( ( W #X#X#X#XoXOXOXOX+X+X@X#X#X+X+X#Xf.~ ! E ~.OX@X@X@X#X@X#X#X@X+X+X#XK y 1 2 1 1 ! ! ! ! w 1 2 1 W ! ! ! ! ! ! ! ! ! ! ! ! U ! ! ! ! ! ! ! ! ! ! ! H #X#X+X@X+X+X+XOX@X#X#XW ) y 2 1 > ! ! ! ! W ! ! U ! ! ! ! ! ! ! U U P p $ 7 v { 7 % - ",
"= @ 0 v } X + ! ! ! ! ! ! W ! ! U ! ! ! ! W ! L P.#X#X#X#X#X#X+X@X@X#X#X#X#X#X8.! ! ! Q.#X#X#X#X>.q 1 ! ( ( ! ! 1 > &.#X+X+X#X#X#X#X' W y q 1 ( ( ( ( W #X#X#X#X#X+XoX+X#X#X#X#X#X#X#X#Xh.! ! L ].+X#X@X@X#X#X#X#X#X#X#X#XK J > 1 1 1 ! ! ! ! q 1 1 1 ! ! ! ! ! ! U ! ! W ! ! ! ! ! W ! ! ! U ! ! ! ! ^ H #X#X#X#X@XOXOXOX#X#X#XW ( t q q 1 ( ! W ! U ! W ! W U ! U U ! ! U U P p @ 4 v v 7 % - ",
"= @ 0 v @.. + ! U ! ! ! ! ! ! ! ! ! ! ! ! ! ! L P.#X#X#X#X#X#X#XoXoX#X#X#X#X#Xr.! ! ! W.#X#X#X#X>.1 1 ! ^ ! ! ~ 1 > &.#X+X#X#X#X#XW ( L q ^ U ( ( _ _ W #X#X#X#X+X+X#X#X#X#X#X#X+X#X#X#X8.~ ! L ).@X#XoX#X#X#X#X#X#X#X#X#XL y > 1 > > ! ! ! ! w 1 1 1 ! ! ! ! ! ! ! W ! ! ! ! ! ! ! ! ! ! ! ! ! ! ! ! ! K #X#X#X#X+X+X@X@X#X#X#XL ( w 1 1 1 ! ! ! W ! ! W ! U ! ! ! ! ! ! P U P I $ 7 v v 4 % - ",
"- @ 0 }  .X + ! U ! U ! ! U ! L U U L U U L U L P.@X+X#X#X#X#X#X#X#X+XoX#X#X#Xt.w ! ! Q.#X@X#X#X&.q 1 ! ! ! ! U t y q.#X#X+X#X#X{ t H 1 > U ! ! ! ! ! ! #X#X#X#X#X+X#X#X#X#X#X#X#X+X#X#X5.t U K ).OXoXoX#X#X#X#X#X#X#X#X#Xr P P P P P U U U U U U J L U U U ! U U ! U U U U L ! L L ! L U U L ! U U U U r #X#X#X#X#X#X#X#X#X#X#XL ! ! ! ! ! ! ! U ! L U U U U U U U U U U P P P t + 7 { v 4 % - ",
"= @ 0 @.@.O + U P U U L L U L L L L L L L L L J J t r > 2 > > > > # > # > > 1 1 1 ! U L J J 1 > 1 1 1 U U U L L L J J J L q > > q 1 L U L L U U U U U U U U > > > > > > , 1 1 > > > > # > > L U J J t > > > , > > > > 1 > 2 J U P U P U U U U U U U L U L U L L U U U U L U U U L U L L L U L U L U U U L Y Y w 2 1 2 1 2 2 2 1 1 1 U U L L U U U L L L L U L U U U U U U J P J w @ 4 v } 4 % * ",
"= @ 0 @.*.+ $ U P P U L U P L J L L J J L J J P L P J 3 3 q w w 2 2 > 2 2 2 q q q U U U J Y > 2 1 1 > P U L L L J L L U L w 1 1 1 > J U P U P U U U U U U Y 1 2 2 2 q 1 2 2 2 2 2 1 2 1 > # P L L P t 2 2 2 2 q 2 2 2 2 q 1 P P U U P U P U U U U U U U U U U U U U U P U L U L U L U L U L U U U L L U L L L w 1 1 1 w 2 q 1 1 > 1 P L P U P U U U U U U L U U U U U U U t t p u + * @.C 4 % - ",
"= o x ,.,.O @ U J P J J J J J J J J J J J J J J J L J 1 2 1 1 1 1 1 1 1 1 1 1 q q P L L J J > > 1 1 > P L L L J P L L L L w 1 1 1 1 J J P J P J P J J J P U 1 1 1 2 1 1 1 1 1 1 1 1 1 > > > J J J J p 2 2 2 1 1 1 1 1 1 1 2 J L P P P J J J J L L L P J J J J L J J J P J J J L J L J L J J J L J J J J J L L q q 2 1 1 1 q 1 1 1 1 J J P J J J J J L J L J L L J P J L J t t t w @ 7 ;.;.* % - ",
"= o m x.<.X + P J J L J J J J t J J J J J J J J J P t q 1 q 1 q 1 1 2 1 1 1 1 q q P P J J J > 1 > > > P J J J L J L L L L w 1 1 1 > J J P P J P P J J P J P 1 1 1 1 2 1 1 1 1 1 1 1 1 1 1 > J J J P t 1 1 1 2 2 1 1 1 1 q 1 t P P L J P P J L J J J J J J L J J P P J J J J L J L J J J L J J J J L J J J J J q 1 1 1 q 1 1 1 1 1 > t J J J J J J J J J J P J P P J J J P t t y 3 X ; x.w.* % - ",
"& o x. XG.0 x . . w t t w w w w w t w t w w t t t t t t t t t t t t t t t t t t t t t t t t t w t w w t t t t t w t t t t t t t t w w t t t t t t w w w t t t w t t t t t t t t w t w t t r w t t t t t t t t t w t t t t t J t t t t t t t w t t t w t t t t w w t w t t w t w w w t w t t t t t t t w w w w t r t t t t t w r r t t w w w w w t w t t t t t t t t t t w w $ . * - Z {.S.* % - ",
"& @ n. XT.x x     > t w t t t t t t t w t t t t w t w t t t t t t t t t t t t t t t t t w w t w w t w t t t t t t t t w t w w t w w t t t t t t t t t t t w t t w t t t t t t w t w t w t t t t t t t t t t w t t t w t t t t t t t t t t t t t t t t t t t t t t t t t t t t w t t t t t w t w t t t w t t w t t t t t t t t t w w t t t t t t t t t t t t t t t t t t t w O   + 7 A '.V.* @ = ",
"& @ M.#X^.6 9     $ w t t t t t t t t t t t t t t w t w w w t t t t t t t w w w t t t w w w w w w w t t t t J t H t t w t w w w t t w t t t t t t t t t t t w w w w w t w w t w w w w w t t t t t t w t t w w w w w w w w t t t J t t J t J t J t t t t t t t t t t t t t t t t t t t t t t t t t t t t t w t w t w t t w t w w w t w w w t t t t t t t t t t t t t t t t w +   X O B XXV.* + = ",
"& o v 6.z./.T.V v * . X + + + + + + O + + + + + + + O + + + + O + + + + + + + O + + + O + + + + + O + + + + + + + + O + O + + + + O + + + + + + + + + + + + + + + O + + + + + + + + + + + + + + + + + + + + + + + + + + O + + + + + + + + + O + + $ + + + + O $ + + + + + + + + + + + + + + + + O + + O + + + + + + + + + + + + + O + + + + + + + + $ + O $ + + $ + + + + . v v =.oX/.;.;.4 @ - ",
"= o C ;.x._./.c v * . + + + $ + $ + O + + + O + + + + + + + $ $ + $ + + + $ + + + O + + + + $ + + + + $ $ + + O + + + + + + + + O + + + + + + + + + O + O + + O + + + + + + + + + + + + + + + + + + + + + + + + + + + + + + + + + + + + O + O O O + + O + + + + O + + O + + + O + + + O + + + O + + + + + O + + $ + + + + + + + + + + O + + + + + + $ + + + + + + $ + + + . x v =.'.(.;.q.* @ - ",
"n.M.B x v v v v v x i c s c c c j j j f j j j j j f f f f c f f z f f f f f f f f f f f f f f f j f j f f f f f f f f f f j z c j z j j f j f j f f j f f f j k j j j f f k c j c c z z f c k f z z z z z z c c z z z z z c z z k j z c f j f f j f f f f f f f z f f f f f f k f j f f f j z f j f j j j z j z f j c j z j z j j z f k f f f j z j c c j j j j z z c j c c C *.@.-.@.i + o A M ",
"$X$XD   x  .{ } { c s j j j j s j s f f j j f j f j f j f i j f j f s f f j f s i f s i s i f s s j f f i f s f i s f i s f s j j j s j j j d j f s f s j i f s i j j j f c c c c j c j j f j f j j j f c j c c c c c j c j j j f j j c f j f f d f f f f i j s f i s f f f j j j f j j f f f j j j f f j j j j j j j j j f f j f f f j j f j j s z j j j j j j j c j j c j } } *.-.-.{   o $X$X",
"$X$XD.G 6 x z c z 6 6 6 i s i i i 6 6 6 6 6 6 0 i 0 6 i f 6 i 6 0 6 6 6 6 6 6 6 6 6 6 6 6 6 6 6 6 0 6 6 6 6 6 0 6 6 6 i 6 i i 0 i 6 6 i 6 6 6 6 6 6 6 6 6 i 6 6 i 6 6 6 0 0 i i 0 f f 0 0 0 6 6 0 0 0 0 6 0 6 0 i 6 i 0 6 6 6 6 0 0 f 6 6 6 0 6 6 6 6 6 6 6 6 6 0 0 6 6 5 6 6 0 0 6 6 6 6 0 6 6 0 0 0 f 0 0 6 6 0 0 g 0 6 0 6 6 0 0 f 0 g 6 6 6 i 6 i 6 6 6 6 6 i i i 6 6 f x z x x c 6 D n $X$X",
"$X$X$X$X  o o o o @ @ @ $ @ & % @ @ @ @ @ @ * @ @ * % @ @ $ & @ @ @ @ @ @ = @ @ @ @ @ @ @ @ @ @ @ % % % @ % @ @ % @ @ @ @ @ @ @ @ @ @ @ @ @ @ @ @ @ @ @ @ + @ @ % @ @ @ * @ % @ @ = @ @ % % % % @ % @ % @ @ % @ & * @ @ % @ @ @ @ @ @ + @ @ @ @ @ % @ % @ @ @ @ @ % @ % @ % @ @ = @ @ @ @ @ @ * @ @ % @ @ % @ @ @ @ @ @ @ @ @ @ % @ @ @ @ $ @ @ $ & @ @ % @ $ @ * & & % @ * @ @ o o o o $X$X$X$X",
"$X$X$X$X= 9 : : : : : : : l 9 l 9 : 9 9 l b b b b b 9 9 9 9 9 9 9 9 9 9 9 9 9 9 9 : 9 : 9 9 9 9 l 9 b m b b b 9 b b l 9 9 9 9 9 9 9 : : : ; ; ; : 9 9 9 ; ; ; ; 9 ; : : : : 9 l 9 l b l 9 : 9 9 9 9 9 9 l l l l l l l l l l 9 9 : : : ; : : 9 l 9 b l b b 9 b 9 9 9 9 9 9 9 l l 9 9 l b b b b l l b 9 9 9 9 9 9 9 : 9 : 9 9 9 9 9 : : ; ; ; ; ; 9 l 9 9 9 l 9 l l l 9 9 : ; ; ; : 9 : b $X$X$X$X",
"$X$X$X$X$X$X$X$X$X$X$X$X$X$X$X$X$X$X$X$X$X$X$X$X$X$X$X$X$X$X$X$X$X$X$X$X$X$X$X$X$X$X$X$X$X$X$X$X$X$X$X$X$X$X$X$X$X$X$X$X$X$X$X$X$X$X$X$X$X$X$X$X$X$X$X$X$X$X$X$X$X$X$X$X$X$X$X$X$X$X$X$X$X$X$X$X$X$X$X$X$X$X$X$X$X$X$X$X$X$X$X$X$X$X$X$X$X$X$X$X$X$X$X$X$X$X$X$X$X$X$X$X$X$X$X$X$X$X$X$X$X$X$X$X$X$X$X$X$X$X$X$X$X$X$X$X$X$X$X$X$X$X$X$X$X$X$X$X$X$X$X$X$X$X$X$X$X$X$X$X$X$X$X$X$X$X$X$X$X$X$X$X"
};
