/* XPM */
static char *lives_1[] = {
/* columns rows colors chars-per-pixel */
"192 48 177 2 ",
"   c #01010B",
".  c #020515",
"X  c #0A111E",
"o  c #15161A",
"O  c #060B24",
"+  c #0A1429",
"@  c #141B2B",
"#  c #00013A",
"$  c #0B1835",
"%  c #121D38",
"&  c #18202F",
"*  c #0F203F",
"=  c #172138",
"-  c #222839",
";  c #3A3A3C",
":  c #02074B",
">  c #081447",
",  c #141A4D",
"<  c #020A57",
"1  c #081259",
"2  c #141C5D",
"3  c #0F2141",
"4  c #142343",
"5  c #1E235A",
"6  c #222D48",
"7  c #23314B",
"8  c #393B4A",
"9  c #212C50",
"0  c #263456",
"q  c #303B59",
"w  c #010C65",
"e  c #01136B",
"r  c #151D63",
"t  c #000776",
"y  c #011677",
"u  c #172265",
"i  c #1C316A",
"p  c #05217A",
"a  c #10227E",
"s  c #1E3878",
"d  c #252A66",
"f  c #273C6C",
"g  c #303F65",
"h  c #292D75",
"j  c #253E72",
"k  c #39404A",
"l  c #2F4065",
"z  c #344367",
"x  c #294175",
"c  c #354A7C",
"v  c #3C507C",
"b  c #44474B",
"n  c #484A59",
"m  c #545562",
"M  c #455376",
"N  c #545F79",
"B  c #000A85",
"V  c #031C89",
"C  c #000F95",
"Z  c #031D93",
"A  c #06228C",
"S  c #182B88",
"D  c #1D328B",
"F  c #062297",
"G  c #142996",
"H  c #1C3397",
"J  c #233689",
"K  c #273897",
"L  c #0019A5",
"P  c #021EB4",
"I  c #0827A6",
"U  c #142CA7",
"Y  c #0C30AB",
"T  c #1632AA",
"R  c #0B2DB8",
"E  c #122DB3",
"W  c #0C31BA",
"Q  c #1133B8",
"!  c #2537A7",
"~  c #283FB7",
"^  c #344D82",
"/  c #3B5388",
"(  c #2E4094",
")  c #3A4895",
"_  c #3E5891",
"`  c #2D46A8",
"'  c #384CA7",
"]  c #3C52A4",
"[  c #2743B8",
"{  c #444C87",
"}  c #43598B",
"|  c #5A5E87",
" . c #414D9C",
".. c #445C92",
"X. c #565898",
"o. c #4C628F",
"O. c #5B638A",
"+. c #496399",
"@. c #5A6A97",
"#. c #63668B",
"$. c #787887",
"%. c #646995",
"&. c #65739B",
"*. c #717C9F",
"=. c #4957A2",
"-. c #4A66A1",
";. c #586AA2",
":. c #5873AA",
">. c #4C60B0",
",. c #6B6EAA",
"<. c #6B75A6",
"1. c #767CA9",
"2. c #6A6EB0",
"3. c #6A77B7",
"4. c #717CBD",
"5. c #0A2DC2",
"6. c #0C32C3",
"7. c #1233C4",
"8. c #5B73C8",
"9. c #6C79C0",
"0. c #7886A7",
"q. c #7F87B1",
"w. c #7A89CB",
"e. c #7F91C8",
"r. c #7C8BD6",
"t. c #7F92D2",
"y. c #83848E",
"u. c #828494",
"i. c #848AA9",
"p. c #8990A4",
"a. c #919AAC",
"s. c #858CB5",
"d. c #8A94B8",
"f. c #9499BA",
"g. c #9CA1BE",
"h. c #A2A1BF",
"j. c #B4B7B9",
"k. c #828CC7",
"l. c #8793C6",
"z. c #9399C4",
"x. c #808DD0",
"c. c #8997D2",
"v. c #979ED4",
"b. c #9EA4C5",
"n. c #9BA7DB",
"m. c #A4A8C6",
"M. c #B1AFC4",
"N. c #AEB1CB",
"B. c #B4B8CB",
"V. c #A3ACD9",
"C. c #ABB3DE",
"Z. c #B5BAD8",
"A. c #9AA7E2",
"S. c #A6B5E7",
"D. c #BDC0DA",
"F. c #BDC5E6",
"G. c #B5C8F2",
"H. c #C4C1C5",
"J. c #CAC9D4",
"K. c #D7D5D7",
"L. c #E4DDDB",
"P. c #C7CDEA",
"I. c #C9D2ED",
"U. c #D5D7EA",
"Y. c #CBD4F5",
"T. c #D3DAF3",
"R. c #E0DDEB",
"E. c #DEE1EA",
"W. c #DAE3F8",
"Q. c #E6E6E9",
"!. c #F2EEEC",
"~. c #F4F2EC",
"^. c #EAEBF5",
"/. c #F2EEF8",
"(. c #EEF1F9",
"). c #F8F8FB",
"_. c None",
/* pixels */
"_._._.K.                . . . . .                                 . .           .   . . .   .   . . . .   .   . . . .   .                       .   .       .           . . . .   . .                   .   .     . . . . . . .                   .   . . .   .         . . . .   .   .     .     .                                                   . . . O . . O O O . . .           H._._._.",
"_._._.L.o   . X X X O O + O + O O O O X X X X . X O O O O + + O O O O + + O X + O + O + + + O + + + + + + O O O O + O + + O + X X X X X O O + + + O + O + O + O O O + O O + + + + + + O O X X X X X X X O X + O + O + O + + O O O O + O O X + X O + O + O + O X + + + + O O + + O + O O X + O O + O + O + O X X O O X O O + O O O X X X O X X + O + + + + + + $ $ + $ + O X . X   X . o j.K._._.",
"_._.;   o !.K.a.f.<...+.o.....+.....} } ....} ..} ..} ......} o.+..._ o.} } } } ..} } } ..} ............+._ ..o.o._ ..} } } } / } / / / _ } } } ....} ....} ....o.......o.....o.o.+.......} } / / } / } } } } ......} ../ / } / / / } / / _ / / } / / / / / / ^ / / / _ / _ } / / / } _ _ / / _ } _ .._ ../ / / / / / / } / _ / / / ^ / } ..} _ o._ .._ _ _ _ .._ ....} :.:.b.b.b.M.M.N     _._.",
"_._.; o o Q.K.0.i.@._ _ / / ^ ^ ^ ^ ^ ^ ^ ^ / / / / / ^ ^ ^ / ^ ^ / / v ^ ^ ^ ^ ^ ^ ^ ^ ^ ^ ^ / ^ / / / / / ^ / ^ ^ ^ v c ^ c ^ c c ^ ^ ^ ^ ^ / / / / / / / / / ^ / / / / / ^ / / / / / / / ^ ^ ^ ^ ^ ^ ^ ^ / ^ / ^ ^ c ^ ^ c c c c x c c ^ ^ c c c ^ c c c c c c ^ v c ^ c c c ^ c c ^ ^ ^ ^ ^ c ^ c ^ ^ ^ ^ c ^ ^ ^ ^ v ^ ^ ^ ^ ^ ^ ^ ^ ^ ^ ^ ^ ^ ^ ^ ^ ^ ^ ^ ^ ^ ^ ^ ..+.q.d.d.g.g.M o   _._.",
".   0.Q.~.&.&.c c f 3 3 3 $ $ $ % $ $ % % 3 , * 4 3 4 3 4 3 * * > * * $ $ $ % $ % % % $ % $ $ > * * > % $ $ * * % % > * $ 3 % % * * > * * 4 3 3 3 3 * > 4 4 4 4 , 3 $ * % * % , 4 3 4 3 4 3 3 4 3 3 % > 3 3 3 3 > = * * % $ % > * * 3 3 3 3 , * * * * % $ * % * % 3 > * * * 3 3 3 * * * = 4 3 4 * 3 * * * * 3 * 3 3 4 3 4 4 4 4 * * > * 4 3 , * * 3 3 3 > * * * * * $ * 4 4 c ^ x <.&.d.a.7 .   ",
"o o y.!.!.} +.f x 5 $ @ $ @ + + + + + + $ + $ + $ + @ + @ + $ @ + + @ + + + + + + + + + $ + + + + + @ + + $ + + + + + + $ + + + + + + + + + + + + + @ $ + @ $ + + + $ + + + + + + + + + @ + + + + + @ + @ + @ + $ + + + + + + + + + + + + @ + + + + + + + + + + $ + @ + @ + @ + + + + + @ + @ + @ @ + + + @ @ + @ + + @ + + + + + @ + $ + @ + $ @ + + + + @ @ + + + @ + & & x x x -.:.q.0.3 + . ",
"o X u.E.E._ +.i f 3 $ $ $ $ + $ + + $ + + $ $ + + $ + $ $ + + $ $ $ + + + + + + + + + + + O + + + + + + + O + + $ O O + + + $ $ $ + $ + $ + + $ + + O $ + O + $ + $ + + + + + + + $ + $ + $ + + $ + + $ + + + $ + O O + + O + + + + + $ $ + + + + + + + + O + + O + $ + + + + + + + $ + + + $ + $ + $ $ $ + $ + $ + + + $ + + + + $ + + + $ + + + + + + + + + + + $ + $ $ $ x j s +.@.0.0.* + . ",
"& @ N g.d.3 =     < e y e y y e y e e e e e e e e e e e e e e e e e e e y e e e e e e e e e e e e e w e e e e e e e e e e y e e y e e y e y e e e e e e e e e e e t e e e e e e e e e e e e e y e e e e e e w e e e e e e e w e e e e e e e e e e e e e e e e e e e e e e e e e e e e e e e e e e e e e e y e y e y t e e e e e e e e e e e e e e e e e y e e y t y e y e y X X . 4 9 K.D.- @   ",
"& $ N f.d.* *     > e y e y e e e e e e e e e e e e e e e e e e y e e e e e e e e e e e e e e e e e e w e e e e e e e e e e y y y y y e e e e e e e e e e e e e e e e t e e e e e e e e e e e y y y e e e e e e w e w e e e e e e e y e e e e e e e e e e e e e e e e e e e e e e e e e e e e e e e e e y e y e e e e e e e y e e e e e e e e e e e e e e e e e y e y y e y .   X = 7 J.H.7 $ O ",
"= $ z @.O.+ + > $ < e y e y y y y y y y e y y y e e y y e y y y y y y y y y y y y y y e y y y y e y e y e y e y e p y y y y y y y y y y y y e y y y y y e e e e e y y y y y y e e y e y y y y y y y y y y e e e e e e e e e e y e y y y e y e y e e y e e e e e y y e e y e e y e y y y y e y y y y y y y y p y y y y y y y y y y y y y y y y y y y y y y y y y y y y y y y < > > + * &.%., $ . ",
"= + z #.@.+ + y y y y y y V y V y V V y y p y y y y y y y y y V V y V y V V y V y y y y y y p y y y y y y y y p V y A A V V y V V V V y y y y y V y y y y y y y y y y V V V V V p y y V y A V y V y V V y y e y y y y y y y y y p y y y y p y y y y y y y y p y y y y y p A y y p y y y y y y y A y V y V y y V p y p y y y y V V V V y y y y y y y y y y V A y y V y V A y y y 1 + * @.@.4 $ . ",
"& @ l O.O.$ + V y y V p y V y y y y y V y V y y s D J J J V V V y V V V V y V y V y y a J K K D S V V V y S J H K D S V V V V V V V H D D J S V V V B =. .) ) ) ^ ) ) ) )  . . . . .) ) y V V V V V V y D ) ) ) ) )  .) ) ) ) ( ) y y y V y V y y V y V V y A y V y V y y y y V y V V y y A V y y V y V y V V y V y a J K ) ( V V V y V V V V y V V V V V y V A V V V V V V V y p + @ o.o.4 $ . ",
"& @ 7 / o.$ + F A Z Z V V Z V V V V V Z V F V F ).).).).(.C F F Z F Z Z Z Z A Z A A A e.).).).).2.F F F G e.).).).).l.A V F A A V A F.)./.).T.C Z F C ).).).).).).(.)./.).).).).).).).).B G Z Z V A A A 4.).).).).).).).).).).).).V V V A V F V A V V Z A A Z V Z A Z Z A Z V Z Z Z V A V A Z Z A A A Z A A F F A F ] (.).).).H V Z Z F Z Z Z Z Z F A Z A Z A Z F A F F F Z Z A A + * v c % + . ",
"& + 0 } _ $ $ Z Z A A V V V V V V V V V V V F F ).).).).).C F Z V F Z A A F Z Z A F F w.(./.(./.2.F I F I l.(.).).(.s.A V V V A V A F.^.)./.^.C F F Z ).).).).).).~.(./.).).).).).).).).V Z Z F Z V V S 3./.).).).).).).).)./.).).G A V V A V V Z V Z A Z Z Z A A V V F V Z A V A V V Z V Z Z A Z Z Z A V Z V Z F F =.).(.).).G Z Z A Z A Z Z Z Z Z Z F F F Z F Z F Z F F A A V A @ & / v = + . ",
"& + l / o.$ + A A Z A Z V Z V V V V V V V V A F ).).).).).B V V Z V V Z Z A Z F Z F G k.(.).).).2.F I F I e.).).).~.s.A V V V V V A P.^./.).^.C F F C ).).).).).).)./././.)./.).).).).).Z I I F F Z A A 4./.).).).).).).).).(./.).V A Z Z V V V V V Z V Z V V Z Z V A Z Z V A Z A V Z V V Z Z A A Z Z Z Z V A F F H >.).).).).D A V V Z Z Z Z Z Z A F Z F Z F F F Z A Z A Z A A A $ $ / ^ , + . ",
"- & 0 / / + @ A V V V V V V V V V V V V V V A G ).).).).).C F V V V A V Z Z A Z A F G c.).).).(.3.G F I G q.(.).(.(.l.A V V V V A F P./.)./.Q.B F I L ).).).).).).).)././.(./.).)./.).).Z I I I F F G A w.^./.).).).).)./.(.^./.).G G G F Z Z V V Z Z Z V Z V V V V V V V A V V Z V Z A Z A V Z Z A V V V V y ).).).).).).).).J F V V A A Z A Z F Z Z A Z F Z F A F A A A V A p A * = _ / 4 + . ",
"= @ q / / + + F F F F F F I F I F I F F F I G I ).).).).).w < F F I I I I F G I I Y Y c.).).).~.&.1 A I I e.)./././.s.> w I I I I U I./.)./.Q.< < I L ).).).).U.<.*.1.,.<.1.<.1.1.1.0.i.e t I Z Z.V.V.V.l.w.k.s.l.z.f.l.d.d.s.s.z.a w E Z W.I.Y.U.T I I F I Z I I F F F F I F I F I F I F I I F I I F I I G Z ).).).).).).).).r 1 I I I F I I I I I I I I I I I I I Y I F G F F A * = ../ 4 $ . ",
"- $ l } } + O I F Z I I I Z I F I Z I I F L I I ).).).).).w w F I I I Z I I I I I I E c.).).).).#.1 A I I w.).).)./.i.> e I I R I T T.).).).U.: : I L ).).).).f.w w w w w < < : : < < < < w W C )././.).Z.E Z w w w w 1 < : : < < e w R C ).).).).! F I I I I I I F I I I I I I I I I I L I I I I I I I I Y L ).(.).).).).).).u w Y R I I I I Y I E I I I R I I I I I I I F F F F @ * _ / 9 $ . ",
"= @ g / } + O F F F I F Z L I L Z I Z I I I I I ).).).).).< < F L I I L I I I I I I Y x.).).).~.O.1 y F I w./.)./.).i.1 e I P I R E T.).).).^.: : I C ).)./.).s.r w t w e w w < : : < : < < E C ).).)./.F.P Z w w w < < < < < < w w < R C ).).).).! I I I I Z I I I G L F Z I F I I I F I I I I I Z I I I I L ).).).)./.)./.).u w I I I P R I I I I I I I P I I I I I I I F F A A % % } / 9 * . ",
"= @ q } / + + I Z I F F F F F L I I F L F I I I ).).)./.).< w F I I I I I I I L Z I U x.).).).).| 1 V I I w.).).)./.s.< t R I R I R T.).)./.Q.: : R C )./.~./.1., 1 1 w w < 1 < < < : < : : R Z ).).^.^.D.G V 1 : 1 < > : : < < < w w R L ).)./.).! I I I G I L F L I I I I I L L Z I I F I L F I I F I I I I L I e d )././.).r < Y I I I I I I I I L I I I I I I I I I I F F F F $ % / ^ 4 * . ",
"& + l } } + + L F L G I I Z I I L I I F I I I I ).)./.).).< w F I I I I I I I I I I Y w.).)././.| 1 V Z I r./.)./.).a.1 y R I I I R T.).).).^.: < I P 9.3.;.&.d O < F F Z F F Z F F I F I Y R I ).).).).N.< B F L I F F Z I F I I I R R L ).).).).T I I I L F I I L I I I L I I I I I L I I F I L F I I I I I I I y d )././.).2 w Y R I I I I I I I I I I I I I I I I I I F F F F $ % } v 4 $ O ",
"& + q } } O + 5.W R R R 5.R E R R R R R R R R 6.).).).).).w w I 5.5.5.5.R R R R R R 6.x.).).).(.| , F R W x.).).).).d.1 t 5.5.W W 7.T./.).).^.< w 5.R U H t Z.).).).).).).).).[ Y Y I R R W 5.6.5.5.w 1 { ).).).).).).).~ E I E R W W R 6.I R : < w R W R R R R R 5.R R R 5.R R R R R W R R R R R R R R E R W 6.6.y d ).).).).u w 7.5.5.5.5.5.5.R W 5.R R W 5.R R W R 6.Q R R E Y $ = } c , $ . ",
"& + g { } O + 5.E R R R R R R R R R R R R R R R ).).).).).w t Y 5.R 5.R R R R E R I R r./.)./.~.| 1 A E 7.x.).).).).a.: e R E R E E I./.).).Q.< w 5.P G.Y.).(.).).).).).).).).[ Q Y R W R W 6.6.7.6.y r X.).)./././.).).~ W E E E R R 5.5.5.5.w w w I R R R R R R R R 5.R W R R R R W R R R R R R R Y R R R R R 7.y d ).).).).u e 7.6.W 5.5.R 5.5.R R R R R 5.R R 5.R R R R Y I Y + = { v 4 $ . ",
"& + l / } + + 5.R R W 5.W 5.R E R R R R R R R R ).).).).).w e R 5.5.W R R R R R I R R r.).).)./.#.1 A R W c.).)./.).f.1 e R I E I Q I.^.)./.R.< w 6.P W./.).).).).).).).).(.).[ R R R R R W W 7.6.7.y 1 =./././././.).).~ 7.5.Q W W W W 5.R R < < w Y I I R R R R E R R R R 5.R R R R R R R E R Y R R R R R R R R 6.' ).).).).u e W 7.W W R R R R R R R R 7.R E W R R R R R I Y Y $ = } / 4 $ . ",
"& @ z } } + + 5.E R W W R R R R R R R R R E R W ).).).).).w t I 5.5.R W R R R R I R E r.).).)./.| 1 G 5.6.c.).).)./.f.1 w Q E I I Y P./.).).Q.< < 5.P T.).).).)./././.)./././.[ W E W W W W W W R W y y X.).).).).).).).K Z U 7.7.5.5.6.5.5.7.U T E I R R R R R R R R R R R R R R R R R R R R R R R R R R R R R R E [ ).).).).u e W W W R 5.R R 5.R 5.R R R 7.5.W W R R R I R I Y $ = } v 4 $ . ",
"& $ z } } + + 5.R R W W R 5.5.R R R I R R R E W ).).).).).w w Y R R R R R R R R R Y R r.).)././.#.w F 6.7.c.).)./.).s.1 e W E E E Q P.^.).).U.: < 5.R Y.).).).Q.Z.B.B.N.m.h.m.H V F 5.W R Q R R R R R R Y ~ K 9 d 9 5 d X.h.z.C.F.R 6.R P A.A.v.n.T R E R R R R R 5.5.R R R R R R R R R R R R R R R R R R R R 5.R R [ ).).).).u w Y R R R R R R R R 5.R W 5.R R R 5.5.R R R I I E $ = } / = @ O ",
"& @ l ..} $ $ R E R R 5.W 5.E R R R R R R Y R R ).).).).).w e I E R R R R R R R R I Q t.).).).~.#.w G 6.7.c.(.).)./.i.1 w 6.R R R Q P.^././.M.: : R P Y.).).).m.2 e w 1 1 1 1 w w V 5.7.R R R R R E E R I I I 1 1 w w 1 Z.)././.).5.R R L /./.).).[ E R R 5.R R R R R R R R R R R R R R R E R R R R R R R R R R W R [ ).).).).u < Y E R R R R R R R R 5.5.R 5.R R 5.W R R I I I Y $ % ../ , $ O ",
"= $ l ..} + + 5.R R R W R R R R R R R R R R R W ).).).).).w w F I I I E R E I I I I Y x.).).).).%.r G 7.7.c.(.)./.^.i.1 w Q R R W W T./.^.^.: < : I L Y.~.).).h.1 < 1 1 < < 1 w w y 5.R R Y E E E Y I Y Y E U < w w w w Z.).).).).R E R P (./.).).~ E R R R R R R 5.R R 5.R R R R R R R R R W R R R R R R 5.R R R Y [ ).).).).5 < I R R R R R R 5.5.R W R R R R R R E R R E I I I + % ../ 4 $ . ",
"% @ g } ..+ $ W W R R W R R R R R R R R R R R W ).).).).).w w F I I I Y Y E I I I I Y c.).).)./.%.1 F Q 7.x.^.).(.^.1.> < E I R R Q U./.).< 1 < : I L Y./.).).m.> 1 : < 1 < w w r y 7.E I I I I I I Y U E I Q F G w e e D.~.~./.).U E E L /.^./.).[ R R R R R R 5.R R R R R R R R R R R R R R R R R R R R R E R I E [ ).).).).5 < Y R R R R R R R R R W W R R R R R R R R I R I Y + * } / 4 $ . ",
"- $ g } ..+ + R I R R I I Y I I I I I I Y I R R ).).).).).: : C L C C C C C C I I Y E c.).).).~.#.1 A R W 8.n.S.z.z.| # < L L L L L S.C.c.w w : : I L Y.).).).m.: # : # : : : : : t P C I Y I I I L Z C Z L L L L t t w %.f.m.h.M.e w I C T.I.U.R.! I R R R I R I Y R I R E I I E E I R R I I R R E R I E I I I I I ! (.(.).).u w Y R R R I R R R E R I E R R I I R E R E I F F F @ * o.} 4 $ . ",
"- @ g } _ + + I I I I I I I I L I I I I F I I Y ).).).).)././././././././.(.).~ I I U c.).).)./.O.> y I I Y Y R 1 r h ).)./././.).).! E Z w t I R I P T./.).).)./././././././.).).).).).F I I L /.)./././.).).).).)./.).c.E G t e w < L I I I > 1 1 V I I I L I I I I I I I I I I I I L I I I I I L I I I I I L I F ! )./.(.).i e I Y I I R I I I I I I I I I I I I I I I F Z A F $ = ../ 4 & O ",
"- + z } } + + I I I I I L I I I F F I I I I I T ).).).).)./././.)./.)./././.).! F I U l.).).)./.| > y L I I I R w r h ).).).).).).).L Y V w e I I I L ^.).).).)./.)././././.).).).).).).F E R L ).).).).).).).).).).).).x.E Z w w w < F F F I : < w Z I I I I I I I I I I I I I I I I I I F I I I F F I F F I F F F ` ).)./.).u e Y Y I I I I I I I L I I I I F I I I I I Z F A A @ = _ / = $ . ",
"- @ g } } + O I F F I I I I I F I I I I I I I I ).).).)./.(././.).).).(.).).).! F I U l.).).).^.| > y F I I R R < e h ).).).).).).` C y e e V F F I P ^.).).)./.)./.)./.).).)./.).).).).V R R L ).).).).).).).).).).).).l.I V < w < : I F I I < < < Z I I I I I I I I I I I I I I I I I I I I I F I I F I I F I I I ! ).(.~.).u e I I I I Y I I I I I I I I I I I I I I I F A A F + = / v , $ . ",
"- $ g ....O + F F F F F Z F F F F F Z Z F Z F F ).).).).)./.).).).).).).)./.).h 1 Z F w.U.U.U.U.| 1 e F L F F F F I ' E.E.^.^.Q.h Z e < < F A A F F C /.).).).).(.(.(./.).).).).).).).).1 e F C ).).).).).).).).).).).).3.Z F I I F F Z Z F F F I I F F F F F F F I F I F F F F F F F F F F F Z F F F F A Z F Z F F ( P.F.D.J.u < F F F F F F F F F F F F F F F F F F F F A V A A @ = / c % $ O ",
"- + g } ..+ + Z A Z A F A Z Z Z Z A Z A Z A A F t t w O O # # O # O # # # : # < : A A B B B # : < < y Z F Z Z F F A Z t t # # # < 1 y G A V A F F F F B B : # # # # # O # # # # # # # # < < Z F B B : # # # : # # # # # : # e A F A A A Z F Z F F F Z Z Z F F F F F Z F Z F Z F F F Z F A F A A F A F Z Z Z Z A Z A A B B : # : : A A F Z F F F F A F F F F F F F A A F A A V p p @ = _ ^ = $ . ",
"- + q | ..+ + Z A A A A A Z F A F Z A A Z A A Z V Z Z < < < : : : : : < < < < < < y A A A F < < w w y Z Z A F V Z A F F I w < < < < y V A Z A A A Z Z Z Z y w < < : < < < < w w 1 < < < < : F Z F F t w w w 1 < < < : < : : p A Z A Z F F Z I Z F A F F A F Z F Z F F Z F F F F F F Z A F Z F F Z F A A A A A Z F A F A F : < < 1 A F F F F F F F F F F F F F F F F F F A V y p p $ = } / 4 $ O ",
"% + n %.,.+ $ F A V A A V V V A A V V Z V V A A V V A < < < < : : < < < < < < : : p V Z A F 1 e < w y F V Z V V V V Z A F w < < < < e A A A V A A V V V V e < < < < < < < < w < < < < < < : F A F Z y < < w < < < < < < : : e V A V V V A Z V V V A Z Z Z Z V Z V V V V V Z V Z Z V A Z Z A A Z A Z A V Z Z V V V A Z V F < w < < F F A F A A A F A F Z F A A A A V A A A V y y p @ = 0.%.9 % O ",
"- + M *.<.O + Z Z Z V A V V V V V V V V V A y A V V y w e < w w w < w e 1 w < < < y V V A F e y y t y A V V V V V V A Z A e w w < < e A A A A y V V y A V y w 1 < w w w w e w e e e w w 1 w A A Z Z y e e w e w w w w 1 1 1 e V V V V V V V V V V V V V V V V V V V V V V V V V V V V V V V V Z V V V V V V V A V A V V V y y e y F A F A F A Z V V V A A A V V V A A V A V Z V p + * 0.*.6 $ . ",
"& @ #.p.p.@ * 1 $ w y y y e y y y y y e y e y y y y y y y y y V y y y y y y y y e y e y y y y y V y y y y B y y y y y y y V y y y y y e y e y y e y y y y y y y y y y y y y y y y V y y y y y y y y V V y y y y y y y y y y y e e y y y y y y y y e y t y y y e y y y y y y y y y y y y y y y y y y y y y y y y y y y y y y V V V V V y y y V y y y y y y y y y y y y y y V O O $ k 8 j.a.6 + . ",
"& + u.K.J.6 8   . > y y y y y y y y y y y e e y e y e y y y y y y y y y y y e y e e y e y y y y y y y y V y y V y y e y y y y y y e y y y y e y y y y y y y y y y y y y y y y y y y y y y y y y y y y y y y e y y y y y y y e y y y y y y y y y y y y e y e y y e y y y y e e y y y y y y y y y y y y y y y y y y y y y y y y y y y V y p y y y y y y y y y y p y y y y y V     + k m Q.H.- @   ",
"@ X $.J.J.$ 4     # y y y y y y y y e e e y e e y e y y y y V y y y y e y y y e y e e e e e y e e y y y y V y y y y y e e y y e e e e y e y y y y y y y y y y y y y y y y y y y y y y y y y y y y y y y e e y e y y y y y y e y y e y y y y y y e y y e y y e y y y e y e y y y y y y y y y y y y y y y y y y y y y V y y y y V y V y y y y y y y y y y y y y y y y p y y y     . 8 n ~.K.= X . ",
"@ X , ^ x Q.L.M M q X $ $ + + X X X X X O X X + + + + + + O + + + + + + X O X O X + + + O + + X + O + + + + + + + X O + + X + O O + X + + + + + + + + + + + + + O + + + + + + O + + + O + + + + + + O + + O + X + + + + + + + O + + + + + X + + + + + + O + + O + + + + + + + + + O + + + O + + + + + O O + + X + + + + + + + + + + + + + @ + + + O + O X + X + + + + o + X s x i L.U.} -.9 + . ",
"@ o 0 _ v K.K.{ } 0 X @ + + + + + X + O O X + + + + + $ + $ + + + + + + + + + + + + + + + X + + $ O + + + + + + + + + + + + + + + + + + + + + + + $ $ + + $ + + + + + + + $ + + + + + + O $ + + + $ + O $ + + + + $ + + $ $ + + O + + + + + + + O + + + + + + + + + + + + + $ + + + + + + + + + + + + + + + + + + + + $ + + $ + $ + + $ + + $ + $ $ + + @ + + + + + + + O X x x 5 K.U...-.9 + X ",
".   g v c @.o.} } / x x x x x x x x i f x x j j x x x x x x x j x j j x x x x j x x j j j x x x j j j j x j x x x x x x x x j f x x f j x x x x x x x j x x s x x s x j s x x x x j x x x x x x x x x x x x x x x x x x j x x j x x x j j x j j x j j x x x x x x x x x x x x j x x x x x x j j x l x x j x x j x x x x j j j j x x x j s x x x x x x x x x x x x x x x x x / ^ ^ ..o.^ } 0 O . ",
"_._.b o @ +.+...} c j j x x x x f i i f i i j j x j j j j j j j j j j j f j j j x j s j j s x i j j j j j j j j s i x x j j j f f j j j s j j j j j j j j j s j j j f s x s x x j j j j j j j x x x j j x x x j x x j j j j j j s i x i i j s j j j j j x j j j x j j f x s j x s j j j j j j j s j j f j i j j s x f i j j j j j f s j j s x j j j j j x f j j x x x x x x v / ^ ..o.9 o   _._.",
"_._.b o @ o.+./ } c f j x c x x j j x f x f f j l x j j j f f f j f f f j j j x x x x x j x x x j j j j j j j j l x f x j j j x x f j j l x x x j j j j x j x j j j j j x j f x j j f j f x x x x x x x x x x x x x j j j j j x x f x x j j j f f j j x x x x x x x x x x x x x x x x j j j j j x x j j x x j j x l j j f j f j j j j j x x x x x j x x x x x x z x x c x c } v M } ..7     _._.",
"_._._._.o + + X O O $ $ $ $ + + + + + $ + $ $ $ + O + + + + + + + + $ $ $ $ $ $ + + $ + $ + + + $ O $ + + + + O + + + + + $ $ $ $ $ + $ $ + + + $ + $ + + + $ $ $ $ $ $ $ + + + + + $ + + $ + $ $ $ + $ + + $ O + + + + $ + # + + + + + + $ + + + + O + $ + + $ $ $ $ + $ + $ + $ + O + + $ + + + $ $ + + + + + + + + O O + + + O + + $ $ $ + $ + $ $ $ + + $ + + + $ $ $ $ + + + + @ o j._._._.",
"_._._.J.      . . . . . . . .       . . . . . . . . .   .   . . . . . . . . . . . . . . . . . . . . . . . . . . . . . . . . . . . . . . . . . . . . . . . . . . . . . . . . . . . . . . . . . . . . . . . . . . .   . . . . . . . . .   . . . . . . . . . . . . X . . . . . . . . . . . . . . . .     . . . . .   . . . . . .   . .   .     . . . . . . . . . . . . . . . . . .         j._._._."
};
