/* XPM */
static char *lives_19[] = {
/* columns rows colors chars-per-pixel */
"192 49 199 2 ",
"   c #010208",
".  c #040717",
"X  c #0E121E",
"o  c #15171B",
"O  c #070E23",
"+  c #0B152B",
"@  c #111B2C",
"#  c #03053D",
"$  c #0B1732",
"%  c #111C34",
"&  c #1D2029",
"*  c #192337",
"=  c #22252C",
"-  c #242A39",
";  c #34363B",
":  c #02074B",
">  c #09124A",
",  c #020B58",
"<  c #08125A",
"1  c #101B5A",
"2  c #0E214A",
"3  c #1B2A4D",
"4  c #1D2D52",
"5  c #1E3157",
"6  c #212D4E",
"7  c #29374E",
"8  c #373A49",
"9  c #212E51",
"0  c #243356",
"q  c #373E55",
"w  c #020D64",
"e  c #03136B",
"r  c #10176C",
"t  c #010E75",
"y  c #011777",
"u  c #161A78",
"i  c #0C2062",
"p  c #1A2966",
"a  c #1C3369",
"s  c #0F237E",
"d  c #232767",
"f  c #2B3B64",
"g  c #303C65",
"h  c #283E72",
"j  c #353A79",
"k  c #3D404D",
"l  c #3E4152",
"z  c #364466",
"x  c #2D4478",
"c  c #32497C",
"v  c #45464B",
"b  c #424554",
"n  c #505252",
"m  c #454E67",
"M  c #48516D",
"N  c #484D7F",
"B  c #485576",
"V  c #5B607C",
"C  c #626265",
"Z  c #676A78",
"A  c #777A78",
"S  c #010B86",
"D  c #031D89",
"F  c #121C83",
"G  c #000D96",
"H  c #041E94",
"J  c #06218C",
"K  c #162D89",
"L  c #062298",
"P  c #152999",
"I  c #193194",
"U  c #25368A",
"Y  c #343F80",
"T  c #202C92",
"R  c #293796",
"E  c #31399C",
"W  c #0218A7",
"Q  c #021CB3",
"!  c #0827A7",
"~  c #122DA9",
"^  c #0E30AD",
"/  c #1431AD",
"(  c #0B2DB8",
")  c #112CB6",
"_  c #0D31BA",
"`  c #1133BB",
"'  c #212FA6",
"]  c #2537A7",
"[  c #283BB1",
"{  c #354C82",
"}  c #3B5286",
"|  c #3A459B",
" . c #2E42AC",
".. c #3947A4",
"X. c #3D53A2",
"o. c #2643BA",
"O. c #334AB7",
"+. c #434B87",
"@. c #475A8B",
"#. c #51598C",
"$. c #444F96",
"%. c #4A5D92",
"&. c #535B96",
"*. c #4D618E",
"=. c #5A6385",
"-. c #4D6193",
";. c #546696",
":. c #7F7D84",
">. c #676995",
",. c #6B729D",
"<. c #757B9B",
"1. c #414EAA",
"2. c #4558A9",
"3. c #545EA9",
"4. c #4458B9",
"5. c #505FB6",
"6. c #5A68A8",
"7. c #5F76A9",
"8. c #4C61B6",
"9. c #5A6AB4",
"0. c #5D70BF",
"q. c #686EA1",
"w. c #746DA4",
"e. c #6876A5",
"r. c #7479A5",
"t. c #636DB8",
"y. c #6874B8",
"u. c #727AB9",
"i. c #0A2DC2",
"p. c #0D33C4",
"a. c #1133C3",
"s. c #173CD3",
"d. c #2744C1",
"f. c #324EC7",
"g. c #455CC3",
"h. c #4D63C4",
"j. c #5367C6",
"k. c #5B77D4",
"l. c #6776C7",
"z. c #727FCA",
"x. c #7A869C",
"c. c #6E80AC",
"v. c #7884A7",
"b. c #7984B7",
"n. c #6E84CD",
"m. c #7886C6",
"M. c #7687D3",
"N. c #7D92D2",
"B. c #888A89",
"V. c #8C9292",
"C. c #959797",
"Z. c #878CAB",
"A. c #8C92A9",
"S. c #868DB6",
"D. c #8790B8",
"F. c #9598B8",
"G. c #9CA2BB",
"H. c #BFC0BE",
"J. c #828DC7",
"K. c #8593C7",
"L. c #969EC5",
"P. c #838FD3",
"I. c #869AD5",
"U. c #929EDE",
"Y. c #9BA2C4",
"T. c #8CA0DC",
"R. c #9AA4D3",
"E. c #A5ABC9",
"W. c #ACB2CC",
"Q. c #B8B7C4",
"!. c #A1A9D0",
"~. c #ABB5D8",
"^. c #B2B9D4",
"/. c #93A7E1",
"(. c #9EB3E7",
"). c #A0ACE2",
"_. c #ACBFED",
"`. c #B4BBE5",
"'. c #C2BDC3",
"]. c #BFC0CE",
"[. c #B4C4E8",
"{. c #B7C5F1",
"}. c #C6C6C8",
"|. c #C7CADA",
" X c #CCD3D7",
".X c #D8D7D7",
"XX c #C4CCEA",
"oX c #CAD3ED",
"OX c #D5D9ED",
"+X c #C7CFF0",
"@X c #CDD5F1",
"#X c #D1D9F1",
"$X c #DFE3F3",
"%X c #E7E7EA",
"&X c #EBEBF5",
"*X c #F2EEF7",
"=X c #EEF1F8",
"-X c #F8F8FB",
";X c None",
/* pixels */
";X;X;X}..         . . .   .                                                                                                                                                   .       .                                                                                                                                                                     .   .   .         . . . X   .X;X;X;X",
";X;X;X}.      o . . X O O + + + + + O + + + O O O + + + + O + O + + O + + + @ % % $ + $ + @ + + + O + + + + + O + + @ + + @ + @ + O + O + $ @ + + $ + + + + O O O O X O + + + + + + + + + + O O O X O O + + + + + + O + O O + + X O O O + + O + + + + + + + + + + + + + + + + + + + + O O + O + O O O + O + O + O O + O O + + + $ + + + O + + O + + @ + % + % @ $ + + X O . .   . . . . .X;X;X;X",
";X;X= o C -X-XZ.b.e.;.;.;.;.;.;.;.;.;.;.;.;.;.;.;.;.;.;.;.;.;.;.;.;.;.;.;.;.;.;.;.;.;.;.;.;.;.;.;.;.;.;.;.;.;.;.;.-.-.*.&.-.-.*.*.*.;.;.;.;.;.;.;.;.;.-.-.-.-.-.*.;.;.;.;.;.;.;.;.6.;.;.;.;.;.;.-.;.;.;.;.;.;.;.;.6.,.;.;.;.;.;.;.;.*.;.-.-.-.-.;.;.;.;.;.-.%.%.@.@.@.@.@.@.*.*.*.;.-.;.;.;.-.;.;.;.;.-.*.*.*.%.@.*.*.@.%.*.*.*.*.;.-.-.*.*.-.*.#.*.-.*.%.@.-.*.-.-.;.;.e.y.G.G.F.A.A.x.    ;X;X",
";X;X& o n %X%X<.c.e.;.-.-.%.@.@.%.@.%.%.-.-.-.-.%.-.;.*.*.*.#.#.*.-.-.-.*.*.;.;.;.;.-.-.-.*.-.-.*.*.*.-.*.*.#.@.*.@.@.@.@.@.@.@.@.@.*.*.6.;.;.;.;.-.-.%.@.%.@.%.%.@.@.@.@.-.-.;.-.;.;.;.-.-.%.@.%.%.#.*.*.;.;.;.;.;.;.-.;.*.-.*.@.@.@.@.%.@.@.@.#.@.-.%.%.%.@.@.@.} } } +.@.} @.@.@.@.@.@.@.@.@.@.@.@.@.@.@.@.@.@.@.@.@.@.@.#.*.@.@.@.@.%.@.@.@.@.@.@.@.@.@.@.@.} %.-.;.7.e.G.F.Z.x.x.x.    ;X;X",
"o   A .X.XV =.f a 3 * % + + + + + + + $ % % % $ % % * % % $ % @ % $ @ $ % % % % % % $ @ % % $ % % + + $ @ @ + @ + + + + O + + + % % % % % $ % $ % % % $ % % + @ + % $ % % $ @ % % % % % % $ % $ $ + $ + @ @ + @ $ $ % % % $ % $ @ % $ $ $ $ + $ + $ $ + $ $ % $ $ + + + $ + + $ @ % $ @ $ $ $ % $ + $ % % + $ @ + + @ $ $ $ $ $ @ $ + % $ % $ $ % $ % + + + + @ + $ % % * > 0 d i ;.%.D.v.z .   ",
"= X Z }.H.V ;.a h 3 % $ @ @ + + + + @ @ @ @ @ @ % $ @ % @ % % @ @ @ @ @ + @ + @ @ % $ & % @ @ $ % * @ @ @ @ @ @ @ $ @ @ @ @ + @ @ @ @ % & % @ + + + @ + @ @ @ % @ % @ @ @ @ @ $ @ @ @ % @ % + @ @ @ @ + @ @ @ @ % $ @ @ % % % $ @ % % % % @ % @ @ $ @ % @ @ @ @ % @ % @ @ % @ % @ @ @ @ @ @ @ @ % @ % + @ @ @ @ + @ @ @ @ @ @ @ @ @ @ + % @ @ @ @ @ @ @ @ + @ + @ % % % % * a a a -.$.b.r.0 +   ",
"= + Z }.}.*.;.a a 1 $ $ $ $ $ $ + + + + $ $ $ $ $ $ $ $ $ $ $ $ $ + $ + + + + + + $ $ $ $ $ $ $ $ $ $ $ $ $ $ $ $ + + + + + + + + $ $ $ $ $ $ + + + $ $ $ $ $ $ $ $ $ $ $ + $ $ $ $ $ $ $ $ $ $ + + $ + $ + $ # $ $ $ $ $ $ $ $ $ $ $ $ $ $ $ $ + $ + + + + + $ + + $ + $ + + + $ + + + $ $ $ $ $ $ $ $ $ $ + + + + + + $ $ $ $ $ $ $ $ $ $ $ $ $ + + $ % + + $ $ $ > $ $ $ a a p %.X.b.e.q $   ",
"= + B r.r.2 2 . O < y y y y y y y y y y t y y y y y e y y y y y y y e e e e e y y e y y y y y s y y y y t y e y e e y y e e y y y y t e y e e e e e e e y y y t y e y y y t y e y e y y y y e y y t y e e e e w e e y y y y e y y y y y y y y e y e e y e e y t y e y y e y e y e y y y y y y y y y y e y e e t y e t y e y e y y e t y y y y y y y e y y y y y y y y y y y     . 4 4 Y.Y.z % . ",
"- @ N v.b.6 *     < e e y e y y e y y t e e e e e e y e y y y e y y e e e e y e e t e y y y e y y y e y w e e y e e t t y y e t e e e e e e e e e y e t y t y y y y e e t e e e e e y e e y t e y e t e t e e e e e e e e t t y t y t y y y t e e e y e e e e e t e e y e e t y y y e y t e y e y e t e y e t y e e e t y e e e y e e e y y y y e e t y e e y t y e e e e e     . 4 2 E.E.M % . ",
"6 @ z ;.;.$ X i e y y y y D y y y y y y y y y y y y s y y y D y y y y y y y y y y y y D y J y J y y y y y y y y y D D y y S y y t y y e y y y y y y D t y y y y y y y y y y y y y y y y y y y y y D y D y y t y t y y t y y y y y y y y y y y y y y y y y y y y y y y y y y y y y y y y y y y y y y y y y y y y y D y y y y y y y y D y y y y y y y y y y D y y D y y y e y < > : + O ,.,.z %   ",
"* $ M 6.;.@ + y y y y s y y y y D y D t y y y t y D y y y D y D D y y D D y D y y y y y D D y y y y y y y y y s y D D D D y y y y y y y y y y D D D D D D D D D y y D y y y y y y y y y y y D D D D D D D D D y e y y D D D D D y y y D D y y D J y y y D y y y y y y y y y D y y D y D y y y e y y D y D y D D D D D y y y y y y D D J D y y y y y D D y D D y D y y y y y e e e + O e.,.z % . ",
"* O z @.*.$ + H J D D D D D H D D D D D D D D D -.X.2.2.9.S D D H J D H D D D D H J J R 6.6.7.6.1.J D J J X.y.y.u.y.8.D H D D D D y 6.6.t.y.u.S H H S m.y.y.y.t.t.y.y.u.y.t.e.y.y.u.u.u.D J J H D D H L 2.t.y.y.t.t.t.t.y.u.y.u.u.D D D D D H D J D J D D D H D H D D D D D D D D D D J D D D U 6.6.9.9.I L J L D J H J L J K D.m.b.m.J.m.b.J.S D H D D D H J J D D J D J J J J J + + *.*.0 +   ",
"& O 0 @.@.$ $ ! J D H H H H H H H D H H H H H J -X-X-X-X-XD H H H L H H H H H H H H L t.-X-X-X=XK.P L L ! b.=X-X-X-X^.L L D D D D J oX*X-X-X&XG L L S -X-X-X-X-X-X-X-X-X-X-X-X-X-X-X-X-XF H H H H L L P `.-X-X-X-X-X-X-X-X-X-X=X-XD J H L H L P H H H H L H L H H H H L H H H L H H H D H H F 9.&X&X-X-X1.! L L L L H L ! L E =X-X-X*X-X*X*XOXH H H H H L L H H L H L L L H D J J + + } } 0 @   ",
"@ + 0 @.@.$ $ L H L J H H D L D H H D H H L L L -X-X-X-X-XG H L L H L H L H L L L L L l.-X=X*X=XK.L ! L / K.=X-X=X&X~.J D D D D H J oX-X-X=X&XG J J S -X-X=X-X-X-X-X-X-X-X-X*X-X-X-X-X-XD L H H H L ! L [.=X-X-X-X-X-X-X-X-X-X=X=XG J L H L H H L H L L H H L H L H J H H L H H H H H D D D J y.&X=X-X-X..P L L L L ! L ! !  .=X-X-X-X=X-X=X%XH W H L L H H H L H H L H L J D D L $ @ } } 7 +   ",
"@ X 0 @.} $ % L H H D H H D H H D H H H H H L L -X-X-X-X-XS L H L H H H H H H H H H J t.-X-X-X-XK.P L ! I K.-X-X-X*X~.J D D H H H L oX-X-X-X&Xt D J t -X=X-X-X-X-X-X-X-X-X-X-X-X-X-X-X-XD H H J J L J K ^.-X-X-X-X-X-X-X-X-X=X-X-XG L H H J H H H H L H H H H H H H H H H H L H H H H D S t t 9.*X-X-X-X..L L L L L L ! L ! ..-X=X-X-X=X*X*X%XG L L L L H H H L L H H H J D D J J $ + } } 0 +   ",
"& + 0 @.@.$ $ L J H H H H H H H H H H H H H L P -X-X-X-X-XS J D H L H H L H H L H H H l.-X-X=X%Xb.J J L L N.-X-X-X=X~.J H H H ! L ! #X-X-X-X&Xt y D S -X=X-X-X=X=X=X-X=X=X=X=X=X=X&X&X%Xw D D G |  .| ..`.-X-X-X-X-X-X-X-X-X-X-X-XS H L P R E E | H L W L H L H H L H H H L H H L L L L *X-X-X-X-X-X-X-X| L J J H L P | ..| 5.&X&X$X&X&X&X&X&X....X...H H L L H H L H L H D D J J @ @ } } 0 + . ",
"* + 0 } } $ + W L ! W ! ! ! L ! ! L ! ! ! L ! ! -X-X=X=X-X: , D ! ! ! ! ! ! ! ! ! ! ! l.-X-X*X=X,.> e ^ ! N.=X-X-X*X^.w t ( ! ( ^ ) @X-X-X-X&X: w L G -X-X-X-XA., : : : , , , , , : : # : , L D -X-X-X-X~.H t w w 1 r 1 < < < r r < , ( j.-X-X-X-X[ ^ ( ! ! ! ! ! L ! ! ! ! ! ! ! ! ( ! &X&X&X*X-X-X-X-X+.y ! ! L ! t.-X-X-X&XG S : : : : : w.-X-X-X-X( ( ! ! ! ! ! ! ! L L L J L @ + } } z $   ",
"* + z @.@.$ + H L L L H H H ! L ! ! ! W ! ! L ! -X-X-X=X-X, , D ! L ! ! ! ! ! ! ! ! ~ y.-X-X*X*X,.< e ! Q N.=X-X-X*X^.e y ( ! ! ! ~ +X=X*X*X&X: w ! G -X-X-X-XD.< , , < w w w w e w w , , , ! G -X-X=X=X`.~ D r e e e w , < < w w w , ( j.-X-X-X-X] ! ! ! W ! ! ! ! ! ! H ! ! ! ! ( ( ^ =X&X&X*X-X-X-X-X+.y ! ! ! ! 2.-X-X*X&XW ) w w w w < w.-X-X-X-X( ! ! ! Q ! ! W ! ! L L J L + + @.} 5 $ . ",
"- @ f } @.$ + ! L ! ! ! ! H ! ! H ! ! L ! ! ! ! -X-X-X-X-X: w D W ! ! ! L ! ! ! ! ! ~ l.-X-X*X&Xq.< t ! ! N.=X-X-X*XW.e y ( ! ! ! ~ +X*X*X*X&X, w ! W -X-X-X-XS.< : : , , w w r w w w w , , ! G -X-X-X*X`.! S e e e w e w , , < w w : ( j.-X-X-X-X] ! ! ! ! ! ! W ! ! ! ! ! W ! ! ! ! ! %XOX@X%X-X-X-X-X| r ( ! ( ! 2.=X*X=X&XW ! , w w w , u.-X=X-X-X! ! ( ! ! ! ! ! ! ! L J J L + + } } 0 % . ",
"* + z @.} + + ! ! H L L L ! L W ! ! L ! L ! ! ! -X-X-X-X-X, w D ! L L ! ! ! H ! ! L ~ z.-X-X-X=Xr.w t ( ) I.-X-X-X*XW.w w ! ! L ! L {.*X-X*X&X, w ( W -X-X-X-XA.> > : > > , w t w w w w , : ! G =X-X&X&X^.e F w w e e < w , , , , , : ( g.-X-X-X-X] ! ! ! ! ! ! ! ! ! ! ! ! ! L ! ! ! ! ! ~ K #.-X-X-X-X+.t ! ! ! L 5.*X=X=X%Xw y y y D u u b.-X-X-X-XH L ! ! ! Q ! ! ! L L J J L + + @.} 7 % . ",
"* + z } +.$ + ! ! ! ! ( ! ! ! ! ! ! ! ! ( ! ! ( -X-X-X-X-Xw t D ! ^ ! ! ! ^ ! ! ! ! ^ n.-X-X*X*Xr.< y ` _ I.-X-X-X*XW.> w ! ! ! L ! XX*X-X-X*X, w i.( 4.6.$.j >.+.#.#.&.&.&.&.P L ! L L L L ^ Q /.U.R.!.F.>.r.S.J.u.u.y.P H H J L L H ) f./.U.L.!.P L ( ! ) ! ( ! ( Q ! ( ! ! ! ! ! ! ! ( ( L #.-X-X*X-X+.e ! ! ! ! O.R.(.Y.Q.d j t.y.l.u.u.~.-X-X-X-X< : _ ( ! ( ) ! ( ! ! L L ! + . } } 0 + . ",
"& + z @.@.O + i.( ( ( ( ( i.i.( ( ( ( ( ( i.p.p.-X-X-X-X-Xw t H p.( _ ( ( ( _ ( ^ ( p.n.-X-X-X=X,.r D a.p.T.=X-X-X*XE.> , ( ^ ^ / ( +X*X-X-X*Xw w p.i.( ) T -X-X*X=X=X=X*X-X-Xd.p.p.a.( ( ^ ! ! ! ! r < >.*X-X-X*X-X-X*X .( ( ) p._ _ ( ( ( ) : > w L ( ( ( ( ( ( i.( ( ( ( i.( ( ( ( ( _ i.! #.-X-X-X-Xj e / ! ! ! ( ( ( : d -X-X*X*X-X-X-X-X-X-X-X-Xr < p.i.i.( ( i.( i.^ ! ^ ( + O } } 0 $ . ",
"& + 0 @.@.+ + ( ( ( ( i.( ( ( ( ( ( ( ! ( i.i.p.-X-X-X-X-Xw t L i._ ( _ ) ( ) _ ( ( ` M.-X-X-X*Xw.< y ` p.I.-X-X-X=XE.< w ( ^ ~ ^ / +X-X-X-X*X, w i.Q U.`.&X-X-X*X*X*X*X-X-X-Xd.i.i.i.( ( ^ ! ^ ! ) , 1 <.-X-X-X-X-X*X-XO.^ ) ) ` _ i._ ( ) ) , , , L _ ( ( ( ( ( ( ( ( ( ( ( ( ( ( _ ( _ p.! #.-X-X-X-XN w ( ! ( ( ( ( p.r d -X-X-X-X-X-X-X-X-X-X-X-Xe , p._ ( ( ( ` ( ( ( ! ^ ^ + . @.} 0 $ . ",
"+ O z @.@.+ $ i.i._ ( ) ( ( ( ( ( ( ( ( ( ( ( i.-X-X-X-X-Xw e L i._ _ ( ) _ ( _ ( ( a.M.-X-X-X*Xr.r D a.p.P.=X-X-X-XE.< w ( ! ( ) ` @X-X-X*X&X, w i.Q -X-X-X-X-X*X=X*X*X-X-X-X[ _ _ ( ( ( ( ( ( ( _ w 1 ;.-X-X-X*X&X*X*XE W ) ) p.p.p.a.i.a.p.t t t ! ( i.( ( ( ( ( ( ( ( ( ( ( ( ( ( _ _ _ ) j.-X-X-X-Xc e ( ( ! ( i.i.a.< d -X-X-X=X-X-X-X-X-X-X-X-Xe , p.( ( ( ( ( ( ( ! ^ ^ ( $ O @.+.0 $ . ",
"@ O z c *.+ $ _ ( ( ( ( ( ( ( ( ( ( ( ( ( ( ( ( -X-X-X-X-X, t H i.` ` ( _ ( ) _ _ ( ` M.-X-X-X*X,.r J p.p.N.-X-X-X&XE., , _ ( ) ( ` #X-X-X-X&X: , ( Q -X-X-X-X-X*X&X=X-X-X-X-XO.) ! ) ) ( ( ( ( ( i.H u X.$X$X#XOX|.|.|.j u T [ o.p.p.p.p.) ! ~ ! ( i.` ( ( ( ( ( ( ( ( ( ( ( ( ( ( ( ` _ _ ) h.-X-X-X-X+.r _ ( ( ( _ i.i.D U =X*X&X&X&X&X&X=X-X-X-X-Xw : _ ( ( i.i.( ( _ ! ! ^ ^ $ O } } 0 %   ",
"@ + z @.@.+ $ i.i.( i.( ( ( ( ( ( ! ( ( ( ( ) ( -X-X-X-X-Xw t J i._ ( ( i.( ( ( ( ( ` M.-X-X-X*Xr.r J p.a.N.=X*X-X*XE.> w i._ _ a.a.#X-X-X-X&X: , ( W -X-X-X-XG.# # : : : , , , , r ( ( ( ( ( ( ( _ p.p.p.( L < , : : : !.-X-X-X-X( a.p.Q =X-X-X-X4.i.( ( ( ( ( ( ( ( ( ( ( i.( ) i.( ( ` _ _ h.-X-X-X-X+.r _ ( ( ( _ i._ p.p.Q ! # : : : : #.-X-X-X-X< : _ ( ( ( ( ( ( ( ! ( ! _ $ + %.+.0 $ . ",
"& + z *.} + + _ ( ( ( ( i.( ( ( ( ( ( ( ( ! ) ( -X-X-X-X-Xw e H i.) ) i.` ( ) ( ^ ( ` M.-X-X-X%X<.e H p.p.N.=X-X-X*XW.< e p.p.` ` ` OX*X=X-X#.w , ( W -X=X-X-XE.1 < w w r e r w , t ^ ) ) ( ( ( ( _ a.a.a.a.~ w e < < , Y.*X*X*X-X! ( ( Q &X-X-X-XO.` _ ( ( ( i.( ( ( ( ( ( ( ( i._ _ _ ( ` ) h.-X-X-X-X+.e _ ( ) ( ( _ ( ` _ a.s.e y w w < #.*X*X*X-X, # ( ( ( ( _ _ _ ( ^ ! ^ _ $ + } } 0 + . ",
"@ + z c *.$ + i.( ( i.( ( ( ( ( ( ( ( ) ( ( ^ ( -X-X-X-X-X, e F ( ( ( ( ` ( ( ) ^ ^ ` m.-X-X-X=X<.r F p.i.M.*X-X*X*XW.w r p.p.a.` ` oX-X-XD.r w w ! W -X*X-X*XW.< w e e t t w w < e ^ ( ^ ( ^ ) ( ` a.i.a.a.! e e w , < Y.*X%X*X-XW ~ ( Q $X*X-X-XO.` ( i.( ( ( ( ( ( ( ( ( ( ( ( ( ( _ ( ( _ 8.-X-X-X-X+.e _ ( ( ( ) ( ( ) ` ` s.e e e < < +.*X*X*X-X, : ( ( ( i.i.i.( ( ^ ( ^ _ + + @.} 0 + . ",
"* + 0 @.@.$ + i.( ( ( ( ( ( ( ( ( ( ( ( ( ( ^ ( -X-X-X-X-X, e F ( ( ` a.a.a.` ` ( ^ ( M.-X-X-X*X,.< J p.i.M.=X-X-X-XW.r F a.a.a.` ` #X-X|., e w w ! W -X-X-X-XW.r r r t y r e e w u ( ` ( ^ ^ ( i.p.p.a.p.i.p._ ) e e , W.%X&X&X-XD P ( W &X*X-X-XO.( ( ) ) ( ( ( ( ( _ ( ( ( ) i.( ) _ ) ( ) g.*X-X-X-X+.e _ ( ( ( ( ) ( ` a.a.a./ P y u y | &X*X*X-X, # i.! _ ( i.i.i.p.( _ ^ _ + + } } k +   ",
"* @ g @.@.+ + ( ( ! ( ! ! ! ! ! ! ! ! H ! ! ! ! -X-X-X-X-X+.X.$.4.4.g.g.h.g.4./ ! ! ) m.-X-X*X*X>.< e ! ( [ g.h.3.&.#.#.9.n.M.n.M.M.P K r , , L D ! W -X*X-X-X X&.&.3.q.6.6.6.q.&.6.l.t.L ~ ^ W {.{.{.{.(./././.R.R.L.L.+.: : : : < , ! ( ! ! r u S H ( ! ( ! ! ! ! ! ! ! ! ! ! ! ! ! ! ! ! P O.-X=X-X-Xc r ! ! ! ! ! ! ! ! / b.k.z.k.l.9.l.m.P.J.Z.b., : ! ! ! ! ! ! ! ! ! L L L $ + @.} 4 + . ",
"= @ z @.} + + ! ! ! ! ! W ! ! ! L ! ! ! ! ! ! / -X-X-X-X-X*X*X*X*X-X-X-X-X-X-X2.^ ! / J.-X-X*X&X>.> e ! ! ! ! ( e y d -X-X-X-X-X-X-X~ J : : , ! H L W -X=X-X-X-X-X-X-X-X-X-X-X-X-X-X*X-XH ! ) W -X-X-X-X-X=X-X-X-X-X-X-XI.! D : : : : ! ! ! ! , w w t ( ! ! ! ! ! ! ! L ! ! ! ! ! W ! ! ! ! L 4.=X=X=X-Xc r ^ ! ! ! ! ! ! ^ [ -X-X-X-X-X*X*X&XW J : w w w ( ! W ! L ! ! ! ! L L ! @ + @.} 3 +   ",
"- @ 0 @.@.O + ! ! ! ! L ! ! ! ! ! ! W ! ! ! ^ ` -X-X-X-X-X-X*X-X*X-X-X-X-X-X-X1.! ! ) J.-X-X-X*X>.1 e ! ! ( ! ( w r u -X-X-X-X-X-XOX! J , : : L ! ! G -X-X-X-X-X-X-X-X-X-X-X-X-X-X-X-X-XL ) ^ W -X-X-X-X-X-X=X=X-X-X-X-XI.! J , > : : L ! ! ! , w w t ( ( ! ! ! ! ! ! W ! ! ! L ! ! ! ! ! ! ~ 4.-X-X-X-Xj e ( ! ! ! ! ! W ( [ -X-X-X=X-X*X*X%XH J , w w , ( ! ! ! ! ! ! ! ! ! L ! @ + } { 3 +   ",
"- + q @.@.O + ! ! ! ! ! ! W ! ! ! ! ! ! ! ! ^ ^ -X-X-X-X-X-X=X-X=X-X-X-X-X-X-X$.! ! / m.-X=X&X%X>.< e ( ! ( ( ( w e p =X-X-X-X-X&Xo.W t w J J L L ! H -X-X-X-X-X-X-X-X-X-X-X=X-X-X-X-X-XD ! ^ W -X-X-X-X-X-X-X=X-X=X-X-XT.! L , : : : ! ! ! ! , , w y ! ! ! ! ! ! ! ! ! ! ! ! ! ! ! ! ! ! ! ( 8.&X=X=X-Xc e ) ! ! ! ! ! ! ! ] -X=X-X=X=X=X&X%XW D , w w w ! ! ! ! ! ! ! ! ! ! L ! @ @ } c 6 +   ",
"- + 0 +.@.+ + L L L L L H ! L ! ! L H L ! ! ! ! -X-X-X-X-X-X-X-X-X-X-X-X-X-X-X@.< L ! P.=X-X=X=Xr.< r ! ! ! W ! J P R -X-X-X-X-X+.D t , < L L J L L G -X-X-X-X-X-X-X-X-X-X-X-X-X-X-X-X-Xr t L G -X-X-X-X-X-X-X-X-X-X-X-XU.y L L J L L L L L L D D D L ! ! ! H ! L ! L L ! L ! L H H L H L ! ! 8.&X=X&X=XY r ! W ! L H H H H ] -X-X-X-X-X-X-X=Xt D D D D D ! ! ! L ! L L L L L L L % + } +.3 +   ",
"- O z @.@.$ $ ! L L L L L L H L L L L L L L L L H H J : : : : , , , < , , : : , : J L H J J < < w w t ! L H ! ! L L L H L , > < < , y L L J L H L L L L L H < , < < , , : > : > > : , , w w W L L H e : : , < , , : : , , w H ! L H L J L L J L H L L L ! L L L L L L L L L L L L L H L L L L L L L y < , < L J L L J L L H D H L , , , : : : > , J L L L L L L L L L L L J J D J * % %.@.6 + . ",
"- + q *.*.$ $ H L J H J D H L H L H L J J J J L J J J > : , , < w w w , , , : , : J D J J L w w w w y ! H ! L L ! ! L H L , , , , , y H J H J L J J L L L H w w , w , < : : : , , , , , w , ! ! L L e , , , , , < , , , , , D L L L L L L H J L L J L L L L L L L L L L L L L L L L H H J L J L L L y e w w L J J J H J H J J L ! < w < , , : : < D J J J H L L L L L L L J y J J $ @ -.} 9 $ . ",
"- + c x.x.+ % L L D J J D D D J J H J H J J J J J y s : : , < w < w w , , , : : : s D J D L < w w < y H J D H J J J D D J , : , , : y D D D J H H L H L L D w w , , , , > , , : , : , < w < L H H D e , , , , , , < , w , , D L L H D H D D D J J D J J D D J H D L J L L J J J H H D J D D D J D L y < w e L J D D D D D D D D L , , < , , : , , J y D D D D D J D J D D J y y e + @ c.,.l % . ",
"- + V v.v.$ * L D D D J D J D H J J D J D J J J J J J > , , , w < < , , , , , > : y J J J L w w w w e D H H D J J D J D J , : : > , e D D D D J D J J H D D , , w , , , , , , , , , , , , , H D D D e : , , , , , , , , w , D H D H D H D D D D D D D D D J D D D H H D H H J J D D D H D J J D D D y e e e J J H D D D D D J J J , , , , , , : w D y D D D D D J J D J D y e e i @ + v.Z.g % . ",
"- @ A. X|.z x     e y y y y y D y y J y y y y y e y e y y y y y y y y y y y y y y y y y y y y y y y t y y y y y y y y y y y e y e y e y y y y y D y y y y D y y y t y y y t t y y y y y y y y y y y y D y y y y t y y y y D y D y y y y D y y y y y y y y y y y y y y y y y y y y y y y y y y y y y y y y y y y y y y y e y y y e y y y y y y y y y y y y y y y y y e y y y       7 * =X.Xm %   ",
"- % Z.].Q.z a   . e D y D y D y y y y y y y y y y y y e y y y y D y y y y y e y y y y y y y y y y y y y y D y y y y e y y e y y y y y y y t D y y y y y y y y y y y y y y y y y y y y y y y y y y D y y y y y y y y y y y t y D D y D y t y y y y e y y y y y y y D y y y y D y y y y y y y y y y y t y y y D y y y e y y e e y y y e e y t y y y y y y e y y e e e y y y y       7 % %XQ.m $   ",
"- @ A.|. X2 4     i D D J J y J s y y y D y s s y s y y s y D y y J y s y y y s y y D y s y y s y y y s y y s y i y s e s e y y y y y y y y D y y y y y y y s y y y y y y y y y y y y y y y y y y D y D D t y y y y y y y y D y y D y s y D y y y y y y y y s y y D y y y D y y y y y y s y J y y y y y y s y y y y y y y y y y e e e e y y y s y y y y y y y y y y y y s J     . * O %X|.M O   ",
"- O 0 %.} [.~.0 z * + % @ $ + + + + $ $ + $ $ $ + $ $ + $ $ + $ + + + + + + + $ + $ + + + + + $ $ + $ $ + + $ O + + O + O + $ $ + $ $ $ $ $ + + + + + O O + + $ + $ + + $ + $ + + + + + O + O + + $ $ + $ $ + + + O + + + + + + + + + + + + $ + + + + $ $ $ $ $ + $ + $ $ + + + $ + $ $ $ $ + $ $ $ + + + + + + $ $ + + + $ + + + + + $ $ $ + + $ + $ + + + O O O O + + $ + x z 5 ].}.} @.7 X   ",
"= O 0 -.%.{.XXz z 2 O + O O O O . + O O O O O O X O + O O + + O + X X . . . X . O O O + O + O O + O O + + O O + O O O O . + O O O O + O + O . O . O . . X . O . O O O O O + + O O O . X X O . + O O O O + O O O O X . X O . . X O O O O O O O + + O O O O O O O O O O O O O O O O O + O O O O + O + O + O + + O O . O O O O . X O O O O O O O O O O O O O O . O X . O + O O x x 5  X.X+.@.7 X   ",
"C.C.; o X 7.;.-.-.-.{ { { x x x x x c c c { { { { c { { { { { c c x x } c } } } } } } } { { { { c { c c c { c { { { { } } { } } } { { { c { c { { { { { c c c { { { { { { { { c { { { c c c { { { { { { } } } } } } } { { c { c c c { c } { { c { c { x c c x x x x x x x x x { c { { { } { { { c c c c { c c c } } } } } } } } } { } } } } { { { { c { { x { x c x c c c { -.-.-.*.*.a % . B.C ",
";X;Xv o & 7.7.-.-.} x x h x a h h h x x c c c c x c x c c c c x x x x c c c c c c c c c c c c c c x x x x c c c c c { { { c { c c c c x x x c x c x x x c x x x c x c x c c c c c c x c x c x c c x x c c { { } { c c c c c x x x x x x x c c c x x x x x x h x h h x f x x x { c c c c c c c c x x x x c x x c c } c c c c c c c c c c { { x { x x c x x c x c c x x x x x %.@.@.-.-.0 X   ;X;X",
";X;XV.A o z x z f 5 3 3 2 3 2 3 3 4 5 3 9 9 4 5 4 4 6 4 3 3 3 3 3 2 3 3 4 5 9 9 7 5 7 9 4 3 3 3 3 3 6 3 3 3 4 4 5 5 0 5 5 5 5 4 4 4 3 4 4 4 4 9 5 5 0 0 9 9 9 6 3 3 3 3 6 4 3 4 4 4 9 5 4 6 3 3 3 3 3 3 3 9 9 9 7 5 9 9 6 6 3 4 4 4 6 6 4 4 6 6 6 4 4 4 3 3 3 2 3 3 3 3 3 4 3 5 5 0 5 5 4 4 3 3 3 3 3 4 4 5 4 9 7 9 0 5 9 7 4 4 7 9 5 4 5 5 5 3 4 4 6 9 4 9 9 0 5 9 5 4 2 3 9 4 4 0 5 * n A ;X;X",
";X;X;X;Xo o @ X + o X + @ @ % % % * * % % % $ @ @ @ @ % % % @ * @ @ @ % % % % $ % @ $ @ @ @ @ @ @ + @ @ @ @ % % * % * % * % * % @ @ @ @ @ + @ % % % * % * % % % @ @ @ @ @ @ @ @ @ % % % * % * $ % @ @ @ @ @ @ @ % * % % * % % % @ % & $ % @ % $ * $ $ $ % + + @ @ @ @ @ + % % % % % % % + @ @ @ $ $ $ % @ % * % % * % % * % * @ % % * % % % + @ + @ % % % % % % % % % % % @ @ o o X o o H.;X;X;X",
";X;X;X.Xv ; k 8 8 7 8 8 k l m b m l k l k k 8 8 k k l l b l l 8 8 8 8 8 8 k 8 8 8 k k l k 8 k k 8 8 8 8 8 ; 7 8 k 7 l l l l l b l k k k k 8 8 k 8 8 q q l b b b k 8 8 8 8 - 8 ; 7 8 8 8 q l k l 8 l k 8 8 8 7 ; 7 ; 7 8 8 8 l l l l l k 8 k 8 ; 8 8 ; 8 8 8 8 k 8 8 8 q k k l 8 8 8 8 8 8 8 8 k 8 k k l l l m l l l l k 8 8 8 8 l l b b l l 8 l 8 8 8 8 8 8 q 8 8 q l 8 k 8 8 8 k ; ; ; }.;X;X;X",
";X;X;X;X;X;X;X;X;X;X;X;X;X;X;X;X;X;X;X;X;X;X;X;X;X;X;X;X;X;X;X;X;X;X;X;X;X;X;X;X;X;X;X;X;X;X;X;X;X;X;X;X;X;X;X;X;X;X;X;X;X;X;X;X;X;X;X;X;X;X;X;X;X;X;X;X;X;X;X;X;X;X;X;X;X;X;X;X;X;X;X;X;X;X;X;X;X;X;X;X;X;X;X;X;X;X;X;X;X;X;X;X;X;X;X;X;X;X;X;X;X;X;X;X;X;X;X;X;X;X;X;X;X;X;X;X;X;X;X;X;X;X;X;X;X;X;X;X;X;X;X;X;X;X;X;X;X;X;X;X;X;X;X;X;X;X;X;X;X;X;X;X;X;X;X;X;X;X;X;X;X;X;X;X;X;X;X;X;X;X;X;X"
};
