/* XPM */
static char *lives_18[] = {
/* columns rows colors chars-per-pixel */
"192 47 197 2 ",
"   c #010309",
".  c #060B18",
"X  c #0C111E",
"o  c #13151A",
"O  c #070D23",
"+  c #0B152B",
"@  c #111B2C",
"#  c #050939",
"$  c #0C1733",
"%  c #111D34",
"&  c #1D2128",
"*  c #152139",
"=  c #23252C",
"-  c #272A34",
";  c #2D3038",
":  c #30333B",
">  c #02074A",
",  c #051548",
"<  c #121F40",
"1  c #020B58",
"2  c #081358",
"3  c #101F5B",
"4  c #1B2A4C",
"5  c #1C2D53",
"6  c #1F3055",
"7  c #212E4C",
"8  c #27334D",
"9  c #212E53",
"0  c #253355",
"q  c #363C5A",
"w  c #030D63",
"e  c #051469",
"r  c #101669",
"t  c #020B78",
"y  c #011778",
"u  c #08216C",
"i  c #16246B",
"p  c #1E3264",
"a  c #08227D",
"s  c #172776",
"d  c #1C3674",
"f  c #272E64",
"g  c #283A66",
"h  c #333C65",
"j  c #283B73",
"k  c #333C74",
"l  c #39435D",
"z  c #354468",
"x  c #2C4477",
"c  c #34497B",
"v  c #3C517F",
"b  c #404A5F",
"n  c #565858",
"m  c #444E6D",
"M  c #424A76",
"N  c #47547B",
"B  c #505873",
"V  c #5F6063",
"C  c #626366",
"Z  c #656976",
"A  c #70717A",
"S  c #000C88",
"D  c #031C86",
"F  c #000C96",
"G  c #041D94",
"H  c #111C99",
"J  c #08228B",
"K  c #19268A",
"L  c #1E338B",
"P  c #062297",
"I  c #142996",
"U  c #19329A",
"Y  c #222C89",
"T  c #282C90",
"R  c #28389A",
"E  c #343997",
"W  c #010FA5",
"Q  c #0318A6",
"!  c #031DB5",
"~  c #0827A8",
"^  c #132DA6",
"/  c #0E30A2",
"(  c #1835AA",
")  c #0B2DB8",
"_  c #122EB6",
"`  c #0D31BA",
"'  c #1233B9",
"]  c #293EAC",
"[  c #243DB4",
"{  c #2A4583",
"}  c #374C81",
"|  c #3E5283",
" . c #2F4495",
".. c #354499",
"X. c #2A43AA",
"o. c #3B49A3",
"O. c #3D53AC",
"+. c #2944B4",
"@. c #3648B5",
"#. c #3852BF",
"$. c #434B83",
"%. c #46598B",
"&. c #53578D",
"*. c #4A5C93",
"=. c #555C93",
"-. c #4D608F",
";. c #4E6193",
":. c #546697",
">. c #626C8F",
",. c #7A7F83",
"<. c #64699B",
"1. c #68759A",
"2. c #717D9D",
"3. c #414DA9",
"4. c #4657AA",
"5. c #535CA4",
"6. c #4957B8",
"7. c #535CB1",
"8. c #4F67AC",
"9. c #5668A8",
"0. c #5F73AB",
"q. c #4C63B0",
"w. c #5767B4",
"e. c #5F72B7",
"r. c #656CAC",
"t. c #6B75A3",
"y. c #727CAC",
"u. c #626DB4",
"i. c #6774BA",
"p. c #717BB7",
"a. c #0B2DC9",
"s. c #112EC0",
"d. c #0C32C3",
"f. c #1336C3",
"g. c #082DD5",
"h. c #2D4EC5",
"j. c #3B4EC5",
"k. c #4753C4",
"l. c #4B61CB",
"z. c #6779C5",
"x. c #737DC6",
"c. c #7E8184",
"v. c #7883AA",
"b. c #7984B7",
"n. c #6F88CB",
"m. c #7785C8",
"M. c #758AD0",
"N. c #87888B",
"B. c #81839E",
"V. c #93949A",
"C. c #868AA7",
"Z. c #8C96AF",
"A. c #979AA7",
"S. c #878DB8",
"D. c #8893B8",
"F. c #969ABA",
"G. c #9FA2AD",
"H. c #9CA4BE",
"J. c #838DC3",
"K. c #8D93C6",
"L. c #969AC4",
"P. c #808FD1",
"I. c #8997D5",
"U. c #929ED8",
"Y. c #9AA2C6",
"T. c #8EA0DB",
"R. c #97A7DC",
"E. c #A4ACC8",
"W. c #A8B1C8",
"Q. c #B8BBC7",
"!. c #A2AEDC",
"~. c #AAB1DF",
"^. c #B3BFDF",
"/. c #8C9FE1",
"(. c #8CA2E3",
"). c #96A9E3",
"_. c #AAB6E5",
"`. c #B2BBE1",
"'. c #BFC2CF",
"]. c #B9C2D9",
"[. c #BCC7E3",
"{. c #C3C4CF",
"}. c #C7C6D6",
"|. c #D3CFD1",
" X c #DDDBDD",
".X c #C4CBE8",
"XX c #CDD3E6",
"oX c #D5D9EB",
"OX c #D4DBF5",
"+X c #DBE1F2",
"@X c #E7E6E9",
"#X c #F0E4EE",
"$X c #EBECF5",
"%X c #F2EEF6",
"&X c #EEF1F9",
"*X c #F8F8FB",
"=X c None",
/* pixels */
"=X=X=X=X  o .     .     .   .   .                                                                 .                                               .   .                                                                                     .                                                                                                                     . .   . . . . .       =X=X=X=X",
"=X=X=X=X  . . X . O O + $ + + % @ $ @ $ + + O + + O + + X O O O + + + @ @ $ @ + + $ + + + + + + + @ @ @ $ @ + + + + X O O . O O O O + + + @ + + + @ @ @ + + + O + + O + O X + + O + + + O + O + O + + @ + + + + + @ @ $ + + @ $ + O + @ + + + + @ $ $ + % $ + + + O O O O + + O + O + + + + O + + + + + + O + + + + + + + + + + $ $ $ + + $ @ + + + + + + + $ $ + + + + + O . .         =X=X=X=X",
"=X=Xn   c.%X@Xv.D.v.:.:.:.:.9.:.:.:.:.:.:.:.:.:.:.:.;.;.-.:.:.-.;.;.:.;.:.:.:.:.:.:.:.:.:.:.:.:.:.:.:.-.:.-.=.;.;.-.;.;.;.;.;.;.;.;.-.;.:.:.<.:.:.:.:.:.:.:.:.:.:.:.:.:.:.:.:.:.:.:.:.:.:.:.:.:.:.:.:.:.:.:.;.:.:.9.:.:.:.:.9.:.:.:.;.;.;.:.:.:.;.;.*.*.%.-.*.-.;.-.%.%.%.*.*.-.;.;.;.:.;.;.-.-.;.-.-.*.-.-.=.-.-.:.;.;.:.:.:.:.:.:.:.;.:.;.;.:.:.;.;.;.:.-.;.;.;.:.:.:.<.1.y.v.D.W.H.8   & =X=X",
"=X=Xn o A  X|.v.v.t.:.;.;.*.;.;.:.;.;.;.*.*.%.*.%.;.;.;.-.*.*.%.%.%.%.%.%.*.;.;.;.-.*.*.-.-.%.*.%.*.%.*.-.*.%.*.*.*.%.*.%.%.*.*.*.| %.%.;.;.:.-.:.:.:.;.-.-.;.&.;.;.;.;.;.:.:.;.;.;.*.*.*.;.;.=.:.:.:.:.:.;.;.;.;.:.:.:.:.:.;.;.*.*.*.%.%.%.*.%.*.%.%.| %.$.%.%.%.| | | | | $.*.%.%.*.%.%.%.*.*.%.%.%.%.%.%.%.-.%.*.*.%.%.*.-.-.;.*.;.;.-.;.-.-.-.-.-.*.%.%.*.*.*.%.*.*.;.<.v.v.S.E.Z.l o - =X=X",
"& X ,.*X|.N N g x 7 % $ % % $ $ $ $ + @ + + + + $ % $ % @ @ @ $ + + + + $ + + $ @ $ % @ $ $ $ + + + + + @ @ + $ @ $ $ % % % % % $ % $ $ @ + + + + + + + @ $ $ $ % % $ % % % % % $ % $ + $ @ $ $ @ % $ $ @ $ $ @ $ @ % % % % % % @ % % % $ $ @ $ $ + + $ $ $ $ % % $ + $ % $ $ $ $ % $ $ @ $ $ $ $ $ $ $ @ @ + + $ + $ @ @ $ $ % $ % % % % % $ $ $ + @ + @ $ @ @ $ $ $ $ $ + 6 p 6 %.>.XXH.l . = ",
"= o A @XQ.-.;.d { 5 % % $ % @ % @ % $ @ @ @ @ + @ % % $ * * % @ % @ @ @ @ @ @ @ @ @ % + @ @ @ + @ @ @ @ @ @ @ @ * @ @ % % % % % % % % @ @ @ + + @ @ + + @ @ & @ % % * @ @ @ % % @ @ @ + @ @ @ @ @ @ @ @ @ $ @ @ @ $ * @ @ * @ * @ @ @ % @ @ @ $ % % @ @ @ @ @ $ % @ % @ @ @ @ @ @ @ @ @ @ @ @ $ @ % @ % * @ @ @ @ $ @ % % % @ @ % % % % $ % % % * % @ * @ * % $ % + @ @ $ O d p x :.1.@Xv.8 + - ",
"- & Z $X'.%.;.d j 3 $ % $ $ $ + $ + + + + + + + $ $ $ $ $ $ $ % $ @ $ + + + + + @ $ $ $ $ $ + $ $ + # + $ $ $ $ $ , $ $ $ , $ $ $ $ , $ $ + + + O + + + $ $ $ $ % $ , < , $ $ $ $ $ $ + $ + + + $ $ $ # $ $ % $ $ $ % $ $ $ % $ $ $ $ $ $ $ $ + + $ + $ $ + $ $ + $ $ $ $ $ + $ + + + + $ $ $ $ $ $ $ $ $ $ $ $ + + + + $ $ $ $ $ % , % % $ $ $ + $ + $ $ $ + $ $ + + $ $ # p p x 9.>.E.2.4 @ = ",
"; o B Z.S.4 7     > y y y y y y y y y e y e y y y y y y D D y D D y y y y y y e y e t e y y y e y e e e y y y y y y D D y y y y y y y y y e e t e e y e y y y D y y y y y y y y y y y y y y y y y y y y y y y y y D y y y y y y y y y y y y y y e y e y y e y y y y y y y y y y y y y y y y y y y y y y y y y y y y y y y y y y y y y y y D y D y y y y y y y y e y y y e y + O + 5 B H.H.l @ = ",
"; & B D.D.4 4     , e y y y y y y y t e e e t e t e y y y y y y y y y y y y y t e e e e e w e w w w e t e y y y y y y y y y y t y e e y w y y e y e y e y y y e y y y y y e y e e y e y e y y y e y y y y t y y y y y e y e y y e y y y y y y y y e y e e y e y y e y y y y y y e y y y e y y e y y y y y y y y y y e y y e y y e t y y y y y y y y y y e y e y y e y e y y # X + 4 B H.W.l * - ",
"; @ v 1.t.O + e e e y y y y y y y y y y y y y y y y y y y y D D y D D y y y y y y y y y y y y y y y y y D y D S y D D y y D y y y y y y y y y y D y y y y D D y y y y y y y y y y y y y y D y y D y y y D D y D D y y y y y y y y D y y y D y y D y y y y y y y y y y y y y y y y y y y y y y y y D y y y D y D y D D y D y y y y D y y y y y D D y D y D y D y y y y D D y a y u + 7 -.:.7 @ * ",
"- % z 1.t.+ + y e y y y y D y D y D y D y D y D D D y D D y y S D y D D D D y D y y y e y t y y y y D D D D D D D D S y y y y y y y y y D D D D D y D D y D D D D y a a y y y y y D D D D D D D D y D D D D D G D D D y y y y y D D D D y D D y y y D D D y y y y D D y y D y D D y y y y y y y y D D D D D D D D D D y D y y D D y D y D D y D D D D D D D D y D D y D y y y y 2 + 7 :.:.l $ - ",
"- * z ;.:.+ $ D a D a J D J D D D D G D D D G D o.w.q.w.w.D J D G D D D D D D D D D y  .3.*.*.5.R D G G H D i.i.u.9.K D D D D D D y e.b.i.z.m.G G G D 4.e.u.u.u.u.e.0.r.r.e.u.u.u.u.i.p.] P J G J G G D T 3.3.4.o.o.o.o.3.o.3.4.4.S J D J J D G J G D J D G J G G D D G J J J D D J D G D D D D e.i.i.i.z.P P P D P G J J P J E o...........U P J J J G G J G J J G J G J D a y u + 4 N %.8 * ; ",
"- @ z | ;.$ $ J D D D G D P G G G G G D G G P G R.*X*X*X*XI P P G P G G G G G G D G D I.*X*X*X*Xm.~ G ~ P S *X*X*X*XU D J D D G D H oX%X*X*X*XF P P G ].*X*X*X*X*X*X*X*X*X*X*X*X*X*X*X*X7./ ~ ~ ~ P P ~ i.*X*X*X*X*X*X*X*X*X*X*X&XS G G G G P G P G G P P G ~ G G P P G G P G P P J G G G J P S &X*X*X*X%XP P P P P P P ~ ~ 7.*X*X*X*X*X*X*Xx.P P P P P G G P G P G P J J J y J u O 4 | -.0 * ; ",
"= @ 0 | | + + P G D G J D G G D G G G G D G G D R.*X*X&X*X/ P P P G G P J J G D G D J M.&X*X*X*Xm.P P ~ P D %X*X*X*XT D D D G G J ~ oX&X*X*X*XG P P I [.%X*X*X*X%X*X*X&X*X*X*X*X*X*X*X*X7./ P P ~ P P ~ z.*X*X*X*X*X&X*X*X*X*X*X&XS G G G G P P G G ~ G G P G P P G G P P P G G P G G J J D J S &X*X&X$X&XP P P P ~ ~ P ~ _ w.&X*X*X*X*X*X$Xz.H ~ ~ P Q P P G ~ G P G G G y J y u + 4 -.;.0 < - ",
"= o 0 v | + $ P D G P G P G G G G G G D G G J S R.%X&X*X*X~ P P P P G G G G J G G G J I.*X*X*X*Xm.H G P J t *X*X&X%XL D J G G G P Q +X*X*X&X*XS J J J .X*X*X*X*X*X%X$X&X*X*X*X&X*X*X*X*X7.P P ~ ~ ~ U ~ z.*X*X*X%X&X*X*X*X*X*X*X$XS J H G ~ I P ~ P G P ~ P P G G ~ G P G P G P G P J G D ] ] T &X&X*X&X&XJ J G P ~ Q ~ / ( p.$X%X&X*X%X%X$Xm.P I P G P ~ P P G G P G J J D D D a $ 6 %.;.g 4 - ",
"= @ 0 | %.+ + P J G G G G G G G G G G G G J D S R.%X*X*X*XI J J P G P G G J G G G G G R.*X*X*X*Xb.I G J J S %X%X&X*XL J D ~ Q ~ ~ I +X&X*X*X*Xt J J I .X*X*X*X*X$X$X$X@X@X$X*X*X*X*X*X*X7.P P G  . .E E x.*X&X&X&X*X*X*X*X*X*X*X$XS P ~ I Y I Y I G ~ G G P G ~ G P P G P G P G P P P P U *X*X*X%X%X*X&X&XJ D P G ~ U o.o.o.J.$X$X$X$X@X@XoXK.R T R G G G G P P G P P G P D J D a % 7 %.%.q * = ",
"& @ 0 c | + + ) P ~ Q ~ ~ ~ ~ ~ ~ ~ ~ ~ ~ P P F (.&X%X&X*Xw 2 w ~ P ~ ~ P ~ ~ ~ ~ ~ ~ T.*X*X*X*Xy.w 1 ~ P S %X&X%X*Xi 1 1 ~ ~ ~ ^ _ @X*X&X*X*X1 > P P [.&X*X%XoX> > > > > > 1 1 1 1 1 > > 1 ~ I *X*X*X*X_.Q t 1 > 1 1 2 2 2 2 1 1 w t ~ M.*X*X*X*XQ ~ ) ~ ~ ~ ~ ~ P ~ ~ ~ Q ~ ~ ~ ~ ~ ~ ^ *X*X&X*X*X*X%X&X1 1 ~ ~ ` z.*X*X*X*X! S > > > # # *X*X*X*XF ~ _ ~ ~ ~ ~ ~ ~ ~ ~ P P ~ J % 7 -.| z % * ",
"& + z v %.O $ ~ P ~ ~ ~ P Q ~ ~ ~ Q ~ G ~ P ~ G U.*X&X*X*Xr 2 w P ~ ~ ~ ~ ~ P ~ ~ ~ ~ R.*X*X*X*X<.w 1 P I F &X%X*X*Xs w 1 ) ) ) ) ~ OX*X&X*X*Xw 2 P P [.&X&X$XXXe w w w w w w t e e w 1 1 > / H *X*X*X*XR.) J 1 1 2 w w w 2 1 2 1 w w ) z.*X*X*X*XQ _ ~ ~ ~ ~ ~ ~ ~ ~ ~ ~ P ~ ~ ~ ~ ~ ~ ^ %X$X*X*X*X*X*X*Xr e ~ ~ ` w.*X*X*X*Xg._ 1 1 1 2 # *X*X*X*XQ ~ ~ ~ ~ ~ ~ ~ ~ Q ~ P P P J @ 7 | | 6 4 - ",
"& @ 6 v | + $ ~ ~ ~ ~ P ~ ~ ~ Q P ~ ~ ~ ~ Q ~ Q ).*X*X*X*X2 , e P ~ ~ ~ ~ ~ ~ ~ ~ ~ ~ ).*X*X*X*X:.w 1 P ~ F %X*X*X*Xs e 1 ) ) ~ ~ ~ OX%X%X*X*X1 1 I ~ _.%X*X%XXXw 2 e r e w w w 1 1 1 1 1 1 ~ G *X*X*X&XL.~ D 1 w w e w 2 2 1 1 1 w w _ z.*X*X*X*XQ ~ ~ ~ ~ ~ ~ ~ ~ ~ H ~ ~ ~ ~ ~ ~ ~ / / 7.7.=.*X*X*X%X*Xe e ~ ~ _ 6.*X*X*X*X) y w 1 2 2 > *X*X*X*XF ~ ~ ~ ~ ~ ~ ~ ~ ~ ~ P ~ P J @ 4 | | 0 * & ",
"= @ z v %.+ + ~ P G ~ P ~ P P ~ ~ ~ P Q ~ ~ ~ G R.*X*X%X*X2 2 w P P P ~ P ~ ~ ~ ~ ~ ~ (.*X*X*X*X:.w 1 ~ P F *X*X*X*Xs w 1 ) ) ~ ~ ! oX*X&X%X*X> > P G `.*X*X*XoX2 2 1 w w 2 w w 1 1 1 > > > ~ G *X*X*X*XD.e r y r w w 1 1 1 > 1 1 1 w ~ z.*X*X&X*XW ~ ~ ~ ~ ~ ~ ~ P ~ ~ ~ P ~ P ~ P ~ ~ ~ _ ^ 1 *X*X*X&X&X2 1 ~ P / O.*X*X*X*Xt # r y a r 1 *X%X*X*Xt S ~ ~ ~ ~ ~ ~ ~ ~ ~ P P P J @ 4 v | z * & ",
"& @ l } *.+ + ~ ~ ~ ~ ~ ~ ~ ) ~ ~ ~ ~ ) ~ ) ~ ! _.*X*X*X*Xr 2 e ~ ~ ~ ~ ) ~ ~ ) ) ) ~ (.*X*X*X*X:.w 1 _ ) Q *X*X*X*Xd e 1 ` ` ) ) ) OX&X&X&X*X> # ~ ~ 6.r.r.M H.=.>.<.<.r.<.<.E G J J G G J ~ Q _.I.K.L.t.$.r.S.J.p.p.p.e.I P P G P P ` #.Y.U.K.L.S D ) ~ _ ~ ~ ) ~ ~ ) ~ ) ~ ~ ~ ~ ) ~ ) ) P > *X*X%X&X&X2 1 ~ ~ ~ +.[._.`.oXf 9 3.w.w.9.5..X_.E.Y.> 1 P ~ ) ~ ) ~ ) ~ ) ~ P ~ P @ 4 v %.0 < = ",
"& * z | | + + d.~ ` ` ` ) ) ) ) ) ) ) ) ) ) d.! ).*X*X*X*Xr 2 e ) ` ` d.) ` ` d.` ) ) (.*X*X*X*X=.1 1 _ ' ! *X*X*X*Xs w > ` ' ' ` s.OX*X%X&X*X> # ~ ~ ) _ o.*X*X*X*X*X*X*X*X%XM.a.) ) ~ ~ ) ` ) ) ) w 2 :.*X*X*X*X*X*X%XXX' ' ' d.d.d.d.` ) ) e w w w s.) ) ` ` ` ` ` ) ) ) d.s.` ) ) ` ) ) H > *X*X*X&X&X2 1 ~ ) ~ ) ~ ^ w h %X*X*X%X%X*X*Xk.Q w 1 w 1 ~ a.) ` ` ) a.d.) ) ~ ~ I + 4 v | 0 % = ",
"& @ g | -.+ % ` ~ ) ) ) ) ) ) ) ) ) ) ) ) a.) ) !.*X*X*X*Xr e y ) ) s.) ) ` ) ` ) ) ) /.&X*X&X*X&.w w ` a.~ *X*X*X*Xi w > _ ) ) _ ` OX*X*X*X*X> # ~ ' #.*X*X*X*X*X*X*X*X*X*X%Xm.) ~ ) ) ) ` ) d.a.) w r <.%X*X%X&X*X%X%X.Xf.' f.f.f.d.d.d.) ) 1 2 1 1 ) s.) ` ) ) ) ) ` ) ) ) ) ) ) ) ` s.s.) F &X*X*X%X*X3 1 ) ~ ) ) ) ( 1 h %X%X%X&X*X*X*X6._ w 1 1 1 ~ ) ` ) ) ) ) ) ) ) ) ) I $ 5 | | 0 % = ",
"- * x | *.+ $ ' ~ _ ) ) ) ) ) ) ) ) ) d.) ) d.) _.*X*X*X*Xr r y a.s.` ` ) ) ) ) ) ) ) T.&X*X*X*X=.1 w d.s._ *X*X*X*Xs 1 > _ _ _ ` s.+X*X*X*X*X> > _ ` [ *X*X*X*X*X*X*X*X*X&X%XM.) ~ ) ) ) ) ` ) ) ) w w <.%X%X$X&X%X$X%X.X) f.d.a.a.d.` ` ) ) t w e w ) ` ` ) ) ) ) ` ) ) ) ) ) ` ` ` ` d.d.) ) *X*X*X%X*Xw 1 ) ) ) ) ) _ t k #X%X$X%X%X*X*X6.~ S w 1 1 ~ ) ) _ ) ) ) ) ) ~ ) ~ I @ 4 | $.0 < = ",
"& * x | *.+ $ ` ^ ) _ _ ) ) ) ) ) ) ) ) ) a.) ) R.*X*X*X*Xr r y d.d.` ) ) ) ) ) ) ) ` (.*X*X*X*X=.w w s.d.! *X*X*X*Xi 1 # _ _ _ ` f.OX*X*X*X*X1 > ' ' [ *X*X*X*X*X*X*X*X&X*X%XM.) ^ ) ) ) ) ) ) ) ) G G 9.oXoXXXXX}.^.}.E.E @.j.h.a.d.` ) Q G Q ~ ) ) ) ) ) ) ) ) ) ` ) ) ` ) ` ` ` s.) ` d.d.! &X*X*X%X*Xr 2 d.` ) ~ J P D k $X$X$X$X$X$X%X5.H I I ) ~ ) ~ ) ) ) ) ) ) ) ) ) ) / + 7 v | 0 % = ",
"& * z | %.+ + ` ~ _ ) ) ) ) ) ) ) ) ) ) ) ) ) ! !.*X*X*X*Xr r y d.` ) ` ) ) _ ) _ ) ) (.*X*X*X*X=.w w a.d.Q *X*X%X*Xi 1 # ` ` d.` f.OX*X*X*X*Xw > ' ' [ %X&X*X*X3 3 e r r r 3 w 1 e ) ) ) _ ) ~ ) ~ ~ ~ _ ' J e e 3 2 3 f $X*X*X+X) ` ) / *X&X$X*XQ ) ) ) ) ) ) ) ) ) ) ) ) ` ) ) ) s.) s.` ` ! *X*X*X*X*Xr w ) ~ ' +.*X%X%X*Xg.f.2 2 3 3 > &X*X*X%XQ d.) ) ) ` ) ` ) s.` ~ ~ ~ / + 5 v %.0 * = ",
"- * z | %.+ $ ` ~ ) ) ` ) ` ) ) a.) ) ) ) ) ) ) ).*X*X*X*Xr e y d.` ) ) ) _ ) _ ) ) ` ).*X*X*X*X9.w w s.d.G %X%X&X*Xi 2 , ` ' ' f.s.oX%X*XoX1 w 1 ' f.+.&X%X%X*X2 2 1 e w e e e w 2 ) ~ ) _ _ ~ ~ ) _ _ _ f.I e y e e 2 9 $X%X*X+X) _ ) / *X*X*X*X~ ) ) ) ` ) ` d.) ) ) ) ) ) ` s.) ) d.) d.s.! *X*X*X*X*Xe 1 ` ) _ @.*X*X*X*Xg.f.w e 2 2 > %X*X*X*X~ ) ) ) ) ) ) ) a.) ` ) ~ ) I + 4 v | 0 * = ",
"- * z | %.+ $ ` ~ ) ) ) ` ` ) d.) ) a.) ) ) ) ~ (.*X*X*X*Xr 2 a d.) _ ) _ ~ ) ~ ) _ ` ).*X*X*X*X:.r 1 ) ) Q &X&X%X%Xi w > ` ` ` _ ' .X$X*Xr w w > f.f.+.%X%X%X*X1 1 2 1 e w w e w e ` ) ~ _ ~ ) ) ~ _ ) ' s.I y r w 2 2 f #X%X*XOX! ` _ ^ *X&X%X*X~ ) ) ) ) ) ) ) ) ) ) ) s.s.) d.) s.) ) d.d.! &X*X*X*X*X2 1 ) ~ ' 6.*X*X*X*Xg.( 2 2 e 2 > $X*X*X&XG ) ) ) ) ) ` ) ` ) ` ~ ) ~ / @ 8 v | 0 % = ",
"; * 0 %.%.+ + ` ) ) ) ` ) ) d.) ` ) ) a.) ) ) ) ).*X*X*X*Xr e y ` ` ' _ _ _ ) _ ) ) ` ).*X*X*X*X:.w 1 ) ) G $X$X#X%Xf r 2 f.f.f.` ` XX%XOXr w w 1 f.f.#.*X*X*X*Xw 3 2 2 e r r r e r f.' ) ) ) ~ _ _ ` f.s.f.^ H D r 2 r 9 $X$X$XoXt y _ ^ *X&X*X*XQ d.) ) ) ) ) ) ` ) ) ) ) ) ) ) ) s.` d.` ' ) *X*X*X%X*X2 2 _ ~ ' 6.*X*X*X*X/ t K ( ^ U t &X&X*X$Xw ~ ) ) ) ) ) ) ) ) ` ) ) ) I $ 7 v | 0 % * ",
"- * 0 v v O $ / P ~ ~ ~ ~ ~ ~ ~ ~ ~ Q ~ ~ P P Q R.*X*X*X*X@XoXoX+XoXOXOXOXOXOXl.~ ~ ) ).*X*X*X*X=.1 > P P Q G F > > r.*X*X*X*X*X*X*Xj.H 1 1 1 ) ' ` ` +.*X*X*X*X*X*X*X*X*X*X*X*X*X*X*X*X[ ) ~ F *X*X*X*X*X*X*X*X*X*X*X%X*XD 2 , 2 1 1 ~ ~ P G D 1 w 1 ~ ~ ~ ~ ~ P ~ ~ ~ ~ ~ ~ ~ ~ ~ ~ ~ ~ ~ ~ W *X*X*X*X*X3 > ~ ~ ~ ^ ( [ R y.%X&X*X*X*X*X*Xn.~ s 2 1 1 D ~ ~ ~ ~ ~ ~ P ~ P P P J $ 5 v | 7 % - ",
"= & 0 v v X + ~ P ~ ~ ) ~ ~ ~ ~ ~ ~ ~ ~ Q ~ ~ ~ _.*X*X*X*X%X*X%X%X%X*X&X*X&X*Xz.~ ) ~ ).*X*X*X*X*.1 > P P ~ G ~ > > :.*X*X*X*X*X*X*X6.G 1 1 1 ) ' ` ' [ *X*X*X*X*X*X%X%X%X*X*X*X*X*X*X*X@._ ~ G *X*X*X*X*X*X*X*X*X*X*X%X*X~ e 1 > 1 1 _ ~ ) ~ D 1 w 1 Q ~ ~ ~ ~ ~ ~ ~ P ~ ~ ~ ~ Q ~ ~ ~ ~ ~ ~ Q *X*X*X%X*X2 1 ~ ~ ~ ) ^ ~ I =.%X*X*X*X*X*X%Xx.~ e 2 1 1 G ~ ~ ~ ~ P ~ ~ ~ P P P a @ 5 | | 6 % & ",
"& @ 8 v v X + ~ ~ Q ) ~ ~ ~ Q ~ ~ ~ ~ P ~ ~ ~ ~ !.*X*X*X*X*X*X%X&X%X*X*X*X*X*Xz.~ ) ~ R.*X*X*X*X&.1 > ~ ~ ~ ~ ~ 1 2 =.*X%X*X*X*X*XM.` G 1 1 1 ) _ _ ' X.*X*X*X*X*X%X%X*X%X*X*X*X*X*X*X*X] ( ^ Q *X*X*X*X*X*X*X*X*X*X*X*X*X~ y 1 > 1 1 ~ ~ ) ~ D 1 w 1 ~ ~ ~ ~ ~ ~ ~ ~ ~ ~ ~ ~ ~ ~ ~ ~ ~ ~ ~ ~ Q *X*X*X*X*X2 w ) ) ~ ~ ) ~ G =.*X*X*X*X*X*X$Xz.) y w 1 1 G ) ~ ~ ~ ~ ~ ~ ~ D J P a $ 7 v | 8 % & ",
"= @ 0 c N O + ~ ~ ~ ~ ~ ~ ~ ~ ~ ~ ~ ~ ~ ~ ~ ~ ~ R.*X*X*X*X%X&X&X&X*X*X*X*X%X*Xi.G ~ ~ I.&X&X*X&X&.1 > ~ ~ ~ ~ ~ 1 > 9.$X%X%X&X*X`.~ ~ S 1 ~ ~ ~ / ` ` +.*X%X*X*X%X*X%X%X%X%X%X*X*X*X*X*XX.^ P G *X&X*X&X&X*X%X*X*X%X*X$X*XH y 1 > 1 1 ~ ~ ~ ~ D w 1 1 ~ ~ ~ ~ ~ ~ ~ ~ ~ ~ ~ ~ ~ ~ ~ ~ ~ ~ ~ ~ W &X*X&X$X*X2 e ) ) ~ ) ) ~ y :.$X%X*X%X%X$X$Xb./ y w w w P ~ ~ ~ ~ ~ ~ ~ ~ J J J a + 5 | %.9 * = ",
"& & 8 v | O $ P J P G P ~ G P G P P G G G D P G w.P.b.S.S.D.S.S.D.F.K.F.F.K.F.*.w ~ ~ X.4.8.&.} r 1 1 P P P G P P P U  . . .c x r w D J D G J G P J P P O.q.&.&.&.&.&.*.&.&.&.:.=.>.:.=.w 1 P F q.4.;.&.:.<.<.<.t.t.t.t.1.1 P P J J J G P G P P P P G ~ P ~ P G P P P P J P P P P P G J P P P G e.i.w.:.:.2 1 P G P G G ~ P U 3.*.M %.$.N c i 1 D J P P P P P P P P P P P J y y e X 4 | %.9 4 * ",
"= @ q v %.O $ P J P P P P P P P P P P P J P J P G D y > > > > > > 1 1 1 1 1 1 1 w ~ ~ P D J > > 1 1 1 P P P P P P P J J J 2 2 > 1 1 J P G J G D J J P P J P > 1 2 1 2 1 , > > 2 1 > 1 > > > G G D J e > 1 1 1 1 1 1 1 1 1 1 ~ P P J J P P J J P P P P P P P P P P P P P P P P P P P P P P P P P P J e 1 1 w w P G P G G J P P P G > , , , # > > D G P J P P P P P P P P P y y a 3 O * N v 0 < - ",
"= @ 0 | %.$ % P J P J J G P P G G J P J G J G J J D y > > > > 1 1 w 1 1 w 1 1 1 1 ~ G G J D 1 1 1 1 1 J P G P P P P P P P w 1 1 1 > D J D G G D D J J J P P > 1 1 2 w w 1 1 1 1 1 1 2 > > > D G J G y 1 1 w w w 1 w 1 1 1 w ~ P P P P G G J G P P P P P P P P P P P P P P P J P J P J P P J P J P P y 1 2 1 w P P G J G G P P P D 1 1 > 1 > > > y D G J P J P P P P P P P a y a u O * c v 7 * - ",
"- @ m 1.t.+ * J D D D J D D D D J D D D D D D J D D y > > 1 1 1 1 1 1 1 1 1 1 1 1 J D D D D 1 1 > 1 > D D D D J G J G G D w 1 > > > e y D D D D D D D D D P 1 1 1 1 1 1 1 1 1 1 1 > 1 > 1 > y D D D y 1 1 1 1 1 1 1 1 1 1 w P G G D D D D D D D D D D J D D J D J J D D D D J D D D J D J y J J D D w 1 1 w w J D D D D D D J D D 1 1 1 > 1 > , y D D D J D D J J J J D J y y y u X 4 1.1.8 % = ",
"- @ m 2.v.. + / P J y y y D y D D D D D D D y a y y y e y y y y y y y y e y e y y y S y y y e y t y y y D D D D D D D D D y y y y y y y y y y y D y y y y D y y y y y y y e y e e y e y e e y y y y y e y y y y t y y y y y G D D D S D y y y D y D D D D D D D y J D D D D D J D D y J y D y D D D y y y y y D D y y D y y y y y y y y y y y y y D D y y J D y J y y D J a a J u X * >.1.8 % = ",
"- @ A.@X'.8 8     , y y y y y y y y y D y y y e y y e y y y y y y y y y y y y y y y y y y e y y y y y y y y y D y y y y y y y y y y y e y e y y y y y y y y y y y y y y y y y y y y y e e y y y y y y y y y y y y y y y D D D y D D y y y y y y y y y y y y y y y y y y y y y y y y y y y y y y y y y y y y y y y y y y y y y y e y y y y e y y y y y y y D y y y y y y y e , . $ * Z  XC.q @ = ",
"; @ V.@XW.7 8     # y y y y y D D y a y y y y y e y y y y y y y y y y y y y e y y e y e y t y y y y D y y y y a y D D y D y y y e e y y e y e e y e y y y y D y y y y y y y y y e e y y y y y y y y y y y y y y y y y D y y y D y y y y y y y y D y D y y y y y y y y y y y y y y y y y y y y y y y t y y y y y y y e y y e y e y y y y y y y y y y y y y y y y a e y y y y #   % - C @XB.q + & ",
"; + Z B.C.v.C.* 4 4 , , 2 2 , , , , , , , , # , # , , , , , , 2 2 , , , , , , , , , , # , , , , , , , , , , , , , , , , , , , , , , , , $ , # , , , $ , , , , , , , , , , , > , , , , , , , , 2 > , , , , , , , 2 , , , , , , , , , , , , , , , , , , , , , , , , , , , , , , , , , , , , , , , , , , , , , , , , , , , , , , , , , , , , , , , , , , , , , , # # , , , , # z z l G.V.v.:.z + = ",
"= X z %.;.E.W.p j 4 + $ $ $ $ $ $ $ % $ + + $ + + + $ $ $ $ $ $ + $ + + + + + + + O + + + + + $ $ $ $ $ $ $ $ $ $ $ + + + $ $ + $ + + + $ + + + + + + + + + + + + + + $ + + + + + + + + $ $ + + + + + O + + $ + + $ + + + + $ + $ $ $ $ $ $ $ $ $ + + + $ $ $ $ $ $ $ $ $ $ + + $ $ $ $ $ $ $ $ + + @ + + $ + + + O O + + + + + + + $ + + $ $ $ + $ + + + + + + O + O $ + X 0 z z {.Q.0.8.z O - ",
"=   z v ;.].[.d k 4 O O + + + + O O . X X X O O O + O + $ O O O O O O X . X X X . O O O O O O O $ + O + $ O O O X X O O X O O + + + O + O O O X O O O O O O O O O + O O O O O . O O . O O O O O O . . O O O O O O O O O O O O O O O + O + O O O O O O O O O O + + O + O O + O O O O O + O O O + O O O O O O . X O O O O O O O O X O O O O O O X O O . X O O O . . O O O O . z g z }.'.8.9.z o : ",
"=X=XV   8 8.;.*.*.%.{ { x j x j j j x x x x x x x x { x x x x x x x x { c x c c x x x { c c { x x x x c c } c { x x x x c c c v c } c } c } c { c } } } } c } c } x x c c | } } | } } v } } c } } } } c } c v c } c } } } c c } } } } } } } } } c c c } } } c { c x c c x c c c c c c c c } c c } c c c { c c c x x c x c { c c c c { } } } } c c } c c x x c x x c x c x x %.| | *.;.z   = =X=X",
"=X=XC   8 :.;.-.;.%.x x j j d g d g x x g x x x x x x x x x j x x x j x c c c c x x x x x x x x x x x c c c c x x x x x c c c c c c c c c c c c } c c c c x c x x c x c x c v v v v c v c v c v c c v c c c c c c c c c c c c c c c c c c c c c c c c c c c c c c c x x c x x c x c c c c c c c x x c x c c c x c x x x c x x c c c c c x c c c x c c x x c x x x x c x x j | | %.| ;.p   - =X=X",
"=X=XV.N.* z z z z 6 6 5 5 3 4 4 4 < 4 4 5 5 5 6 6 5 5 4 4 4 4 < 4 4 4 5 6 6 6 6 7 7 4 5 5 5 5 5 4 4 4 4 4 7 4 7 5 5 4 7 7 5 4 7 7 6 0 6 6 0 6 0 6 0 0 g 0 0 6 5 4 4 7 5 6 0 0 0 6 0 8 9 8 9 7 6 9 0 6 0 6 8 0 9 0 0 0 6 0 0 0 6 5 5 6 6 6 6 0 0 0 6 0 0 6 5 4 4 4 4 5 7 7 5 7 5 6 6 6 7 6 6 7 7 6 6 6 6 6 7 6 6 9 0 0 0 0 0 0 0 6 5 7 5 5 6 6 6 7 5 6 6 6 6 0 6 6 6 5 5 5 4 6 0 0 0 d + N.N.=X=X",
"=X=X=X=X  = @ % $ + @ X @ @ + @ @ @ @ % % % % % % @ $ @ @ @ @ & @ % % % * % % % % % % % % % % $ % % % @ @ @ @ % % % % % % % @ @ & $ % % % < % * % % % % * @ % @ @ & @ % % * @ * * % % % % % % * * % % % * @ @ % % % % % * % * % @ * * @ % % % % % * * % @ * % @ @ @ @ % % @ * % % * % % % @ @ * % * @ % % % @ % % % % % @ @ @ % @ % % * % % @ @ % % @ @ @ * $ % % * % % * @ + o o o o o =X=X=X=X"
};
