/* XPM */
static char *lives_21[] = {
/* columns rows colors chars-per-pixel */
"192 48 196 2 ",
"   c #040406",
".  c #060A1A",
"X  c #0E111B",
"o  c #15161C",
"O  c #070C24",
"+  c #0C142A",
"@  c #12182B",
"#  c #02043D",
"$  c #0C1732",
"%  c #121B34",
"&  c #1F2125",
"*  c #162139",
"=  c #24262C",
"-  c #292B33",
";  c #2E3138",
":  c #32343A",
">  c #030749",
",  c #071346",
"<  c #020B58",
"1  c #08135A",
"2  c #151C5C",
"3  c #1B2847",
"4  c #182957",
"5  c #1E3156",
"6  c #212B49",
"7  c #27344F",
"8  c #3A3C43",
"9  c #222F50",
"0  c #283658",
"q  c #343E59",
"w  c #030C64",
"e  c #02156C",
"r  c #111B6A",
"t  c #020C75",
"y  c #011778",
"u  c #121F7F",
"i  c #18226A",
"p  c #1E3367",
"a  c #07217A",
"s  c #182777",
"d  c #1C3078",
"f  c #23286B",
"g  c #2C3D65",
"h  c #323C66",
"j  c #222A78",
"k  c #293C75",
"l  c #383A76",
"z  c #36415C",
"x  c #2E4169",
"c  c #33446B",
"v  c #2E457A",
"b  c #334879",
"n  c #3C507D",
"m  c #414346",
"M  c #5A5A5C",
"N  c #424A75",
"B  c #45557B",
"V  c #525C77",
"C  c #5D626E",
"Z  c #59637A",
"A  c #65676C",
"S  c #666A72",
"D  c #000986",
"F  c #031C87",
"G  c #010D92",
"H  c #041E93",
"J  c #06228C",
"K  c #12228D",
"L  c #062297",
"P  c #162A9B",
"I  c #18349F",
"U  c #233A8B",
"Y  c #263996",
"T  c #020EA3",
"R  c #041AA6",
"E  c #0017B1",
"W  c #0827A7",
"Q  c #122BA8",
"!  c #0C31A6",
"~  c #1734AC",
"^  c #0C2DB8",
"/  c #102FB5",
"(  c #0D31BB",
")  c #1334BB",
"_  c #293BA8",
"`  c #2339B0",
"'  c #2E4681",
"]  c #354D82",
"[  c #395488",
"{  c #2E429A",
"}  c #3F5B91",
"|  c #3246A9",
" . c #2744B7",
".. c #3140B1",
"X. c #3756B7",
"o. c #454C89",
"O. c #465987",
"+. c #535C8D",
"@. c #455D91",
"#. c #545D9B",
"$. c #4C608F",
"%. c #52608F",
"&. c #4D6394",
"*. c #546698",
"=. c #5E719B",
"-. c #64638F",
";. c #7D7E88",
":. c #626F9B",
">. c #677599",
",. c #737D9C",
"<. c #4956A8",
"1. c #4356B6",
"2. c #525FB3",
"3. c #4F64A4",
"4. c #5A68A7",
"5. c #5C73A9",
"6. c #5966B9",
"7. c #646EA7",
"8. c #6A78A4",
"9. c #747CAA",
"0. c #6A75BA",
"q. c #777CB9",
"w. c #041CC6",
"e. c #0A2EC2",
"r. c #102FC3",
"t. c #0D32C3",
"y. c #1336C4",
"u. c #143AD3",
"i. c #1340D5",
"p. c #2748C5",
"a. c #3B61C7",
"s. c #4E6AC9",
"d. c #566BC8",
"f. c #5470CE",
"g. c #5A74D3",
"h. c #6679CA",
"j. c #737DC9",
"k. c #697ED0",
"l. c #7E859D",
"z. c #7885AC",
"x. c #7D8CB5",
"c. c #6F86C2",
"v. c #7A89C7",
"b. c #6B80D1",
"n. c #768AD6",
"m. c #7F95D1",
"M. c #80838A",
"N. c #888993",
"B. c #92979F",
"V. c #848CAC",
"C. c #8C92A4",
"Z. c #9298AD",
"A. c #8589B6",
"S. c #8995B7",
"D. c #959ABA",
"F. c #9FA1A4",
"G. c #94A0BF",
"H. c #A2ACBD",
"J. c #828CCA",
"K. c #8793C7",
"L. c #939AC8",
"P. c #8594D6",
"I. c #939FD7",
"U. c #97A1C2",
"Y. c #99A8DC",
"T. c #B7BBC8",
"R. c #A1ACDC",
"E. c #A6B3DF",
"W. c #B6BDDB",
"Q. c #8FAAE4",
"!. c #98AAE2",
"~. c #A1ADE1",
"^. c #A9B8E8",
"/. c #B3BCE7",
"(. c #BEC2CD",
"). c #BDC2D7",
"_. c #BAC4E9",
"`. c #BACAF1",
"'. c #C4C4C7",
"]. c #C4C9DA",
"[. c #D8D8DB",
"{. c #C5CBE7",
"}. c #CDD4EC",
"|. c #D6DAED",
" X c #C6CCF1",
".X c #CDD5F3",
"XX c #D5DAF5",
"oX c #DEE0EB",
"OX c #DDE1F3",
"+X c #EAE8E9",
"@X c #F0F1EE",
"#X c #EBECF5",
"$X c #F1EEF7",
"%X c #EEF0F9",
"&X c #F8F9FC",
"*X c None",
/* pixels */
"*X*X*X*X= - - = = = - ; ; : : : : : ; ; : : : ; ; - - - - - - - - - = = = = = - - - - : ; ; ; ; ; ; ; - - ; - ; - - - - ; ; ; : : : : : : : : : : : ; ; - ; ; : ; ; - - = = = = - - - - - - : ; ; ; ; : : : ; ; : ; : ; ; ; : : : : : : : : : ; - - - - - ; - ; - = = & - - ; ; - ; : ; ; ; ; : : : : : 8 8 8 8 : ; - - - ; ; ; : : : 8 : ; : ; ; = = - - - ; - = ; - = - - ; : 8 ; ; & *X*X*X*X",
"*X*X*X*X    X o o o + @ @ $ @ @ $ @ @ $ % % @ & @ $ @ + o + o + X + + @ @ @ % @ @ @ @ @ @ @ + @ @ @ @ * @ @ @ @ + + @ + o + @ @ @ @ % & @ % % % % & @ @ @ @ + o + + o + X + @ + @ @ @ @ o + @ @ @ @ @ + @ @ + @ @ @ @ @ @ + X + + + @ @ @ + @ @ @ * % @ @ @ @ @ @ + X + + + @ @ @ @ * @ @ + @ @ @ @ @ @ @ @ % % @ @ @ + @ @ + @ @ @ @ @ @ + % $ @ $ @ $ % % @ @ + + O + + + + + O . .   *X*X*X*X",
"*X*XM m m B.B.-.:.*.@.$.+.@.O.@.O.$.O.$.$.B O.O.O.O.B [ B O.O.B $.O.O.O.$.O.O.O.O.O.B O.[ B B O.O.O.$.B O.O.B O.O.O.O.O.O.O.O.O.B O.O.B B $.O.O.O.O.O.$.$.O.B O.O.B O.O.O.$.B $.$.$.$.V $.$.O.O.O.O.$.$.O.O.O.O.$.[ $.O.B $.$.$.$.O.O.O.O.O.O.O.O.O.O.B B O.B O.$.B n $.B $.B $.B $.B $.O.O.n O.B B O.O.O.B B O.O.O.O.O.B O.O.O.B O.O.O.O.O.O.O.O.O.[ O.O.B O.O.[ B B [ O.%.A.x.x.S.>.x : = *X*X",
"*X*X-   M '.'.>.8.5.*.&.&.*.&.*.*.*.&.&.&.&.$.$.$.$.$.&.&.&.&.*.*.&.*.&.$.$.$.$.$.&.$.$.&.&.&.$.$.&.$.$.$.$.&.&.$.&.$.&.%.&.&.%.&.&.&.&.&.&.$.&.&.&.*.&.&.&.=.*.*.*.*.*.*.*.&.*.&.&.*.&.&.*.*.&.*.%.%.%.%.&.$.&.&.&.$.*.*.*.&.*.&.*.*.&.&.&.&.&.&.*.$.&.&.&.$.*.&.&.&.&.&.*.*.$.$.$.$.$.$.$.$.O.&.$.$.$.$.$.%.$.$.$.O.@.$.$.O.$.$.&.#.@.&.&.$.&.$.$.$.$.@.$.@.@.&.&.$.&.*.7.S.S.G.G.z.V   & *X*X",
"m = A '.F.N.S.%.&.B c x x c c x c x z 0 g 0 0 x x x x x x x x x x x x c x x x x g g x x x 0 x x 0 x g x x x x x g x x x x x x x c c x x x g x x 0 x g x x c c c c c c c c c c c x x x c c c x x x x x x x x 0 x x x x x x x c x x x x x g 0 x 0 x x x 0 0 g 0 g x 0 x x x x x 0 x 5 x x x x x g h g g g x x x z g x g x z x x x g g g g g g x g g g g g g g g g x q g x x g $.O.=.z.z.Z.>.z . - ",
"; o M.[.'.*.*.' v 5 @ $ % @ $ $ @ + + + + + + + + @ + @ % @ $ @ @ + $ + + + + @ + @ @ @ @ % $ @ % $ + @ + + + + + $ $ $ @ $ $ + $ + @ + $ + + + @ + + + @ $ @ * $ @ $ $ $ + $ $ @ @ + $ + $ $ + + @ @ + @ @ $ $ $ @ + + @ @ $ @ $ @ $ @ $ $ + $ + + $ % % % $ $ % % $ + + $ % @ @ $ @ % + + $ % $ $ $ $ + @ + + + + $ + + + + + $ + + + $ $ $ + + + $ + + + + $ $ $ $ % $ + p k ] &.8.#XV.c * - ",
"& o l.+X].$.3.k v 4 + $ $ + + + + + + O + + + + + + $ $ + + + + + + + $ X + + + + + $ + $ + + + + + + + + + + + + $ + + + + + $ + + + + + + + O + O O + + + + + $ + + + + + + + + $ + + + + + + + + $ $ $ $ + + $ + + + $ + % $ + + + $ + + + + + + $ + $ + $ @ @ $ @ + + + $ + $ + + $ + $ + + + + + + + + + + + + + + + + + + + + O + + + + + + + + + + + + + + + + $ $ O p d v *.=.).C.9 $ - ",
"& o Z U.S.1 4 . . 1 y y y y e e e e e e e e e y e e e e y e y e e e e e e e e y y e e y e y y e e e e e e e e e t e e y e e e y e y e y e e e e e e e e e y e e e t e e t e e y e e e e e e e e e e e e e e e e e e y y e y e e e y e e e e e e e e e e e y e y e y e e y e e e e e e e e e e e e e e e e e e e e e e e y e y e e e e e e e e e y e y e e e e e e y e y e y $ + $ , 0 D.S.z $ - ",
"= + Z G.x.p p . X 1 a a y e e e e e e e e e e e e y e e e e e e e e e e e e e e e e e y e e e e e e e e e e e e e e e e e e e e y e y e e e w e e e e e e e y e e e e e e e e e e e e e e e e e e e e e e e e e e e y y y e e y e e e e e e e e e e e e e e e e e e e e e e e e e e e e e e e e e e e e e e e e e e e e e e e e e e e e e e e e e e e e e e e e e e e e e y $ O $ 3 q S.S.z $ = ",
"- o V z.z.4 4 , # e y y e e e y e e y e y e e t y e e y y e e y e e e y e y y y y y y e y y y e y e y e e e y y e y y y y e e y e e e t y e y e e e e t t y y y y e y y y y e e e t e e e e e y e y e e e y y y y y y a y t y e e e y y e e e y e e e y e y e a y y y e y a y e y e y y y e e y e e e y y e e e e y y y y y y e e e e y e e e y e y y y y e y y y y y y y e e , , % 7 z.z.0 % - ",
"- @ c >.=.O @ y y F y y y F F y y F y F y F y y y y y y y y J y y F F y a y J y y y y F F y F F J y J y u y F F F F y y F y u y y y y y y F F F F F F F F F J y H H H F F F F F F F F y F y y y y y y y y F F F F H J J F F F y y y y y y y y y y y y y y F a F J y y F a y J J y a y y y a y y y y y J F y y y F y y F F y F y y y y y y y y y y F F F F F F y J y F y a y e e e + 3 =.>.7 , - ",
"- % c =.=.+ + y y a y y y y y y y y y F y y y y e w e t y F F F F y y y y F y y y F y e e t y y y F F J F F y y y y y y y y y y y y y t y y F H H H F y y t y y t y y y y t t y y t t y y F y F y y y y t t y y y y F y F y e t e y y F y y y y y y y y y y y y y y F y y F y y y F y y t e t e y y t y y e F F y F y F y F y y F y F y y e e t e e y F F F y F y F y y y y e e 1 + * =.=.7 % - ",
"- @ x [ O.O + J J J F J H J J H H L H J J F F y J./.`._..XL L L L J L J L J J L J J J I.}..XXX|.6.L L L L J |.XXXXXX{ J J J J F J F W._. X.X%XH L L L ~.}.XXXXXXOXXXXXXX}.XXXXXXXX.XXXXX2.L L L L J J F j.{.{. X.X.X.X.X.X.X X X Xt H H L H J H H J J J L J L J J L J L L L L J L J L 6.{._. X_._././._./.!.G K L L L L L L L L L J J J L v.#XXXXX+XD J J L L J L L J J J y a y e + * n n 7 * - ",
"= % z O.@.O + J y F H J F H H J L H H H H H F F I.$X%X%X&X! L L L H H H H L H H L L L !.@X$X&X&X0.! W L L y &X$X&X&XY L J J L L L P }.@X$X&X&XH L L K W.$X%X&X&X&X&X&X&X$X%X$X&X&X&X&X&X6.P L L L L L H v.&X&X&X&X&X&X&X$X&X%X%X%XD H H H H H L J H L H J L H L L J J H H J H L L L L j.$X$X$X%X$X%X@X&X$X}.H L L L L L L H H J L L L L P P.#X$X%X&XD H H L L H H J L H L F a y a + * n [ 7 * - ",
"= * z [ O.O + J a F J F H J H H H H H H H F J G Y.&X&X%X&XP H H H J H H H L L L L L L ^.&X&X&X&X0.L L L K D %X&X$X&XU L L L L L L P |.&X$X&X&XG L K F /.&X&X&X&X&X&X&X$X%X&X&X&X&X&X&X&X2.Q W W W P L L v.$X&X&X$X%X%X&X&X&X&X&X$XD L L L L L L H H H L H J H J J H J H J H L L L L L c.&X&X&X&X&X&X&X&X&X}.R R L L L L L H H L J L L L L K.%X&X%X&XD H H L H H H L J H J F y a a @ 3 [ [ 7 * & ",
"- @ x [ @.O + J F F F H H H H H J H H L H L L F R.&X&X%X&XL J F H J H L H L H L L H H ^.&X&X&X&X0.H F K J t &X%X%X&X{ H L L W L L Q |.$X&X&X&XF J J H ).&X&X&X&X&X&X%X%X$X&X&X&X&X&X&X&X6.W W W ! ! P L j.$X$X%X%X%X%X%X%X$X&X&X%XD W W L W P L L L J H L H L H H J H L J F F L H L L j.%X&X&X&X&X&X&X&X%X|.F K W L L L H J L H L H ^.!.Y.}.%X&X&X&XD J H L J H H J H J J F J a a @ 3 [ [ 5 % - ",
"- % q [ $.O $ L H H H H R H W H L L L W H W L H !.&X&X%X&XK y u W L W W H W L W L W L ^.%X&X&X&X7.y y J J D $X%X%X%XU F y W W W W Q oX%X&X&X&Xt r J F /.&X&X&X&X&X&X&X&X&X&X&X&X&X&X&X&X3.F Q Y x.v.q.q.Y.&X%X&X&X%X&X&X&X&X&X&X&Xt W W X.5.6.0.6.H W H W R L L L L L L L L H L L L W n.&X&X&X&X&X&X&X&X&X|.w K U I R L W W W W W P &X$X&X$X&X&X&X&X< e y L L L L L L L L H H J J @ 6 B [ 7 * - ",
"= @ q O.O.O + W L W W W W W W W W W W W W W W R ~.&X&X%X&Xw 1 e W W W W W W W W W L L ^.&X&X&X&X*.1 , L L D &X&X&X&Xd < 1 ^ ^ W ^ ) |.&X$X$X&X< < L H _.&X$X%X].1 < > < < w w w w w 1 < < > ) | &X&X$X&Xq.H w > < < < < < < < < w w w / Y.%X&X%X&XT W R W W W Q W W W W W W W P W W W W W W 1 1 r w e e r W.&X@X$X}.R W W W W W ( W &X&X&X&X&X&X&X&X> < y W W L W W L W Q W W L J @ 6 } O.7 * * ",
"- @ g [ O.O $ ! W W L W W W W W H W W L W W W H !.&X%X%X&Xw 1 e E W W W W W W W W L L ^.&X&X&X&X*.w < L P D $X$X&X&Xd 1 < / ^ ^ ^ ^ }.%X$X&X&X< > L R _.&X&X#X{., > 1 > < w w w w w < > > > ) _ &X&X&X&Xq.R w < < < w < < < < < < w w W Y.$X&X&X&XT W ^ W W W W R W W W W W H R W W W W W Q < < > w < w 1 W.&X&X$X}.T W W W ^ ^ / Q &X&X&X&X&X&X&X&X> < y W W W W L W W W W W L J * 3 O.[ 7 * - ",
"- @ z n } + $ W L W W W W W W L W W W W W W W R R.&X%X%X&Xe 1 y ^ W W W W W W L W L W ^.&X&X&X&X-.w < W W G &X&X&X&Xd w < W W W W ^ }.&X&X&X&X< < ! W /.%X%X#X].> > > < 1 < 1 w w < < < < > / _ &X&X&X&XA.L r w w w < < < < > < < < w Q Q.&X&X&X&XT W W W W W W W W W W H W W W L W W W W W < < > < < < 1 ).$X&X$X}.G W W W W W ^ W _ _ j H.&X&X&X&X> < u L R P W W W R W L W L J % 3 O.$.7 * * ",
"- @ z [ O.O $ W L W W L W W R W W L W W W W W R ~.&X$X$X&Xe w y W W W W W W W R L W W ^.&X&X&X&X#.w 1 W W G &X&X&X&Xs w 1 W ^ ^ W ^ |.%X&X&X&X1 < ^ ^ {.&X&X&XT.> > > w < w < w e e w w w w (  .&X&X&X&XA.D D y t t w w w < < < w w e ! Q.&X&X&X&XT ^ W W W W W W W W W W W W R W R W R W W F t y t y u K ].#X#X#X{.H L W W W W W W Q W t Z.&X&X&X&X> < y W L W W W W W W L L L J @ 3 O.[ 0 * * ",
"- @ x O.@.+ $ t.( ( t.^ r.^ ^ ( e.( e.^ t.( e.e.!.$X&X$X&Xr 1 F t.t.e.( / / / ( ) ) e.`.&X&X&X&X*.w < r.y.R &X&X&X&Xi 1 > ( ( ( ) y..X&X&X&X&Xw < ( ^ ^ _ e ).&X&X&X&X$X$X&X$Xj.( ^ ^ ^ ( t.e.t.t.e.> , V.&X&X&X&X&X&X%X_.Q W / ^ ( t.e.e.e.( e < w > t.r.e.( ( e.^ ^ ^ ^ ^ ^ ^ ^ / ^ ^ t.r.y.Q.&X&X&X&X&X&XR W > > 1 < ^ ^ ^ ^ e.^ ^ Q t D.&X&X&X&X> < K t.y.r.e.t.e.t.e.^ ^ ^ ! $ * [ O.9 * - ",
"- @ z O.@.+ $ t.^ ( ( ^ ^ ( ^ ^ ^ e.( e.( r.( ^ !.$X$X&X&Xr r F t.( ( ( ^ ^ / ( t.t.y./.&X&X%X&X#.w < ( t.R &X&X&X&Xr 1 , / ) / ^ e..X%X&X&X&X1 < ^ t.p.J.&X&X&X&X&X&X&X$X&X$Xh.^ W ^ ^ ( ( e.e.t.e.# $ A.%X%X&X&X&X&X%X_./ W Q ^ ( e.( e.t.e.e < 1 < ^ / r.( ( r.^ e.^ ^ e.^ ^ ( ^ ^ r.t.t.y.!.&X&X$X%X%X&XW / > > < w ^ ^ ^ ( ( ^ ( Q w V.&X&X&X&X# < L ( ( t.( t.e.( ( ^ W ^ L @ * O.O.5 $ & ",
"= % g O.$.+ % t./ ( e.^ ( e.^ e.^ ^ e.^ e.( ^ ^ I.&X&X&X&Xr 1 F t.) ( ^ / / ( ( r.y.t.^.&X&X&X%X#.w < ( y.W &X&X&X&Xr < > / / / / ^ .X&X&X&X&X< < ^ y.b.&X&X&X&X&X&X&X&X&X%X#Xj.^ W ^ ( ( ( ( ( ( e.> > A.&X&X&X&X$X&X%X_.( W / ( ( ( t.t.t.t.e < < > ^ ^ ^ ( ^ ^ ( ( e.^ ^ r.^ ^ ^ ^ ( r.r.y.^.&X&X&X%X&X&XE ^ < w w e ^ ^ ( ^ ( ( r.( ` K.&X&X&X&X> < L ( r.t.e.( e.( ( W ^ W P + 3 [ O.6 * = ",
"= % x O.+.+ $ e.^ ^ ^ ^ ^ ^ ^ ^ ( e.^ ( ( ^ ^ E I.&X&X&X&Xu r F t.( ( ( / ( ( ( ) t.t.^.&X$X@X&X#.< < ( t.R &X&X&X&Xi < > ( / ( ( r..X&X&X&X&X< > Q t.g.&X&X&X&X&X&X&X&X&X&X&Xv./ / ^ ^ ( ( ( ^ ^ ^ e < K.&X&X&X&X&X&X&X|.t Q R e.t.t.t.e.W W R L ^ ^ ^ ^ ^ ^ ^ ^ ^ ^ ^ ^ ^ ^ ^ ^ ^ ^ ( y.y.y._.#X$X#X#X#X$XR ^ w t t F e.e.( ( ^ ( ( ( y.P.&X&X&X&X> w K e.( t.( r.^ ^ e.W ^ W ! + * $.[ 7 * = ",
"- @ x O.+.+ $ e.Q ^ ^ ^ ^ ^ ^ ^ ^ ^ e.^ ^ ^ ^ ^ !.&X&X&X&Xr w F e.( ( / / ( ( ( t.t.t.^.&X$X&X&X*.w < e.e.R &X&X&X&Xi w > y.r.y.r.y.XX&X&X&X&X> > Q ( h.&X&X&X&Xf f f f 4 2 2 r < w ^ ^ / ^ ( ^ ^ / ^ ^ ^  .Y k f f f f h {.XXoXQ.e.e.e.X.}. X.XXXW ^ ^ ^ ^ ^ ^ ^ ^ ^ e.^ r.r.^ e.^ (  .d.d.g.`._.W.I.S.A.K.H H u.u.t.t.t.e.e.( e.( ( ^ y.P.&X&X&X&X> 1 L ( ) ( ( ( ^ r.( W W ! L + 3 n O.9 % = ",
"- % x O.$.+ $ ( Q ^ ^ ^ ^ ^ ^ ^ ^ e.( ( ^ ^ ^ E !.&X&X&X&Xr r y ( / / / ( ( ( ) ^ ( ( ^.%X&X&X&X-.w < e.e.R &X&X&X&Xr w < y.y.t.y.y.|.&X&X$X&X> # W / b.$X&X&X%Xw r r w w r w w w < ^ / ^ ^ ^ ^ / ^ W ^ / r.P e e e r r f @X&X&X_.t.e.(  .$X$X$X&XE ( ^ ^ ^ ^ ^ ^ ^ ^ ^ ^ ^ r.^ ( e.y.f.&X&X&X&Xw.R D > # # < > y.t.t.t.^ e.e.e.r.( ( ^ y.P.&X&X&X&X> w K ( ( ( ^ r.^ ( ^ ! W W P @ * O.O.9 * * ",
"- * z [ $.+ $ ( W ^ ^ ^ ( ( r.^ r.( ( ( ^ ( ^ ^ !.&X&X&X&Xr w r / / ^ ) ( ( ( ^ / / ! ~.%X&X&X&X7.t < ( ( G $X$X$X&Xi w > y.u.t.y.y..X%X$Xc.y < > ! ^ b.%X&X@X#X1 1 1 w w w w w w 1 ( Q ^ W / Q W ^ ^ / ) ( P e e w 1 w l @X&X&X^.e.^ /  .%X&X&X&XW ( ^ ^ / ( ^ ^ ^ ^ ^ ^ r.^ r.) r.t.f.&X&X&X&Xw.^ r < > < < < y.r.r.e.( ( ( ( ^ ^ ^ / ) P.&X&X&X&X> w H ^ ^ ^ ^ ^ ( ^ ^ ^ W W ! @ 3 [ [ 9 * - ",
"- * g O.O.+ + ( / / ^ ^ ^ r.e.e.( r.^ e.^ ^ ) ^ ~.&X&X&X&Xr 2 r ( ) y.y.y.u.y.) W ^ W ~.$X&X&X&X4.w < ^ ^ G #X#X$X+Xi r 2 i.u.u.y.y.}.#X&X! t < > ! ^ n.%X$X&X#Xr 2 r w r r r r r w y.y./ / ^ ^ ~ ) ) y.y.) ~ K u 1 2 2 N &X&X&X Xe.( / | %X&X&X&XE ^ ^ r.^ ^ ^ ^ ^ ^ ^ ( e.( ( e.( ( s.&X&X&X&Xw.P 1 2 1 1 2 r u.u.t.e.^ ^ ) ^ ( ( ^ / y.P.&X&X&X&X> < F ^ ^ ^ ( / ^ ^ ^ ^ W ^ ! + 3 O.O.5 * & ",
"- % g O.O.+ + ^ W W W ^ ^ W ^ ^ / W W / ^ ^ / W ~.&X&X&X&X1 < w ! ~ / )  . .~ / Q W W ^.&X&X&X&X4.e < ! W H K.K.A.A.l b o.d.h.h.h.d.K.q.6.F D t e Q ) n.&X&X&X$X+.V +.o.#.#.*.7.7.*.d.6.W ! Q W h.d.d.d.d.d.s.d.d.o.o.+.-.l l h j e e ^ ~ <.1.[ o.G H ^ ^ W ^ ^ ^ Q W ^ / W ^ / ^ ^ ^ d.$X&X$X&Xv.9.9.9.8.9.9.9.J.I.^ ^ ^ ^ ^ ^ W / ^ ^ y.P.&X&X&X&X# > F W Q Q W ^ Q Q ^ L W W J @ 3 O.@.3 * & ",
"- % 0 O.[ O + ! L W W W W W W W W W W W W W W W ~.&X&X&X&X&X&X&X&X&X&X&X&X&X&X6.W W W ^.&X&X&X&X=.< > L L W W L > , D.&X&X&X&X&X&X$X1.P r w y ^ ^ ^ ) J.&X&X&X&X&X&X&X&X&X&X&X&X&X&X&X&XR Q ! ~ &X&X&X&X&X&X&X&X&X&X&X&X&XI u r r e 1 ^ W / W e 2 1 > ^ W W R W W W W W R W W W W W W f.&X%X$X&X&X&X&X@X@X&X$X&X&X&XE ^ W W W W W W ^ W / P.&X$X&X&X# < F W W W W W W W W L L L J * 6 } O.5 % = ",
"- @ q n O.O + ! W W ^ W W W W W W W W W W W W W E.&X&X%X&X$X$X&X&X&X&X&X&X&X&X6.W W W ^.&X&X&X&X#.< , W W W W ! < 1 D.&X&X&X&X&X&X#Xa.R w w F W Q ^ ) Y.&X&X&X&X$X$X$X%X$X$X&X&X&X&X&X&XW Q / ~ &X&X&X&X&X&X&X&X&X$X$X%X&XQ e < > < < W W W W w < w < W W W W W W W W L W W W L W W Q d.&X$X&X$X$X&X&X&X&X&X&X&X&X&XR W W ^ W W W W W ^ ( P.&X&X&X&X> < F W W W R W W W W J L J J @ 3 O.O.6 * = ",
"- @ 0 [ O.O + ^ L W W W W W W W W W W W W W ^ W Y.&X&X&X$X&X@X&X&X&X&X&X&X%X&X4.P W W ^.&X&X&X&X#.< < W W W W ! w < L.&X&X&X&X&X&XE R w < < y ! ^ ( ) Y.&X&X&X&X$X&X$X&X$X&X&X&X&X&X&X&XP ~ / ) &X&X&X&X&X$X&X&X&X&X%X$X&XQ e < > 1 1 W W W W w 1 w < W W W W W W W W W W W W W L W W s.&X&X&X&X%X&X&X&X&X&X&X&X&X&XT W / W W ^ W ^ W ^ ^ m.&X%X@X&X> < F W W W W W W W W L J J K + 3 [ O.6 , = ",
"- & 0 O.O.O + W L W W W W W L W W L L W L W W H ^.&X&X&X&X$X&X&X&X&X&X&X&X@X&X*.< W W `.&X&X&X&X7.< < W W W W W F y W.&X&X&X&X&X*.t J e e K H W W Q ) ~.&X&X&X&X&X&X&X&X&X&X&X&X&X&X&X&Xe < ( ` &X&X&X&X&X&X&X&X&X&X&X&X&XK a y y e y L W L L F F y F W R L L W W L H R L L W W H W L g.&X&X&X&X&X&X&X&X&X&X&X&X&X&Xt y W W W W W W W W ! m.oXOX|.|.# < F W W L W W L W W J J J a + % O.O.6 % = ",
"- @ z O.$.O $ W L L L W L L H H L L L J H L L L H F y # > # # > > > > # > > # > > L H F G F 1 , < w < W L L L L L H H H H 1 > > > > e J J J L L L L L L K L # , , , > > , , > , , 1 < > < > W H H F < # # # # > > > > > > > y L J L J L J L L L L L L H W L L H H W L L L L H H H L L H H H # , , > > , 1 1 2 1 < > < > H L L L L L L L L L L L < 1 < < y L L L L L L L L F F a a + 3 O.O.3 $ = ",
"- @ q [ O.O $ L J L L L L L H L H J H L L H J L J J y > < < < 1 w w 1 1 1 < < > > H H H F H 1 < < w w W W L L L L L J L L e < > > > y L J L L J L L L L J J > < < < 1 < < < > < 1 > > < < > L L L J w < < 1 < 1 < w w 1 w < J J L L J J L L H L L L L L H H H W L L L L H L L H L L H J J J > < > 1 < < < < w < < < < > H J L L L L L L L L L L < 1 < < y L L L J L J L L y F J a * 3 [ O.3 $ = ",
"- @ B >.>.. $ L F H H H H H H F H H F F F F F H F F y < < w w w < w < < < w < < > F F F F F < < < w w L L H L L H H H H L w < > 1 > y J F J H F J J J F J F > < < < < < < < w < < < > < > < L H H F e < < < w w w w w w w < F H J J J F J F H F F H L J H H H J H H H F J H H J H F F F F J < < < < < < < < w < < < < > H H H H L J J J J J L L w w 1 < y H J H F F H F F y J J a % 7 >.-.6 % & ",
"- @ B l.>.X $ H F F H H H H F F F F F F F F F F J F y < < < < w < < < < < < < < > F F F F F > < < < < H H H H L H H L H L w < < > > e J J J F J J J F J F H > < < < < < < < < < > < > < > > J J H J w < < < < < < < < < < > F F F J J H J F F F F H F F F H F H F F H H H F H J H F J F F J > < > < < < < < < < < < < > H F F H J F F H F H H L < w w < y H F F F F F F F F F y e * 7 z.>.3 $ & ",
"= @ N.[.(.5 z O . 1 y y y y y y y y y e y e y e e y y y y y y y y y y y y e y y y y t y y y y y y y y D F y y y y y y y y y y y y y y y y y y y y y y y F y y y t y y y y y y y y t y y y y e y e y D y F y F y F y y F y F y y y y y y y e y y y y y y y t y y y y y y y y y y y y y y y y y y D y y F F y y D y y y y y y y y y y y y y y y F y F y F F y y y y y y y y e , O $ - C ].C.3 + & ",
"= o N.+X(.0 z   . , y y y y y y y y y y y y e y y y y y F F F y F y F t y y y e y y y y y y y y y y y y y y y y y y y y y y y y y y y y y y y y y y y y y y y y y y F y F y y y e y y e e y y y y y y y F y F y y y y y y y F y y y y y y y y y y y y y y y y y y y y y y e y y y y y y y y y y y F F y y y y y y y y y F y F y F y y y y y y y y y y y y y F F y F y y y y O   + - A +XD.9 @ @ ",
"= o N.$X'.p 0     # y y y y y F F y F y y y y y y y y a y F F y y y y y y y e y e y y y F y F y y y y y y y y y y y y y y y F y y y F y y F y y y y y y y y y y F y y y y y F y y y y y y e a y y y F y y F y y y y y y y y F F F F y F y F y y y y y y y y y y y y y y y y y y F y F y y y y F y F y F y y y y y y y y y F y F F y y F y y y y y y y y F y F y F y y F y e .     @ S @XU.q % = ",
"=   N *.5.T.T.n n 3 + + + $ $ $ $ $ $ $ $ + $ + + + $ + $ $ + $ $ $ + + + + $ + + $ $ $ $ $ $ + $ + $ $ $ $ $ + + $ + $ $ $ $ $ $ $ $ $ $ $ $ $ + $ $ $ $ $ $ $ $ $ $ $ $ $ $ + $ $ + $ $ $ + + $ $ $ $ $ $ $ $ $ $ + $ $ + $ $ $ $ $ $ + $ $ $ $ $ + + $ $ $ $ + $ $ $ $ $ $ $ + $ + $ $ $ $ $ $ $ $ $ $ + + + + $ + $ $ $ $ $ $ $ $ $ $ $ $ $ $ @ $ $ $ $ $ $ $ $ $ $ + . 5 5 x (.T.8.5.g % - ",
"&   n +.5.].T.] n 3 . O + $ $ + $ $ + + O O O O O O O + O + + O O + + O O O O + O + O + + + + + + + + + O + + O X + + + + + $ + $ $ + $ + $ + O + O O + O + O + O + + + O + + O O + + + + + X O O O + + + + O + O + + O + O O + O + @ + + O + O O + O + O + O + + O + + O O + + O + + + + + + + + + + O + O + O O + O + O + + O + + + + + + + + + + + + $ + + + + + + + O . 9 9 h '.(.3.3.g @ - ",
": o 8 N b } [ O.B n ] ] ' [ ' ] [ ] ] ] [ ] [ [ ] [ ] [ ] ] ] [ ] [ [ [ ] [ [ ] [ [ [ [ [ [ [ ] ] ] ] [ ] ] ] [ ] [ [ [ [ [ [ [ [ [ [ [ [ [ [ [ [ [ [ [ [ [ [ [ [ [ ] ] [ [ } $.$.O.$.O.O.} } } } $.} @.$.@.@.@.$.[ $.} } @.@.@.} } } } @.} } @.} } } } } } [ [ [ [ [ [ [ } [ [ [ [ [ [ } [ [ } [ } } [ [ [ [ [ [ [ [ [ } [ @.@.} } [ } [ } [ [ [ O.[ [ [ [ [ [ ] [ ] ] ] b &.O.O.+.O.v b @ o ; ",
"*X*XA   z =.*.O.[ n ' ' ' ' v ' v v v k ' v v ' v v v v ' v ' v v v b ] ] ] v ] ' v v ' v v ] v v ' v ' v v v v v b v b ] ] ] ] ] ] ' ' ] b b ] ' b ] v ] ' ' ' ] ' ' v b [ n [ [ [ n [ [ [ [ [ [ [ [ O.[ [ o.[ [ ] [ [ [ [ [ ] ] [ ] [ [ ] [ [ [ [ ] n n ] ] ] ] ] ] ] ] ] ] b ] ] ] ] ] ] [ [ [ [ ] ] ] ] ' ] [ b ] ] ] [ [ ] ] n ] ] [ [ [ ] ] [ ] ] ] ] ' b ] ' b b v k @.O.@.*.5.3 X   *X*X",
"*X*XS & z n B n B v k x k k p x g g g g g g g g x x x x g g g g x x x c c c x g g g g g g p x x g g g g g g g g x p x x g g x x c x x g x x x x g h g c x h h g x x h h x c c c h l c c l c h h x c c x c c c c c c c c c c h h c c c v b l b c c b c b b c b c v h h x g x c l c c b c b h c c c x h g x g g g x x g g g h g g x l b b c c b c c b b c x c c c c x v b c v B B B n [ + o o *X*X",
"*X*X*X*X  X X O + + $ @ $ $ $ + O + + + + + + + + $ + $ $ @ @ @ $ $ $ $ $ # $ + + + O $ + + + + + + + $ + + $ $ + $ $ $ % $ $ $ $ @ + + + @ + + $ @ + $ $ $ + $ $ @ + $ + + + + O + $ @ $ $ $ $ @ @ $ $ @ @ % $ % $ $ $ @ $ $ $ $ + $ + + + $ % % % % $ $ $ % $ + $ + $ $ % $ + $ $ $ $ $ $ $ $ + + + + $ O + O + @ + $ @ + + @ @ + % % $ % % $ $ $ $ $ $ $ + + $ $ $ $ @ + + + X X X   *X*X*X*X",
"*X*X*X*X  X . . X + O + O O X . O . O + O + + + O + O O + O O + O O O $ + + + $ O O O . . . . . . O . O + O O + O O + + O O O O O O O O O O O O O + + + O O O . O O O O O + O O O O O O + O O O + + O + O O + O + + + O + + O O O . O O O O O + + @ + + + O + O O O O O O O O + O O + + + + + + O O O O O O O O O O O O O O O O O O O O + O + O + @ + + + + + + + O X O O + @ @ @ @ o . *X*X*X*X"
};
