/* XPM */
static char *lives_22[] = {
/* columns rows colors chars-per-pixel */
"192 48 191 2 ",
"   c #020209",
".  c #040617",
"X  c #0B111B",
"o  c #141518",
"O  c #080C24",
"+  c #0C142A",
"@  c #12172B",
"#  c #00003B",
"$  c #0C1731",
"%  c #121A32",
"&  c #1D222F",
"*  c #1D2434",
"=  c #25272D",
"-  c #292C34",
";  c #2E3137",
":  c #32343A",
">  c #020649",
",  c #09134A",
"<  c #181F4D",
"1  c #020B58",
"2  c #091257",
"3  c #14195A",
"4  c #0C204B",
"5  c #19274A",
"6  c #1C2B54",
"7  c #1F3059",
"8  c #242D4B",
"9  c #283449",
"0  c #30334B",
"q  c #212B54",
"w  c #263559",
"e  c #333D5E",
"r  c #020D64",
"t  c #02156C",
"y  c #141B68",
"u  c #010B76",
"i  c #011778",
"p  c #121A78",
"a  c #192662",
"s  c #1C3267",
"d  c #092175",
"f  c #18297C",
"g  c #212768",
"h  c #2C3D64",
"j  c #323968",
"k  c #2A2C74",
"l  c #283B72",
"z  c #363C74",
"x  c #34405F",
"c  c #2E416A",
"v  c #33446C",
"b  c #2E4478",
"n  c #354975",
"m  c #3E507D",
"M  c #444446",
"N  c #4B4D57",
"B  c #545655",
"V  c #53576F",
"C  c #42547D",
"Z  c #595E74",
"A  c #7A7B7A",
"S  c #000C8A",
"D  c #031C88",
"F  c #000993",
"G  c #031D93",
"H  c #131E92",
"J  c #06218C",
"K  c #152589",
"L  c #062297",
"P  c #172895",
"I  c #1B339A",
"U  c #323381",
"Y  c #223199",
"T  c #333D9E",
"R  c #000CA3",
"E  c #021CA7",
"W  c #030BB7",
"Q  c #001DB5",
"!  c #0827A7",
"~  c #122CA8",
"^  c #0E32AC",
"/  c #1732AB",
"(  c #0C2DB8",
")  c #122FB4",
"_  c #0D31BA",
"`  c #1435BA",
"'  c #2638A7",
"]  c #243CB7",
"[  c #364D82",
"{  c #3B5589",
"}  c #3E5B91",
"|  c #2145AE",
" . c #2A44B8",
".. c #324AB9",
"X. c #3957B7",
"o. c #464A89",
"O. c #475987",
"+. c #555A8B",
"@. c #435D92",
"#. c #5A5E94",
"$. c #4E608C",
"%. c #566789",
"&. c #4C6394",
"*. c #526797",
"=. c #68688D",
"-. c #6D728C",
";. c #72788D",
":. c #676B97",
">. c #69749B",
",. c #72769B",
"<. c #495EA6",
"1. c #4C5BB9",
"2. c #4E65A2",
"3. c #5569A2",
"4. c #5E73A5",
"5. c #4D65BB",
"6. c #5A6AB8",
"7. c #656DA5",
"8. c #706FA9",
"9. c #6A76A4",
"0. c #747CA6",
"q. c #606DB2",
"w. c #6C76B7",
"e. c #7379B9",
"r. c #0A2EC2",
"t. c #0D32C4",
"y. c #1235C5",
"u. c #0934D3",
"i. c #143BDA",
"p. c #2E4BC0",
"a. c #475CC8",
"s. c #4962C7",
"d. c #5468C5",
"f. c #5E77C2",
"g. c #5E7CD3",
"h. c #697AC8",
"j. c #757FC3",
"k. c #6E80AB",
"l. c #7885AA",
"z. c #7988BA",
"x. c #6F81CD",
"c. c #7988C7",
"v. c #7889D1",
"b. c #7D92DA",
"n. c #8A8B8E",
"m. c #9A989E",
"M. c #858CA7",
"N. c #8287B3",
"B. c #8E95B7",
"V. c #949ABB",
"C. c #9DA1AF",
"Z. c #94A1BF",
"A. c #A7ACB3",
"S. c #B8B7B9",
"D. c #848CCB",
"F. c #8893CA",
"G. c #939CCA",
"H. c #818ED1",
"J. c #8596D5",
"K. c #9CA3C2",
"L. c #96A6DB",
"P. c #A4ABC9",
"I. c #A9B1CE",
"U. c #B7B7C5",
"Y. c #A4AED9",
"T. c #ABB4D6",
"R. c #B2B9DA",
"E. c #9AAAE1",
"W. c #A8B7E5",
"Q. c #B4BDE5",
"!. c #BFC5DD",
"~. c #BBC4E9",
"^. c #BFD1F6",
"/. c #C8C6CC",
"(. c #C4C6D9",
"). c #D2CED8",
"_. c #D7D6D8",
"`. c #C6CCEA",
"'. c #CDD5EE",
"]. c #D2D8E7",
"[. c #C7CDF2",
"{. c #C8D4F2",
"}. c #D5DAF6",
"|. c #DFE0E8",
" X c #DDE3F9",
".X c #E6E7EC",
"XX c #EBECF7",
"oX c #F2EEF7",
"OX c #EFF0F8",
"+X c #F9F9FB",
"@X c None",
/* pixels */
"@X@X@X@XM : : = = = = = - - = = = = = = - = - - = = = = = - - ; ; - - - = = = - - - ; : : : ; ; ; : ; ; ; ; ; : : : : : : ; - = - = : : ; = = = = = - ; ; : : : ; ; ; ; ; ; = - = - - - ; ; : : : : ; : ; = - - = = = = = = - ; ; - ; ; ; : ; - ; - - - - - ; ; - - ; ; : : : ; ; : - ; ; ; ; : : : ; ; ; - ; - - = = - ; : : : : : ; ; ; ; : : : ; ; ; ; ; ; ; ; : ; ; ; - - - - = = = S.@X@X@X",
"@X@X@X@Xo o o o X X o + @ @ @ @ @ @ @ @ % % @ @ @ @ @ o @ X X @ @ @ @ @ & @ @ @ @ @ @ @ @ @ @ @ @ @ % % @ & & % % @ % @ + @ + o @ @ @ @ $ + + + @ + @ @ @ @ % % @ @ + @ @ @ @ + @ @ & @ + + @ @ % % @ @ @ @ @ @ @ @ @ @ + @ @ @ @ @ @ @ + + + @ @ % @ @ @ @ X @ + + o @ @ @ @ % @ % @ @ @ @ @ @ @ @ + + @ @ X @ @ @ @ @ @ @ @ @ @ @ @ @ @ + @ @ @ @ % % % & % $ @ + + O X X . X X . . o A.@X@X@X",
"@X@XM o : A.m.,.>.*.O.O.C O.C $.O.$.C %.O.O.$.O.%.O.O.O.O.O.O.O.$.C C $.O.O.O.O.$.C O.O.O.O.O.O.O.O.$.$.O.O.$.$.$.O.$.O.$.$.$.$.$.$.$.$.$.O.O.O.O.$.$.$.%.$.%.O.$.C C $.$.$.$.$.O.$.C $.$.$.$.%.O.O.$.O.O.O.O.O.O.$.C O.C C C C O.O.C O.O.O.O.C O.O.O.O.C O.C C O.C C C C C C O.O.$.+.C C O.O.O.O.O.Z O.O.O.O.C O.C C $.$.O.O.$.C { C O.O.O.O.O.O.{ O.O.O.O.O.O.C O.m O.O.O.0.l.l.l.l.Z o o @X@X",
"@X@X;   : _..Xl.l.9.&.&.*.*.*.*.$.$.*.&.*.*.*.*.*.*.*.*.*.*.*.%.&.&.$.$.&.&.$.&.$.*.&.&.&.*.&.&.*.&.$.$.&.&.&.&.&.*.&.*.*.*.*.3.*.4.*.*.*.*.*.*.*.*.*.*.*.*.*.*.*.*.*.*.&.&.$.&.$.$.&.$.&.*.*.*.*.*.*.*.&.$.$.*.*.&.&.$.$.&.*.*.&.*.&.$.$.$.O.@.O.O.O.O.O.$.O.*.&.&.$.$.$.$.*.$.$.*.$.*.*.&.*.*.*.*.*.*.*.$.*.*.&.&.$.&.&.*.$.&.$.$.$.$.} $.$.$.$.$.$.O.O.@.O.@.@.@.O.O.*.:.B.B.Z.Z.Z.>.    @X@X",
"- X N n.m.M.B.%.$.O.v v c c c c c x c h c c c v n v v v v v v v v c c c c c w c c e c h h h c h c w w w w c 7 w w w h c v v v v v v v v v v v v v v v v v v v v v v n v v v v v v v v n v n n v n v v v v v c c c c c c c c c c v c c c c c c c e c h h h h c h h h h h w e e c c v v c v v c v v v v j h c v v v c c c v c v v c c c c c c c c h h h w w c w c h h h h v v O.@.O.l.9.z.l.x     ",
"= o Z U./.%.*.l b 7 % % @ + @ + @ + + + + @ @ @ @ @ $ $ @ + $ @ + + @ X + + @ + % + % % $ % % % + % + @ + + @ + $ + $ + $ $ $ $ % % $ $ % $ + + % % @ $ @ + @ @ + $ @ $ @ @ @ + @ @ + % @ @ $ $ % $ % $ + + @ @ + + + @ @ + % % % @ $ % + + + + + + + + @ $ + @ $ @ @ $ % $ + $ @ @ + $ @ @ + @ + + $ $ + + + + + + @ @ + + + + + + + @ + + $ $ + + $ + % + $ + + $ + $ @ $ c l s 3.&.V.B.V % . ",
"= X V S.U.m @.h l 6 % $ @ $ + + + + + + X + + + + + + + + + + + + + @ O O @ + + + + + + + $ + $ + + + + + O + + + + + + + + $ + + + + + + + + + + + + $ + + + + + $ + + + + + + + + + + $ + $ @ + + $ $ $ + + + + + + + + + + + + $ + + + $ + $ + + + + + + + + + + + + + + + + + + + + + + + + + + + + + + + + + $ + $ + + + + + $ + + + $ $ + + + + + + + + + + + $ $ $ + s s s O.@.V.V.x & . ",
"- O v 0.0., <     2 i i i t t i t t t t t i t t i t t i i t i t t t t t t t i i t t t i t t t t t t t t t t t t t t t t t i t t i t i t t t i t t t t t t t t t t t t i t t i t t i i t d t t i t i t i t t t t i t i t t t i t t t t i t t t t t i t t i i t t t t i t i t i t t t t t t t t t t t t t t t t t t i t i t t t t t t t i t t t t t t i t t t i t u i i i i i . . . 4 , K.Z.v %   ",
"- + v k.0.5 6     2 d i i t t t t t t t t t t t t t t t i t t t t t t t t t t t t t t t t t t t t t t t t t t t t t t t t t t t t t t t t t t t t t t t t t t t t t t t d t i t t i i t t t t t t t t d t t t t i t t i u t t t t t t t t t t t t t t t i t t d t t t t t t t t t t t t t t t t t t t t t t t t t t i t t t i t t t t t t t t t t t t t t t t t t i t i i t O . O 7 5 G.V.v $   ",
"; + N >.9.* 4 > $ t t i t t t i i t t i t t i i i i i i t i t t t t t i i t t t i t i i t t t t t t t t u i i i i i i i t i i i i t t t t t t t i t t t t t t i i t i i i i i i i i i i i i i t i i t i i t i i i i i i i i i t t i t i i t t t t t t i i t i t t i i i t i t i t i t i t t i i i i i t t i i i i i i i i i i i i i i i i t i t t t t t i i i d i i i t i i 2 , , 5 % z.l.e %   ",
"- + j *.*.$ + G D J i i i i D i i D i i D i i i i i i i i i i i i D i D d D i D i i i i i i i i i i D D D D J J G D D i D i p i D i i i i i i i i D D D D D J d i J D D J L J J J J D D d i i D i i d D D D J D J J L L G D D D i i i d d i i J i D i i i J D i D i D i J i d i i D i i i i i i D D D D D D D D J i d J D i i D D i i i i i D i D D i J J i d D i i i D d i i D D $ $ 4.*.w @   ",
"* + e *.*.$ + D i i D i i i i i i i D i i S i i i t i i i i i D i D i i D i i i i i i t r t t t i i D D D i i i p i i i D i i i u i r u r r t i D D D i i i i i t u t i i i i S i i i i i i i D D D D i i u t i u u i i i i i u t i i i D i i D D i i D i i J i i D i i i i D i i i i i u i i u u i i i i D D G D D D i i i i S i i t u u i i i D i D i i D D i J i i i i D D i d $ + 4.*.8 O   ",
"* + w m O.+ $ L J J D G J D D J G G J G J J G D '.[.[.{.OXS L L J L D L G J L D D D J 6.].`.`.`.6.L L L ^ z.+X+X+XoX~.L J J J D D J T.`.[.[.~.u L L G +XXX X}.}.}.}.}.}.}.}. X.X}.}.}.'.P L L L L L L J |.XXXXXXXXXXXXXX}.{.}.[.{.S J J L L L J L J L L L L J L L D L L L J D L L J S ~.[.`.`.`.~.`.[.`.}.S L L L L L L D {.~.~.~.~.Q.Q.R.Q.Q.P J L L L L J L J L J G J L D D J L $ $ { o.5 +   ",
"- $ w C { + + G J D J G D J G D G G D J G J G J +XOXOX+X+XG G L L L L G L G L G G J J j.OXoXOXXXw.P L ^ ^ z.OX+X+XoXR.J D D D J D J R.XXOXOX XS L ! F +X+X+X+X+XOXXXXXOX+X+X+X+X+X+X+X+XP L L L L L ! L  X+X+X+X+X+X+X+X+XoXoXOX+XS J J L L L J G L L L L L D L L D L D J G L D L J S  X+X+XOXOXoXOX+X+X+XF ! L L L L L G +X+X+XoXOXOXoXOXOX+XK J G L J L L L J J J D J L J D D J $ + { { 5 @   ",
"9 $ w { { O O D D D J D G G D G D G L D J G J L +X+X+X+X+XS L J L G J L D G L G G G J j.+X.X+XOX0.L ~ L L c.+X+XOXOXT.J D D D J D J Q.XXoXOXXXS L ! F +X+X+X+X+X+X+XOX+XOX+XOX+X+X+X+X+XP ! L ! ! L L J  X+X+X+X+X+XOX+X+X+XOX+X+XG L L L L L L L L G L G L L G J L G J G J J L L L S  X+X+X+X+X+X+X+X+X+XD L L L L L L G +X+X+X+X+X+X+X+X+X+XK J L L L L G L G G G L D D D D D J $ O { [ 8 $   ",
"; $ w { O.O + D D D D J D D J G G D L G G G L L +X+X+X+X+XS G D J G D G G L D L G D P D.+X+X+X.Xe.L L L L z.+X+X+XXXT.G D D D D D K Q.XXOX+XXXD L ! G +X+X+X+X+XOXOXOXOX+XXXOXOXoXoX+X+XI ! ! ! L ^ I J '.OX+X+X+X+X+XOXOXXXXXoX+XG ^ ^ ! ! ^ P L L J L L G L J G J L L D L L L L L S  X+XoX+X+X+XOX+X.X+XS L L J J J L G +XOX+X+X+X+X+X+XOX+XK K J L G L J L L L J L L J D d i d + O { [ 7 $   ",
"- + w O.{ O O G J L G G L L G H L L L L L L ! ! +X+X+X+X+Xu D G G L L G G ! L L L L ~ D.+X+X+XoX>.K J L L c.+XOXOXOXP.y t G G G H J ~.OX+X+XXXu J ! G +X+X+X+X+X+X+X+X+X+X+X+X+X+X+X+X+XK J L G G.F.D.D..X+X+X+X+X+X+X+X+X+X+X+X+XS L ^ ..D.c.c.N.L L ! G ! L L H G H L ! L ! ! L ! S  X+X+X+X+X+X+X+X+X+Xp K I I L L ! ! +X+X+X+X+X+X+X+X+X+XU f K K G ! ! ! ! G ! ! E L G D J J + O { [ 7 $ . ",
"- + h { O.O + ! L L ! ! ! L ! ! ! ! ! ! ! ( ! ( +X+X+X+X+X1 r J G ! ! ! ! ! E ! ! ! / D.+X+X+XoX=.2 i ! ! c.OXOX+XOXP.1 1 ! ! ! ! ~ [.+X+X+XXX> 1 ( F +X+X+XoXB., 2 2 r r r 1 2 1 1 2 1 1 1 L G oX+XOX.Xc.L t r r r 1 2 1 > > > 2 r 1 ` x.+XOX+X+XY ! ! ! ! ! ! ! ! ! ! ! ! ! ! ! ! ! ! ( H t r r r r 2 3 +XoXoX+XF L ! ^ ( ( L t t r t t y r +X+XoX+XR ! ! ! ! ! ! ! ( ! ! L J L + X } { 7 + . ",
"* $ w O.O.+ O ! ! L ! L ! L L ! ! ! ! ! ! ! ( ^ +X+X+X+X+X1 r J L ! ! ! ! ! ! ! ! ! ^ H.+X+X+XOX=.2 i L ! x.+X+XOX+XP.2 1 ! ! ! ! ( {.+X+X+XXX> 1 ^ G +XOXoX+XB.2 r r r r 1 1 1 1 1 r 1 1 1 ^ E +XoX+XoXc.~ u r t r 1 1 > 1 1 1 1 r 1 y.v.+X+X+X+X~ ! ! ! ! ! ! ! ! ! ! ! ! ! ( ! ! ! ^ ( D r r 1 1 2 , 3 +XoXoX+XF L ! ! ( ( L t r t r r t 1 +X+X+XoXR ! ! ! ! ! ! ! ! ~ L L J L $ O O.m 7 +   ",
"* + e { } O + ! L ! ! L ! ! ! ! ! L ! ! ! ! ! ! +X+X+X+X+X> 1 G E ! L ! ! L ! ! ! ! ~ H.+X+XOXoX=.2 i ! ! c.+X+X+XoXI.r r ! E ! ! ^ {.+X+X+XXX> > ! F +XOXoXOXV.2 r r y 2 2 1 > 1 1 1 r r 1 L L +X+X+XoXF.G u r r 2 1 1 1 > 1 1 r 1 1 y.v.+X+X+X+XY H ! ! ! ! ! ! ! ! ! ! ! ! ! ! ! ! ! ) D r r 1 2 > , 3 +XoXoX+XF L ! ! ( ( G u r r r r 3 r +XoXoXOXR ! ! ! ! ! ! ! ! ! L L L L + X { { 9 $   ",
"* + w O.O.+ + E ! ! L ! E ! ! E E L ! ! ! ! ! ! +X+X+XoX+X> r G ! ! E ! ! ! L ! ! L ~ b.+X+X+XoX=.2 t ! ! v.+X+XOXOXU.2 r ! ! ! ! ~ {.+X+X+XXX# > ! F +X+X+X+Xl.2 1 r r r 1 1 r r t i i i i ! ! +X+X+X+XN.u u 1 r 1 1 1 u r t u i t r y.b.+X+X+X+X/ L L L ! ! ! E ~ E ! ! ! ! ! ! ! ! ! ( ! E D D i p d K +XOXXXoXF L ! ! ^ ( ! L D i p p D p +XXX.X.XR ! G E ! ! ! ! ! ! L L L ! + O } [ 6 +   ",
"- + h { { + + r.) ( ( ( ( r.) ( r._ _ ( ( ( ( ( +XoXoX+X+X1 r ! r._ ( _ _ _ _ _ _ _ y.b.+X+XoXXX=.2 t ` y.b.OX+X+X+XT.r i t.r.r._ y.}.oXoXoX|.> > ! ( ! P u ].+X+X+X+X+X+X+X+X) ( ( ( r.r.t.t.r._ r.d y P.+X+X+X+X+X+X+X' _ _ _ t._ _ ( ! ( ^ 1 2 r L ) ) ( ( ) r.( _ r.r.r.r.r.y.t.( y.y.y.( +X+X+X+X+X+X .! 1 # 1 1 ) _ _ t.t._ +X+X+X+X+X+XL.) p > 1 > y.( ( r.( r._ _ ( ^ ( ^ $ O { O.7 $ . ",
"- + c O.O.+ + r.( r.( r.r.( ( r.( ( ( ( ( ( ( ( +X+X+X+X+X1 t ! r._ _ _ _ _ ( ( _ ( ` J.oXOX+XoX=., p _ _ b.+X+X+X+XT.y u y.r.t.t.y.{.OX+XXX X# > ! !  .H.`.+X+X+X+X+X+X+X+XoX/ ) ^ ( _ ( r.r._ _ t.y y I.oX+XoX+X+X+X+X' _ ( ( _ ( ( ) ^ ) ~ > > 1 L ) ( ( ( ( ( r.( r.( r.r.( ( r.t.r.t.y.( +X+X+X+X+X+X..( > 1 1 2 ) ^ ( _ y.( +XOX+X+XOX+XE.y.t 1 1 > t.( r.( ( r.( _ ! ( ( _ + + { { 8 $ . ",
"* + w O.O.$ + t.( ( ( ( ( r.( ( ( ( ( ( ( ! ( ( +X+X+X+X+Xr u ^ t.r._ _ _ ( ` ( ) ( ` b.+X+XoXOX:.2 p _ y.J.OX+X+XOXI.r t u.t.r.y.y.{.+XoXOX.X# > ^ R Q.OXoX+X+X+X+X+X+X+X+X+X] ! ) ( ( ( _ r._ _ _ i p Y.oX+X+X+X+X+X+X' _ ( ( ( ( ^ ^ ) ! ) # > 1 H ( ! ( ( ( ( r.( ( r.) ( ) _ ( ( t.t.y.( +X+X+X+X+X+X .^ 1 1 1 1 ^ ^ ^ _ y.( +X+X+X+X+X+XY.u.S r 1 1 _ ( ( r.( ( ( _ ( ! ) _ + O O.{ 6 + . ",
"* + c O.O.+ $ r.( ( ) ( ( ( ( ( ( ( ) ( ( _ ( _ +X+X+X+X+Xu u ~ r.( ( ) ( ^ ( ) ( ^ _ b.OX+X+XOX:.r D y.y.J.+X+XoXoXP.2 r t.r.r.t.y.`.+X+XoX.X> > ( Q L.OX+XoX+X+X+X+X+X+X+X+X] _ ` ) ( _ ( ( _ _ t._ ) {.+X+X+X+X+X+X+Xq 1 H E ! ( ^ ^ ~ ! ! ! L ! ( ( ( ( ( ( ( r.( ( r.( ( y.( ( ( ( ` ` ( OX+X+XoXOX+X| ! r r r r ) ) _ ` ` ( OXXXXXOXOXoXG.u.u 1 r > r.( ( ( ( ( ( ( ( ! ! _ $ O { [ 8 % . ",
"* $ w O.O.$ + r.( ( ( ( ( ( ( ( ( ( ( ( ( _ _ _ +X+X+X+X+Xr t ! ( ( ( ( ( ( ( ( ( ( ^ b.+X+X+XoX,.y J y.y.L.oXOX+XoXP.2 t r.( ( _ _ ~.XXoX+X.X> 1 r.Q }.oX+X+XC.n z z m o.n [ u u D ( ) ( ( ( _ ( _ r._ `  .| g g g q g P.`.`.}.^.E ( ^ L `.W.~.'.) ) ( ( ( r.( ( r.( r.( ( ( _ ( ( ( p.s.a.a.W.Q.Q.R.T./.| ( r.r.( ) ! ( 1.s.a.p.E.J.J.z.z.N.2.^ r.t.r._ _ ( ( _ ) r.( ( ( ( ( ( $ O { { q % . ",
"* $ c O.{ $ + r.( ( ) r.( ( ) ( ( ( ( r._ y.y.y.+X+X+X+X+Xr u ! ( ) ) ( ) _ ( ) ( ( ` J.+X+XoXoX,.y D y.y.J.+XOXoXoXP.2 r _ ( ( ( ) Q.XXoXoXOX> r u.Q }.+X+X+XB., 1 1 r r 2 r r 1 p ( ( ( ( ( ( ( ( ( ( y.y.~ 2 1 , , 2 !.oXoXoX{.Q ( _ G +X+X+X+X/ ( ( r.( ( r.r.( ( ( t.( _ r.r.( ( L.+X+X+XW ( G > 1 1 r u y.) ) ~ ( ! +X+X+X+XR ( Q # > > 1 1 ( t.r.( ( ( ( y.( _ _ _ ( ( ) _ $ O } { 8 + . ",
"* % x { O.+ + r.( ( ( ( r.( ( ( ( ( _ ( ( ( _ r.+X+X+X+X+X1 t L ( ) ! ) _ ( _ _ _ ^ ^ F.+X+X+XOX,.r p y.y.J.OXoX+XoXI.t t _ _ ( ! ^ R.XXOX~.y 1 1 u.Q XX+XoX+XV., , 1 2 2 1 r r 1 i ( ) ) ! ( ( ( ( ( _ _ ( ~ 2 r 1 1 2 ).oXoXoX}.! ^ _ ! +X+X+X+X .y._ r.r.( ( ( ( _ ( ( ( _ ( ( ( Q L.oX+XoXW Q H 1 r r r u y.r.( ( ~ ! +XOX+XOXQ ! ! > 1 1 r 1 _ ( ( ) ( ( ( ( ( _ _ _ ( ! ! ^ $ O O.{ 6 $ . ",
"* + h O.O.+ + r.) ( ( ( ( ( ( ( r.( ( ( ( _ _ ( +X+X+X+X+X1 t P _ ` ` y.y.y.y.t._ ( ( J.+X+XoXOX,.r i _ y.c.XXOXoXoXU.y p y.y.y._ ` R.XX).> 1 r r ( Q XX+X+XoXP.< 3 2 2 3 y y y y G y.` ( ( ( ( ` y.y.y.y.y.( K D 3 3 3 |.+X+X+X X! _ ` ( +X+X+X+X..t.r.t.( ( ( ( ( ( ( ( ( _ _ ( ( ( L.oX+X+XW ! p 3 y y y p i.y.y.( ) ( +XoXOXOXE K r < 2 3 y y r.y.( ( _ ( r.( r.( r.r.) ) ( _ $ X } { w + . ",
"* @ w O.O.O + ( ( ( ( ! ( ! ( ! ) ! ! ( ) ^ ) ) +X+XoXOX+X2 p I ] ] ]  .......) ( ) ^ H.OX+XOXoX>., p ^ ) X.h.v.7.9.#.+.7.x.h.h.h.h.z.8.3.r r r r ( Q OX+X+X+X!.o.V +.o.C +.+.%.+.2.d.d.! ) ! E j.h.c.x.h.d.d.5.1.+.O.#.o.k j j z t t ( ! 5.1.o.o.H ( ( ) ( ! ( ) ! ( ! ) ! ) ! ! ! E L.+X+X+Xh.7.7.>.,.8.9.0.c.c.a.) ! ! +X+X+XoXq.9.9.>.>.,.9.0.w.h.! ) ! ! ( ) ) ) ( ! ! ! P ! $ + } { 8 + . ",
"* $ w O.{ + O ! ! ! ! ! ! ! ~ ! ! ~ ! ! ! ! ! ~ +X+XoXOXoX+X+X+X+X+X+X+X+X+X+X' ! ! ! F.+XoXoXXX:., t ! ! ! ! ^ 2 y k +X+X+X+X+X+X+X| I u r i ) E ! R +XoX+X+X+X+X+X+X+X+X+X+X+X+X+X+X+XP ! ! G +X+X+X+X+X+X+X+X+X+X+X+Xq.y < , , > 1 ! ! ( _ 2 3 r ! ) ! ! ! ! ! L ! ! L ! L ! ! ! E L.+X+X+X+X+X+X+X+X+X+X+X+X+XY.! ! ! +X+X+X+X+X+XoX+X+X+X+X+X+XOXF ! ! ! ! E ~ ! ! ! ! G L L $ + } { q + . ",
"* $ w { @.+ + ( ! ! ! ! ! ! E ! L E ! ! ! ! ! ` +X+X+X+X+XoX+X+X+X+X+X+X+X+X+X' ! ! ~ G.+X+X+XoX=., t ! ! ! ! ( r y k +X+X+X+X+X+XoXP L i r D ! ! ! E +X+X+X+X+X+X+X+XoXoXoX+X+X+X+X+X+XH ) ! E +X+X+X+X+XoX+XoXoX+X+X+Xf.E i 1 > 1 > ! ! ! ( 1 r r L ! ! ! ! ! ! ! ! L ! ! ! ! ! ! E E.+X+X+X+XoXoX+X+X+X+X+X+X+XW.! ( ( +X+X+X+X+X+X+XoXoX+XoX+XOXoXR ! ! ! ! ! ! ! ! ! L L L L $ + { { 5 %   ",
"* + w { O.+ + ! E ! ! ! ! ! ! E ! ! L ! ! ! ^ ) +X+X+X+XOXOX+X+X+X+X+X+XoX+X+XY L ! ~ F.+X+X+XOX:., t ! ! ! ( ( r t k +X+X+X+X+X+Xg.E t r r D ! ! ! E +X+X+X+X+X+X+X+XoXOX+X+X+X+X+X+X+Xp G ! E +X+X+X+X+X+X+XoXoX+X+X+Xh.! t 1 1 1 > ! ! ! ! 1 1 1 J ! ! ! ! ! ! ! ! ! ! ! ! ! ! ! E E.+X+X+X+X+XOX+X+X+X+X+X+X+XT.! ! ! +X+X+X+X+X+X+X+X+XoX+X+X+XoXR E ( ! ! ! ! ! ! ! L L L L + + { { 6 + . ",
"& + q O.} + + ! L L ! L ! L L ! ! ! ! L ! ! ! ! +X+X+X+X+X+X+X+X+X+X+X+X+X+X+Xk 2 L ! L.+X+X+X+X,.1 y E ! ! ! ! ! ~ | +X+X+X+X+X7.! G t t i J L L L F +X+X+X+X+X+X+X+X+X+X+X+X+X+X+X+X+Xr r L G +X+X+X+X+X+X+X+X+X+X+X+Xh.E L G G G G ! ! L ! i i D L ! L ! L L L ! ! G L ! L ! ! L G W.+X+X+X+X+X+X+X+X+X+X+X+X+XL.D ! ! +X+X+X+X+X+X+X+X+X+X+X+X+X+XF ! ! ! ! ! ! ! L ! L L J J + + { [ 5 + . ",
"& + w O.O.+ + G L G L G G L G L L L L L L L L L u S u # # # # # # > # # # # # > > D L G G G 2 1 1 r t L G ! L L ! L J D G 1 > > 1 1 D L L L L L J L G S F i > > > > > > # # # # # > > > 1 1 J G S S 1 > > > > > > > > > > > i ! ! L L L L L L L G L L L L L L L ! L L L L L ! L L J G D G D , > , > # > , > 2 2 1 1 > J J G L H 2 2 2 1 , > > > , > 2 1 1 G L L G L L L L L G J J % $ O.O.5 + . ",
"& + 8 { { O + J D G J L L L G L G L L L G L G J J J p , 1 > 2 1 1 r 2 2 1 2 > > > d G L G L 1 r r r i L G G G L L L L G L r r 1 1 1 i L L L L L L L L L L J 1 t r r t 1 2 2 2 1 2 2 1 , 1 > L J J L r 2 1 2 r 1 r r 1 1 1 1 i ! L ! L G L L L L L L L L L G L L L L L L G L G L G L L L J D r 1 1 2 , , > 2 1 1 2 2 > J G L L G 1 r 1 1 1 2 > 1 > 2 1 r 1 G G G G L L J L J D J J % @ { { 8 + . ",
"= + v >.>.O + J D D D D D D L G G L D G D J D J D D d 1 1 1 1 r 1 r r 1 1 1 > > > i D D G G r u r r i E G D G G G G G L L r r 1 1 1 i D D G D G D D G L G G r r 1 r 1 r 1 1 1 1 1 1 1 > > 1 J D D D r 1 1 1 r r r r 1 r 1 r i L G L G G J D L D D J D J G J L D G G G D J G D G D G D L D D r 1 1 1 1 1 1 1 1 1 1 1 > J D L L G r r 1 r 1 1 1 1 1 1 1 1 1 D G G D D D D D i J d d % % k.>.0 + . ",
"* + v >.>.X X J i D D D D D D D D J G D D D D J D D i > > 1 1 1 1 1 1 1 1 1 1 > > i D D D G 1 1 1 1 t G G G D D G D G L ! 1 1 1 > 2 i D D G D D G D L G G D 1 1 1 r 1 1 1 1 1 1 1 2 > 1 1 > J J D D t 1 1 1 1 1 1 1 1 1 1 1 i L G G G G L D D J J J J J D D D D D G D J D D L D D D D G D D 1 1 1 1 > 1 > 1 1 1 1 1 > d D D G D 2 1 1 1 1 1 1 > 1 1 1 1 1 D D D G D J D J d i i d % % l.l.w % . ",
"= + ;.U.U.8 8 O . r i i i i i i D i i i i i i i t t i i i i i i i i i i i i i i i i i i i i i i i S i D D i i D i i i i i S i i i i t i i i i i D i i i D D D i D i i i i i i i i D i i i D i i i D i i D i i D D i i D D i i S D i i i i i i i i i i i i i D i i i i i D i D i i i i i i i D D i i i i i i i i i i i i i i i i D i i i i i i i i u i i i i i i i i i i i i   X X 9 x .X/.w $ . ",
"* + -.U.U.8 6   . , D i i D i i i i d i D i i i i i i i i i D i D i i i i i i D i i i i t i i i i i i i i D i D i i i i i i i i i i i i i i D D i i i D i i i D i i i D D i i i i d i i i D D i D i D i i i i i i i i i i S D D i D D i i D i i i i i D i i i i D i i D i i i i i D i i i D i i D i i i i i i i i i i D i i i i i i i i i i i D i D i D D i i i D D i D i d       x ; OX).j $ . ",
"& O ;.!.!.% 5     , D D i D i i i i i i i D D i i i i i D i i D i i i i i i i i i D i i i i i t i i i D i D D D D i i i i i i i t i i i i D D D D D i D i i i i i i i i i i i i i i i D i D J D i D i i d i i i i i i i D S i D D D D i i D D i D i D i i D i D i D i i S i D i D i D i D i i i i i i D i i i i i i i i i i i i i i i i i i d i D i i i i i i D D D i J i i       8 * OX_.x + . ",
"= . e 2.&.].).x v 9 $ $ + $ + + + + $ $ $ + + + $ $ $ $ + $ $ + $ $ $ + + + $ + + $ $ $ + + + + + $ $ $ $ $ $ $ $ $ + + + $ + + + $ + $ $ $ $ $ $ $ $ $ $ $ $ + $ + + + $ $ $ $ $ + + $ $ + + $ $ $ $ $ $ + $ $ + + + $ $ $ $ $ + $ + + $ + $ $ $ $ $ + $ $ $ $ $ $ $ $ $ $ $ + + $ $ $ $ $ $ + $ + + + + + + $ + $ $ $ $ + $ $ + + + $ + $ $ $ $ $ $ $ $ $ $ + + + $ $ $ + w w 5 U.U.@.*.e +   ",
"= X h *.2.}.].c v 8 + + + O . X X O O + O + X + + + + + + + + O O X . O O + + + + + O + O + + O O + O + + + O O X + O O O O + O + O + + O + + + + O O O O O + + + + + + + + + O O + + + + + O + O + + O O O O X X + + O + + O O + O O + + + + + + + + + + + + O O + O + + O O O + O + O + O O + O + O + + O X + + X + O O + O O O O + X O + + + O + + O + + O + O O O + + O w w < /./.@.$.v @ . ",
"& o * 9 8 4.4.3.*.4.{ [ [ [ b [ [ [ [ { { { } } } } } } { { { } { { { { { { { { { { { { { { { { { { { } { { { { { { } { } { { } { $.} } $.} } { { @.@.@.} } @.@.} } @.} @.@.@.&.&.&.@.@.@.@.@.} } } $.} } } @.@.} @.@.@.} &.@.} } } } @.{ @.{ @.@.} } } } @.} } } } @.} } } } } } } O.{ } } } @.@.} @.} O.@.@.@.} { } } } } O.O.} { { } } } { { } { } } { { { [ [ [ { { { } &.&.&.@.{ n n 9 o   ",
"@X@XB o X z.k.*.*.*.[ b b b b b b b n [ [ [ n [ m [ [ [ [ [ [ n [ [ b [ [ [ [ [ [ [ n [ [ [ [ [ [ [ [ [ [ [ [ [ [ [ [ [ [ [ [ [ [ { { { { [ { { { { [ [ [ { { { { { { { { } { { O.{ o.{ { { [ { { [ [ [ { { o.{ { { { { { { { { [ [ { [ { [ { { { [ [ [ m [ [ [ [ [ [ { [ [ [ [ m [ { [ [ { [ { { { { [ o.{ [ [ m [ [ [ [ [ [ [ m [ [ [ [ [ [ { [ [ [ [ [ [ [ b [ b n n m [ @.&.@.3.*.5 X   @X@X",
"@X@XA M X %.$.m m m s c c l l c l v v c h c c l c c c c h j c l c h s h h h h c c c c c c c c c v b b n n n v b c b c c l l c c b v j v c b n v v z v v v v j l v v h v v v v n n n n v v v n b n v v n n n n n n n v b v v h h v v v n n n n v v c b h c c c c v l v h j h h j c c v v j n v n n v n n v v n v n v v v v v v v c b c c c c b c h h h h h h h z v v b z c v n m n C O.8 = o @X@X",
"@X@X@X@X  o X X O + + + $ $ $ $ @ @ % $ $ $ $ $ + @ $ + + + + + + + + + $ $ $ $ $ + $ $ $ $ % $ $ % $ $ % $ $ + + + $ $ + $ $ $ $ $ @ $ % $ @ $ $ $ + $ + + + + $ + + + + @ @ % $ $ $ $ @ $ + $ $ $ $ $ + $ $ $ $ $ $ $ @ $ + + + @ $ @ $ $ $ $ % $ $ $ + $ $ $ + + + + + + + + + + + $ $ $ $ $ % $ $ $ @ $ @ @ % % $ @ % $ $ $ $ $ % $ $ $ + + + $ + O + + $ + $ % $ % % + @ + + o X o /.@X@X@X",
"@X@X@X@X@ & * & @ @ . X O O + + + O @ + + + + + O O O O . O . O O O O + O O O O O O O . O O + + O O O O $ + + + O + O O O O O O O O O O O O + O O + O O O O O O O O O O O + + + + O + + O O O O . O . O O + + + + + + O O O . O O . O + + O + + + + + + + + O O O O O O O O O O O O O O O O O O O O + O + O O O O O O + O + O + O O O O O O + O O O O O . O O O O O O + + + + + + X X X ).@X@X@X"
};
