/* XPM */
static char *lives_5[] = {
/* columns rows colors chars-per-pixel */
"192 49 201 2 ",
"   c #01020C",
".  c #14110F",
"X  c #030516",
"o  c #0D111C",
"O  c #10121A",
"+  c #050D26",
"@  c #100F26",
"#  c #08132A",
"$  c #151B2C",
"%  c #010339",
"&  c #0B1837",
"*  c #131D36",
"=  c #17202F",
"-  c #16223B",
";  c #212027",
":  c #252632",
">  c #2F333E",
",  c #32343D",
"<  c #03064A",
"1  c #0E1B44",
"2  c #111E42",
"3  c #020B57",
"4  c #071159",
"5  c #161A5C",
"6  c #0E2143",
"7  c #132245",
"8  c #172B59",
"9  c #1E335D",
"0  c #202B4E",
"q  c #23314E",
"w  c #363A44",
"e  c #233459",
"r  c #353D54",
"t  c #020C65",
"y  c #01156B",
"u  c #171D61",
"i  c #00097A",
"p  c #021676",
"a  c #151C7B",
"s  c #1A2763",
"d  c #1D3567",
"f  c #06207A",
"g  c #1C2477",
"h  c #1E3772",
"j  c #252A6B",
"k  c #312F68",
"l  c #253B6A",
"z  c #323E62",
"x  c #242973",
"c  c #243C72",
"v  c #333B79",
"b  c #3D4249",
"n  c #34415D",
"m  c #2B406E",
"M  c #35456B",
"N  c #2A4273",
"B  c #344B7B",
"V  c #3B517C",
"C  c #42444A",
"Z  c #454A54",
"A  c #56585A",
"S  c #404860",
"D  c #4D5B78",
"F  c #525879",
"G  c #5B637D",
"H  c #626568",
"J  c #666776",
"K  c #746F7E",
"L  c #64717F",
"P  c #76767D",
"I  c #010B84",
"U  c #041C89",
"Y  c #010C9A",
"T  c #041D93",
"R  c #05218B",
"E  c #162987",
"W  c #052297",
"Q  c #162698",
"!  c #13329C",
"~  c #26349A",
"^  c #333E99",
"/  c #000DA8",
"(  c #011AA8",
")  c #0005B0",
"_  c #041DB3",
"`  c #0826A7",
"'  c #172BA8",
"]  c #0D31AD",
"[  c #1A33A9",
"{  c #0B2DB8",
"}  c #102FBA",
"|  c #0C31BB",
" . c #1636B8",
".. c #263BA9",
"X. c #2B3DB0",
"o. c #374D83",
"O. c #3B5486",
"+. c #39459B",
"@. c #2E5499",
"#. c #39599A",
"$. c #2C42A7",
"%. c #3B4BAB",
"&. c #3E5CA2",
"*. c #2B44B1",
"=. c #354CB6",
"-. c #3A55BA",
";. c #494D84",
":. c #44598A",
">. c #545884",
",. c #41489F",
"<. c #504F93",
"1. c #485D92",
"2. c #515799",
"3. c #4A618D",
"4. c #576287",
"5. c #4A6192",
"6. c #556799",
"7. c #59719D",
"8. c #6B758D",
"9. c #646A96",
"0. c #69769D",
"q. c #737D92",
"w. c #424DA1",
"e. c #4B5AAC",
"r. c #535CAC",
"t. c #455CB8",
"y. c #505CB2",
"u. c #5B67A9",
"i. c #5C73A7",
"p. c #4862BE",
"a. c #5D65B0",
"s. c #6368AC",
"d. c #6075A7",
"f. c #747CA4",
"g. c #656CB2",
"h. c #6B71B3",
"j. c #757AB8",
"k. c #0A2FC4",
"l. c #0B32C4",
"z. c #1236C0",
"x. c #2F45C0",
"c. c #3956C3",
"v. c #425DC3",
"b. c #4562C6",
"n. c #5D6EC4",
"m. c #6478C7",
"M. c #677DD4",
"N. c #79839A",
"B. c #6F81AF",
"V. c #7784A9",
"C. c #7B83BB",
"Z. c #7F92B5",
"A. c #7982C6",
"S. c #6A80D2",
"D. c #798BD8",
"F. c #7D91DB",
"G. c #818382",
"H. c #9F9FA5",
"J. c #848BB8",
"K. c #8C93B5",
"L. c #9497B4",
"P. c #9CA1B8",
"I. c #A4A7BF",
"U. c #B5B8BA",
"Y. c #838AC6",
"T. c #8D92C7",
"R. c #9698CB",
"E. c #8595D7",
"W. c #9EA2C0",
"Q. c #97A6DB",
"!. c #A6AAC4",
"~. c #B3B4C8",
"^. c #A9ABD3",
"/. c #A7B4DE",
"(. c #BABCD6",
"). c #8B9FE1",
"_. c #9BADE3",
"`. c #A7AEE7",
"'. c #ACB6E5",
"]. c #B5BEE3",
"[. c #BDC1D7",
"{. c #B8C3EA",
"}. c #CBCCCB",
"|. c #C8C9DB",
" X c #D8D3DB",
".X c #C7CBE6",
"XX c #CDD2EA",
"oX c #D4D5E8",
"OX c #C5CEF1",
"+X c #CBD5F5",
"@X c #D8DCF3",
"#X c #E5DFE4",
"$X c #DDE2F5",
"%X c #E8E4E7",
"&X c #F4EFE7",
"*X c #F6F0E7",
"=X c #E9ECF7",
"-X c #F7EFF3",
";X c #EEF1F9",
":X c #F9F9FB",
">X c None",
/* pixels */
">X>X>XU.                              X X X X X X X X X         X     X X X             X   X                 X                 X   X   X X     X     X             X                       X   X     X     X           X       X X X   X X X X X X X X X   X X X X X X X X X                       X X X X X X X X                     X         X X X   X             X X X o   X X . , >X>X>X",
">X>X>X}.  . @ X X + X X X X X X X X X X X X X X o X X X X X X X X X X X X X X X X X X X   X X X X X X X   X   X X X X   X X X X X X X X X X X X X X X X X X X X X X X X X X X X X X X X X X X X X X X X X X X X X   X o + X + X o X + X X X X X X X X X X X X X X X o X + X X X X X X X X X X X X X X X X X X o X X X   X   X   X X X X X X X X X X X X X X X X X X   X X # + @ @ # @ X C >X>X>X",
">X>X,     @X|.L.P.V.5.1.1.:.:.O.:.#.O.:.O.:.:.O.O.O.:.O.#.O.O.O.O.O.O.O.O.O.O.O.O.O.O.O.1.3.3.3.3.3.1.:.1.3.1.:.O.1.O.O.O.5.1.3.5.3.5.5.5.5.5.5.3.5.5.3.5.5.5.5.5.5.5.5.5.3.3.3.3.1.5.1.3.3.3.3.5.3.3.5.3.3.3.1.:.3.:.1.:.1.1.O.O.O.O.O.O.O.O.O.O.O.:.O.O.#.O.O.o.o.o.o.o.o.B B B B B B o.B B B B o.o.o.o.o.O.o.o.O.o.o.o.B o.o.V O.O.O.o.o.o.O.O.o.O.o.o.o.V O.V O.O.O.d.i.K.!.I.(.[.8.O   >X>X",
">X>XC     .X(.L.L.V.#.O.o.O.O.o.o.o.O.O.O.O.O.O.O.O.O.O.O.o.o.O.o.o.o.O.O.o.O.B o.o.O.V O.O.O.O.O.:.O.O.O.O.O.O.O.O.O.o.O.O.O.O.O.O.#.O.1.O.O.O.O.O.O.O.O.O.:.O.:.:.:.:.O.1.O.:.O.:.O.O.O.:.O.O.O.1.O.O.O.O.O.O.O.O.O.O.O.:.:.o.O.O.o.o.O.o.O.o.O.O.o.O.O.o.O.O.o.o.o.B B B B o.N o.N B N B B B B B N B N o.B o.B o.B B B B B B B B o.B o.o.B B B B B B B B B B o.o.o.o.7.6.V.P.L.U.~.4.$   >X>X",
"O O b H.}.6.u.M N l * & * & & & & & & - 6 1 - 6 6 - 6 - & & - 6 & 6 6 - * & & & & - * 1 - & 6 - - 6 - 6 - & - & - - & - 2 * & 1 - 2 - & 6 2 & - & & & - 6 - 2 2 7 - 6 7 7 * 6 6 * 2 - & 6 6 - 7 7 7 7 7 7 6 6 6 6 6 - 7 7 7 7 7 6 6 7 6 7 7 6 2 * 6 & 1 & - 6 6 2 2 1 - 2 6 * 6 6 1 - - 1 1 6 7 6 6 6 - 6 - 6 6 6 6 * * & & & & & & & 6 2 2 - 6 - & 6 & 6 & - - 6 6 7 7 7 8 d h 8 6.5.[.P.8.+   ",
"o $ P -X&X6.u.d d 8 # o o # o # # # o # # # # # # # # # # # # # # # # o + # o # # # # # # # # # # # # # # # # # # # # # # # # # # # # # # # # o # # # o # # # # # # # # # # # # # # + # # # # # & # # # # # # @ # # # # $ # & # # # # # # # # # # # # + # # # # # # # # + # # # # # # # # # # # # # # # # # # # # # # # # o # # # # # # # # # # # # # # # # # # # & $ & & # 8 8 8 5.1.[.I.G & X ",
"o = P *X&Xu.i.h h 8 # # + # # + # + # # + # # & # # & # # # # # # # + # # # + # # # # & # # # & # & # # # # # # # # # # # # # & # & # # # # + + # # # # # + # # # # # # # # # # # # + # # # # # & # & # # # # # # & & # & # # & # # # # # & & # # & # & # # # # # # # # # # + # + # # # # # # # # # # # + # # # # # # & # # # # + # # # + # # # # + # # # # # # # # # & & # 5 d 8 6.5.P.V.G # X ",
". = F K.L.l 8 + + & y y y y y y y y y y y y y y y y y y y y y y y y y y y y y y y y y y y p y y y y y y y y y y y p y p y y y y y y y y y y y y y y y y y y y y y y y y y p y y y y y y t y y y y y y y y p y y y p p f p y y y y y p y y y y y y y y y y y y y y y y y y y y y y y y y y y p y y y y y y y 4 y y y y y y y y y y y y y y p p y y y y y y y y p y p p p p p # X   2 & (.I.N.& X ",
"o = D Z.K.m q o X # y y p y p p p y y y y p y p p p p y p p p y y y y y y y y y y p p p p y p y p y y y y y y y y y y p p y p y y i y y y y y y y y y y p p y y p y p y y p y p y y y y y i y y y y p y y p i y p y p p y y y p y y y y p y y p p y y p y p y y y y i p y p p p y y p p p p y p p y y y y y y y y t y y y p y y y y p y p y p y p p p y p y y p p p y p y y #     6 & [.~.V.& X ",
"o = n 1.4.- & 4 y y U p p p p p p p I U p p p p p p p U p p p p p p p p p p U p p p p p p f p p p p U p p p p U U I U R p U U p p p p p p p p p p p I U U p p U p U p U I U U p p p p p p p p p p U p p p p I R U U U U U p p p p p U p p U p p p p p p p p p p p p p p p p p p p U p p p p p p p U p I I p p p p p p I U p U I U p p p p U p U U p p p p U p I p U U p p p y y y & # V.0.D & X ",
"# = r 5.6.- $ y p p U p U p U p U p p p U p p p p p a p p U U U p U U p I p U p U p p p p p p p p p p U U U U R p U p R U U U U I p p y y y p p U U U U R f p p p p a U p p U p p a p p p U U U U p U p U a U U R U I p p p a p p f p U U U p U U p U I p I U p p U p U U U p U U U U p U p p p p U U U a p p p y p p p p U R p U p y p U U U U U U p U U U R U U p U p R p y p y & # B.0.4.& X ",
"o $ q o.V = # p U U R R U U U U U T U U U U U p U o.^ ^ +.E T U T U U T R R U U U U U U ^ w.,.+.+.U T W W W E s.s.s.u.U U U U U U U p r.r.r.r.h.T T U I J.C.A.C.C.C.C.J.C.j.j.j.j.j.j.j.T.U T W T U T T R J.j.C.j.j.h.h.g.a.u.g.h.C.Q T T U T U U U U U R U T U T U U U U U T U T U U T U U U U U U T R I h.g.g.g.u.u.s.s.h.h.j.h.h.g.s.e.U R W R T R T U U U R U R R R R R p p R $ # 1.1.M % X ",
"+ $ q o.B * # f R U T T R W T T R T R U U U U U +.:X:X:X:Xy.` W R T W R R T W R W T R U E.:X:X:X:XT W W W ` &.:X:X:X:XI R R R U U p i ;X:X:X:X:XY R T I =X;X:X:X:X:X:X:X:X:X:X:X:X:X:X:X:X' W W W T W ` ` :X:X:X:X:X:X:X:X:X:X:X:X:X=.W W W W T T W T W W W T T T T R W R T T R R R W T T R W T T T T R i :X:X:X:X:X:X:X:X:X:X:X:X:X:X:X/.T W W W R W T R W T R T W T T R W U U R # # O.O.m # X ",
"o $ q o.V 2 & p U R R R R T R T T T R T U T U U ^ :X:X:X:Xa.W W W W W T W W T W R W U U E.;X:X:X:XT W W ` W t.:X:X:X:XI U U U U U U p =X:X:X:X:XU T U i =X;X;X-X:X:X:X:X:X:X:X:X;X:X:X:X:XQ W W W W W W ' :X:X:X:X:X:X;X;X:X:X:X:X:XX.` W W T W R W W W W W W W W W R T W W W W W T R W W T T W R R T R I :X:X:X:X:X:X:X:X:X;X:X:X:X:X:X/.Y W W W T W W W R W W R R T R W R U R R # # :.V M # X ",
"# $ q o.O.7 & f U U R R T T U T U T U T T R U U ^ :X:X:X:Xy.W R T R T T T T T W W W U T E.:X:X:X:XY E W W W -.:X:X:X;XI U U U T T U I ;X:X:X:X:XI T R i =X=X;X:X:X:X:X:X;X:X:X:X:X:X:X:X:XQ W W T T T W ! :X:X:X:X:X:X:X:X:X:X:X:X:X..W ` T W T W T W T W T W T T R W T T T W T W R T W R W T T T T T U I :X:X:X:X:X:X:X;X:X;X:X:X:X:X:X`.T W R W T T W T W T T R T T T T W T R R # o O.V M # X ",
"o $ e o.O.7 & R U R U U T T U R U U U T T T W W %.:X:X:X:Xe.! R R T T W R T R T T R T T E.:X:X:X:XU R T R T -.:X:X:X;Xi E U T T W W I ;X:X:X:X:XI R T I ;X:X:X:X:X:X:X:X:X:X:X:X:X:X:X:X:XE W T T p I I I :X:X:X:X:X:X:X:X:X:X:X:X:X[ ` W W I I I I T W T W W R T W T W T R T R T T R T W T T T W T R U i :X:X:X:X:X:X:X:X:X:X:X:X:X:X:X].T R R U T W T R R T R T R T R T W U R R # o :.O.M % + ",
"o $ e O.:.6 & ` ` W ` W T ` W ` ` ` W ` ` ` ` ` t.:X:X;X:X<.t < ` ` ` ` W ` ` ` ` ` ` ` E.:X:X:X:X< < R ` ` -.:X:X:X;X< t p ` { ` ] T ;X:X;X;X:X< < ` Y ;X:X:X-X% < < % < % < < < < < < < 3 3 ` ( $X:X:X:X$.T U 4 5 u s s j j j x j y y ] ( :X:X:X;XT ` ` ` ` ` ` ` ` ` ` ` ` W ` ` ` W W ' ` ` ` ` ] ` Y :X:X:X:X< < < < < < < < < < < < 3 < ` ' ` ` ` ` ` ` W ` ` ` W ` ` W W ` # o 3.O.B % X ",
"X $ q O.:.6 - ` ` ` T ` ` T ` ` W ` W ` ` ` ` ` %.:X:X:X:X>.y < ` ` ` ` ` ` ( ` ` ` ` ` ).:X:X:X:X4 < R W ` -.:X:X-X:X3 t I { { ` { Y ;X;X;X;X:X< 3 ` T ;X:X:X-X< 4 < 1 < 3 3 3 t t t 3 3 3 3 ] ` +X;X:X:XX.W Q < 5 4 4 t u t y u u t t { ( :X;X;X;XY ` ` ` ` ` W ` ` ` ` ` ` ` ` ` ` ` ` ` ` ` ` { ` ` Y :X:X-X:X5 4 < 3 < 3 3 t t t 4 3 t 3 ` W ( ` ` ( ` ( ` ` ` ( ` ' W W W W # # 3.3.M & X ",
"o $ e O.#.- - W W ` ` W T ` ` T ` W ` ` ` ` ` ` %.:X:X:X:X>.t < ` ` ( ` ( ` ` ` ` ` ` ( E.:X:X-X:X4 3 R ` ` -.:X;X:X:X3 y U { ` { { T ;X;X;X:X:X< 3 ` T :X;X:X;X% < 3 < < 3 3 t t t t 3 3 3 3 { _ +X:X-X;X..W T < 3 3 4 t t t 3 3 3 4 t ] ( :X:X:X:XY ` ` ` ` ` ( ' ` ` ` ` ` ( Q ( ` ` ` ( ` ` ` ` ` { Y :X:X;X:X5 < 3 3 3 3 t y t 4 4 3 3 3 ` ` ` ` ` ` ` ` ` ` ' ` ` ` ` R W W = # 6.3.V # X ",
"X # q O.O.& * W W W W W Q ( W ( W ( ` T T ` ` ` %.:X:X:X:X>.t 4 ` ` ` ` ` ` W ` ` W ` ( E.:X:X:X:X< 3 W { ` c.:X:X-X:X< t p ` ` ` ` Y ;X:X:X:X:X3 3 { Y ;X:X:X=X< < 4 4 y u y p p p p p y i y ] _ OX;X-X=X~ a U g y y y a p p y y 4 t p | _ :X;X;X;XY ` ` ` ` ` ` ` ` ` ` W ` ` ` ` ` ` ` ` ` ` ` ` ] { Y :X:X:X:X2 5 y p p p a p y y t y y y ` ` ` ` ( W ` W ` ` W T ` W Q W W W = # 3.O.V # X ",
"o # q o.O.* & ` ` ` ` ` ` ` ` ` ` ` ` { ` ` ` ` =.:X:X:X:X>.y 4 { ` ` ` ` ` ` ` ` ` _ ` D.:X:X;X:X< 4 Q { ` c.:X:X:X:X< 3 a ` ` ` { ( ;X:X:X:X:X3 3 { ( R.R.!.L.z ^ ;.+.t.t.t.t. .{ { { { { | { ` '.XXXX.Xu.B w.p.b.b.v.p.*.| { ` { ` | | _ =X@X@X@XQ ` } { { ` ` { ` ` ` ` ` _ ` ` ` ` { ` _ ` { ` { { / :X:X:X:X;.;.t.b.b.b.p.=.{ { { { { { ` ` ` { ` ` ` ` ` ` ` ` ` ] ` W ` ` & & 6.:.V % X ",
"o $ q o.V & & ] { { } { k.{ k.k.k.k.{ k.{ k.k.{ c.:X:X:X:X4.t 3 l.{ | | k.} k.{ { { { { F.:X:X:X:X4 3 ` k.| b.:X:X:X;X< 3 p { { { { { ;X:X:X:X:X3 3 { ` ' Q Q (.-X:X:X:X:X:X:X;Xm.{ ] { { { k.{ | _ _ p % .X:X:X:X:X:X:X:XD.z.{ ] ] ' } | | ( Y < < i I l.l.| l.{ | { { k.{ { { { | { k.{ k.{ } | | k.| _ :X-X;X:X:X:X:X:X:X:X:X.X} ] } { k.| { { { } { k.{ k.{ k.{ { { { { ] { | = # 3.O.M + X ",
"X $ q B V * & ] { ` { { { k.{ k.| k.{ { } k.} } c.:X:X:X:X>.y 3 } { { { } | } { | { k.{ F.:X:X;X:X< 3 Q | k.v.:X:X:X-X< 3 i ` { { { { ;X:X:X:X:X3 3 ] { m.].:X=X:X:X:X:X:X;X;X;XM.{ ` { { { k.| | | { U 4 $X:X:X:X:X:X:X:XD. .{ ` ] { { | k.{ { < t i U l.| l.} { { { { { { { { { { { { { { k.{ { { } { ) :X-X;X;X:X:X:X:X:X:X;X{.| } | } } | { { { { { { { { { { { { { { { ` {  .# # 1.O.M + X ",
"@ $ q o.;.* & ] ` { { { { { k.{ | { { | { { | | c.:X:X:X:X>.t < k.{ { } | | | { | | { k.D.:X:X:X:X< 3 ` l.k.v.:X:X:X:X< 3 p { ` ` ] ` ;X:X:X:X:X3 < | } _.;X=X:X-X:X:X:X:X:X;X=XM.{ { { { { | | k.| } T 4 $X:X;X:X:X;X:X-XA. .' { } ` { { { { { p p p T k.l.{ { } { { { { { { { { { { { { { { } k.{ } ] / :X;X;X:X-X:X:X;X:X=X%X{. .| } k.} k.{ { { { { { { { | { { { { { { { ` { # + :.D V + + ",
"o $ q o.O.* & ] ` { { } { | k.} | | } | { { { { c.:X:X:X:X>.t 3 z.| { } } } { | { k.k.{ D.:X:X:X:X4 3 W l.l.c.:X:X:X:X< t p { { { ` ( ;X:X:X:X:X< < | | _.:X:X;X:X:X:X:X:X:X:X:XS.{ { { { { { | | | | ` Q $X:X:X:X:X:X:X:Xj.Y ( _ ( { ` { { ` { { { k.k.{ { { { { { { { { { } } { { { ` { { { } } { { | ) :X:X:X:X:X:X:X:X:X-X=X|.Y ` ` { } { { { { { { { { { { k.{ { { { { ` ` | # o :.O.M # X ",
"X $ q o.;.* & ] { { { { { { { { | { { | { { } { -.:X:X:X:X>.t 3 l.k.k.} | | } | { { { { D.:X:X-X:X< 3 Q | l.b.:X:X:X:X< t U } } { { ( =X;X;X;X:X< < |  .Q.:X:X:Xx v v v v k k k p t p ` { { { | | { { { { ( / U % < % % % j.=X=X=X=X( ] ` _ ).`.'.`.` { { { { { { } | { | { { { { { { { { { { { | { } { l./ ) < % % % < % % + % ;.;X:X;XM.{ | { { } { { { { } { { { { { { ] ] ` { $ # :.:.M # X ",
"o $ 9 o.O.- & | { | { { k.{ { k.{ | { { { { { ] =.:X:X:X:X>.i 3 l.z.k.| | k.| | | { { { D.:X:X;X:X< 4 ` | k.t.:X:X:X:X< t i z.k.k.| _ =X;X:X:X~.< % ] | Q.:X:X:Xt t y t t 4 t 3 t t U { { { { { { { { { { { { | 3 t t t 4 0.=X:X;X:X/ { { ` OX:X:X:X_ } { } { { k.} { } } k.{ { { { } { { { { } { { { k.k.} | U t y y t 3 3 < 1 <.;X:X;Xn.k.{ | { | { { { } } { { { { | { { ` ` ] $ # 3.:.V # X ",
"X $ q V O.- - ] { { | | { { { } { { { } { { { { -.:X:X:X:X>.y 3 z.} } z.} } } { { { ` { D.:X:X:X:X4 3 Q | | v.:X:X:X:X% t a k.} } | { =X:X;X;.< < < ] | Q.:X;X:X3 i t t t 3 3 3 t t U ` ` { { { { ` { { { { | k.3 t t 3 1 9.&X;X:X:XY { { _ OX:X:X:X_ k.} k.{ | { { { { { { } { } { { { { { { { { } { } } } } U t y t 4 3 3 3 4 2.;X:X:Xn.{ { { { { | | } { { } k.{ { { { { { ` ` # @ 3.1.V % X ",
"X $ q o.O.6 & { } { | { k.} { } { k.{ { } } { { -.:X:X:X:X4.u 4 | { } } z.l.| } ` { ` ` E.:X:X:X:X4 4 ` | | c.;X=X-X-X< t y | | { l._ :X-X:X< < < < ] ] Q.:X:X-X< t 4 u 4 < 4 4 4 u U { { ` ' ` { ` ] } { | { | { W 4 5 4 9.=X:X;X:XY { ` _ OX;X;X:X_ l.k.| } { { { { } } k.{ { } { { { { { { } } | { } { } | { ] ` ` ` ! R E g r.=X;X:Xn.k.| } { } } } } { { { { { } { { { ` ` ] # # 3.3.V & X ",
"X $ q o.:.- & ] ` { { ` ` ` { ` ` ` ` ` ` ` ` { t.:X:X:X:X4.5 1 ' ' ' [  .[ ' ' ` ` ` ` E.:X:X:X:X< < R ` ` c.XXoX.X|.< 4 E [ [ [ [ ~ {.^.Q.3 < < < ` ] Q.:X:X:X< 5 5 u u u 5 5 u u x ' Q ( ` W W ' ' ' ' [ [ [ ~ ' E Q g 2.q.J.J.L.3 U ` ( '.OX.X@XT ` ` { { ` ` ' ` ` ` ` ` ' ` { ` ` ` ` ` ` ` ` ` ` ( X.*.=.=.*.*.$...[ $.+.m.(.(.~.,.U W ` ` ` ` ` ` ` { ` ` ` ` ` ] ` W ` ` # # 3.O.B # X ",
"o # q o.O.6 * ` ` ` ` ` ( ` ` T ` ` ` ` ` ` ` ` %.:X:X:X:X;X-X=X=X=X;X;X:X-X;X@X( ` ` _ E.:X:X:X:X< < R ` ` { { ' 4 y oX-X-X-X-X:X;X:X~ E a < < ` ` W ] _.;X:X:X:X-X:X:X=X=X=X;X:X-X:X:X:XY ` W Y +X=X;X;X;X:X;X:X:X;X=X=XY.Q E 4 t t i ` ` ` ` 4 4 t t ` ` W ` ` ` ` ` ` ` ` ` ` ` _ ` ` ` ` W ` ` ` ` / =X;X;X:X:X;X;X;X;X=X=X@X! u 4 3 3 T ` ` ` ( ` ` ( W W ` ` ` ` ( ` T W W # # :.O.V #   ",
"o $ q O.:.- & W ` ` ` ` ` ` ` ` W T ` ` ` ` { ` e.:X:X:X:X:X:X-X;X;X;X:X:X:X:X=X( ` ` ` E.:X:X:X:X% < R ` ` ` ` { t t =X:X:X:X:X:X:X:XQ T p < < W ` W ] E.:X:X:X:X:X:X:X:X;X-X:X:X:X:X:X:XT ` ` T $X:X:X:X;X:X:X:X:X:X;X:XT.` T t t t p ` ` ( ` 3 t t t { ` W ` W ` ` ` ( ` ` ` ( ` ` ` ` ` ` ` ` ` ` ` T =X:X:X:X:X:X:X-X;X:X=X@X' i 3 3 3 T ` ` ` ` ` ` ` ` ` ( ` W ` ` ` ` T ` $ o 3.V M +   ",
"X $ 8 V :.* & ` ` ` ` ` ` ` ` T ` ` T ` ` ` ] ` %.:X:X:X:X:X:X-X;X;X:X:X:X:X:X=XT ` ` ` F.:X:X:X:X< & R ` ` ] ` ` t t $X:X:X:X:X:X:XY ` I i W W ` ` W ` Q.:X;X:X:X:X:X:X:X:X-X-X-X:X:X:X:XT ` ` T @X:X:X:X:X-X:X:X:X:X-X;XT.Q R 3 t t p ` ` ` ` < 3 3 3 ` ` ` ` ` ` W ` ` ( ` ` ` ( ` ` ` ` ` ` ` W ` ` T =X;X:X:X:X:X:X:X:X:X:X$X` y 3 3 3 T ` ` ` ` ` ` ` ` W ` ` ` ` ` ` W W ` $ o :.V M + X ",
"o $ q V O.* & W W W W ` W ` ` W ` W ` W ` W W ` %.:X:X:X:X:X:X;X:X-X-X;X:X:X:X%Xt t ` ( E.:X:X:X:X< < U W W W ` ` ` ' =X:X:X:X:X-Xv U i t t ` W W W W W Q.;X-X-X:X:X:X:X:X:X:X:X:X:X:X:X:Xt R W Y =X-X:X-X-X-X-X:X:X-X:X-XT.R R W W ` T ( ` ( W R R R U W W W T ` W T ` W W W W T ` W W W W W W W W W W I ;X:X:X:X:X:X:X:X:X:X:X%XW R R W W W ` ` W W W W W W W T W W W W ` T W W # + :.V v + X ",
"@ $ q O.:.- & R R R R T T W T W T R R W T W W W W U U y < < < < < 3 < < % < < % 3 < W W T U U 4 3 3 < U W W W W W W T T T U 4 < < t t ` ` ` ` W W W W R U I t % % < < 4 4 < < 4 < < < < % 4 y W T U U y 3 < < < < % < < < < < 4 T W T W T W W W W R W T R W W T W W W W W W T W W T W W W W W W W W W W W W W y 4 4 4 4 4 4 4 < 3 < p R W W W W T T W W W W W T T T T W T W U U R # o :.:.M # X ",
"o $ q o.O.$ # f f R R W W W R T W T W R T R R T R R R a 4 4 t 3 4 4 4 4 4 4 4 4 < < R R W W R 3 3 3 3 T W W U W W W R W W W y 4 3 4 3 W ` W W W W W T R R R y 1 4 4 4 4 t 4 4 y 4 4 4 4 < < t R U T T p 4 4 4 4 4 3 4 4 3 3 3 y R W T W W W W W W W W W W W W W W W W W W W W T T W T W T W W W W W W W T R T 4 < 3 3 3 4 4 4 3 3 3 p R W R R R W W T W W W W W T W W R R W p U f # # 3.:.M % X ",
"o * r 0.q.* # f p R U U T T U R T T U T T U U U T U U y 3 3 3 3 4 4 3 3 3 3 3 < < < R R U R R 4 t 3 3 U T T T T U R R R U T y 3 3 3 3 R W W T R T U U R R R y < < 3 4 3 4 4 t 3 3 4 3 3 < 3 4 R U U R p 4 4 4 4 3 3 3 3 3 3 3 t U U U T U T T T T U R R T U U R R R R R R U U U U U U U U U T R U T U T T T U 4 3 3 3 3 3 3 t 3 3 3 p R U U U U U T U T R U R U U U U U U R y f f $ # V.d.D & + ",
"$ = Z f.J.@ @ p U p U U U U U T R R U U U U U U U U U y 3 3 3 3 3 3 3 3 3 3 3 3 4 3 p p U p p 3 3 3 3 U T U U T U U U R U T y 3 3 3 3 R R R T U R T U U R R t < 4 3 t t t t t 3 3 3 3 3 3 < 4 U f R R y 3 3 3 4 3 3 3 t 3 3 3 t U U U U U U T R U T T R U T U T R R T U U T U T U U U U U U U U U U T U U U U 4 3 3 3 3 3 3 t 3 3 3 y U U U U U U U U U R R U U R U U U U U p p f # # Z.V.D # X ",
"@ = J (.|.e z X X 3 p p p p p p p y p p p p p y p y y y p i y p p p p p p p y p p p p p p y y p p p p p y p p p y y y p y y p p y p p p p p p p p p p p p y p p p p p p I p p p p p p p p i p p p p p p p p p p p y y p p i p y p p p y p p p y y p p y p p p p p p p p p p p p p p y p p p y y p p y p i y p p p y i y p p p y p p y p p p p y p p p p p p p p y p y y y y + o # q - ;X|.q.# X ",
"O ; 8. X#XM M     + p p p p p y p p y p y p p p y p p p y p p p p p p p p p p p f p p p p p y y y p p p p p p p p p y p y p p p p p p p y p p p p p p p p y p y p p p p p p p p y p y p p p p p p y p p p p p p p p p p p p p p p p p p p y y p p p p p p p p p p p p p p p p p p y p y p y p p y p p p y p p y y p y y y p p p p p p p p y p p y p y p p p p p f p y y y y X X   q - :X Xq.+ X ",
". $ 8.#X*X9 n     X y p p p p p p p p p p p p p p p p y y y p y y p y p p y p y p p p p y y p y p y p p p p p p p i p y y y p y y y y p p p p p U p I p p p p y y p y p y y y y y y y y p p p p p p p y y y p y p y y y p y p p I p p p p p p p p U I p p p p p p I p p p p p p p p p p p p p p p p p i p p p p y y y y y y p y p p p p p p p p p p p p p U p p p p p p y y       & X :X%XN.#   ",
"O $ z &.@.[.~.;.:.e   # # # # $ # # # # # # # + + # + # + # + # # # # # # + # # # # + # # # # # + + # # # + # # # # # # # # # + # # # # # # & # # # # # # # + # # # # # # # # # # # + # # # # # # & # # # # # # # $ # # # # # # # # # # # # # # # # # # & # # & # # # & # # # # # # + # # # + # # # # # # + # + + # + # # # # # # # # $ + # # # # # # # # # # # $ # # # # o : - #  X%X0.B.D +   ",
"$ : m 1.#.[.~.B :.0   X # # # # # & # # # # # # # # # # # & # # # # & # # # # # # # # # # + + # # # # # # & # # # # # # # # # # # # & & & & # & & # # # # # $ & # & # # # # # # # # # # # # # # & # # # # & & # # $ & # & # & # & # # # # # # # # # # # # # # # # # # # # # # # # # # # # # # # # # # + # # # # # # # # # # # # # # # # # # + # # # # # # # # # # # & # # o - - + #X&X6.i.O.+   ",
"A P r q 7 :.B V V B l m c c c c l c c l c c c l l c l c l l l l l l l l c l l l l l l c l c l l l c l c l c l l l c m l c l m m m c l m l l c l m m N m c N m N M N N N N m m N m m m m v m m m m m m m m c m m N N N N m N N M N N N N N c m N m m m m c m m m m l m m N m c N m c m v c c l l c m c m m m c m m m l m m m m m l m N N m l v c N m m N l N N N N N N N N m 3.V D 1.3.h 9 & , ; ",
">X>XA . o &.:.O.O.B c h c m h h c c h c c c j c c c c c c c h c c h l c c c h l d c h l h h h h c c d d c c c c c c c c c c c N N N h m l c l c c c c c N m N N c N N N N N m N B m N c m c N c l c l c c c m N N N c N c N c N m N c N m h N N c c c c c c c c c l c h l c c c c c c c c c c c c c c l h c c c c c l N c c d l c l c m c c c c c N c N N c N N N N N c c N O.O.:.6.7.d $   >X>X",
">X>XN.A o m m m m 9 9 d d d l 9 9 d 9 9 9 9 e 9 9 9 9 9 9 d 9 9 d 9 9 9 e e 8 9 9 9 9 9 d 9 9 9 s 9 9 9 9 9 9 e 9 e 9 9 9 e d e d e 9 j e l 9 9 e e e e 9 d d e d l l e e l e d e e d l d l 9 9 9 9 9 l 9 l 9 e e d e l e l e l l e d d j e 9 9 l e 9 d d 9 9 9 9 8 8 9 9 9 l e l 9 9 9 l e e d 9 9 9 9 9 9 s 9 9 d 9 j 9 9 9 9 9 l d 9 d 9 e d 9 d d 9 9 9 9 d d d d 9 9 d M B B D V 0 $ C >X>X",
">X>X>X>X. . . O o O = = $ $ = $ # $ $ @ $ $ $ * $ $ $ $ $ $ $ $ $ $ $ $ $ $ $ $ $ $ $ = $ & = $ $ $ $ * $ $ $ $ $ * $ $ $ $ $ $ $ $ * $ $ $ $ $ $ $ $ $ $ $ $ $ $ = $ $ $ $ $ $ $ $ $ $ $ * $ $ $ $ $ $ @ $ $ $ $ $ $ $ $ $ $ $ $ $ $ $ $ $ $ $ $ * $ $ $ $ $ $ $ $ @ $ $ $ $ * $ $ $ * * $ $ $ $ & $ $ $ $ $ $ $ * $ ; $ $ @ $ $ $ # $ $ $ $ = $ = = # = = $ # = = $ = = $ $ $ O @ O O b >X>X>X",
">X>X>X>XC b b Z b b Z b b b b w w w > w w w w w w w w w > > w w , q w w w b w b w , , , w w w b b w b w w C b b b w w w r w b w w b w w w w w w w r b b b w b w w b w b , , w w w C C Z C C w w w w w w w w q , w w w w w r b w w > > w w w w w w w w w w w > w > w , , q w w w C b C C b C w b w w w > w > w w w w w w w w w b w , > > w w w w w b b b w b > > > b b b b b b b b b , b H >X>X>X",
">X>X>X>X>X>X>X>X>X>X>X>X>X>X>X>X>X>X>X>X>X>X>X>X>X>X>X>X>X>X>X>X>X>X>X>X>X>X>X>X>X>X>X>X>X>X>X>X>X>X>X>X>X>X>X>X>X>X>X>X>X>X>X>X>X>X>X>X>X>X>X>X>X>X>X>X>X>X>X>X>X>X>X>X>X>X>X>X>X>X>X>X>X>X>X>X>X>X>X>X>X>X>X>X>X>X>X>X>X>X>X>X>X>X>X>X>X>X>X>X>X>X>X>X>X>X>X>X>X>X>X>X>X>X>X>X>X>X>X>X>X>X>X>X>X>X>X>X>X>X>X>X>X>X>X>X>X>X>X>X>X>X>X>X>X>X>X>X>X>X>X>X>X>X>X>X>X>X>X>X>X>X>X>X>X>X>X>X>X>X>X>X"
};
