/* XPM */
static char *lives_16[] = {
/* columns rows colors chars-per-pixel */
"192 48 201 2 ",
"   c #010109",
".  c #040819",
"X  c #0A121D",
"o  c #111317",
"O  c #070E23",
"+  c #0A152B",
"@  c #151C2B",
"#  c #01033C",
"$  c #0C1832",
"%  c #131C32",
"&  c #18202E",
"*  c #192233",
"=  c #23252A",
"-  c #242A39",
";  c #333535",
":  c #02084A",
">  c #09124B",
",  c #020B58",
"<  c #110E56",
"1  c #08135A",
"2  c #171B55",
"3  c #18284C",
"4  c #1B2C52",
"5  c #1E3056",
"6  c #242D45",
"7  c #29354A",
"8  c #212F52",
"9  c #273659",
"0  c #303C5D",
"q  c #020C65",
"w  c #02146C",
"e  c #121968",
"r  c #010B75",
"t  c #021777",
"y  c #121E74",
"u  c #06216E",
"i  c #1E2E60",
"p  c #17316F",
"a  c #09217C",
"s  c #1C3673",
"d  c #262867",
"f  c #2B3D65",
"g  c #323F66",
"h  c #292E7A",
"j  c #283B75",
"k  c #313373",
"l  c #34435A",
"z  c #2E416C",
"x  c #34456C",
"c  c #2E457A",
"v  c #354979",
"b  c #3F517B",
"n  c #464748",
"m  c #484C54",
"M  c #4E525A",
"N  c #52565E",
"B  c #565B63",
"V  c #414E75",
"C  c #425277",
"Z  c #515D7A",
"A  c #5D6269",
"S  c #61646A",
"D  c #626670",
"F  c #777575",
"G  c #000D8A",
"H  c #041D88",
"J  c #111D80",
"K  c #000F93",
"L  c #041D93",
"P  c #101E9C",
"I  c #07218B",
"U  c #142684",
"Y  c #062297",
"T  c #152A96",
"R  c #1C3199",
"E  c #29328D",
"W  c #363D80",
"Q  c #28379A",
"!  c #011AA7",
"~  c #011DB2",
"^  c #0826A6",
"/  c #142DAA",
"(  c #0C32A9",
")  c #1A34AD",
"_  c #0C2DB8",
"`  c #112EB5",
"'  c #0D31BB",
"]  c #1333B8",
"[  c #2838AB",
"{  c #273BB5",
"}  c #364C82",
"|  c #3D5388",
" . c #3D4E9F",
".. c #2D40A9",
"X. c #3247AB",
"o. c #2840B5",
"O. c #3747B8",
"+. c #3A54B8",
"@. c #474D87",
"#. c #45588B",
"$. c #585D8C",
"%. c #414C97",
"&. c #495D92",
"*. c #565B99",
"=. c #5A668C",
"-. c #4D6296",
";. c #556497",
":. c #656C87",
">. c #7C7C8A",
",. c #61669E",
"<. c #726F90",
"1. c #6D7696",
"2. c #747A9A",
"3. c #4A57A6",
"4. c #545CAB",
"5. c #4457B8",
"6. c #4D64A0",
"7. c #5669A6",
"8. c #5A76AB",
"9. c #4965B7",
"0. c #5767B8",
"q. c #6977A5",
"w. c #767BA5",
"e. c #6977B8",
"r. c #0C2EC1",
"t. c #0D32C3",
"y. c #1236C5",
"u. c #2C49C0",
"i. c #3A4DC0",
"p. c #465BC3",
"a. c #4D62C5",
"s. c #5266C4",
"d. c #5A76C8",
"f. c #496ED0",
"g. c #5977D0",
"h. c #687BCA",
"j. c #717DC4",
"k. c #687BD2",
"l. c #7C808A",
"z. c #7A8198",
"x. c #7985A7",
"c. c #7B85B7",
"v. c #6E82C3",
"b. c #7884CA",
"n. c #7A92CE",
"m. c #6C83D8",
"M. c #7689D3",
"N. c #7E92D7",
"B. c #878989",
"V. c #868B99",
"C. c #8C9192",
"Z. c #909398",
"A. c #828BAD",
"S. c #999DAF",
"D. c #848DB1",
"F. c #908EB2",
"G. c #8B94B9",
"H. c #979AB9",
"J. c #9BA2BD",
"K. c #A2A1A5",
"L. c #A0A7BF",
"P. c #B7B9B8",
"I. c #848BC5",
"U. c #8A95C6",
"Y. c #9398C1",
"T. c #8D9CDD",
"R. c #9BA1C2",
"E. c #98A4DB",
"W. c #A7AAC6",
"Q. c #B1AFC9",
"!. c #AEB2CA",
"~. c #B6B7C9",
"^. c #A6AADB",
"/. c #ADB8DC",
"(. c #B5BBD8",
"). c #9FADE4",
"_. c #A4ABE3",
"`. c #ADBAE6",
"'. c #B2BDE5",
"]. c #C1BCC9",
"[. c #BBC1D8",
"{. c #BAC4E6",
"}. c #C7C7CB",
"|. c #C8CAD6",
" X c #D7D7D8",
".X c #E1DDDF",
"XX c #C5CAEA",
"oX c #CAD3EA",
"OX c #D6DAE8",
"+X c #C2CAF2",
"@X c #CBD3F2",
"#X c #D2D7F3",
"$X c #DFE1EE",
"%X c #DDE5F7",
"&X c #E2E3ED",
"*X c #F2EAE3",
"=X c #EBEBF6",
"-X c #F2EDF7",
";X c #EEF1FA",
":X c #F8F8FB",
">X c None",
/* pixels */
">X>X>X Xn M N N B A A A N N M N N N N M M M N N B B B B B B A S A D D N B N m M N B A A S S S A B B A A M N M M M M N N N N N N N N N M M m M M N B B B A A D A A A A B N N M N N B A B A N N N N B B B A B M N N N N N N M M m m m m m M M N N N B A A B B B N N N N M M M M M M N N N N N N B N A A A A A A N N N B A N N N M N N B B A A B B m l m l m m M N B A A A B B A B A N B N  X>X>X>X",
">X>X>X}.o o o o o @ * * - * & & & & & @ & & & * * * * * & * % * * & * & @ & @ & & & % & & & & & @ & & & & * * & * & * * * * & & @ o @ @ @ % * * * * * * * - * * & & @ @ & & & & & & & & * & & & & & @ & $ @ & * & & * * * % @ @ X & o & & & & * * * * * * * * % & & $ & & & & % & % * % @ @ & * & * * * & * & & & & & * * & * * * * & * & & @ & & & @ & & & * * * * * * & & o + X @ o & |.>X>X>X",
">X>XF ; = Z.B.:.=.=.C C b b b v x z x x x b b x x x x x x x x b b v x x z x x x x x x x x x x x x x v x v v v x v V v v v x v x x x x x x x x v v v b v v v v v x x x x z x x z x z x x x b b v x v x v z z z z z z x x z z z z z z z x v c c x c x z c c z c z z z z z z z z z z z z z z z z z z c z v x x z x x x x x x x x x x v v x v x x v x x x z z z z x z z x x C @.1.1.1.z.z.Z =   >X>X",
">X>X= o ; .X.XD.D.q.-.-.-.;.-.-.-.&.-.-.&.-.-.&.-.&.-.&.-.$.&.-.-.-.-.=.-.-.-.=.-.-.-.-.&.&.&.#.=.-.-.-.-.-.;.;.-.-.-.-.-.&.-.&.&.&.&.&.&.-.-.-.;.-.;.-.;.;.-.-.-.-.-.-.&.&.$.&.#.-.-.-.-.-.-.;.-.;.-.-.-.&.#.#.#.#.#.#.#.#.| | | | | | #.| | #.| | | | | } | | } | | } | } } | } } | } | | | | | | | | | | | #.#.&.#.&.&.&.-.#.&.&.&.-.-.-.-.#.#.&.-.&.-.-.#.#.#.#.| b 6.q.R.J.J.J.G.z..   >X>X",
"    N B.K.S.J.2.8.=.v C C V V V V V b x C C b b x b x b v v V V b b b V V V C C V V b x V V b b b C C C C C C C C C C C C C C V V V b b v V b C C C C C C C C C C b x v x V V v C C b C b x x V b V b b b b x x x x x x x x x x x x x x x v x v x x x x z x x x x z z z l z z z z z z z l z z x x x x x x x x x x x x x x x x v v b b b x V b b b b x b v x b x x x x z b C 1.x.x.J.S.1.x.l     ",
"& o l.$X X;.-.j c 3 + + + + + + + + + $ + @ $ + @ + + + + @ @ $ $ @ X + + O + + + @ + + + X X + + + $ + & + + $ $ $ $ + $ + + + + + $ + + + + + + $ $ $ @ @ $ $ + $ @ $ @ + + + + + + $ @ @ + + + + + + + + + @ + + X @ @ @ $ $ $ $ $ $ $ + $ $ + + + + + + + O + + + @ + + + + + + + + + + + $ + + + + $ + + + + + o + @ + @ + + + + $ + + + + + + % $ + + + @ + X X @ @ $ s E s -.&.G.G.x $ O ",
"& @ >. X X-.-.j c 4 $ @ + + + + + @ + $ @ $ + $ + + + + + + + + + + + + + X + + + + + + X + + + + + + + + + @ + + + + + + + $ + + + @ + + + + + + + + + + $ + + + + + + + + $ $ + $ $ + + + + + X + + $ + + + + + + + + + + $ $ $ $ $ $ @ + + + + + + X + X + + + + + $ + + + @ $ $ + $ + $ $ + + + + + + + + + + X X + + O + + + + + + + + + + + + + $ + + + @ + + + $ $ + s s p #.#.D.A.x % . ",
"* + Z D.D.3 4 . . 1 t w w w w w w w w w w t w w w w w w w w w w w w w w w w w w w t w w w w w w w w w w w w w w w w w w w w w t w t w w w w w w w w w w w w w w w w w w w w w w w u t w w w w w w w w w w w w w w w w t w t w t u w w u w t w w w w w w w w w w w w w w w w t w w w w w u w w t t u t w t u w w w w w q w w w w w w w w w w w w w w w w w w w w w w w w w t O . . & $ R.J.V % . ",
"- $ Z A.D.5 5 . . w t w w w w w w w r w w w t w w w t w w r w w w w w w w r w w t w w t w w w w w w w w w w w w w r w w w w w w t w w t w w w w w w w w r w t r w t w w t w t t w t t w w w w w w w w w w w t w r t t t t t t t t w t w w w t w w w w w w w w w w w w w w w w t t w w w w w t t t t t t w t w w w w w w w w w w w t t w w w w w w w w w w w w w w w t w t w + X + 6 3 R.H.C $ . ",
"7 $ Z x.x.* 3 1 1 t t t t w w t t w w w t w t t t t t t t t t t w w t w w w t t t t t t t t t t t w t w w w w r w w t t t w t t t t t t t t t w t w w t w w w w w t t t t t t t t t t t t t w w w t t w w w w t t w t t t t t t t t t t t t w t w t w w t t t w t w t t t t t w t w t t t t t t t t t t t t t t t w t w w t w w t t t t t w t w t t t w t w t t w t t w w t 1 > > * $ G.F.x $ . ",
"- @ x =.;.+ + H t t t t t t t t t t t t t t t t a a a t t t t H t t t t t t t t t t t t a I a I H t u t t w y w y t H H H t H t H t t a I a I H H H t t t a t a H a I U t y t y t I t y t H H t t H H H H I t a a t t I I I I I a t t H t H J t a t t I t t t H t H t t H t t H t H H t H t H t t H I a H H H t t t t t t t t t t H t J t t t y t t t t t t t H t H t t t t t t t $ $ e.q.g $   ",
"6 + 0 $.=.+ + H a t a t H t t H t H t H t t y t q r w q r H t H H t H H H H H t t H t r q w w t H H I t t q q q q w t H H H H H H H w r r t t L H H H w t y t t y t y a t t t t t w t r t t H I H H H I U U U U U y a U U U U U I H H t H t t t t I I t H H t H H t H H t H H t t t t t H H t t q r q w t H H H H H H H H t H t w r r r r r r w t H H H H H t H H t H H I t t t a $ $ q.,.x $ . ",
"- @ 9 b | O + H I H I L I L L H L I L I L I I L :X;X;X:X:XH L Y Y L Y I Y I L Y L L Y e.:X:X:X;XU.Y Y T I e.-X:X;X:X{.Y Y Y L H H I XX;X;X:X=XK ^ Y L :X:X:X:X:X:X:X:X:X:X;X;X;X;X;X;X:XR Y Y Y Y ^ Y ( I.:X:X:X;X:X;X:X:X:X:X:X:XL Y Y Y Y Y Y Y I Y Y I Y I Y I Y L Y I Y Y I Y I Y I L Y I 7.=X;X-X:X0.Y Y Y Y Y Y Y Y Y L E.:X:X:X:X;X-X;X;XG I Y Y Y Y Y L L I Y Y I I H H I $ $ #.@.3 +   ",
"- $ 9 | | O O H a H H I I H I L L H L L L Y L Y :X:X;X:X:XK L Y I Y Y L L L Y Y L Y T e.:X:X-X-XU.Y Y Y Y e.:X;X-X=X/.Y I I L L H H {.-X:X;X=XK ^ Y K :X:X:X:X:X:X:X:X:X;X;X:X-X;X;X:X:XR Y Y Y Y Y Y Y I.;X:X:X;X-X:X;X:X:X:X:X:XL Y Y Y Y L I I L L I Y Y Y Y Y Y Y I Y I L L Y L L L H L U 0.;X-X-X:X3.Y I Y Y Y Y Y Y ^ ! _.:X-X:X:X:X*X-X*XK I Y Y Y Y Y Y Y Y L I I I H H I $ $ | | 8 @   ",
"- + 9 #.#.O + H H H I L L L I L I L I L L L H Y :X:X;X;X:Xr I H I L L I Y L Y L L L Y j.:X:X;X;XI.Y Y Y T v.:X:X;X=X/.I H H H H H Y XX-X:X:X&XG Y I G :X:X;X:X:X:X:X:X:X:X:X:X:X:X:X:X-XT Y Y Y Y Y Y T I.;X:X:X:X:X;X:X:X:X:X:X:X! ( ! Y Y Y I L L L Y Y I L Y Y L Y Y L Y Y Y L Y I L t r r 4.=X-X;X:X3.Y H Y Y Y Y ^ ^ Y Y _.:X:X:X:X-X;X:X-XK Y Y Y Y Y Y L Y Y I Y L L H I I % + | | 4 $   ",
"= + 9 #.#.+ + L H I H L L H L H H L H L H H H Y :X:X;X:X:XG H H L H Y Y L I Y L I Y T b.:X;X:X=Xc.T Y Y ^ v.:X:X:X;X(.I H H H L Y Y oX:X:X:X=XG I I G :X;X:X:X:X-X:X:X:X-X:X-X:X;X-X-X;Xp Y I I H H I Y I.=X-X-X;X-X:X-X:X:X:X*X:XK ^ Y Y Y L L H L I Y L Y H L I L L I H L L I L Y L Y _.%X=X;X-X-X:X:X4.T H Y Y Y ^ Y Y Y L ).-X;X-X:X:X:X-X=XK L H Y L L Y Y L Y L Y Y H I I I % + | } 8 +   ",
"* + 9 #.| + $ ^ Y L ^ L Y Y L L Y L L Y L Y L Y :X;X:X:X:Xr w J Y Y ^ Y ^ Y P Y ^ ^ / b.:X:X:X;Xq.e t ^ ^ b.:X:X:X-X(.w w Y L Y ^ / @X:X:X:X=X, q Y K :X:X-X-X$X!.!.Q.Q.W.!.!.~.!.!.!.P.e q I Y (._.^.^.^.Y.Y.H.H.W.W.W.W.W.W.W.(.t H ^ 5.E.E.E./.T ^ Y ^ T ! Y Y Y ^ P ^ ^ ! Y ^ ^ ^ ^ '.=X=X-X:X:X:X:X*.t ^ ^ ^ ^ ^ d.{.@XXXoXn.G.G.G.G.G.F.F.w q Y Y ^ ^ ^ Y ^ ^ ^ ^ ^ ^ L P Y $ + | b 8 $   ",
"* + 9 | | O $ ^ ^ ^ ^ ^ ^ ^ ^ ^ ^ ^ ^ ^ Y P ^ ^ :X:X:X:X:Xq w t ^ ^ ^ ^ ^ ^ ^ ^ ^ ^ ( b.:X:X:X=X1.1 y ^ ( n.:X:X:X-X|.q , ^ Y Y ^ ( @X:X:X:X=X: , _ K :X:X:X=XW.2 1 q 1 q q q q q 1 1 1 , , ( ^ :X-X:X=X`.U q 1 1 1 q q e e q 1 1 1 : ` k.-X:X:X:X/ ^ ^ ^ ^ ^ ^ ^ ^ ^ ^ ^ ^ ^ ^ ^ ^ ^ ( XX&X-X;X:X:X:X:X*.t ( _ ( ^ ^ d.;X:X=XOXH a 1 q e q e 1 1 : ^ ^ ^ ^ ^ ^ ^ ( ^ ^ ^ ^ ^ ^ ^ + + | | 8 $ . ",
"& @ f #.#.+ + ^ ^ ^ ^ ^ ^ ^ L ^ Y ^ L ^ ^ ^ ^ ^ :X:X:X:X:Xq w H ! T Y / ^ ^ ^ ^ ^ P ^ b.:X:X:X*Xq.1 t ( ` b.:X:X:X:X[.q q ^ P ^ ! / XX;X:X:X=X, , _ ! :X:X-X:XW.> > , : , , 1 q q q q , : : ( ^ ;X:X:X-X/.H q q q w w q , , , , : , # ` k.:X:X:X:X/ ^ ^ ^ ( ^ ^ ^ ^ ^ ^ ^ ^ ^ ^ ^ ^ ^ ^ ).'.XXoX:X:X:X:X,.y _ ^ ^ ^ Y h.;X-X-X$XG y : , q , , , , : Y ^ ^ ^ ^ ^ ^ ` ^ _ ^ ^ Y Y ( $ + #.| 8 % . ",
"* + f  .| + + ^ ^ ^ ^ ^ L ^ ^ Y ^ Y Y ^ ^ ^ ^ ( :X:X:X:X:X, w t ^ ^ ^ ^ ^ / Y ^ Y ^ ( b.:X:X;X-X2.e t _ _ M.:X:X:X-X(.w , ^ ^ Y Y / XX;X;X-X&X: , _ ! -X-X=X=XW.> : : : , 1 , q q , q , , : ( ^ ;X-X-X=X(.J y q 1 1 1 q q q , , , : : ` k.:X:X;X:X[ ^ Y ^ ^ ^ ^ ^ ^ ^ ! ^ ^ ^ ^ ^ ^ P ^ L Y K @.:X:X:X:X,.t ( ^ ^ ^ ^ d.=X;X-X$Xr 1 , , 1 q , q , , Y ^ ^ ^ ^ ^ ^ ^ ^ ^ ^ ^ Y ^ Y $ + #.b 8 $   ",
"* @ f | #.+ + ! Y ^ ^ Y ! ^ L ^ L ^ ! Y ^ ^ ^ ^ :X:X:X:X:X, w J ^ ^ ^ ^ ^ ^ T ! ^ Y / b.:X:X-X-Xw.q t _ ' M.:X:X:X:X[., q ^ ^ ^ Y ^ {.=X-X:X=X: , _ ~ j.A.w.<.Z : : , q w t t L L L L L H H ( ( :X:X:X:X(.q J Q R R T T Y Y H L Y I I _ m.;X=X=X:X) ^ ^ ^ ^ ^ ^ ! ^ ^ ^ ^ ^ ! ! ^ ! ^ Y ^ ^ ^ Z :X:X:X:X$.e ^ ^ ^ ^ Y d.;X-X-X$X: : y T T R Y Y ! L ^ ^ ^ ^ ^ ^ ^ ^ ^ ^ ^ Y Y Y ^ $ O #.| 9 $ . ",
"* @ f &.| + + r._ _ _ r._ r.r._ _ _ _ _ _ _ ' t.:X:X:X:X:X, w L r._ ` _ _ ' ' r._ _ y.N.:X:X:X;Xw.< y y.y.m.:X:X:X;X[.q r t.' _ ` ' {.=X-X;XOX: : _ _ _ P U :X:X:X:X:X:X:X:X:X` ' ' r._ _ _ _ ^ ^ ^ 1 1 w.:X:X:X:X:X:X:X[ ] ] ' ' ' _ ( ^ ^ ( : : 1 ^ t.' r.' _ r._ ' ' _ _ ' r._ _ _ _ r.r.` @.:X:X:X:X,.q ` ` ) ` _ d.:X:X:X:X:X:X:X:X:X:X:X[ t.t.t.r.r.r.r.` r.t._ t.r._ ` _ ' + O #.| 8 $   ",
"@ + f #.&.+ + _ _ _ _ _ _ _ _ _ _ _ _ _ _ _ _ ' :X:X:X:X:X, r Y t.' ' ' ` ' _ _ ' ' y.M.:X:X:X-Xw.1 t ' _ k.:X:X:X:X[.q r y.t._ ' ] {.=X-X-X$X# : ^ ~ k.#X:X:X:X:X:X:X:X-X:X:X/ _ _ _ _ _ _ _ ^ ^ _ > 2 w.;X:X:X:X:X:X:X[ ` _ ` ' _ _ _ _ ^ ] # , 1 _ _ r.r.' ' ' _ _ _ ` _ _ _ _ _ _ _ r.r.^ #.:X:X:X:X;.e ( _ ` ` _ d.:X:X:X:X:X-X-X;X:X:X:X{ t.t.t.r.' r.r.r._ r.r._ _ _ _ ^ ' $ O | | 8 $ . ",
"@ + f #.| + + r._ _ r._ _ _ _ _ _ _ _ _ _ _ ^ ' :X:X:X:X:X, t Y y.r.r.' ` ' ' ' ' r.y.M.:X:X:X:Xw.e t t.t.k.-X:X;X-X(.w w t.t.t.` y.{.-X:X-X$X: : ` ! `.-X-X:X:X:X:X:X:X:X:X;X) _ _ _ _ ^ _ _ ^ ^ ( 1 q c.:X:X:X:X:X:X:XQ ` ` _ ' ' _ ` ^ ` ` : 1 q ` r.t.r.r._ _ _ _ _ _ _ ` _ _ _ _ _ ' t.t.a.:X:X:X:X,.w ` ( ` ` _ g.:X:X:X:X:X;X;X;X:X:X:X) t.r.t.t.' t.r.r.y._ _ r._ _ ` ( ( + O @.| 3 $   ",
"@ + 9 #.#.+ $ r._ r._ _ _ _ _ ` ` ` _ ` ` _ _ ' :X:X:X:X:Xq t Y t.r.] ' _ _ ' ' _ _ ' m.:X:X;X;Xw.e H t.t.k.:X:X:X:X(.q q y.' r.t.y.XX-X:X:X&X# : _ ! ).;X-X;X-X:X:X:X:X:X:X:X) _ ( _ ` _ _ _ _ _ _ r e v.;X;X;X=X&X&X$Xi : r ~ ! ' ' ' _ ! ~ ~ ~ t.t.t.t._ ' _ r.` _ ` _ _ ` _ _ _ _ ' ' r.t.s.:X:X:X:Xq.t ' ' ' ' _ g.;X:X:X:X;X=X=X&X&X=X;Xd J / ` ' r.' ' _ _ r.r._ _ _ _ _ ` + . | } 3 +   ",
"@ + 9 #.#.+ + r._ _ _ r.r._ _ ` _ _ _ _ _ ' ' y.:X:X:X:X:Xq r Y t.' ] r.' ` ` _ _ _ ' k.:X:X;X;Xw.q H t.y.M.:X:X:X-X!.q , t._ _ r.r.{.:X:X:X&X: , _ ~ _.;X:X:XS.> : : < : , , , , q _ _ _ _ _ _ _ r.t.y._ ^ ! # # # # : U.@X@X@X%X^ ' ' ^ ;X%X=X;X] ' t.' ' r._ _ _ _ _ _ _ _ _ ' _ ' _ _ ' t.p.:X:X:X:X,.y y.t.t.y.t.g.-X;X:X=X# : : : : : # ;X:X:X:X] ' _ ' r.r._ ' ' _ _ _ _ ' + O | b 3 +   ",
"& + 9 #.| + + r._ _ _ _ _ _ _ _ _ _ _ _ _ r.t.y.:X:X:X:X:Xq w T ' ' ' ] ' _ _ ' ` ( ' k.:X:X-X*Xw.q y y.y.M.:X:X:X-X/.< 1 ' _ _ ' ] '.-X;X:X=X: r t._ `.;X:X:XR.2 1 q e w w w q , w _ ^ _ _ _ _ _ r.' r.y.' ] q q 1 , 1 H.-X*X-X;X^ ' ' L :X:X:X:X{ y.t.' ' _ _ _ _ _ ' _ _ ' _ ' _ _ _ _ ' ` p.:X:X:X:X;.y ' y.y.t.t.g.-X:X;X&X< < , q , 1 , :X:X:X:X{ t._ t._ r.' _ ' ' ` ^ ` ' + O #.| 3 +   ",
"= + 0 &.&.+ + _ ` _ _ _ _ _ _ _ _ _ _ ' ' t.' ' :X:X:X:X:X, w J _ / ` ] ' ' ' ` _ _ ( j.:X:X:X-Xw.e J t.y.M.:X:X:X-XQ.r q t._ _ _ ' (.:X:X!.y w q t.r.{.:X:X-XH.> , , , 1 q q , , w _ ` ` _ _ _ r.t.y.r.t.' ` : : , , , J.-X-X-X:X~ ( ' ! :X:X:X:X{ ' ' ` ` ' _ _ _ ' ] r.' _ ' _ ' _ _ ` ` ` O.:X:X:X:X$.w ` _ t.y.t.g.:X:X:X&Xq q q , , , : :X:X:X:Xy.r.t._ _ _ ' _ ' ' ` ^ ^ _ $ + -.| 5 $ . ",
"- + z &.&.+ $ r.` _ _ ` ' ' ' ' _ _ _ r.' t.' t.:X:X:X:X:X1 e U ] / ) ] y.y.y.r._ _ ' m.:X:X:X-Xw.q H y.y.M.:X:X:X:X|.e y y.y.y.y.y.'.:X&X: q q q r.r.+X:X:X:XW.2 > 2 1 e q q e < y ' ] ` _ r.r._ r.r._ _ _ ^ L I 1 1 1 ~.:X:X:X:XK ( ` ! :X:X:X:X{ y.t.r.r.' r.' t.' r.' _ _ r.r.r.` r.] ' ` O.;X-X-X:X$.w ] ' t.y.y.k.-X-X=X&Xe < U T T T H :X=X=X-X[ r.t._ r._ ' ' ' _ ` / ( _ $ + &.| 5 $ . ",
"- $ f &.&.$ + ^ ^ ^ ^ ^ ^ ^ ^ ^ ! ^ ^ ^ _ ^ ^ ` :X:X:X;X:Xd h E [ { { { { O.O.` _ ^ ` j.:X:X:X-Xw.> t ^ ` u.e.s.$.@.} k k O.p.p.5.5.4.*.%.r q q q r.~ #X:X:X:X~.k k k k k #.*.;.%.3.5.5.^ ^ ^ L T.T.).E.T.N.M.M.M.j.j.b.7.e 2 2 4 , : ^ ^ X.[ h E H ^ ^ ^ / ^ ^ ~ _ ^ ^ ^ _ ^ ` ^ ^ ^ / ^ ^ ^ O.:X-X-X:X$.q ^ ` ^ _ _ f.oXOXOX|.W } X.9.+.+.+.;XOXOXoXr q ^ _ ^ ^ ~ / ^ ^ H I I Y $ $ &.| 5 $   ",
"- $ z &.-.$ $ ^ ^ ^ / ! ^ ^ ^ ! ^ ! ^ ^ ^ ^ ^ / :X:X:X:X:X:X:X:X:X:X:X:X:X:X:X0.( ^ / b.:X:X-X-Xw.> e ^ ^ ^ ` ` < y < :X:X:X:X:X:X:X{ R y , q ^ ^ ! ! %X;X:X:X:X:X:X:X:X:X:X:X:X:X:X:X:XP Y ^ G ;X;X:X:X:X:X:X:X:X:X:X-X'.P e > > : : ^ ^ _ ' 1 e , L ^ ^ _ ^ ^ ^ ^ ^ ^ ^ ^ ^ ^ ^ ^ ^ ^ ^ ^ ^ 5.:X;X-X:X$.w ( ^ ^ _ _ ^ ! G , F.:X:X:X:X:X:X:Xf.L : : q , ^ ^ ^ ^ ` ^ ^ ^ Y Y I Y $ @ &.#.5 $ . ",
"- $ z #.-.# $ ^ ^ ^ Y ^ ^ ^ ^ ^ ^ ^ ^ ^ ^ ^ ^ ] :X:X:X:X-X:X-X;X:X:X:X:X:X:X:X4.^ ^ / b.:X:X:X=Xw.> q ! ^ ^ ^ ^ , q : ;X:X:X:X:X:X=X] I q , w L L ^ K ;X;X:X:X:X:X:X:X:X:X:X:X:X:X:X:X:XP Y ^ K :X:X:X:X:X:X:X:X:X:X:X:X`.K r : : : : ! ^ ^ ^ , , q P ^ ^ ^ ^ ^ ^ ^ ^ ^ ^ ^ ^ ^ ^ ^ ^ ^ ^ ^ ^ 5.:X:X-X:X$.y ^ _ _ ^ _ _ ` I q Y.:X:X:X:X;X;X:X9.^ , , , : Y ^ ^ ^ ^ ^ ^ ( Y Y Y Y $ + | | 4 $ . ",
"- + 0 #.&.+ $ ^ ^ ^ ^ ^ ^ ^ ^ ! ^ ^ ^ ^ ^ ^ ^ _ :X:X:X;X=X=X;X;X-X:X:X-X;X;X:X3.Y ^ / b.:X:X:X&Xw.> q ^ ^ ^ ^ ^ , q : =X;X;X;X:X-X` L q , q w ^ Y ^ L ;X;X:X:X:X:X:X:X:X-X:X;X;X:X:X:X:XL _ ^ ! :X:X:X;X:X:X:X:X:X;X-X-X{.K w : : : : ! ^ ^ ^ , , , Y ^ ^ ^ ^ ^ ^ ^ ^ ^ ^ ^ ^ ^ ^ ^ ^ ^ ^ _ ^ 3.;X;X-X:X$.w _ ^ _ ^ ^ ^ _ L 1 U.;X:X:X;X=X-X-X5.Y : : , : Y Y ^ ^ ( ^ ( ^ ^ Y Y Y + + | b 3 + . ",
"- + 9 #.#.+ $ ^ ^ ^ ^ ^ L ^ Y Y Y Y L ^ L ^ ^ ^ :X:X;X;X=X=X=X=X;X:X:X;X=X=X&X@., Y ^ b.;X=X=X&Xx., e P Y ! Y ! Y ^ G &X=X=X;X:Xy ! L H H L Y ^ ^ ^ K :X:X:X:X:X:X:X:X:X:X:X:X:X:X:X:X:Xq r ^ K :X;X-X;X-X;X;X;X:X-X;X-X{.H Y Y L I H Y Y L L H I L Y Y Y ^ Y ^ Y ^ ^ Y Y ! L ^ ^ Y Y ^ Y Y Y 5.&X%X&X=X;.e ^ ^ Y ^ ^ ^ ^ L t U.-X:X-X;X-X=X=X9.I H t t t Y Y Y Y Y Y Y ^ Y Y Y Y $ @ | v 3 +   ",
"& X 0 #.&.+ $ ^ L Y L L Y I L Y L Y Y L L Y Y Y I Y T : > > : 1 > 1 > , > : > : : H I Y Y Y q 1 w q w L L ! Y ^ ! Y Y Y Y , > > , > t Y L ^ ^ Y Y L ! Y Y t > , 1 < , 1 , > > : > : > , q r ^ ~ ^ ^ t , , : > : : : : , , , r ^ Y ^ Y Y I Y I L Y L Y Y Y Y Y L Y L Y Y Y Y Y Y Y Y L Y Y L Y I Y Y a q , q Y Y Y L L L H L I I Y I 1 1 > > > , : Y Y I I Y Y L Y Y Y Y Y Y Y I Y * % #.| 3 +   ",
"= + 0 #.#.$ $ Y L Y Y I L L L L Y L L L Y L Y I I I I : , , , , , , , , , : : : : u L L Y Y q q q q t ^ ^ L Y L Y Y Y Y I > # : : : t L Y L Y L Y ^ Y Y I J 1 q 1 q , , , , , , < , , , q q ^ ^ ^ ^ t q , : > : > : , , q q w ^ ^ Y Y L Y L L L I Y Y Y Y I L Y Y L Y Y Y L Y Y L Y L Y Y H Y Y I Y y , , , I L L H L L L I L L I t , : : : : : : I I Y Y Y Y Y Y Y Y Y Y I H I I * % #.} 3 +   ",
"* @ b q.q.+ @ I H H H H H H L H L H L L H I H I I H I : , , , , , , , , , , : : : t H H I Y w q q q w ^ L L L L H L L H I , : : : : t H H H L H L H L H H t , , , q , q , , , , : , , q , w Y Y L Y t w , , , , , , , , , q w ^ L I L H H H H H H H H H H H H H H H L L H L I H H H H H H L H H I Y t , , , I H H H H H H H I I H t : : , , , , : I L L L I L H I H I I I I t a I * % c.x.9 +   ",
"- + Z x.x.O X I t t H H H H H H H H H H H H H I H I I , , , , , q , , , , , , : : w H H I I q w w q t L L L H H H L L L H , : : : : t t H H H L H L Y I L t , , , , , , q , , , , , , , q , Y Y Y I t , , , , , , , , , q q w Y Y L I L H H H H H H H H H I H H L H H H L I H I H L H H H H H H I I t q w , I H H H H H H H H I I t , 1 , , , , q I L I L I I L I H H H I a t w u + + G.A.9 $   ",
"- @ z.|.[.9 f     : t w w t t t t t t t t t t u w t t t t t t t t t t t t t t t t w w t t t t t G t H t t t H t t t t t t t t r t t t t t t t t t t t t t t t t t t t t t t t t t t t t t G t t H t G t t t t t t t H t H t I t t t t t t t t t t t t H t H t H t t t t t t t t t t t t t r t t t H G t t w w t t t t t t t t t t t t t t r t t t t t H t t t H t H H t u w       l l :X*X0 $   ",
"- + z.].~.9 i     + t t r t t t t w t t t t t t t t t t t t t H t t t t t t t w t t t t w t t t t t t H t G t t t t t t t t H t t w w t t w t t t t t G H t t t t t t t t t G t t t H t t t t t t t t t H G t H G t t H t t t t t t t t t t H t t H t t t t t t t t t t t w t t t t t t t H t H t t t t t t t w t w r t t t t t t t t t t w t t G t t t G t H t H H t t w w       l - :X}.g $   ",
"- + l.[.[.3 8   . > t t w t w w w w w w w w u t t u t t t u w t t w w w w w w w w w w w w w w w w t t w t t t t w w w t w t w w w w w w w w q w w w w w t w t w w w w w w w w t t w t w w w w w w w w w t t t t t t t w t w w w w u w w u w t t t w t t t t w t t w t w w w t w t w t t t w w t t t w w w w w w w w w w w w t w w w w w w u w w w w t t t t t H t t H H t w       3 + $X}.l +   ",
"= X x ;.-.{.|.l x 7 $ $ $ $ O + + + + + + $ $ $ + + $ $ $ + + + + + + + + + $ + + $ + $ + + + + + + $ $ $ + $ + $ $ $ + $ + $ $ + + + + + + + O + + $ + $ $ # + $ + + $ + + + + + + + + + + O + O + + + + $ $ $ $ $ + $ + + + O + + + $ $ $ $ $ $ $ $ $ + + $ @ + $ + + + $ + + + + $ + $ $ $ $ $ $ $ $ + + $ $ + + + + + + $ $ $ $ + + + + + + + + + $ $ $ @ $ $ $ $ % % X f z 5 }.}.#.-.0 X   ",
"= o x 7.7.{.oXz v 9 + + O O O O O + + + + $ + $ + + $ + + + + + + + O + + + + + + O + O $ + + + O + + + + + + + + + + + + # $ + + + + O + + + O O + + + + + + + + + + $ + $ + + + + + + + + + O O + + + O + + O + + + + + + O O O O + $ $ $ + # $ $ + + + + + + + + O + + O + O + O + + + + + $ + + + + + $ $ $ + + O O + + O $ + $ + + + + + + O $ + + O O + + + + $ + + + z z p ~.|.| -.9 X   ",
"A B o + . x.6.-.;.-.} c c j z c s z c c c c c c c } c } c } } } } c } c } } c } } } } c c c } c } } } } v } } } } } } } } v v } } c } c c c c c c c W c c c } c c c c c c } c } } } } c c c c c c c c c } } } } } } c c c c c c c c c } c c } } } c } c c c c c c j } c c c c c c c c c } c c c c c c c c c c c c v v c c } } } v } } } } } } } W } } v } c c v c v } | | | 6.-.-.-.| 4 * . =   ",
">X>Xn o o 8.7.-.-.#.c j c s c z c c c c c c c c c c c c c c } c c } } c c } c v } c } v v c } } } } } } } v } v } } } } } } c c v c c c c c c c c c c c c c j c c c c c c c c } } c } c } } c } } c } c c } c } } c c c c c c c c c c c } } } } } } c } c c c c c j c c c c c c c c c c c c c c c c c c c c c c c v c c v v } } } } } } } } } } c v } c c v c v c c v b } | &.-.-.-. .3 X   >X>X",
">X>XP.C.  l z 5 8 3 3 3 3 3 3 3 4 3 3 3 4 3 3 3 3 3 3 4 3 4 4 4 4 5 5 4 4 4 4 4 4 4 4 4 5 5 5 5 4 4 4 5 4 4 3 4 3 4 4 3 8 4 4 4 4 4 4 3 3 4 4 3 3 4 3 3 3 3 3 3 3 4 5 4 5 4 4 3 3 3 2 3 3 4 4 5 5 4 4 4 3 3 3 3 3 3 3 3 3 3 3 4 5 4 5 5 4 4 3 3 3 3 3 3 3 3 4 4 3 4 4 4 3 4 4 4 4 3 3 3 3 3 3 4 3 3 3 3 4 4 4 3 3 3 3 3 3 3 3 3 4 3 3 4 5 4 5 5 4 8 3 3 3 3 3 3 3 3 3 4 4 4 4 4 4 l z & A F >X>X",
">X>X>X X. X X X X X O + $ $ $ $ $ $ $ $ + + + + O + + + + @ $ % $ $ $ $ % + + $ + $ $ $ $ $ $ $ $ $ $ + + $ + + + + + + + + + $ + $ + + $ @ $ $ + + + O O + + + $ + $ $ $ $ + + O + + O + $ $ $ $ $ $ $ $ O + + + O + $ + $ $ $ $ $ $ $ + + $ + + + + + + + + + + $ $ + + $ $ $ $ $ $ $ + O + O + + + @ $ $ $ $ + + + $ + + + + + + @ $ $ $ $ $ % $ + + + O + O + + + + $ + $ $ + + @ o P.>X>X>X",
">X>X>X Xo X + O X . X X + + $ $ $ O O O O + O O X X O + + + @ $ + + O O O O O O O O + $ * & % & @ + + O O . O O . . . O @ + + + @ + @ + + + O + O O O O . . . X + + + + O O O X O . O O O $ @ % $ % % % + O O O O O O O O + % @ % @ @ @ + O . . . O . O . O . O O + O O O O O . X + O O . . . O . X + + @ + O O X O O O + O X O + O + + @ @ $ $ O + O O X O O . O O O + + O O O X . X o ].>X>X>X"
};
