/* XPM */
static char *lives_0[] = {
/* columns rows colors chars-per-pixel */
"192 48 185 2 ",
"   c #020309",
".  c #030616",
"X  c #0F1016",
"o  c #15161B",
"O  c #050C26",
"+  c #09142B",
"@  c #141A2A",
"#  c #010237",
"$  c #091632",
"%  c #131D35",
"&  c #1E212A",
"*  c #152139",
"=  c #24252D",
"-  c #282A32",
";  c #2D313A",
":  c #343738",
">  c #020549",
",  c #0C1548",
"<  c #151B47",
"1  c #030A58",
"2  c #08135A",
"3  c #151C5A",
"4  c #18294C",
"5  c #182B53",
"6  c #1C3059",
"7  c #212D4B",
"8  c #2A3349",
"9  c #393D4B",
"0  c #242C56",
"q  c #322E5C",
"w  c #263455",
"e  c #030C65",
"r  c #02146A",
"t  c #161C62",
"y  c #000B78",
"u  c #011776",
"i  c #141E77",
"p  c #09216B",
"a  c #1B2666",
"s  c #1C3368",
"d  c #09227A",
"f  c #142478",
"g  c #272864",
"h  c #233867",
"j  c #33346B",
"k  c #253E75",
"l  c #303574",
"z  c #3E424F",
"x  c #3B4254",
"c  c #36476D",
"v  c #294379",
"b  c #334A7C",
"n  c #3D527B",
"m  c #41434D",
"M  c #464955",
"N  c #4E515C",
"B  c #52535D",
"V  c #4D5162",
"C  c #535560",
"Z  c #5A626D",
"A  c #56607B",
"S  c #606169",
"D  c #666A78",
"F  c #7B7A7D",
"G  c #000B86",
"H  c #031C88",
"J  c #000E99",
"K  c #041E93",
"L  c #07218B",
"P  c #172884",
"I  c #062297",
"U  c #14259A",
"Y  c #183099",
"T  c #222E84",
"R  c #283B92",
"E  c #021DA7",
"W  c #001BB1",
"Q  c #0827A6",
"!  c #1429A7",
"~  c #1832AA",
"^  c #0B2DB8",
"/  c #102EB3",
"(  c #0D31BC",
")  c #1634B8",
"_  c #2B38A9",
"`  c #374D81",
"'  c #3D5484",
"]  c #3F569F",
"[  c #3647A3",
"{  c #3C53A6",
"}  c #2F4AB7",
"|  c #344DB2",
" . c #3D54B9",
".. c #404987",
"X. c #445989",
"o. c #565E88",
"O. c #4A5B95",
"+. c #49618E",
"@. c #58658A",
"#. c #4C6294",
"$. c #546798",
"%. c #61648E",
"&. c #767B81",
"*. c #666A99",
"=. c #677497",
"-. c #4158AD",
";. c #4457B7",
":. c #566AA6",
">. c #5C72A4",
",. c #5B6AB4",
"<. c #676FAC",
"1. c #6778A6",
"2. c #7579A7",
"3. c #626FBE",
"4. c #6671B6",
"5. c #757DBB",
"6. c #0A2EC1",
"7. c #0C32C3",
"8. c #1137C8",
"9. c #445BC5",
"0. c #4A63CD",
"q. c #5268C3",
"w. c #5B74C8",
"e. c #566FD0",
"r. c #5271D8",
"t. c #6579C6",
"y. c #737DC3",
"u. c #627BD2",
"i. c #7A84A7",
"p. c #7D85BD",
"a. c #6C83C8",
"s. c #7A86C6",
"d. c #7F93D5",
"f. c #87888B",
"g. c #868890",
"h. c #899197",
"j. c #939998",
"k. c #858BAA",
"l. c #9B9DAE",
"z. c #8389B8",
"x. c #8B96B6",
"c. c #939AB9",
"v. c #9AA1BC",
"b. c #AAAAB7",
"n. c #B5B3B8",
"m. c #8189C7",
"M. c #8B95CA",
"N. c #949BCD",
"B. c #8599D6",
"V. c #949DD2",
"C. c #9CA2CC",
"Z. c #9BA4D5",
"A. c #A6ACC8",
"S. c #AAB3C7",
"D. c #B9BBCA",
"F. c #A7AED9",
"G. c #ABB1DC",
"H. c #B9BBD5",
"J. c #9FB1E5",
"K. c #A3ACE2",
"L. c #ACBAEA",
"P. c #B4BEE9",
"I. c #C1BFD4",
"U. c #B7C4ED",
"Y. c #BAC9F1",
"T. c #C8C5CD",
"R. c #D9CECE",
"E. c #C6C7D9",
"W. c #CDD1DC",
"Q. c #D4D4D9",
"!. c #E1E2DC",
"~. c #C4C9E6",
"^. c #D6D8E8",
"/. c #C3CDF0",
"(. c #C4D2F3",
"). c #D5DBF2",
"_. c #DEE0ED",
"`. c #DDE2F4",
"'. c #E1E1E3",
"]. c #F3EEEF",
"[. c #EAEBF5",
"{. c #F1EEF8",
"}. c #EEF0F9",
"|. c #F8F8FB",
" X c None",
/* pixels */
" X X X X X    . . . X O . . . . . . . . . . .   . .   . . . . . . O . . . . . . . . . . . . . . . . . . . . . . . . . . . .     . . . . . . . . . . .   . . . . . . . . . . . . . . . . . . . . . . . . . . . O . . . . . . . . . .   . . . . O . . . . . . .   . . . . . . . . . . . . . . . . . . . . . . . . . . . . . . . . . . . . . . . . . . . . . . .     . . . . . .           F  X X X",
" X X X X!.  X X . O + O + + O O . O O O O O O O O O O O O O O O O + + + + O O O O O O O O + + O O O + + O O O O O O O O . O O O O . . O O + O O O O O O O O O O O + + O O O O O . O O O O O + O + + O O O O O O O O O . O O O O O O O O O O + O O O O O O O O O O $ O O O O O O O O . O O + O O O O O O O O O + O + + O O O O # O O O O O + # O O O O O O . . O O X . O O . O . O + O . h. X X X",
" X X X  X &.[.^.i.k.' ' X.' ' ' ' X.' ' ' ' n ' n ' ' ' ' ' ' n ' ' ' +.X.+.+.' +.X.X.X.+.+.+.X.X.X.X.X.X.X...X.X.n n X.' n ' n ' ' ' X.X.' X.X.X.X.X.X.X.X.X.X.X.' X.' X.X.+.#.$.#.O.+.+.+.+.+.O.+.+.+.+.+.+.+.+.+.X.+.X.X.X.X.' ' ' X.X.+.' +.X.O.+.+.X.X.X.X.' ' ' ' ' ' ' ' ' ' ' ' ' ' ' ' ' ' n ` ' ' ' ' ' ' ' ' ' ' ' ' ' ' X.` ' ' ' ' X.' ' ' ' ' ` ' b b c n n @.z.x.c.D.b.X.. o  X X",
" X X X  X S T.T.i.i.b ' ` ' ' X.' ' ' ' ' ' ' ' ` ' ' ' ' ' ` ' ' X.' X.O.X.' +.' +.X.X.' +.O.X.#.X.X.X.X.X.' n ' n ' n X.' ' ' ' ' ' ' ' ' X.' ..X.' ' ' ' X.X.' ' ' ' ' X.X.+.+.#.+.X.+.+.X.X.O.O.+.+.+.X.+.X.X.' A +.X.X.X.' #.X.X.X.X.X.X.+.X.X.X.X.X.X.' X.X.' X.X.' ' ' ' X.' ' ' ' ' ' ' ' ' ' ' ' ' X.' ' ' ] ' ' ' ' ' ' ' ` X.' ' ' ' ' ' ' ' n ` ' b n b b b b #.i.i.k.D.x.n X &  X X",
" X: & |.|.Q.#.#.5 s O O + + $ $ $ , $ $ $ + O + + + $ $ + + + + $ + $ $ + + $ O + O O + + + $ $ $ $ $ $ O O O O O O + + $ + + + O + + + O + + O + + + + $ $ + O O O + O O O + + + + + + + $ $ $ $ $ $ $ + $ + + + O O O O O + + $ $ $ $ $ $ $ + + + + + + $ + + $ + $ $ $ $ $ $ O + + O + # + + + + + O + + + $ + $ O + # $ $ + + + # + O $ $ $ $ + + + + O O O O O + O O O , 5 s $.=.^.E.x & 8 ",
" X; @ |.].Q.#.:.a s O + + + $ $ % $ $ + + + + + + + + + + + + + + + + + $ $ + + + + + + + + + $ $ $ $ $ + + + X O + O + + + + $ $ + + O + $ + + + + $ + + + + + + + + + + + + + + + + + + + $ + $ $ $ $ $ + + + + + + O + + + + $ $ $ % $ + + $ $ + $ + + + + + @ + + + + + + + + + + O + + + + + + O + $ + $ O + + $ + + + + + + + + + + + + + + + + + + + + + O + + + + + s s h >.=.W.W.w $ 8 ",
" X; @ Q.D.b.:.:.6 h $ $ $ $ $ $ + $ + + + + $ + $ $ $ $ $ $ $ $ $ $ $ $ $ $ $ $ $ $ + $ + $ $ $ $ $ $ $ $ $ + + O + + + + $ $ $ $ $ $ $ $ $ $ $ $ $ $ $ $ $ $ $ + + + $ $ $ $ + $ $ $ $ $ $ $ + $ % $ $ $ $ $ $ $ + + $ + $ $ $ $ $ $ $ $ $ $ $ + $ $ $ $ $ $ $ $ $ $ $ $ % $ $ $ $ $ $ $ $ $ $ $ $ $ + $ $ $ $ $ $ $ + $ $ + + $ $ + + $ $ + $ $ $ $ + $ $ + + + $ $ $ $ $ s s v >.=.v.k.x $ 8 ",
" X- * S.v.c.4 s . + H u u u u r r r r r r u u u u u u r y r r u u r r r r r u u u r r r r r u r r u r u r r u r y r r r u u u u u u u r r r r y u y u y r r r u u u r u r u u r r r r u u r y u u u r u r u r r r u r r u r u u u u u u u r u r r r r u r r r r r u r u r r y r u u u r u r r u y r r y r r r u u y r u u u u u r y r r r u u r r u u u r r r r r u u u u u 2 + + * w v.x.w $ - ",
" X- & C.v.c.4 6 . . H u u u r r r r r r r u r u r r r r r r u r u r r r r r u r u r r u r r r r r r r r r u r r r r u r u r u r u r r r r r r r r u r r r r r r r r u r u r r u r r r r r r r r r r r r r r r r r u r u r u u r u r u r u r r r r e r r r r r r u r r r r r r r r r r u r u u r u u r r r r r r r r u u r u r u r r r r r r r u r u r r r r r r u r r r u u 2 O $ < w c.x.9 $ = ",
" X- & =.@.=.O % L d H d H u u u u u u r u u u u u H u u u H L u u u u u u u u u u d u u u u d r u u u u H u H H H u H u u u u d d u u u u u u u u u u u H u u u u u u H H L H u u L u u u u H u u u u u u u u d u u u H H u u H u u u u u u u u u u u u r u u u u u y u u H u u u H u u u u u u u u u u H u u u y u u u H u u u u H u u u u u u r u u u u H u H u u u L u H L H p % 7 @.o.4 + = ",
" X= @ i.=.=.O $ d u H u u u u u u u u H H u u H H u u u u u H H H u H u u u u u H u H y u p u u r u u L H H L u u H u H u H u u H u u u r r u u u y H H i u H H u H H d d d L H L L H u H u u u H u u u u r u u d u L L L L L d u H u H H u u u u u u u H u u H H u H u H H u H H u H u H H u H u H H H H u H u u H H u H u H u H u u H L u u u u u u u d u d u u H u H L u H H d $ 7 %.#.7 % & ",
" X- @ +.X.+.. + H H L H H H K H H K H H L L H H u 5.4.4.4.4.H K K K H H L H K H H L H H :.p.5.p.5.u H I I K t.p.m.z.z.G u H H H H H y M.y.y.5.` H H H y G.N.N.C.N.N.N.N.M.M.N.C.C.C.Z.M.M.y H K H H K H y N.x.N.M.N.C.C.C.C.C.M.M.[ H H H K K K K K K K H H K H K H H H H H H H H K L H K H K H K K H H H K H H H K H H H K H K K K K L L I L L I I L I I I I I K K L H L H L H d $ 4 n n 4 $ = ",
" X- @ #.X.+.. + L H L I H L H L L K K K K H L L P |.|.|.|.}.G I I K K H K K K K K H K H P.{.].|.{.G I I I Q ^.|.|.|.].H L H H K H d G |.}.|.].,.H L L u |.|.|.|.|.|.|.|.|.|.|.|.|.|.|.}.`.G I I I I I H y {.|.|.|.|.|.|.|.|.|.|.|.4.I K I I I K K I K K K K I K I K I I K I K I K K I K K L K I K I I K I K I K K K L K K K L K |.|.|.].{.{.}.}.Q K I K I K L K K I L I L L L H u + 4 n ' 7 * - ",
" X- * #.X.+.O + H d H L L K K K K L K H L K K H L |.|.|.}.[.G L H K K K K K H H K H H H P.|.}.}.|.G I I I U ~.|.|.|.|.G L H K H H L G |.|.}.}.,.K L L G |.|.|.|.|.|.|.|.}.{.{.|.|.}.|.{.[.G Q I Q I I K G }.|.|.|.|.|.|.|.|.{.|.|.3.U I I I I I I I I I I I I I I K K K I L K K K K K K K I L K K L L K K I L K K K K K K I K I |.|.|.|.{.}.].}.Q I K L K I K I I I I K I H H H d + 4 ' ' 5 * - ",
" X& & $.X.o.O + L u L K K K H K K I K K K H K L L |.|.|.{.[.y H H K H K K K K K H K H H U.|.|.|.{.G I I I I Y.|.|.|.|.G d H L H H P G |.|.|.{.<.I I I y |.|.|.|.|.|.|.|.|.|.|.|.{.}.|.}.[.J Q I Q I I L G {.|.|.|.|.|.|.|.|.{.{.|.,.U I I I I K K K I I I K K K K K K I K K K L K K L K K L I K K I K L K I K I K K K K K K K K |.|.|.}.].{.}.{.U I I K I K I K I K K K I H L u u + 4 A ' 7 % - ",
" X= @ #.X.+.+ $ H L I L L K L K H H K H K K I K U |.|.{.{.[.G I K K K K K H H K H H H H (.|.|.|.|.G U I L I U.|.{.}.].y L H H K K H G |.|.|.|.,.I U U G |.{.|.|.|.|.|.|.|.|.|.|.|.|.|.|.}.y I Q K G H G y |.|.|.|.|.|.|.|.|.|.|.|.t.Q Q I K G H G G K K Q I I I K I K K L H K K K K K L K K K I I K K K K K H K K K K L K L L K |.}.}.[.[.[.[.[.L I K I K I K I K I I I L H H u p + 4 ` X.5 < = ",
" X= @ $.O.O.+ $ Q I I Q Q Q Q Q I Q I Q I Q Q Q U |.{.{.|.[.> 1 Q Q Q Q I Q E I Q I Q Q (.|.|.|.|.1 1 L Q I U.{.{.{.{.1 > H Q Q U Q J |.|.|.|.$.e i Q G |.|.{.|.0 j j j j j l g g g g 0 g 1 u / q.{.}.{.{._ _ l l j j q g q g 0 j t 1 ! I d.).[.`.`./ Q / Q Q Q Q Q Q Q Q Q Q Q Q Q Q Q Q U Q Q Q Q ! Q Q Q Q U I Q I Q |.|.|.|.Q ! Q Q / Q Q Q |.|.|.Q Q Q ! Q Q Q Q Q I I I I d + 7 ' X.w * - ",
" X= @ :.X.#.+ $ ^ Q Q Q I Q I I Q I Q I Q Q Q Q U |.|.|.{.[.> 1 Q Q Q Q I Q Q K Q Q Q Q (.|.|.|.|.1 1 L I I U.}.{.{.{.> 2 H ^ Q Q Q E |.|.|.|.O.e H Q G |.{.}.{.> 3 3 r i r u t t r 2 3 2 1 r Q q.}.{.|.|.( 8.e r t e t 2 2 2 2 2 r r Q E d.[.[.}.}./ Q Q Q ^ Q ! E Q I Q K I Q Q I Q Q Q Q Q Q Q Q Q Q Q I Q E Q Q Q Q |.|.|.|.Q Q Q Q / Q Q ~ {.|.|.Q Q Q I Q Q Q Q Q Q I I I d + 7 ' X.4 * - ",
" X= @ $.O.$.$ $ ^ Q Q Q Q Q I Q Q I I I Q I Q I U |.|.|.].[.# > Q Q Q Q Q Q Q Q Q Q Q ^ (.|.|.|.|.> 1 H Q I L.{.{.|.|.> r L ^ ^ ^ Q E |.|.|.|.O.1 i K G |.|.{.|.> > 2 1 1 e e e e 1 e 1 1 1 r Q q.{.|.|.|.6.( e e e 1 1 1 > 1 1 1 1 1 Q Q d.{.|.}.}.( ^ / Q Q Q Q Q Q Q Q E Q E Q Q Q Q Q Q Q Q Q / Q Q Q Q Q Q Q Q Q Q |.|.{.|.r 2 Q Q / / Q Q |.|.|.r 2 2 Q Q Q Q I Q Q I I I d + 4 ' X.w % - ",
" X& @ :.#.$.$ % ^ I Q Q K Q Q Q I Q I Q I I I Q U |.|.|.{._.# > I I Q Q Q Q Q Q ^ Q Q W Y.|.|.|.|.> > L Q I L.}.{.|.|.1 r L ^ ^ ^ ^ E |.|.|.|.O.1 r Q G |.|.|.|.> 1 2 2 2 2 2 e e e e e 1 1 r ! w.|.|.|.|.! U e e 2 1 e 1 2 1 1 1 e > Q E B.{.{.|.}.^ / ^ / Q Q Q Q Q Q Q Q U Q I Q Q I Q Q Q Q Q Q Q Q K Q Q Q I Q ! Q |.{.[.|.r r Q ! ~ Q Q Q |.|.|.2 e r Q Q Q Q Q U I I I I P $ 7 ' ' 7 < - ",
" X& @ :.#.:.$ $ ^ Q Q Q Q Q Q Q Q Q Q Q Q I Q U ~ |.|.|.}._.O > I Q Q Q Q / Q Q Q ^ ^ E (.|.|.|.|.# > H I I L.{.|.|.|.1 r I ( ( ^ ( Q |.|.|.|.O.2 u Q J m.s.s.k.3 a f f P P P f L I I I I I Q ^ ;.K.F.Z.E.O.O.a.s.y.u.u.w.K Q Q Q Q Q ^ Q e.F.F.S.G.U ( ^ / Q Q ! Q Q Q E ! ! ! Q Q Q Q ! Q Q Q Q Q / Q Q Q Q Q Q Q Q ! |.|.{.|.r 2 Q Q Q Q Q Q |.|.|.r r 2 I K Q Q Q Q Q I I Q L $ 8 ' ' w % = ",
" X= @ #.X.X.$ $ 7.( 7.7.6.6.6.( ^ ( ( ( ( / ^ ^ ) |.|.|.}._.# > Q ^ ( ( 7.( ( ( 6.6.6.^ Y.|.|.|.|.> > U / / L.|.].|.|.1 r Y 8.8.8.8.6.|.|.|.].O.e u ^ ^ ! E U `.|.|.|.|.|.|.|.|.9.( ^ 6.7.( ( ( ^ ^ I # # |.|.|.|.|.|.|.^.E Q ! Q ^ ( 6.6.^ ^ H 2 1 1 8.6.7.7.7.( 7.6.6.7.6.6.6.7.6.6.6.6.6.( ( ( ( ( ( 6.6.7.7.6.6.6.6.|.{.{.|.2 p ( ( ( ^ ^ ( |.|.|.r 2 r K I 7.( ( ( ( ^ Q ^ Y $ 7 ' ' 0 * = ",
" X= * +.X.X.$ $ 7.^ ^ ( ^ ^ ^ ^ ( ^ 6.^ ^ ^ / Q / |.|.}.]._.# 1 ( ( ( ( ( ( ( ^ ^ ^ / ^ U.|.|.|.|.> > L ^ ^ L.|.|.|.|.1 r I 8.8.8.8.^ |.{.{.].` 1 u ^ ^ L.|.|.|.|.|.{.|.|.}.|.|. .( 6.^ 7.( ^ ( ( 7.^ 1 # |.|.{.{.{.{.{.).E Q ^ ^ 6.^ ^ ( ( 6.I 2 2 1 ( ( 6.( ^ ^ ^ ^ / / ^ ^ ^ ^ ^ ^ / ^ ^ ^ ^ ^ ^ ( ^ / ^ / ^ ^ ( ^ ( |.|.|.|.r 2 ^ ( ( ( ( 7.|.|.|.r r r L K ( ( ( ^ ^ ^ / Q Y $ 4 X.X.4 % = ",
" X= * +.' X.O + ^ ^ ^ ^ ^ ^ ^ ( ^ ( ^ 6.^ ^ / ^ / |.{.|.|._.> 2 ( ( ( ( ( ( ^ ^ ^ ^ ^ ^ L.|.|.|.|.> 1 U 6.6.P.|.|.|.{.> 2 I 8.8.8.8.^ |.{.{.{.` 1 r Q ^ K.|.|.|.|.|.|.|.{.|.|.|.0.7.6.( ( ( ^ ^ ^ ^ ^ 1 > |.{.}.{.{.[.[.).I ) ( 6.6.6.6.6.6.^ E u e e / ^ ( ^ / ^ 6.^ ( 6.^ 6.^ ^ / ^ 6.^ ( ( ^ ^ ( ^ ^ ( 6.^ ( ^ ^ ^ ^ |.|.|.|.2 r ^ ( ( ( 7.8.|.|.{.2 r 2 I I ^ ^ ^ ( ( / Q / I % 7 ' X.7 $ = ",
" X- * #.X.A O O ( Q ^ ( ^ 6.( ( ( 6.^ 6.^ ^ ^ / / |.|.|.|._.> 1 ( ( ( ( ( ^ ^ / ^ ^ Q ^ L.|.|.|.|.> 1 U 6.7.U.|.|.|.|.> 1 L ( 7.8.7.^ |.{.{.{.l 1 r ! / L.|.|.|.|.|.|.|.|.|.|.|.0.8.6.^ ^ ^ ^ ^ ( ( Q u 1 [.[.`.[.[.[.[.).> G ^ ^ 6.6.7.6.6.W Q W E ( / ^ ^ ^ ^ ^ ^ ^ ( ( ^ ^ ^ ( ^ ^ ^ ^ / ^ ^ ^ ( ( ^ ( ^ ( ^ ^ ^ / ^ |.|.|.|.r r ( ( ^ ( ( 7.}.{.|.r r 2 I I ^ ( ^ ( ( ^ ^ Q I $ 7 ' ' 4 % = ",
" X; * #...X.O O ^ Q ^ ^ ^ ^ ^ ( ^ ( ^ ( ^ ^ ^ / ) |.|.|.|.'.> 2 ( ^ ( ( ^ ^ ^ ^ ^ ^ ^ Q L.|.}.|.|.> e E 6.8./.|.|.|.|.> 1 f ^ ( 7.6.W |.{.{.{.` 1 r ^ ^ U.|.|.|.%.*.%.*.%.%.*.*.Y U Q ^ ^ ^ ^ ^ ^ ^ ^ ^ ^ E Q # > # # > > [.).}.`.r.8.^ 6.u.`.).)./.^ Q ^ ^ ^ ^ ^ 6.6.^ ^ ^ ^ ^ ^ ^ ^ ^ ^ ^ ^ ^ ^ ^ ^ ( ^ ^ ^ ^ ^ ^ ^ ^ |.|.|.|.r 2 ( ^ ( ^ ( ( }.{.}.2 2 r ^ ^ ^ ^ ( ( ( ^ Q ^ Y $ 7 ' ' 7 $ = ",
" X- * X.' X.. + ^ Q ^ ^ ^ ^ 6.( ( ^ ^ ^ ^ ( 7.7.) |.|.|.{.'.> 1 ^ / / ^ / ^ ^ ( ^ ^ ^ ^ L.}.}.|.|.> 1 ! 6.8./.|.|.|.{.> 2 f ^ / / / W |.|.|.H.i e H ^ 6.L.|.|.|.> 2 2 2 t e r e e e U / / ^ / ( ^ Q ^ ^ ! Q / 1 e e e r a |.|.|.|.r.( ^ ^ e.}.|.}.}.( / ^ ^ ^ ^ ^ ^ ^ ^ ^ ^ ( ^ ^ ^ ^ ^ ^ ^ ^ ^ ( ^ ^ 6.( ^ ( ^ ^ ^ ^ ^ |.|.|.|.2 r ^ ^ ^ ^ ^ ^ {.|.|.r r 2 ^ / ^ ^ ( ( ( ^ ^ / Y $ 4 n ' 4 * - ",
" X- @ +.n X.. O ^ Q ^ ^ ^ 6.( ( ^ ^ ^ ^ ^ ( 6.7._ |.|.|.|._.# > / Q ! / / ^ / ( ^ ^ 6.^ U.|.|.|.|.> 1 K ^ ( /.|.|.|.|.> 1 d / / ^ ( Q |.[.^.t y e H 6.6.P.|.|.|.> 2 e e e e e e 1 1 H ^ ^ Q ^ / ^ ^ Q Q Q Q ^ e e e e e t |.|.|.|.q.) Q Q w.}.|.}.}.^ ^ ^ ^ ( ( 6.^ ^ ^ ^ ^ ^ / ^ ^ ^ ^ ^ ^ ^ ^ ^ ^ ( / ^ ^ ( ^ ^ ^ ^ ^ |.|.|.|.r 2 ( ^ ^ ^ / / |.|.|.2 r 2 ^ ( ^ ( / ^ ( Q ^ ^ I @ 4 ' ' 4 * - ",
" X- * X.` A O O ( Q ^ ^ ^ ^ ^ 6.^ ^ ^ ^ ^ 6.6.6.) |.|.|.{.^.# , Y Q Q / / ) ( ( ^ 6.6.^ Y.|.|.|.|.# > U / / ~.{.|.|.|.> , i Q Q Q ~ Q |.[.z.t y y H 7.6.L.|.|.|.> 3 t e e t r 2 2 , L / / ^ / Q / Q Q Q ^ / Q Q / r r r g |.|.|.|.w./ Q Q t.}.|.|.}.( ^ ( ^ ^ 6.^ 6.^ ^ ^ / ^ ^ ^ ( / ^ / ^ ^ ^ ^ 6.( ^ ^ / ( ( ^ ^ ^ ^ |.|.|.|.2 r ( ^ ^ ^ ( ^ |.|.|.2 r r I I 6.^ ^ 7.( / ^ ^ Y $ 7 n n 6 * * ",
" X- @ O...X.O O ^ Q ^ Q Q / Q Q / / Q ^ Q ^ ^ ^ ~ |.|.|.].^.< < Y ! ~ ! ~ ~ ) ~ ^ ^ 6.W U.|.|.|.|.> > H Q E t.m.z.k.z.l ..-.;.;. . .;.N.p.T e y y H ^ / K.{.|.|.< 3 t g t a t 5 t 3 i U U K Q Q I -.} } | |  .{ -.{ -.O.O.C.p.2.2.T e Q I | :.<.*.*.I Q ^ Q Q ^ ^ Q Q ^ Q ^ Q Q ! E Q ! ^ Q Q ^ / Q ! Q / W W ! Q Q Q Q Q ^ Q Q 2 r ^ Q Q Q Q Q 2 r 2 r r 2 Q Q Q / Q / Q Q U Q L % 5 n n 7 * - ",
" X= % X.' X.+ + ^ I Q Q Q Q Q Q Q Q Q E Q Q Q Q ! |.{.{.}.{.{.[.}.}.{.}.{.].}.}.J Q Q W U.|.|.|.|.> 1 H K U I Q r 2 3 [.[.].{.{.|.}.|.K H e e K Q Q Q Q Z.}.|.{.].|.|.|.|.{.{.{.[.[.[.[.}.J I Q ! |.{.].].{.}.}.|.|.|.{.|.R U 2 2 e 2 Q Q Q I u > , 1 I Q ^ Q Q Q Q Q Q Q Q Q Q E Q E Q Q I I Q Q Q Q Q Q Q Q Q Q Q Q I Q Q Q I |.|.|.].].{.{.|.r r 2 r 2 r Q Q Q Q E Q Q I L H d % 4 ' ' 7 * & ",
" X- @ O.X.X.O $ Q Q Q Q Q Q Q Q Q Q Q Q Q Q U Q U |.|.}.|.|.{.|.|.|.|.|.|.|.].}.J Q Q Q Y.|.|.|.|.> > H Q Q Q I r 2 2 [.{.].{.|.|.|.Y.Q H e e H Q Q I Q Z.}.|.|.|.|.|.|.|.|.|.{.|.|.].|.|.J U I ! |.|.{.}.|.|.|.|.|.|.|.|.P I 1 1 1 1 ^ Q Q U r 1 1 1 I Q Q Q Q Q Q Q Q Q Q I Q Q Q Q Q Q Q Q Q Q E Q Q Q Q Q Q Q Q Q Q Q Q Q Q |.|.|.|.|.{.}.|.r U Q Q Q Q Q Q Q Q Q Q Q K L L d @ 7 ' ' 7 * & ",
" X- % +.X.X.+ + Q I Q Q Q Q Q Q Q Q Q Q Q I Q U U |.|.|.|.|.|.|.|.|.|.|.|.|.|.{.G I Q Q L.|.|.|.|.> > L U Q Q Q u 1 2 {.].|.|.].{.}.E K H G Q Q I Q Q ^ K.|.|.|.|.|.|.|.|.|.}.|.|.|.|.}.|.J I I ! |.}.|.}.|.|.|.|.|.|.|.|.T ~ > 1 1 > Q Q Q I u > 1 1 I Q Q Q Q Q Q Q Q Q Q Q Q Q Q Q Q I Q Q Q Q Q Q Q Q Q Q Q Q Q Q Q I Q Q I |.|.|.|.{.{.}.}.e Q Q Q Q Q Q Q Q Q Q I Q I L L d + 4 X.X.5 % = ",
" X- % #.X.X.O + I H K K K K K K K K K K K K H K K ~.K.H.H.E.I.D.H.H.T.E.T.H.H.E.> > Q E q.s.z.2.=.> > d L K I K K K I ~.P.H.H.I.p.1 r e 1 y Q I I E I K a.V.C.A.c.c.c.c.l.H.~.^.^.^.^.E.).1 I Q U P.G.D.E.E.E.W.W.Q.^.W.^.f y I I L L I L H I I Q I I I I I I K K I K I I K I K K K K K I K K K L K K I K I K K I K K K I K K K I 2 r 2 2 r 2 r r Q Q Q Q Q Q Q I I I K L d d u 2 @ 4 ' X.7 4 - ",
" X; % +.X.X.X + K H K I K K K K K K K H K K K K K K K i > # > > > > > 1 > > > > e 1 Q E Q Q Q e 2 1 > u K K K K K K I H K K 1 > > 1 > I I Q I K I I I I Q Q u 2 1 1 2 1 > > > > > > # > > 1 H E Q Q K 1 > > 1 1 1 1 > 1 1 e 1 K L I I L K K K I I I I I K I I K I I I I K K I K I K K K K K K K K K K I K I K I K I I I K K K K I r e r r r r 2 2 I L I > 1 1 2 I L I I L u u u p + 4 ' X.5 4 - ",
" X- % X.n X.O $ I K I I I K I I K K K H K H L I I H K u 1 1 > 1 1 1 2 1 1 1 1 1 1 1 E Q Q I L 1 1 1 1 H L I I K K K K K I I 1 1 1 1 1 I I K K K I I I I K K u e 1 2 1 1 2 r 2 r e 2 2 2 1 1 H I I I I > 2 2 e 1 e 2 e r e 1 1 K I L I L I I K K I I I I I I I I I I I I I I I I K I K I I K I I I K I I I I I I I L K I I I K I I L I K L L L I K L H L > 1 2 1 L I L I L H u u r @ 4 A ..4 % - ",
" X- @ 1.$.@.. $ K K K K K H H H H H H H H H H H H H H r 1 1 1 1 1 1 1 1 1 1 1 1 1 1 I K K K H 1 1 1 1 u H H H H H H K K K K 1 1 1 1 1 I H H H H H H H H H H r e 1 2 1 e 2 1 e 2 2 1 1 1 1 1 u K K K I > 1 2 1 1 1 1 e 1 1 e 1 L H H H H H H H H K H H H H H H H H H K H H L H H H H H H H H G H K H H H H H H H H H u L H H H H H H H H H H L H H K H L H H L H H H H H H u u u p + w =.=.7 % - ",
" X- @ @.@.+.. O Q K K H H H H H H G H H H u H H u H G u r r r u r u y r r r r r r r H H H H u r r u u H H H H H H H H G H K u u r u u H H H H u H u H H H H u u u u u u u r u r r u u r u u H H H H K r r u u r r u r u u r u d H u u H H H H H H H H H H H H H H H H u H u H L H H H H H u H H H G H u H H H H H H u u u u u H u u u H L L H H H H H H L L H H H H H u H u L I p @ 8 =.@.4 $ - ",
" X- @ ].R.n.7 x .   H H u u r u u u u u u u r u u u r r u u u y y u u u r u r y u u u u u r u r r y u u u u u u r u r r u u u u u y y u y u u u u u r u r u u r u u u u u u u u r u r u u u u u u u u u u u u u u u u u u u u u u u u u u u u u y u u u u u u u u u u u u u u u r u u u u u u r r u u u u u u u u u r u u u u u y u u u u u u u u u u u u u u u u u u u u r # . % 8 D _.b.w $ = ",
" X- @ ].R.n.7 w     H y u u u r u u u u u y u u u r u u u u u u u u u u u u r r r u u u r u r u u r u u u u r u u r r u u u r u u u u u r u r r r u u r u u u u u r u u u u r u r r u r u u u u u r u r u u r r r r r r u r u u u r u u u u u u u u u r u u u u r u u u u r u u r u u u u u u u u r u r u r u u u u u u r u u u u u u u u u u u u u u u u r u u u u u u u u O   @ ; Z !.l.8 % = ",
" X- o '.R.b.% *     d u u u u u L u H L u u u u u u r u u d u u u u u r r r r u y u u u r r u r p r u u u u u u u u u u u u r u u u u u u r u u u y u u u u u u u u u u u r u u r r d r u u d u u r u u r u r r u r p u u r d u u u u d u u u u u u u u u u u u u u d u u d u u u u u u u d u d u u u u u u u u u u u d d u u u u H u u u u d u d u u d u u d d u u H u L u + . X & V ^.b.8 % = ",
" X- X >.>.>.T.C.c c   . O + + + $ $ $ $ % $ $ $ + + + + + $ $ + $ $ + + $ + $ + $ + + $ + + @ + + $ $ $ + @ + + + + + + + + $ + $ $ + $ + + + + $ $ $ $ $ $ + + + + + + @ + + + O + + + @ + + + $ + @ + $ + @ + + + @ + + + + $ $ $ $ + $ $ % $ + + $ $ $ + + @ $ $ + $ + + + + $ @ $ $ $ + + + $ + + + + $ $ $ @ $ @ + + + $ $ + + + + $ @ $ $ + + + + + + + + $ $ $ $ $ X c c A Q.S.#.#.5 $ = ",
" X; X >.#.i.W.S.l c   . . O + $ $ $ $ $ $ $ + + + O + O + O O O O O X + O O + + + O + O O O + + $ + $ $ + + + + O O O + O O + + + O O O O O + + + $ $ + + O + + + O + + O + O O O O + + + + O + + O + O + + + + + O O O + + + + + + O + + + + O + + O + + O + + O + + O + + + + + + + + + + + O O O + + + O + O O + + + + + + + + + O O O + + + + O + + + + O O + O + $ $ . c c A _.D.#.$.5 & - ",
" XR.Q.+ @ b #.X.' X.k k v v b b ` ` ` ` ` ` v ` b v v b b b b v c v v v b b b v b b b v b b b b b b b b v b v v b b b b b b b b ` b b v v b v b v ` ` ` b b b b ` ` ` ` b b c b b b b b b b b n b ' b ' ` ` b b b b b b b ` ` ` ' ' ' ` ' b b v b b ` v v b b v b v b v b b b b b b b v b b b v b c b b b b ` ' b b b b ` b b b b b b b b v b b b b b b b b b ' ' ' ` ' ` n $.+.+.$.X.5 4 . h.g.",
" X X X  X n #.] ] ' s s k k k k k v v k k k k k k k k k v k v k v k k k k v k R k k k k k k k k k k k k k k k k k k k v v v v v k v k v v v v v v v v k v v v v v v v v v v v v v v v v v v v v v v v v b v b v v v v v ` v b b v v v v v v v k k k k k v k s k v k v k v v k v v v v v k k k k v v v v b v v v v v v v v v k v v k k k v v k v v v v v R v v v v b v v v v X.X.X.+.$.< X =  X X",
" X X XF j.7 h h 6 6 4 4 4 5 5 5 5 5 5 5 5 5 5 4 5 4 5 5 5 5 4 4 4 4 4 5 5 5 5 5 5 4 4 4 4 4 4 5 4 5 5 5 4 4 5 5 5 5 5 5 5 4 5 4 5 5 4 5 5 5 5 6 6 6 6 5 4 5 5 5 5 5 5 4 4 4 4 4 5 5 5 7 4 4 4 4 4 5 5 5 5 5 5 6 5 6 5 4 5 5 5 5 5 5 5 5 4 4 4 5 4 5 4 4 4 4 4 4 4 4 4 5 4 5 5 5 5 5 5 4 4 4 4 4 5 5 5 6 6 5 6 5 5 5 5 5 5 5 4 4 4 4 4 4 4 4 4 4 5 4 5 6 5 5 5 6 6 6 6 4 4 4 7 7 7 8 0 O m F  X X",
" X X X X X  & o o @ @ @ @ % $ % & @ @ @ + @ & @ & * % @ & % @ @ @ @ + @ & * * * $ & o @ @ @ + $ & % @ & + @ @ & & @ % % & $ $ & + @ @ @ @ % * * * @ @ + @ @ @ @ % $ @ @ @ + @ @ @ & @ @ @ @ @ @ @ @ @ @ @ @ @ @ & * & @ % * & @ @ @ @ @ @ o @ @ + + @ @ @ @ $ @ @ % % & $ @ & & * @ + & & @ + & @ % @ % * @ @ @ @ & @ @ @ * @ @ + @ & @ @ @ $ @ & * % & @ @ & & * & & * @ @ @ o o o X X f. X X X",
" X X X X Xm B B N N M M M M z z z z z M M z M M x M N M M M z M z z x M M M M M M z M M z z M M M M z z M z M x N N M M M M z z z z z M M N V V N N M M M M M M M M M z M N N N B B B B N N M M M M M M M M N M M N N N z z z z z z z z z z 9 m m M m M M M M M M M M M M M M M M M N M M M N N M M M M M m m m x z M M M M M M z z z m z z z z z z z z N M M M N M z z M M M M M M N N b. X X X"
};
