/* XPM */
static const char *robot_enemy_death_f04[] = {
/* columns rows colors chars-per-pixel */
"64 64 37 1",
"! c None",
"# c #603814",
"$ c #743804",
"% c #684018",
"& c #884404",
"' c #60401C",
"( c #984C08",
") c #704820",
"* c #805424",
"+ c #C03014",
", c #94602C",
"- c #AC580C",
". c #C45018",
"/ c #A06C3C",
"0 c #848808",
"1 c #747804",
"2 c #90BC00",
"3 c #6C8C00",
"4 c #980088",
"5 c #587400",
"6 c #005C5C",
"7 c #004444",
"8 c #007474",
"9 c #7CA400",
": c #00A4A4",
"; c #008C8C",
"< c #00BCBC",
"= c #A8784C",
"> c #002C2C",
"? c #C06410",
"@ c #10C0C0",
"A c #D89C64",
"B c #CC8038",
"C c #E4C098",
"D c #DCAC7C",
"E c #C47024",
"F c #643000",
"!!!!!!!!!!!!!!!!!!!!!!!!!!!!!!!!!!!!!!!!!!!!!!!!!!!!!!!!!!!!!!!!",
"!!!!!!!!!!!!!!!!!!!!!!!!!!!!!!!!!!!!!!!!!!!!!!!!!!!!!!!!!!!!!!!!",
"!!!!!!!!!!!!!!!!!!!!!!!!!!!!!!!!!!!!!!!!!!!!!!!!!!!!!!!!!!!!!!!!",
"!!!!!!!!!!!!!!!!!!!!!!!!!!!!!!!!!!!!!!!!!!!!!!!!!!!!!!!!!!!!!!!!",
"!!!!!!!!!!!!!!!!!!!!!!!!!!!!!!!!!!!!!!!!!!!!!!!!!!!!!!!!!!!!!!!!",
"!!!!!!!!!!!!!!!!!!!!!!!!!!!!!!!!!!!!!!!!!!!!!!!!!!!!!!!!!!!!!!!!",
"!!!!!!!!!!!!!!!!!!!!!!!!!!!!!!!!!!!!!!!!!!!!!!!!!!!!!!!!!!!!!!!!",
"!!!!!!!!!!!!!!!!!!!!!!!!!!!!!!!!!!!!!!!!!!!!!!!!!!!!!!!!!!!!!!!!",
"!!!!!!!!!!!!!!!!!!!!!!!!!!!!!!!!!!!!!!!!!!!!!!!!!!!!!!!!!!!!!!!!",
"!!!!!!!!!!!!!!!!!!!!!!!!!!!!!#!!!!!!!!!!!!!!!!!!!!!!!!!!!!!!!!!!",
"!!!!!!!!!!!!!!!!!!!!!!!!!!!!#$%%#!!##!!!!!!!!!!!!!!!!!!!!!!!!!!!",
"!!!!!!!!!!!!!!!!!!!!!!!!!!!!#$$$$!#%%#!!!!!!!!!!!!!!!!!!!!!!!!!!",
"!!!!!!!!!!!!!!!!!!!!!!!!!!!!#$$&$!!%%%!!!!!!!!!!!!!!!!!!!!!!!!!!",
"!!!!!!!!!!!!!!!!!!!!!''%!!!!#$(($!!%&%#!!!!!!!!!!!!!!!!!!!!!!!!!",
"!!!!!!!!!!!!!!!!!!!#)**)'!!!#&++&#!#$%%!!!!!!!!!!!!!!!!!!!!!!!!!",
"!!!!!!!!!!!!!!!!!!!'**,**%!!!%((%!!#$%%!!!!!!!!!!!!!!!!!!!!!!!!!",
"!!!!!!!!!'%!!!!!!!!)*,,,,&$!!!##!!!!#%%!!!!!!!!!!!!!!!!!!!!!!!!!",
"!!!!!!!')*))''!!!!!#)*,,--)!!!!!!!!#%%%!!!!!!!!!!!!!!!!!!!!!!!!!",
"!!!!!!!)******)!!!!!#),-.-&#!!!!!!#$$%#!!!!!!!!!!!!!!!!!!!!!!!!!",
"!!!!!!!)***,//*)%!!!!%-..-)#!!!!!#$$$!!!!!!!!!!!#####!!!!!!!!!!!",
"!!!!!!!)*,,,/,,*)%!!!%--()#!!!!!!#$$#!!!!!!!!!!#$$$$$##!!!!!!!!!",
"!!!!!!!'*,,,***,**%!!%&)%#!!!!!!!$$$$#!!!!!!!!!!#$$$$%#!!!!!!!!!",
"!!!!!!!!)*,*))**,*)!!!#!!!%'%!!!!$$&$$#!!!!!%%!!!%&(&)%!!!!!!!!!",
"!!!!!!!!%**)%#)***)!!!!!!'**)!!!!!&$$$#!!!!)))!!!),,,*)%!!!!!!!!",
"!!!!!!!!!)*'!!!'))'!!!!!%****'!!!!#$##!!!!%)*'!!'*,//,*%#!!!!!!!",
"!!!!!!!!!%'%!!!!!!!!!!!!)*,,*)%!!!!!!!!!!!%))'!!!'),/,*%!!!!!!!!",
"!!!!!!!!!!!!!!!!!!!!!!!!'*,,***'!!!!!!!!!!!!'!!!!!!)**%!!!!!!!!!",
"!!!!!!!!!!!!!!!!!!!!!!!!%)*01***)%!!!!!!!!!!!!!!!!!!'%!!!!!!!!!!",
"!!!!!!!!!!!!!!!!!!!!!!!!!%)11***)%!!!!!!!!!!!!!!!!!!!!!!!!#!!!!!",
"!!!!!!!!!!!!!!!!!!!!!!!!!!%)))))'#!!!!!!!!!!!!!!!!!''''%%%!!!!!!",
"!!!!!!!!!!!!!!!!!!!!!!!!!!!!!!!!!!!!!!!!!!!!!!!!!#)*,,**)%!!!!!!",
"!!!!!!!!!!!!!!!!!!!!!!!!!!!!!!!!!!!!!!!!!!!!!!!!!!%*,,,*)%!!!!!!",
"!!!!!!!!!!!!!!!!!!!!!!!!!!!!!!!!!!!!!!!!!!!!!!!!!!!%****)%!!!!!!",
"!!!!!!!!!!!!!!!!!!!!!!!!!!!!!!!!!!!!!!!!!!!!!!!!!!!#&((&)%!!!!!!",
"!!!!!!!!!!!!!!!!!!!!!!!!!!!!!!!!!!!!!!!!!!!!!!!!!!!#$&&$&%!!!!!!",
"!!!!!!!!!!!!!!!!!!!!!!!!!!!!!!!!!!!!!2!!!!####!!!!!!#$$$$#!!!!!!",
"!!!!!!!!!!!!!!!!!!!!!!!!!!!!!!!!2!!!3!!!!#$$$$#!##$#4####!!!!!!!",
"!!!!!!!!!!!!!!!!!!!!!!!!!!!!!!!!3!!5!!!!#$$&(&)%$$$$#!!!!!!!!!!!",
"!!!!!!!!!!!!!!!!!!!!!!!!!3!!!3!!!!!!!!!#$$(((,,*&&$$#!!!!!!!!!!!",
"!!!!!!!')%!!!!!!!!!!!!!!!!67777887776!#$$((-,//-++&$#!!!!!!!!!!!",
"!!!!!!))*)%!!!!!!!!!!!!!!779::8;;<<877#$(--//=/-++$$!!!!!!!!!!!!",
"!!!!!!)****%!!!!!!!!777669977>>7>>7#75#$(-,==/,&&$$#!!!!!!!!!!!!",
"!!!!!!*****)!!!!!!6668;$<:;6>996#####8#$(,/=/,*$$##!!!!!!!!!!!!!",
"!!!!!!*****)!?--(68;:@$&$<:89>%$$$$$#;#$&*//,*$#-(!!!!!!!!!!!!!!",
"!!!!!!))'''%!ABB-8:<@#&-(%;;8#&((&$$#8#$$)**)%#BB-!!!!!!!!!!!!!!",
"!!!!!!!'!!!!!CDDE:;##$(-(%7686)((&&$$#>#>7%%<:CDDE!!!!!!!!!!!!!!",
"!!!!!!!!!!!!!ABB-##$$$(.-%>>>>>%$&(&$#>>>>78:;ABB-!!!!!!!!!!!!!!",
"!!!!!!!!!!!!!E--#$$$$$(--%$677777$((&$#&&>>7;6E--&!!!!!!!!!!!!!!",
"!!!!!!!!!!!!!$&%$$$$$$&(($&866666$+-&$#7$>6>67$&&F!!!!!!!!!!!!!!",
"!!!!!!!!!!!!!!!%%&$$$$$$$%(:88888$&&$$#7$78>7>>>>!!!!!!!!!!!!!!!",
"!!!!!!!!!!!!!!!!%%%$$$#$$#-;:::::#$$$#87>6;>>>67!!!!!!!!!!!!!!!!",
"!!!!!!!!!!!!!!!!!7####&#$#$68888;####B:7686>>78!!!!!!!!!!!!!!!!!",
"!!!!!!!!!!!!!!!!!>;>>>6###766666<6>76?<78867>6!!!!!!!!!!!!!!!!!!",
"!!!!!!!!!!!!!!!!!>:>>>7:;7>77;77<6>76(877:7>>!!!!!!!!!!!!!!!!!!!",
"!!!!!!!!!!!!!!!!!>;>>>7<87>>><>>:87776;7786>>!!!!!!!!!!!!!!!!!!!",
"!!!!!!!!!!!!!!!!!>67>77867>>7<!!!:676:<:;67>7!!!!!!!!!!!!!!!!!!!",
"!!!!!!!!!!!!!!!!!>>6777;67>7;:!!!:86;86777>>!!!!!!!!!!!!!!!!!!!!",
"!!!!!!!!!!!!!!!!!!>76;:<:677:!!!!!:8668677>!!!!!!!!!!!!!!!!!!!!!",
"!!!!!!!!!!!!!!!!!!>>77768;68:!!!!!:8868677>!!!!!!!!!!!!!!!!!!!!!",
"!!!!!!!!!!!!!!!!!!!>7768688:!!!!!!!::86777>!!!!!!!!!!!!!!!!!!!!!",
"!!!!!!!!!!!!!!!!!!!>7768688:!!!!!!!!!;67>>!!!!!!!!!!!!!!!!!!!!!!",
"!!!!!!!!!!!!!!!!!!!>77768::!!!!!!!!!!!>>!!!!!!!!!!!!!!!!!!!!!!!!",
"!!!!!!!!!!!!!!!!!!!!>>76;!!!!!!!!!!!!!!!!!!!!!!!!!!!!!!!!!!!!!!!",
"!!!!!!!!!!!!!!!!!!!!!!>>!!!!!!!!!!!!!!!!!!!!!!!!!!!!!!!!!!!!!!!!"
};