/* XPM */
static const char *robot_enemy_death_f05[] = {
/* columns rows colors chars-per-pixel */
"64 64 52 1",
"! c None",
"# c #005C5C",
"$ c #004444",
"% c #007474",
"& c #008C8C",
"' c #00A4A4",
"( c #00BCBC",
") c #C8E078",
"* c #A4C828",
"+ c #6C8C00",
", c #002C2C",
"- c #BCD85C",
". c #90BC00",
"/ c #7CA400",
"0 c #587400",
"1 c #344400",
"2 c #C06410",
"3 c #AC580C",
"4 c #984C08",
"5 c #10C0C0",
"6 c #445C00",
"7 c #D89C64",
"8 c #CC8038",
"9 c #E4C098",
": c #DCAC7C",
"; c #C47024",
"< c #202C00",
"= c #884404",
"> c #743804",
"? c #643000",
"@ c #502400",
"A c #8C8C8C",
"B c #989898",
"C c #A0A0A0",
"D c #848484",
"E c #C42424",
"F c #28C8C8",
"G c #747474",
"H c #545454",
"I c #343434",
"J c #4C4C4C",
"K c #B0B0B0",
"L c #7C7C7C",
"M c #D8D8D8",
"N c #A8A8A8",
"O c #BCBCBC",
"P c #6C6C6C",
"Q c #2C2C2C",
"R c #000000",
"S c #980088",
"T c #242424",
"U c #3C3C3C",
"!!!!!!!!!!!!!!!!!!!!!!!!!!!!!!!!!!!!!!!!!!!!!!!!!!!!!!!!!!!!!!!!",
"!!!!!!!!!!!!!!!!!!!!!!!!!!!!!!!!!!!!!!!!!!!!!!!!!!!!!!!!!!!!!!!!",
"!!!!!!!!!!!!!!!!!!!!!!!!!!!!!!!!!!!!!!!!!!!!!!!!!!!!!!!!!!!!!!!!",
"!!!!!!!!!!!!!!!!!!!!!!!!!!!!!!!!!!!!!!!!!!!!!!!!!!!!!!!!!!!!!!!!",
"!!!!!!!!!!!!!!!!!!!!!!!!!!!!!!!!!!!!!!!!!!!!!!!!!!!!!!!!!!!!!!!!",
"!!!!!!!!!!!!!!!!!!!!!!!!!!!!!!!!!!!!!!!!!!!!!!!!!!!!!!!!!!!!!!!!",
"!!!!!!!!!!!!!!!!!!!!!!!!!!!!!!!!!!!!!!!!!!!!!!!!!!!!!!!!!!!!!!!!",
"!!!!!!!!!!!!!!!!!!!!!!!!!!!!!!!!!!!!!!!!!!!!!!!!!!!!!!!!!!!!!!!!",
"!!!!!!!!!!!!!!!!!!!!!!!!!!!!!!!!!!!!!!!!!!!!!!!!!!!!!!!!!!!!!!!!",
"!!!!!!!!!!!!!!!!!!!!!!!!!!!!!!!!!!!!!!!!!!!!!!!!!!!!!!!!!!!!!!!!",
"!!!!!!!!!!!!!!!!!!!!!!!!!!!!!!!!!!!!!!!!!!!!!!!!!!!!!!!!!!!!!!!!",
"!!!!!!!!!!!!!!!!!!!!!!!!!!!!!!!!!!!!!!!!!!!!!!!!!!!!!!!!!!!!!!!!",
"!!!!!!!!!!!!!!!!!!!!!!!!!!!!!!!!!!!!!!!!!!!!!!!!!!!!!!!!!!!!!!!!",
"!!!!!!!!!!!!!!!!!!!!!!!!!!!!!!!!!!!!!!!!!!!!!!!!!!!!!!!!!!!!!!!!",
"!!!!!!!!!!!!!!!!!!!!!!!!!!!!!!!!!!!!!!!!!!!!!!!!!!!!!!!!!!!!!!!!",
"!!!!!!!!!!!!!!!!!!!!!!!!!!!!!!!!!!!!!!!!!!!!!!!!!!!!!!!!!!!!!!!!",
"!!!!!!!!!!!!!!!!!!!!!!!!!!!!!!!!!!!!!!!!!!!!!!!!!!!!!!!!!!!!!!!!",
"!!!!!!!!!!!!!!!!!!!!!!!!!!!!!!!!!!!!!!!!!!!!!!!!!!!!!!!!!!!!!!!!",
"!!!!!!!!!!!!!!!!!!!!!!!!!!!!!!!!!!!!!!!!!!!!!!!!!!!!!!!!!!!!!!!!",
"!!!!!!!!!!!!!!!!!!!!!!!!!!!!!!!!!!!!!!!!!!!!!!!!!!!!!!!!!!!!!!!!",
"!!!!!!!!!!!!!!!!!!!!!!!!!!!!!!!!!!!!!!!!!!!!!!!!!!!!!!!!!!!!!!!!",
"!!!!!!!!!!!!!!!!!!!!!!!!!!!!!!!!!!!!!!!!!!!!!!!!!!!!!!!!!!!!!!!!",
"!!!!!!!!!!!!!!!!!!!!!!!!!!!!!!!!!!!!!!!!!!!!!!!!!!!!!!!!!!!!!!!!",
"!!!!!!!!!!!!!!!!!!!!!!!!!!!!!!!!!!!!!!!!!!!!!!!!!!!!!!!!!!!!!!!!",
"!!!!!!!!!!!!!!!!!!!!!!!!!!!!!!!!!!!!!!!!!!!!!!!!!!!!!!!!!!!!!!!!",
"!!!!!!!!!!!!!!!!!!!!!!!!!!!!!!!!!!!!!!!!!!!!!!!!!!!!!!!!!!!!!!!!",
"!!!!!!!!!!!!!!!!!!!!!!!!!!!!!!!!!!!!!!!!!!!!!!!!!!!!!!!!!!!!!!!!",
"!!!!!!!!!!!!!!!!!!!!!!!!!!!!!!!!!!!!!!!!!!!!!!!!!!!!!!!!!!!!!!!!",
"!!!!!!!!!!!!!!!!!!!!!!!!!!!!!!!!!!!!!!!!!!!!!!!!!!!!!!!!!!!!!!!!",
"!!!!!!!!!!!!!!!!!!!!!!!!!!!!!!!!!!!!!!!!!!!!!!!!!!!!!!!!!!!!!!!!",
"!!!!!!!!!!!!!!!!!!!!!!!!!!!!!!!!!!!!!!!!!!!!!!!!!!!!!!!!!!!!!!!!",
"!!!!!!!!!!!!!!!!!!!!!!!!!!!!!!!!!!!!!!!!!!!!!!!!!!!!!!!!!!!!!!!!",
"!!!!!!!!!!!!!!!!!!!!!!!!!!!!!!!!!!!!!!!!!!!!!!!!!!!!!!!!!!!!!!!!",
"!!!!!!!!!!!!!!!!!!!!!!!!!!!!!!!!!!!!!!!!!!!!!!!!!!!!!!!!!!!!!!!!",
"!!!!!!!!!!!!!!!!!!!!!!!!!!!!!!!!!!!!!!!!!!!!!!!!!!!!!!!!!!!!!!!!",
"!!!!!!!!!!!!!!!!!!!!!!!!!!!!!!!!!!!!!!!!!!!!!!!!!!!!!!!!!!!!!!!!",
"!!!!!!!!!!!!!!!!!!!!!!!!!!!!!!!!!!!!!!!!!!!!!!!!!!!!!!!!!!!!!!!!",
"!!!!!!!!!!!!!!!!!!!!!!!!!!!!!!!!!!!!!!!!!!!!!!!!!!!!!!!!!!!!!!!!",
"!!!!!!!!!!!!!!!!!!!!!!!!!!!!!!!!!!!!!!!!!!!!!!!!!!!!!!!!!!!!!!!!",
"!!!!!!!!!!!!!!!!!!!!!!!!!!!!!!!!!!!!!!!!!!!!!!!!!!!!!!!!!!!!!!!!",
"!!!!!!!!!!!!!!!!!!!!!!!!!!!!!!!!!!!!!!!!!!!!!!!!!!!!!!!!!!!!!!!!",
"!!!!!!!!!!!!!!!!!!!!!!!!!!!!!!!!!!!!!!!!!!!!!!!!!!!!!!!!!!!!!!!!",
"!!!!!!!!!!!!!!!!!!!!!!!!!!!#$$$$%%$$$#!!!!!!!!!!!!!!!!!!!!!!!!!!",
"!!!!!!!!!!!!!!!!!!!!!!!!!!$$&''%&&((%$$!!!!!!!!!!!!!!!!!!!!!!!!!",
"!!!!!!!!!!!!!!!!!!!!!$$$#)*+$$,,$,,$$$$###$$!!!!!!!!!!!!!!!!!!!!",
"!!!!!!!!!!!!!!!!!!!###%&-./*+0+1#$,,,$%&'('&##!!!!!!!!!!!!!!!!!!",
"!!!!!!!!!!!!!!2334#%&'5-..(//#6.+#,,$%&&&''(%##2334!!!!!!!!!!!!!",
"!!!!!!!!!!!!!!7883%'(5/+0#%&+0#6+$$$#'%##%&(5%%7883!!!!!!!!!!!!!",
"!!!!!!!!!!!!!!9::;'&'+06$,,$#0#$6<$#%#,,,,$%(('9::;!!!!!!!!!!!!!",
"!!!!!!!!!!!!!!7883#$61,=>>>>#$$$$11$>>#>>$,,$&#7883!!!!!!!!!!!!!",
"!!!!!!!!!!!!!!;33=$,6,,4====%######&=#%#?$,#,#$;33=!!!!!!!!!!!!!",
"!!!!!!!!!!!!!!>==?$,,$,3%&$4#%%%%%&#4#'%@,$%,$,,#ABC!!!!!!!!!!!!",
"!!!!!!!!!!!!!!DE,,,&,,,4&&$=###'''&#=#F%>,#&,,,,GHIJC!!!!!!!!!!!",
"!!!!!!!!!!!!!!GDDK,',,,='&$>$$&%%&%$>#&'$#%#,,,$GJIJL!!!!!!!!!!!",
"!!!!!!!!!!!!!!DMKD,&,,,>(%$,,,(##(#,$#%($%%#$,,#FGNO!!!!!!!!!!!!",
"!!!!!!!!!!!!!DMKDP,#$,$$%#$,,$($$(#,$##%$$'$,,#QLJRJO!!!!!!!!!!!",
"!!!!!!!!!!!!DMKDPH,,#$$$&#$,$&',,'%$$$#&$$%#,,$S$JRJC!!!!!!!!!!!",
"!!!!!!!!!!!PRRDPHTT,$#&'('#$$'%!!#'#$#'('&#$,$!,#LAC&!!!!!!!!!!!",
"!!!!!!!!!!!PRRPHQ!!,,$$$#%&#%'$!!$'%#&%#$$$,$!!$#&#&'!!!!!!!!!!!",
"!!!!!!!!!!!UPPHI!!!!,$$#%#%%'%!!!!%'%##%#$$,!!!,#%#('!!!!!!!!!!!",
"!!!!!!!!!!!!UUU!!!!!,$$#%#%%'$!!!!$'%%#%#$,,!!!$#&#&'!!!!!!!!!!!",
"!!!!!!!!!!!!!!!!!!!!,$$$#%''%!!!!!!#''%#$$,,!!!!$#%'!!!!!!!!!!!!",
"!!!!!!!!!!!!!!!!!!!!!,,$#&%#!!!!!!!!!#&#$,,!!!!!!!!!!!!!!!!!!!!!",
"!!!!!!!!!!!!!!!!!!!!!!!,,!!!!!!!!!!!!!!,,!!!!!!!!!!!!!!!!!!!!!!!"
};