/* XPM */
static const char *robot_enemy_death_sheet[] = {
/* columns rows colors chars-per-pixel */
"384 64 100 2",
"!! c None",
"!# c #005C5C",
"!$ c #007474",
"!% c #008C8C",
"!& c #00A4A4",
"!' c #78E0E0",
"!( c #40D0D0",
"!) c #28C8C8",
"!* c #10C0C0",
"!+ c #00BCBC",
"!, c #B4ECEC",
"!- c #004444",
"!. c #002C2C",
"!/ c #AC0C0C",
"!0 c #840404",
"!1 c #684018",
"!2 c #603814",
"!3 c #980808",
"!4 c #C01010",
"!5 c #CC3838",
"!6 c #743804",
"!7 c #5CD8D8",
"!8 c #884404",
"!9 c #984C08",
"!: c #704820",
"!; c #D4E498",
"!< c #60401C",
"!= c #C03014",
"!> c #6C6C6C",
"!? c #001414",
"!@ c #B0D040",
"!A c #805424",
"!B c #848484",
"!C c #000000",
"!D c #700404",
"!E c #6C8C00",
"!F c #94602C",
"!G c #C45018",
"!H c #5C340C",
"!I c #D8D8D8",
"!J c #445C00",
"!K c #C42424",
"!L c #747474",
"!M c #B0B0B0",
"!N c #BCD85C",
"!O c #90BC00",
"!P c #980088",
"!Q c #AC580C",
"!R c #C06410",
"!S c #8C8C8C",
"!T c #E0ECB4",
"!U c #ECF4D8",
"!V c #D89C64",
"!W c #CC8038",
"!X c #E0E0E0",
"!Y c #545454",
"!Z c #C47024",
"![ c #ECECB8",
"!] c #A06C3C",
"!^ c #E4C098",
"!_ c #DCAC7C",
"!` c #98C010",
"!a c #848808",
"!b c #5C0000",
"!c c #7CA400",
"!d c #4C4C4C",
"!e c #28CC28",
"!f c #587400",
"!g c #643000",
"!h c #98E4E4",
"!i c #C4701C",
"!j c #C89020",
"!k c #C8B024",
"!l c #CCCC38",
"!m c #A4A814",
"!n c #B4B81C",
"!o c #747804",
"!p c #C8CC28",
"!q c #C4C824",
"!r c #94980C",
"!s c #D8F4F4",
"!t c #D09050",
"!u c #A8784C",
"!v c #5C5C5C",
"!w c #989898",
"!x c #444444",
"!y c #C8E078",
"!z c #A4C828",
"!{ c #344400",
"!| c #A0A0A0",
"!} c #202C00",
"!~ c #7C7C7C",
"#! c #A8A8A8",
"## c #C4C4C4",
"#$ c #502400",
"#% c #343434",
"#& c #BCBCBC",
"#' c #2C2C2C",
"#( c #242424",
"#) c #3C3C3C",
"!!!!!!!!!!!!!!!!!!!!!!!!!!!!!!!!!!!!!!!!!!!!!!!!!!!!!!!!!!!!!!!!!!!!!!!!!!!!!!!!!!!!!!!!!!!!!!!!!!!!!!!!!!!!!!!!!!!!!!!!!!!!!!!!!!!!!!!!!!!!!!!!!!!!!!!!!!!!!!!!!!!!!!!!!!!!!!!!!!!!!!!!!!!!!!!!!!!!!!!!!!!!!!!!!!!!!!!!!!!!!!!!!!!!!!!!!!!!!!!!!!!!!!!!!!!!!!!!!!!!!!!!!!!!!!!!!!!!!!!!!!!!!!!!!!!!!!!!!!!!!!!!!!!!!!!!!!!!!!!!!!!!!!!!!!!!!!!!!!!!!!!!!!!!!!!!!!!!!!!!!!!!!!!!!!!!!!!!!!!!!!!!!!!!!!!!!!!!!!!!!!!!!!!!!!!!!!!!!!!!!!!!!!!!!!!!!!!!!!!!!!!!!!!!!!!!!!!!!!!!!!!!!!!!!!!!!!!!!!!!!!!!!!!!!!!!!!!!!!!!!!!!!!!!!!!!!!!!!!!!!!!!!!!!!!!!!!!!!!!!!!!!!!!!!!!!!!!!!!!!!!!!!!!!!!!!!!!!!!!!!!!!!!!!!!!!!!!!!!!!!!!!!!!!!!!!!!!!!!!!!!!!!!!!!!!!!!!!!!!!!!!!!!!!!!!!!!!!!!!!!!!!!!!!!!!!!!!!!!!!!!!!!!!!!!!!!!!!!!!!!!!!!!!!!!!!!!!!!!!!!!!!!!!!!!!!!!!!!!!!!!!!!!!!!!!!!!!!!!!!!!!!!!!!",
"!!!!!!!!!!!!!!!!!!!!!!!!!!!!!!!!!!!!!!!!!!!!!!!!!!!!!!!!!!!!!!!!!!!!!!!!!!!!!!!!!!!!!!!!!!!!!!!!!!!!!!!!!!!!!!!!!!!!!!!!!!!!!!!!!!!!!!!!!!!!!!!!!!!!!!!!!!!!!!!!!!!!!!!!!!!!!!!!!!!!!!!!!!!!!!!!!!!!!!!!!!!!!!!!!!!!!!!!!!!!!!!!!!!!!!!!!!!!!!!!!!!!!!!!!!!!!!!!!!!!!!!!!!!!!!!!!!!!!!!!!!!!!!!!!!!!!!!!!!!!!!!!!!!!!!!!!!!!!!!!!!!!!!!!!!!!!!!!!!!!!!!!!!!!!!!!!!!!!!!!!!!!!!!!!!!!!!!!!!!!!!!!!!!!!!!!!!!!!!!!!!!!!!!!!!!!!!!!!!!!!!!!!!!!!!!!!!!!!!!!!!!!!!!!!!!!!!!!!!!!!!!!!!!!!!!!!!!!!!!!!!!!!!!!!!!!!!!!!!!!!!!!!!!!!!!!!!!!!!!!!!!!!!!!!!!!!!!!!!!!!!!!!!!!!!!!!!!!!!!!!!!!!!!!!!!!!!!!!!!!!!!!!!!!!!!!!!!!!!!!!!!!!!!!!!!!!!!!!!!!!!!!!!!!!!!!!!!!!!!!!!!!!!!!!!!!!!!!!!!!!!!!!!!!!!!!!!!!!!!!!!!!!!!!!!!!!!!!!!!!!!!!!!!!!!!!!!!!!!!!!!!!!!!!!!!!!!!!!!!!!!!!!!!!!!!!!!!!!!!!!!!!!!!!",
"!!!!!!!!!!!!!!!!!!!!!!!!!!!!!!!!!!!!!!!!!!!!!!!!!!!!!!!!!!!!!!!!!!!!!!!!!!!!!!!!!!!!!!!!!!!!!!!!!!!!!!!!!!!!!!!!!!!!!!!!!!!!!!!!!!!!!!!!!!!!!!!!!!!!!!!!!!!!!!!!!!!!!!!!!!!!!!!!!!!!!!!!!!!!!!!!!!!!!!!!!!!!!!!!!!!!!!!!!!!!!!!!!!!!!!!!!!!!!!!!!!!!!!!!!!!!!!!!!!!!!!!!!!!!!!!!!!!!!!!!!!!!!!!!!!!!!!!!!!!!!!!!!!!!!!!!!!!!!!!!!!!!!!!!!!!!!!!!!!!!!!!!!!!!!!!!!!!!!!!!!!!!!!!!!!!!!!!!!!!!!!!!!!!!!!!!!!!!!!!!!!!!!!!!!!!!!!!!!!!!!!!!!!!!!!!!!!!!!!!!!!!!!!!!!!!!!!!!!!!!!!!!!!!!!!!!!!!!!!!!!!!!!!!!!!!!!!!!!!!!!!!!!!!!!!!!!!!!!!!!!!!!!!!!!!!!!!!!!!!!!!!!!!!!!!!!!!!!!!!!!!!!!!!!!!!!!!!!!!!!!!!!!!!!!!!!!!!!!!!!!!!!!!!!!!!!!!!!!!!!!!!!!!!!!!!!!!!!!!!!!!!!!!!!!!!!!!!!!!!!!!!!!!!!!!!!!!!!!!!!!!!!!!!!!!!!!!!!!!!!!!!!!!!!!!!!!!!!!!!!!!!!!!!!!!!!!!!!!!!!!!!!!!!!!!!!!!!!!!!!!!!!!!!!",
"!!!!!!!!!!!!!!!!!!!!!!!!!!!!!!!!!!!!!!!!!!!!!!!!!!!!!!!!!!!!!!!!!!!!!!!!!!!!!!!!!!!!!!!!!!!!!!!!!!!!!!!!!!!!!!!!!!!!!!!!!!!!!!!!!!!!!!!!!!!!!!!!!!!!!!!!!!!!!!!!!!!!!!!!!!!!!!!!!!!!!!!!!!!!!!!!!!!!!!!!!!!!!!!!!!!!!!!!!!!!!!!!!!!!!!!!!!!!!!!!!!!!!!!!!!!!!!!!!!!!!!!!!!!!!!!!!!!!!!!!!!!!!!!!!!!!!!!!!!!!!!!!!!!!!!!!!!!!!!!!!!!!!!!!!!!!!!!!!!!!!!!!!!!!!!!!!!!!!!!!!!!!!!!!!!!!!!!!!!!!!!!!!!!!!!!!!!!!!!!!!!!!!!!!!!!!!!!!!!!!!!!!!!!!!!!!!!!!!!!!!!!!!!!!!!!!!!!!!!!!!!!!!!!!!!!!!!!!!!!!!!!!!!!!!!!!!!!!!!!!!!!!!!!!!!!!!!!!!!!!!!!!!!!!!!!!!!!!!!!!!!!!!!!!!!!!!!!!!!!!!!!!!!!!!!!!!!!!!!!!!!!!!!!!!!!!!!!!!!!!!!!!!!!!!!!!!!!!!!!!!!!!!!!!!!!!!!!!!!!!!!!!!!!!!!!!!!!!!!!!!!!!!!!!!!!!!!!!!!!!!!!!!!!!!!!!!!!!!!!!!!!!!!!!!!!!!!!!!!!!!!!!!!!!!!!!!!!!!!!!!!!!!!!!!!!!!!!!!!!!!!!!!!!!",
"!!!!!!!!!!!!!!!!!!!!!!!!!!!!!!!!!!!!!!!!!!!!!!!!!!!!!!!!!!!!!!!!!!!!!!!!!!!!!!!!!!!!!!!!!!!!!!!!!!!!!!!!!!!!!!!!!!!!!!!!!!!!!!!!!!!!!!!!!!!!!!!!!!!!!!!!!!!!!!!!!!!!!!!!!!!!!!!!!!!!!!!!!!!!!!!!!!!!!!!!!!!!!!!!!!!!!!!!!!!!!!!!!!!!!!!!!!!!!!!!!!!!!!!!!!!!!!!!!!!!!!!!!!!!!!!!!!!!!!!!!!!!!!!!!!!!!!!!!!!!!!!!!!!!!!!!!!!!!!!!!!!!!!!!!!!!!!!!!!!!!!!!!!!!!!!!!!!!!!!!!!!!!!!!!!!!!!!!!!!!!!!!!!!!!!!!!!!!!!!!!!!!!!!!!!!!!!!!!!!!!!!!!!!!!!!!!!!!!!!!!!!!!!!!!!!!!!!!!!!!!!!!!!!!!!!!!!!!!!!!!!!!!!!!!!!!!!!!!!!!!!!!!!!!!!!!!!!!!!!!!!!!!!!!!!!!!!!!!!!!!!!!!!!!!!!!!!!!!!!!!!!!!!!!!!!!!!!!!!!!!!!!!!!!!!!!!!!!!!!!!!!!!!!!!!!!!!!!!!!!!!!!!!!!!!!!!!!!!!!!!!!!!!!!!!!!!!!!!!!!!!!!!!!!!!!!!!!!!!!!!!!!!!!!!!!!!!!!!!!!!!!!!!!!!!!!!!!!!!!!!!!!!!!!!!!!!!!!!!!!!!!!!!!!!!!!!!!!!!!!!!!!!!!!",
"!!!!!!!!!!!!!!!!!!!!!!!!!!!!!!!!!!!!!!!!!!!!!!!!!!!!!!!!!!!!!!!!!!!!!!!!!!!!!!!!!!!!!!!!!!!!!!!!!!!!!!!!!!!!!!!!!!!!!!!!!!!!!!!!!!!!!!!!!!!!!!!!!!!!!!!!!!!!!!!!!!!!!!!!!!!!!!!!!!!!!!!!!!!#!$!%!&!%!$!#!!!!!!!!!!!!!!!!!!!!!!!!!!!!!!!!!!!!!!!!!!!!!!!!!!!!!!!!!!!!!!!!!!!!!!!!!!!!!!!!!!!!!!!!!!!!!!!!!!!!!!!!!!!!!!!!!!!!!!!!!!!!!!!!!!!!!!!!!!!!!!!!!!!!!!!!!!!!!!!!!!!!!!!!!!!!!!!!!!!!!!!!!!!!!!!!!!!!!!!!!!!!!!!!!!!!!!!!!!!!!!!!!!!!!!!!!!!!!!!!!!!!!!!!!!!!!!!!!!!!!!!!!!!!!!!!!!!!!!!!!!!!!!!!!!!!!!!!!!!!!!!!!!!!!!!!!!!!!!!!!!!!!!!!!!!!!!!!!!!!!!!!!!!!!!!!!!!!!!!!!!!!!!!!!!!!!!!!!!!!!!!!!!!!!!!!!!!!!!!!!!!!!!!!!!!!!!!!!!!!!!!!!!!!!!!!!!!!!!!!!!!!!!!!!!!!!!!!!!!!!!!!!!!!!!!!!!!!!!!!!!!!!!!!!!!!!!!!!!!!!!!!!!!!!!!!!!!!!!!!!!!!!!!!!!!!!!!!!!!!!!!!!!!!!!!!!!!!!!!!!!!!!!!!",
"!!!!!!!!!!!!!!!!!!!!!!!!!!!!!!!!!!!!!!!!!!!%!#!!!!!!!!!!!$!'!'!(!)!*!+!$!!!!!!!!!!!!!!!!!!!!!!!!!!!!!!!!!!!!!!!!!!!!!!!!!!!!!!!!!!!!!!!!!!!!!!!!!!!!!!!!!!!!!!!!!!!!!!!!!!!%!#!!!!!!!!!#!$!'!,!'!(!)!*!+!$!#!!!!!!!!!!!!!!!!!!!!!!!!!!!!!!!!!!!!!!!!!!!!!!!!!!!!!!!!!!!!!!!!!!!!!!!!!!!!!!!!!!!!!!!!!!!!!!!!!!!!!!!!!!!!!!!!!!!!!!!!!!!!!!!!!!!!!!!!!!!!!!!!!!!!!!!!!!!!!!!!!!!!!!!!!!!!!!!!!!!!!!!!!!!!!!!!!!!!!!!!!!!!!!!!!!!!!!!!!!!!!!!!!!!!!!!!!!!!!!!!!!!!!!!!!!!!!!!!!!!!!!!!!!!!!!!!!!!!!!!!!!!!!!!!!!!!!!!!!!!!!!!!!!!!!!!!!!!!!!!!!!!!!!!!!!!!!!!!!!!!!!!!!!!!!!!!!!!!!!!!!!!!!!!!!!!!!!!!!!!!!!!!!!!!!!!!!!!!!!!!!!!!!!!!!!!!!!!!!!!!!!!!!!!!!!!!!!!!!!!!!!!!!!!!!!!!!!!!!!!!!!!!!!!!!!!!!!!!!!!!!!!!!!!!!!!!!!!!!!!!!!!!!!!!!!!!!!!!!!!!!!!!!!!!!!!!!!!!!!!!!!!!!!!!!!!!!!!!!!!!!!!!",
"!!!!!!!!!!!!!!!!!!!!!!!!!!!!!!!!!!!!!!!!!!!%!#!!!!!!!$!%!(!%!%!%!%!%!%!%!+!$!!!!!!!!!!!!!!!!!!!!!!!!!!!!!!!!!!!!!!!!!!!!!!!!!!!!!!!!!!!!!!!!!!!!!!!!!!!!!!!!!!!!!!!!!!!!!!!%!#!!!!!!!$!%!(!%!%!%!%!%!%!%!%!+!$!!!!!!!!!!!!!!!!!!!!!!!!!!!!!!!!!!!!!!!!!!!!!!!!!!!!!!!!!!!!!!!!!!!!!!!!!!!!!!!!!!!!!!!!!!!!!!!!!!!!!!!!!!!!!!!!!!!!!!!!!!!!!!!!!!!!!!!!!!!!!!!!!!!!!!!!!!!!!!!!!!!!!!!!!!!!!!!!!!!!!!!!!!!!!!!!!!!!!!!!!!!!!!!!!!!!!!!!!!!!!!!!!!!!!!!!!!!!!!!!!!!!!!!!!!!!!!!!!!!!!!!!!!!!!!!!!!!!!!!!!!!!!!!!!!!!!!!!!!!!!!!!!!!!!!!!!!!!!!!!!!!!!!!!!!!!!!!!!!!!!!!!!!!!!!!!!!!!!!!!!!!!!!!!!!!!!!!!!!!!!!!!!!!!!!!!!!!!!!!!!!!!!!!!!!!!!!!!!!!!!!!!!!!!!!!!!!!!!!!!!!!!!!!!!!!!!!!!!!!!!!!!!!!!!!!!!!!!!!!!!!!!!!!!!!!!!!!!!!!!!!!!!!!!!!!!!!!!!!!!!!!!!!!!!!!!!!!!!!!!!!!!!!!!!!!!!!!!!!!!!!",
"!!!!!!!!!!!!!!!!!!!!!!!!!!!!!!!!!!!!!!!!!!!%!#!!!!!$!-!-!-!-!-!-!-!-!-!-!-!-!$!!!!!!!!!!!!!!!!!!!!!!!!!!!!!!!!!!!!!!!!!!!!!!!!!!!!!!!!!!!!!!!!!!!!!!!!!!!!!!!!!!!!!!!!!!!!!%!#!!!!!$!-!-!-!-!-!-!-!-!-!-!-!-!-!$!!!!!!!!!!!!!!!!!!!!!!!!!!!!!!!!!!!!!!!!!!!!!!!!!!!!!!!!!!!!!!!!!!!!!!!!!!!!!!!!!!!!!!!!!!!!!!!!!!!!!!!!!!!!!!!!!!!!!!!!!!!!!!!!!!!!!!!!!!!!!!!!!!!!!!!!!!!!!!!!!!!!!!!!!!!!!!!!!!!!!!!!!!!!!!!!!!!!!!!!!!!!!!!!!!!!!!!!!!!!!!!!!!!!!!!!!!!!!!!!!!!!!!!!!!!!!!!!!!!!!!!!!!!!!!!!!!!!!!!!!!!!!!!!!!!!!!!!!!!!!!!!!!!!!!!!!!!!!!!!!!!!!!!!!!!!!!!!!!!!!!!!!!!!!!!!!!!!!!!!!!!!!!!!!!!!!!!!!!!!!!!!!!!!!!!!!!!!!!!!!!!!!!!!!!!!!!!!!!!!!!!!!!!!!!!!!!!!!!!!!!!!!!!!!!!!!!!!!!!!!!!!!!!!!!!!!!!!!!!!!!!!!!!!!!!!!!!!!!!!!!!!!!!!!!!!!!!!!!!!!!!!!!!!!!!!!!!!!!!!!!!!!!!!!!!!!!!!!!!!",
"!!!!!!!!!!!!!!!!!!!!!!!!!!!!!!!!!!!!!!!!!!!%!#!!!#!.!/!0!.!.!.!.!.!.!.!.!0!/!.!#!!!!!!!!!!!!!!!!!!!!!!!!!!!!!!!!!!!!!!!!!!!!!!!!!!!!!!!!!!!!!!!!!!!!!!!!!!!!!!!!!!!!!!!!!!!%!#!!!#!.!/!0!.!.!.!.!.!.!.!.!.!0!/!.!#!!!!!!!!!!!!!!!!!!!!!!!!!!!!!!!!!!!!!!!!!!!!!!!!!!!!!!!!!!!!!!!!!!!!!!!!!!!!!!!!!!!!!!!!!!!!!!!!!!!!!!!!!!!!!!!!!!!!!!!!!!!!!!!!!!!!!!!!!!!!!!!!!!!!!!!!!!!!!!!!!!!!!!!!!!!!!!!!!!!!!!!!!!!!!!!!!!!!!!!!!!!!!!!!!!!!!!!!!!!!!!!!!!!!!!!!!!!!!1!!!!!!!!!!!!!!!!!!!!!!!!!!!!!!!!!!!!!!!!!!!!!!!!!!!!!!!!!!!!!!!!!!!!!!!!!!!!!!!!!!!!!!!!!!!!!!!!!!!!!!!!!!!!!!!!!!!!!!!!!!!2!!!!!!!!!!!!!!!!!!!!!!!!!!!!!!!!!!!!!!!!!!!!!!!!!!!!!!!!!!!!!!!!!!!!!!!!!!!!!!!!!!!!!!!!!!!!!!!!!!!!!!!!!!!!!!!!!!!!!!!!!!!!!!!!!!!!!!!!!!!!!!!!!!!!!!!!!!!!!!!!!!!!!!!!!!!!!!!!!!!!!!!!!!!!!!!!!!!!",
"!!!!!!!!!!!!!!!!!!!!!!!!!!!!!!!!!!!!!!!!!!!%!#!!!%!-!.!3!4!5!3!-!.!-!3!5!4!3!-!%!!!!!!!!!!!!!!!!!!!!!!!!!!!!!!!!!!!!!!!!!!!!!!!!!!!!!!!!!!!!!!!!!!!!!!!!!!!!!!!!!!!!!!!!!!!%!#!!!%!-!.!3!4!5!3!-!.!-!3!5!4!3!.!-!%!!!!!!!!!!!!!!!!!!!!!!!!!!!!!!!!!!!!!!!!!!!!!!!!!!!!!!!!!!!!!!!!!!!!!!!!!!!!!!!!!!!!!!!!!!!!!!!!!!!!!!!!!!!!!!!!!!!!!!!!!!!!!!!!!!!!!!!!!!!!!!!!!!!!!!!!!!!!!!!!!!!!!!!!!!!!!!!!!!!!!!!!!!!!!!!!!!!!!!!!!!!!!!!!!!!!!!!!!!!!!!!!!!!!!!!!!!!2!1!1!1!1!!!!!1!!!!!!!!!!!!!!!!!!!!!!!!!!!!!!!!!!!!!!!!!!!!!!!!!!!!!!!!!!!!!!!!!!!!!!!!!!!!!!!!!!!!!!!!!!!!!!!!!!!!!!!!!!!!!2!6!1!1!2!!!!!2!2!!!!!!!!!!!!!!!!!!!!!!!!!!!!!!!!!!!!!!!!!!!!!!!!!!!!!!!!!!!!!!!!!!!!!!!!!!!!!!!!!!!!!!!!!!!!!!!!!!!!!!!!!!!!!!!!!!!!!!!!!!!!!!!!!!!!!!!!!!!!!!!!!!!!!!!!!!!!!!!!!!!!!!!!!!!!!!!!!!!!!!",
"!!!!!!!!!!!!!!!!!!!!!!!!!!!!!!!!!!!!!!!!!!!&!#!!!$!+!&!+!*!)!7!)!*!+!&!&!&!&!&!+!$!!!!!!!!!!!!!!!!!!!!!!!!!!!!!!!!!!!!!!!!!!!!!!!!!!!!!!!!!!!!!!!!!!!!!!!!!!!!!!!!!!!!!!!!!%!#!!!&!#!#!#!#!#!#!#!#!#!#!#!#!#!#!#!+!!!!!!!!!!!!!!!!!!!!!!!!!!!!!!!!!!!!!!!!!!!!!!!!!!!!!!!!!!!!!!!!!!!!!!!!!!!!!!!!!!!!!!!!!!!!!!!!!!!!!!!!!!!!!!!!!!!!!!!!!!!!!!!!!!!!!!!!!!!!!!!!!!!!!!!!!!!!!!!!!!!!!!!!!!!!!!!!!!!!!!!!!!!!!!!!!!!!!!!!!!!!!!!!!!!!!!!!!!!!!!!!!!!!!!!!!!!!!2!1!1!1!!!1!1!1!!!!!!!!!!!!!!!!!!!!!!!!!!!!!!!!!!!!!!!!!!!!!!!!!!!!!!!!!!!!!!!!!!!!!!!!!!!!!!!!!!!!!!!!!!!!!!!!!!!!!!!!!!!2!6!6!6!6!!!2!1!1!2!!!!!!!!!!!!!!!!!!!!!!!!!!!!!!!!!!!!!!!!!!!!!!!!!!!!!!!!!!!!!!!!!!!!!!!!!!!!!!!!!!!!!!!!!!!!!!!!!!!!!!!!!!!!!!!!!!!!!!!!!!!!!!!!!!!!!!!!!!!!!!!!!!!!!!!!!!!!!!!!!!!!!!!!!!!!!!!!!!!!",
"!!!!!!!!!!!!!!!!!!!!!!!!!!!!!!!!!!!!!!!!!!!+!#!!!#!&!%!$!$!$!$!$!$!$!$!$!$!$!%!&!#!!!!!!!!!!!!!!!!!!!!!!!!!!!!!!!!!!!!!!!!!!!!!!!!!!!!!!!!!!!!!!!!!!!!!!!!!!!!!!!!!!!!!!!!!&!#!!!$!+!&!+!*!)!7!)!*!+!&!&!&!&!&!+!$!!!!!!!!!!!!!!!!!!!!!!!!!!!!!!!!!!!!!!!!!!!!!!!!!!!!!!!!!!!!!!!!!!!!!!!!!!!!!!!!!!!!!!!!!!!!!!!!!!!!!!!!!!!!!!!!!!!!!!!!!!!!!!!!!!!!!!!!!!!!!!!!!!!!!!!!!!!!!!!!!!!!!!!!!!!!!!!!!!!!!!!!!!!!!!!!!!!!!!!!!!!!!!!!!!!!!!!!!!!!!!!!!!!!!!!!!!!!!2!6!8!9!!!1!:!1!1!!!!!!!!!!!!!!!!!!!!!!!!!!!!!!!!!!!!!!!!!!!!!!!!!!!!!!!!!!!!!!!!!!!!!!!!!!!!!!!!!!!!!!!!!!!!!!!!!!!!!!!!!2!6!6!8!6!!!!!1!1!1!!!!!!!!!!!!!!!!!!!!!!!!!!!!!!!!!!!!!!!!!!!!!!!!!!!!!!!!!!!!!!!!!!!!!!!!!!!!!!!!!!!!!!!!!!!!!!!!!!!!!!!!!!!!!!!!!!!!!!!!!!!!!!!!!!!!!!!!!!!!!!!!!!!!!!!!!!!!!!!!!!!!!!!!!!!!!!!!!!!!",
"!!!!!!!!!!!!!!!!!!!!!!!!!!!!!!!!!!!!!!!!!!!&!#!!!-!-!$!$!$!-!-!-!-!-!-!-!$!$!$!$!-!!!!!!!!!!!!!!!!!!!!!!!!!!!!!!!!!!!!!!!!!!!!!!!!!!!!!!!!!!!!!!!!!!!!!!!!!!!!!!!!!!!!!!!!!+!#!!!#!&!%!%!%!%!%!%!%!%!%!%!%!%!%!&!#!!!!!!!!!!!!!!!!!!!!!!!!!!!!!!!!!!!!!!!!!!!!!!!!!!!!!!!!!!!!!!!!!!!!!!!!!!!!!!!!!!!!!!!!!!!!!!!!!!!!!!!!!!!!!!!!!!!;!!!!!!!!!!!!!!!!!!!!!!!!!!!!!!!!!!!!!!!!!!!!!!!!!!!!!!!!!!!!!!!!!!!!!!!!!!!!!!!!!!!!!!!!!!!!!!!!!!!!!!!!!!!1!<!1!1!2!!!!!6!8!=!=!:!1!1!9!1!2!!!!!!!!!!!!!!!!!!!!!!!!!!!!!!!!!!!!!!!!!!!!!!!!!!!!!!!!!!!!!!!!!!!!!!!!!!!!!!!!!!!!!!!!!<!<!1!!!!!!!!!2!6!9!9!6!!!!!1!8!1!2!!!!!!!!!!!!!!!!!!!!!!!!!!!!!!!!!!!!!!!!!!!!!!!!!!!!!!!!!!!!!!!!!!!!!!!!!!!!!!!!!!!!!!!!!!!!!!!!!!!!!!!!!!!!!!!!!!!!!!!!!!!!!!!!!!!!!!!!!!!!!!!!!!!!!!!!!!!!!!!!!!!!!!!!!!!!!!!!!!",
"!!!!!!!!!!!!!!!!!!!!!!!!!!!!!!!!!!!!!!!!!!!%!#!!!.!.!-!>!>!.!?!?!?!?!?!.!.!-!-!-!.!!!!!!!!!!!!!!!!!!!!!!!!!!!!!!!!!!!!!!!!!!!!!!!!!!!!!!!!!!!!!!!!!!!!!!!!!!!!!!!!!!!!!!!!!&!#!!!!!$!&!&!&!&!&!&!&!&!&!&!&!&!&!$!!!!!!!!!!!!!!!!!!!!!!!!!!!!!!!!!!!!!!!!!!!!!!!!!!!!!!!!!!!!!!!!!!!!!!!!!!!!!!!!!!!!!!!!!!!!!!!!!!!!!!!!!!!!!!!!!!!!!@!!!!!!!!!!!!!!!!!!!!!!!!!!!!!!!!!!!!!!!!!!!!!!!!!!!!!!!!!!!!!!!!!!!!!!!!!!!!!!!!!!!!!!!!!!!!!!!!!!!!!!!!!1!A!A!A!:!8!6!!!6!=!=!=!9!:!1!9!:!1!!!!!!!!!!!!!!!!!!!!!!!!!!!!!!!!!!!!!!!!!!!!!!!!!!!!!!!!!!!!!!!!!!!!!!!!!!!!!!!!!!!!!2!:!A!A!:!<!!!!!!!2!8!=!=!8!2!!!2!6!1!1!!!!!!!!!!!!!!!!!!!!!!!!!!!!!!!!!!!!!!!!!!!!!!!!!!!!!!!!!!!!!!!!!!!!!!!!!!!!!!!!!!!!!!!!!!!!!!!!!!!!!!!!!!!!!!!!!!!!!!!!!!!!!!!!!!!!!!!!!!!!!!!!!!!!!!!!!!!!!!!!!!!!!!!!!!!!!!!!!!",
"!!!!!!!!!!!!!!!!!!!!!!!!!!!!!!!!!!!!!!!!!!!%!#!!!.!.!B!C!C!>!%!&!)!&!%!#!-!#!.!.!.!!!!!!!!!!!!!!!!!!!!!!!!!!!!!!!!!!!!!!!!!!!!!!!!!!!!!!!!!!!!!!!!!!!!!!!!!!!!!!!!!!!!!!!!!%!#!!!!!!!!!-!.!.!#!-!-!-!#!.!.!-!!!!!!!!!!!!!!!!!!!!!!!!!!!!!!!!!!!!!!!!!!!!!!!!!!!!!!!!!!!!!!!!!!!!!!!!!!!!!!!!!!!!!!!!!!!!!!!!!!!!!!!!!!!!!!!!!!!D!!!!!E!!!!!!!!!!!!!!!!!!!!!!!!!!!!!!!!!!!!!!!!!!!!!!!!!!!!!!!!!!!!!!!!!!!!!!!!!!!!!!!!!!!!!!!!!!!!!!!!!!!!!!!:!A!A!F!F!F!8!6!6!6!=!=!=!G!5!9!H!1!1!!!!!!!!!!!!!!!!!!!!!!!!!!!!!!!!!!!!!!!!!!!!!!!!!!!!!!!!!!!!!!!!!!!!!!!!!!!!!!!!!!!!!<!A!A!F!A!A!1!!!!!!!1!9!9!1!!!!!2!6!1!1!!!!!!!!!!!!!!!!!!!!!!!!!!!!!!!!!!!!!!!!!!!!!!!!!!!!!!!!!!!!!!!!!!!!!!!!!!!!!!!!!!!!!!!!!!!!!!!!!!!!!!!!!!!!!!!!!!!!!!!!!!!!!!!!!!!!!!!!!!!!!!!!!!!!!!!!!!!!!!!!!!!!!!!!!!!!!!!!!!",
"!!!!!!!!!!!!!!!!!!!!!!!!!!!!!!!!!!!!!!!!!!!%!#!!!!!B!I!C!C!>!$!#!#!#!$!-!$!%!.!.!!!!!!!!!!!!!!!!!!!!!!!!!!!!!!!!!!!!!!!!!!!!!!!!!!!!!!!!!!!!!!!!!!!!!!!!!!!!!!!!!!!!!!!!!!!%!#!!!!!!!!!#!$!C!$!&!)!&!%!.!-!#!!!!!!!!!!!!!!!!!!!!!!!!!!!!!!!!!!!!!!!!!!!!!!!!!!!!!!!!!!!!!!!!!!!!!!!!!!!!!!!!!!!!!!!!!!!!!!!!!!!!!!!!!!!!!!!!!D!0!D!D!J!!!D!D!!!!!!!!!!!!!!!!!!!!!!!!!!!!!!!!!!!!!!!!!!!!!!!!!!!!!!!!!!!!!!!!!!!!!!!!!!!!!!!!!1!!!!!!!!!!!!!1!:!:!F!F!F!F!9!1!6!6!=!=!=!K!9!:!H!1!1!!!!!!!!!!!!!!!!!!!!!!!!!!!!!!!!!!!!!!!!!!!!!!!!!!!!!!!!!!!!!!!!!<!1!!!!!!!!!!!!!!!!!:!A!F!F!F!F!8!6!!!!!!!2!2!!!!!!!!!2!1!1!!!!!!!!!!!!!!!!!!!!!!!!!!!!!!!!!!!!!!!!!!!!!!!!!!!!!!!!!!!!!!!!!!!!!!!!!!!!!!!!!!!!!!!!!!!!!!!!!!!!!!!!!!!!!!!!!!!!!!!!!!!!!!!!!!!!!!!!!!!!!!!!!!!!!!!!!!!!!!!!!!!!!!!!!!!!!!!!!!",
"!!!!!!!!!!!!!!!!!!!!!!!!!!!!!!!!!!!!!!!!!#!#!B!L!B!I!M!B!>!#!#!.!.!.!#!$!&!#!#!#!#!#!#!#!#!!!!!!!!!!!!!!!!!!!!!!!!!!!!!!!!!!!!!!!!!!!!!!!!!!!!!!!!!!!!!!!!!!!!!!!!!!!!!!!!!N!O!!!!!!!!!%!%!C!.!.!.!.!?!C!$!%!!!!!!!!!!!!!!!!!!!!!!!!!!!!!!!!!!!!!!!!!!!!!!!!!!!!!!!!!!!!!!!!!!!!!!!!!!!!!!!!!!!!!!!!!!!!!!!!!!!!!!!!!!!!!!!D!0!3!D!D!D!D!D!D!-!!!!!!!!!!!!!!!!!!!!!!!!!!!!!!!!!!!!!!!!!!!!!!!!!!!!!!!!!!!!!!!!!!!!!!!!!!!!!1!:!1!!!!!1!1!1!1!:!9!F!F!F!G!G!1!P!6!=!=!=!K!9!:!1!1!1!!!!!!!!!!!!!!!!!!!!!!!!!!!!!!!!!!!!!!!!!!!!!!!!!!!!!!!!!!!!!<!:!A!:!:!<!<!!!!!!!!!!!2!:!A!F!F!Q!Q!:!!!!!!!!!!!!!!!!!2!1!1!1!!!!!!!!!!!!!!!!!!!!!!!!!!!!!!!!!!!!!!!!!!!!!!!!!!!!!!!!!!!!!!!!!!!!!!!!!!!!!!!!!!!!!!!!!!!!!!!!!!!!!!!!!!!!!!!!!!!!!!!!!!!!!!!!!!!!!!!!!!!!!!!!!!!!!!!!!!!!!!!!!!!!!!!!!!!!!!!!!!",
"!!!!!!!!!!!!!!!!!!!!!!!!!!!!!R!Q!Q!9!#!%!-!S!K!B!I!M!B!>!-!.!.!.!.!.!.!.!-!#!%!-!.!.!.!.!-!%!#!R!Q!Q!R!!!!!!!!!!!!!!!!!!!!!!!!!!!!!!!!!!!!!!!!!!!!!!!!!!!!!!!!!!!!!!!!!!!#!#!T!O!#!#!#!#!+!C!-!#!#!-!C!C!U!#!#!#!#!#!#!#!#!!!!!!!!!!!!!!!!!!!!!!!!!!!!!!!!!!!!!!!!!!!!!!!!!!!!!!!!!!!!!!!!!!!!!!!!!!!!!!!!!!!!!!!!!!!D!D!D!0!3!/!3!3!3!D!0!0!D!-!!!!!!!!!!!!!!!!!!!!!!!!!!!!!!!!!!!!!!!!!!!!!!!!!!!!!!!!!!!!!!!!!!!!!!!!!1!1!:!1!1!!!:!:!8!8!9!9!G!F!G!G!G!:!P!6!9!=!:!K!9!8!:!1!1!!!!!!!!!!!!!!!!!!!!!!!!!!!!!!!!!!!!!!!!!!!!!!!!!!!!!!!!!!!!!:!A!A!A!A!A!A!:!!!!!!!!!!!2!:!F!Q!G!Q!8!2!!!!!!!!!!!!!2!6!6!1!2!!!!!!!!!!!!!!!!!!!!!!!!!!!!!!!!!!!!!!!!!!!!!!!!!!!!!!!!!!!!!!!!!!!!!!!!!!!!!!!!!!!!!!!!!!!!!!!!!!!!!!!!!!!!!!!!!!!!!!!!!!!!!!!!!!!!!!!!!!!!!!!!!!!!!!!!!!!!!!!!!!!!!!!!!!!!!!!!!!",
"!!!!!!!!!!!!!!!!!!!!!!!!!!!!!V!W!W!Q!#!#!#!X!M!B!M!B!>!Y!.!.!.!-!#!-!.!.!.!-!-!#!#!#!#!#!#!#!Q!W!W!W!Q!Z!!!!!!!!!!!!!!!!!!!!!!!!!!!!!!!!!!!!!!!!!!!!!!!!!!!!!!!!!!!!!!!#!%!%!%!T!%!%!U!%!#!%!%!&!'!(!%!;!@!%!%!%!%!%!%!%!%!#!!!!!!!!!!!!!!!!!!!!!!!!!!!!!!!!!!!!!!!!!!!!!!!!!!!!!!!!!!!!!!!!!!!!!!!!!!!!!!!!!!!!![!6!A!8!6!3!3!/!/!/!/!3!0!0!D!#!!!!!!!!!!!!!!!!!!!!!!!!!!!!!!!!!!!!!!!!!!!!!!!!!!!!!!!!!!!!!!!!!!!!!!!!!1!1!:!1!1!:!8!=!=!=!K!=!G!G!G!G!5!8!1!:!9!G!5!5!5!9!8!:!1!2!!!!!!!!!!!!!1!1!1!!!!!!!!!!!!!!!!!!!!!!!!!!!!!!!!!!!!!!!!!:!A!A!A!F!]!]!A!:!1!!!!!!!!!1!Q!G!G!Q!:!2!!!!!!!!!!!2!6!6!6!!!!!!!!!!!!!!!!!!!!!!!2!2!2!2!2!!!!!!!!!!!!!!!!!!!!!!!!!!!!!!!!!!!!!!!!!!!!!!!!!!!!!!!!!!!!!!!!!!!!!!!!!!!!!!!!!!!!!!!!!!!!!!!!!!!!!!!!!!!!!!!!!!!!!!!!!!!!!!!!!!!!!!!!!!!!!!!!!!!!!!",
"!!!!!!!!!!!!!!!!!!!!!!!!!!!!!^!_!_!Z!#!S!X!M!B!M!B!>!Y!-!-!.!.!#!%!#!.!.!-!-!#!$!$!$!$!$!$!$!Z!_!_!W!9!R!!!!!!!!!!!!!!!!!!!!!!!!!!!!!!!!!!!!!!!!!!!!!!!!!!!!!R!Q!Q!9!#!%!-!.!.!.!`!-!%!#!-!U!%!&!'!(!@!E!-!#!%!-!.!.!.!.!-!%!#!R!Q!Q!9!!!!!!!!!!!!!!!!!!!!!!!!!!!!!!!!!!!!!!!!!!!!!!!!!!!!!!!!!!!!!!!!!!!!!!!!!!!D!6!F!a!9!/!/!/!/!/!4!/!0!b!D!D!-!!!!!!!!!!!!!!!!!!!!!!!!!!!!!!!!!!!!!!!!!!!!!!!!!!!!!!!!!!!!!!!!!!!!!!!!!!!!!1!:!8!9!=!=!5!5!5!5!G!G!G!G!Q!A!A!A!G!5!Z!G!5!Q!9!8!2!!!!!!!!!!!!!:!6!6!6!1!:!1!!!!!!!!!!!!!!!!!!!!!!!!!!!!!!!!!:!A!F!F!F!]!F!F!A!:!1!!!!!!!1!Q!Q!9!:!2!!!!!!!!!!!!!2!6!6!2!!!!!!!!!!!!!!!!!!!!!2!6!6!6!6!6!2!2!!!!!!!!!!!!!!!!!!!!!!!!!!!!!!!!!!!!!!!!!!!!!!!!!!!!!!!!!!!!!!!!!!!!!!!!!!!!!!!!!!!!!!!!!!!!!!!!!!!!!!!!!!!!!!!!!!!!!!!!!!!!!!!!!!!!!!!!!!!!!!!!!!",
"!!!!!!!!!!!!!!!!!!!!!!!!!!!!!^!_!_!Z!S!X!M!B!M!B!>!Y!$!#!#!-!-!-!#!-!-!-!#!#!$!%!%!%!%!%!%!$!Z!_!_!W!9!R!!!!!!!!!!!!!!!!!!!!!!!!!!!!!!!!!!!!!!!!!!!!!!!!!!!!!V!W!W!Q!#!#!#!#!#!#!#!c!-!U!.!;!D!D!#!c!.!.!.!-!-!#!#!#!#!#!#!#!#!V!W!W!Q!!!!!!!!!!!!!!!!!!!!!!!!!!!!!!!!!!!!!!!!!!!!!!!!!!!!!!!!!!!!!!!D!D!!!!!!!D!0!3!9!9!G!=!4!/!/!4!/!3!D!b!D!U!-!!!!!!!!!!!!!!!!!!!!!!!!!!!!!!!!!!!!!!!!!!!!!!!!!!!!!!!!!!!!!!!!!!!!!!!!!!!!!1!9!8!8!=!K!5!5!5!5!G!G!Z!Z!Z!F!F!F!Z!G!Z!Z!G!G!9!6!!!!!!!!!!!2!1!6!8!8!8!8!:!1!!!!!!!!!!!!!!!!!!!!!!!!!!!!!!!!!<!A!F!F!F!A!A!A!F!A!A!1!!!!!1!8!:!1!2!!!!!!!!!!!!!!!6!6!6!6!2!!!!!!!!!!!!!!!!!!!!!2!6!6!6!6!1!2!!!!!!!!!!!!!!!!!!!!!!!!!!!!!!!!!!!!!!!!!!!!!!!!!!!!!!!!!!!!!!!!!!!!!!!!!!!!!!!!!!!!!!!!!!!!!!!!!!!!!!!!!!!!!!!!!!!!!!!!!!!!!!!!!!!!!!!!!!!!!!!!!!",
"!!!!!!!!!!!!!!!!!!!!!!!!!!!!!V!W!W!Q!X!M!B!M!B!>!d!-!&!&!&!&!&!&!&!&!&!&!&!&!&!K!e!e!K!&!%!$!Q!W!W!W!Q!R!!!!!!!!!!!!!!!!!!!!!!!!!!!!!!!!!!!!!!!!!!!!!!!!!!!!!^!_!_!Z!#!$!$!$!$!$!$!$!#!-!-!D!3!D!0!D!D!.!-!-!#!$!$!$!$!$!$!$!#!^!_!_!Z!!!!!!!!!!!!!!!!!!!!!!!!!!!!!!!!!!!!!!!!!!!!!!!!!!!!!!!!!!!!!D!6!D!!!0!0!0!3!/!=!Q!=!=!=!=!/!3!3!3!0!D!D!f!-!!!D!D!!!!!!!!!!!!!!!!!!!!!!!!!!!!!!!!!!!!!!!!!!!!!!!!!!!!!!!!!!!!!!!!!1!1!!!:!6!6!6!8!=!G!G!G!G!Z!Z!Z!W!Z!Z!Z!Z!W!Z!Z!Z!Q!9!6!2!!!!!!!!!2!6!6!8!9!9!9!9!A!:!1!!!!!!!!!!!!!!!!!!!!!!!!!!!!!!!!!:!A!F!A!:!:!A!A!F!A!:!!!!!!!2!!!!!!!1!<!1!!!!!!!!!6!6!8!6!6!2!!!!!!!!!!!1!1!!!!!!!1!8!9!8!:!1!!!!!!!!!!!!!!!!!!!!!!!!!!!!!!!!!!!!!!!!!!!!!!!!!!!!!!!!!!!!!!!!!!!!!!!!!!!!!!!!!!!!!!!!!!!!!!!!!!!!!!!!!!!!!!!!!!!!!!!!!!!!!!!!!!!!!!!!!!!!!!!!!!",
"!!!!!!!!!!!!!!!!!!!!!!!!!!!!!Z!Q!Q!8!-!B!M!B!>!d!$!6!*!*!*!*!*!*!*!*!*!*!*!*!*!*!+!+!+!+!&!#!8!Q!Q!Z!R!Z!!!!!!!!!!!!!!!!!!!!!!!!!!!!!!!!!!!!!!!!!!!!!!!!!!!!!^!_!_!Z!#!$!%!%!%!%!%!U!$!#!8!3!/!/!/!3!0!D!#!#!$!%!%!%!%!%!%!$!#!^!_!_!Z!!!!!!!!!!!!!!!!!!!!!!!!!!!!!!!!!!!!!!!!!!!!!!!!!!!!!!!!!!!!!D!6!D!D!/!4!4!4!/!=!=!=!4!=!=!=!4!4!4!3!0!0!D!D!D!0!D!D!D!D!!!!!!!!!!!!!!!!!!!!!!!!!!!!!!!!!!!!!!!!!!!!!!!!!!!!!!!!!!!!!1!6!6!6!6!6!6!9!Q!Z!R!Z!Z!Z!W!Z!Z!Z!W!W!W!Z!Z!Q!A!8!6!!!!!!!!!2!6!8!9!9!9!9!G!Q!9!A!1!1!1!!!!!!!!!!!!!!!!!!!!!!!!!!!!!1!A!A!:!1!2!:!A!A!A!:!!!!!!!!!!!!!<!A!A!:!!!!!!!!!!!8!6!6!6!2!!!!!!!!!:!:!:!!!!!!!:!F!F!F!A!:!1!!!!!!!!!!!!!!!!!!!!!!!!!!!!!!!!!!!!!!!!!!!!!!!!!!!!!!!!!!!!!!!!!!!!!!!!!!!!!!!!!!!!!!!!!!!!!!!!!!!!!!!!!!!!!!!!!!!!!!!!!!!!!!!!!!!!!!!!!!!!!!!!",
"!!!!!!!!!!!!!!!!!!!!!!!!!!!!!6!8!8!g!#!%!B!>!d!#!%!(!(!7!'!h!'!7!(!(!(!(!(!(!(!(!(!(!+!&!%!#!-!g!8!8!R!!!!!!!!!!!!!!!!!!!!!!!!!!!!!!!!!!!!!!!!!!!!!!!!!!!!!!!V!W!W!Q!#!$!%!&!&!&!&!&!0!9!Q!=!/!/!4!/!D!D!&!&!&!K!e!e!K!&!%!$!#!V!W!W!Q!!!!!!!!!!!!!!!!!!!!!!!!!!!!!!!!!!!!!!!!!!!!!!!!!!!!!!!!!!!!!!!!!D!3!0!3!4!4!4!4!=!=!=!=!G!R!=!=!G!/!3!=!G!/!D!3!0!0!3!3!3!3!D!!!!!!!!!!!!!!!!!!!!!!!!!!!!!!!!!!!!!!!!!!!!!!!!!!!!!!!2!6!6!6!6!6!6!A!F!F!F!A!F!F!W!W!Z!Z!W!W!Z!Z!Z!A!:!2!!!!!!!!!O!6!6!9!G!G!9!9!K!G!=!9!:!1!1!!!!!!!!!!!!!!!!!!!!!!!!!!!!!!!:!A!<!!!!!!!<!:!:!<!!!!!!!!!!!1!A!A!A!A!<!!!!!!!!!2!6!2!2!!!!!!!!!1!:!A!<!!!!!<!A!F!]!]!F!A!1!2!!!!!!!!!!!!!!!!!!!!!!!!!!!!!!!!!!!!!!!!!!!!!!!!!!!!!!!!!!!!!!!!!!!!!!!!!!!!!!!!!!!!!!!!!!!!!!!!!!!!!!!!!!!!!!!!!!!!!!!!!!!!!!!!!!!!!!!!!!!!!!",
"!!!!!!!!!!!!!!!!!!!!!!!!!!!!!.!$!#!.!-!$!%!+!&!%!$!+!+!+!+!&!%!%!$!#!#!$!%!&!+!+!+!+!+!&!%!-!$!+!#!#!-!!!!!!!!!!!!!!!!!!!!!!!!!!!!!!!!!!!!!!!!!!!!!!!!!!!!!!!Z!Q!Q!8!#!-!#!D!6!D!0!0!3!=!=!=!=!/!3!3!D!D!*!D!D!+!+!+!+!&!%!%!#!Z!Q!Q!8!!!!!!!!!!!!!!!!!!!!!!!!!!!!!!!!!!!!!!!!!!!!!!!!!!!!!!!!!!!!!D!!!0!4!/!4!=!=!=!=!G!i!j!k!j!j!i!R!G!G!G!=!=!/!4!/!D!0!4!=!/!0!D!D!!!!!!!!!!!!!!!!!!!!!!!!!!!!!!!!!!!!!!!!!!!!!!!!!!!!!!!2!2!2!2!2!2!1!A!A!A!<!A!F!j!l!W!W!k!W!Z!Z!F!A!1!!!!!!!!!N!1!A!Q!Q!G!G!G!G!Z!G!=!9!:!1!1!!!!!!!!!!!!!!!!!!!!!!!!!!!!!!!1!<!1!!!!!!!!!!!!!!!!!!!!!!!!!:!A!F!F!A!:!1!!!!!!!!!!!!!!!!!!!!!!!1!:!:!<!!!!!!!<!:!F!]!F!A!1!!!!!!!!!!!!!!!!!!!!!!!!!!!!!!!!!!!!!!!!!!!!!!!!!!!!!!!!!!!!!!!!!!!!!!!!!!!!!!!!!!!!!!!!!!!!!!!!!!!!!!!!!!!!!!!!!!!!!!!!!!!!!!!!!!!!!!!!!!!!!!!!",
"!!!!!!!!!!!!!!!!!!!!!!!!!!!!!#!&!$!-!#!%!+!#!#!#!&!&!&!&!&!&!%!$!#!-!-!#!$!%!&!&!&!&!&!%!$!-!$!+!#!$!-!!!!!!!!!!!!!!!!!!!!!!!!!!!!!!!!!!!!!!!!!!!!!!!!!!!!!!!9!#!-!6!-!-!#!$!D!D!3!/!4!=!=!=!=!G!4!=!3!/!3!D!0!D!D!0!&!%!$!#!-!8!#!-!6!!!!!!!!!!!!!!!!!!!!!!!!!!!!!!!!!!!!!!!!!!!!!!!!!!!!!!!!!!!R!Q!/!3!/!4!=!=!G!G!G!R!j!i!i!j!j!i!R!G!G!G!G!G!=!G!=!3!3!0!0!3!3!0!D!D!9!!!!!!!!!!!!!!!!!!!!!!!!!!!!!!!!!!!!!!!!!!!!!!!!!!!!!!!!!!!!!N!P!:!:!:!2!:!m!l!l!l!l!k!W!Z!F!A!:!!!!!!!!!1!1!A!F!Z!Z!Z!Z!G!G!G!G!=!9!8!1!1!!!!!!!!!!!!!!!!!!!!!!!!!!!!!!!!!!!!!!!!!!!!!!!!!!!!!!!!!!!!!<!A!F!F!A!A!A!<!!!!!!!!!!!!!!!!!!!!!!!!!<!!!!!!!!!!!!!:!A!A!1!!!!!!!!!!!!!!!!!!!!!!!!!!!!!!!!!!!!!!!!!!!!!!!!!!!!!!!!!!!!!!!!!!!!!!!!!!!!!!!!!!!!!!!!!!!!!!!!!!!!!!!!!!!!!!!!!!!!!!!!!!!!!!!!!!!!!!!!!!!!!!!!!!",
"!!!!!!!!!!!!!!!!!!!!!!!!!!!!!#!#!-!#!%!+!#!#!$!%!%!%!%!%!%!%!$!#!-!-!-!-!#!$!%!%!%!%!%!%!$!-!$!+!#!#!-!!!!!!!!!!!!!!!!!!!!!!!!!!!!!!!!!!!!!!!!!!!!!!!!!!!!!!!.!$!#!.!.!-!3!$!D!3!/!=!=!=!G!i!i!i!G!G!=!=!4!/!3!3!3!/!D!$!#!#!.!.!$!#!.!!!!!!!!!!!!!!!!!!!!!!!!!!!!!!!!!!!!!!!!!!!!!!!!!!!!!!!!!!!V!W!3!3!/!=!=!G!i!i!j!j!k!k!i!j!j!i!G!G!R!G!=!G!G!=!G!=!=!/!4!=!3!3!D!D!Q!!!!!!!!!!!!!!!!!!!!!!!!!!!!!!!!!!!!!!!!!!!!!!!!!!!!!2!2!2!2!P!c!1!:!:!A!F!n!l!l!l!l!l!k!]!A!:!!!!!!!!!A!A!A!Q!Z!i!Z!Z!Z!Z!G!G!K!9!9!8!:!1!1!!!!!!!!!!!!!!!!!!!!!!!!!!!!!!!!!!!!!!!!!!!!!!!!!!!!!!!!!!!1!:!A!a!o!A!A!A!:!1!!!!!!!!!!!!!!!!!!!!!!!!!!!!!!!!!!!!!<!1!!!!!!!!!!!!!!!!!!!!!!!!!!!!!!!!!!!!!!!!!!!!!!!!!!!!!!!!!!!!!!!!!!!!!!!!!!!!!!!!!!!!!!!!!!!!!!!!!!!!!!!!!!!!!!!!!!!!!!!!!!!!!!!!!!!!!!!!!!!!!!!!!!!!",
"!!!!!!!!!!!!!!!!!!!!!!!!!!!$!$!-!#!%!+!#!.!-!#!$!$!$!$!$!$!$!#!-!.!?!?!.!-!#!$!$!$!$!$!$!#!#!$!&!$!&!#!!!!!!!!!!!!!!!!!!!!!!!!!!!!!!!!!!!!!!!!!!!!!!!!!!!!!!!#!&!$!-!.!-!-!3!3!3!=!G!i!i!j!j!j!j!R!G!G!G!G!G!=!/!3!/!0!D!-!-!.!#!&!$!-!!!!!!!!!!!!!!!!!!!!!!!!!!!!!!!!!!!!!!!!!!!!!!!!!!!!!!!!!!!^!_!3!3!/!=!G!R!i!j!j!p!p!p!k!k!j!i!i!i!i!i!G!R!G!R!G!G!G!=!=!4!/!3!3!D!Z!D!!!!!!!!!!!!!!!!!!!!!!!!!!!!!!!!!!!!!!!!!!!!!1!!!6!6!6!6!6!2!J!1!A!A!F!m!k!k!l!l!l!l!k!]!A!1!!!!!!!<!A!F!Z!Z!Z!Q!Q!F!F!R!G!G!9!9!9!8!:!1!1!!!!!!!!!!!!!!!!!!!!!!!!!!!!!!!!!!!!!!!!!!!!!!!!!!!!!!!!!!!!!1!:!o!o!A!A!A!:!1!!!!!!!!!!!!!!!!!!!!!!!!!!!!!!!!!!!!!!!!!!!!!!!!!2!!!!!!!!!!!!!!!!!!!!!!!!!!!!!!!!!!!!!!!!!!!!!!!!!!!!!!!!!!!!!!!!!!!!!!!!!!!!!!!!!!!!!!!!!!!!!!!!!!!!!!!!!!!!!!!!!!!!!!!!!!!!!!!!!!!!!!!!!!",
"!!!!!!!!!!!!!!!!!!!!!!!!!!!&!&!#!%!+!#!!!!!.!-!-!-!-!-!-!-!-!-!.!?!#!-!?!.!-!-!-!-!-!-!-!-!#!$!%!&!'!$!!!!!!!!!!!!!!!!!!!!!!!!!!!!!!!!!!!!!!!!!!!!!!!!!!!!!!!#!&!$!-!P!.!.!-!0!3!=!G!i!j!p!p!k!j!i!i!i!R!G!G!G!G!=!4!3!0!.!.!P!#!&!$!-!!!!!!!!!!!!!!!!!!!!!!!!!!!!!!!!!!!!!!!!!!!!!!!!!!!!!!!!!!!V!D!0!3!/!=!G!i!j!j!k!p!p!p!p!p!k!j!j!j!j!i!i!i!R!R!R!R!R!G!=!4!3!3!3!D!D!D!!!!!!!!!!!!!!!!!!!!!!!!!!!!!!!!!!!!!!!1!1!1!8!6!8!=!=!8!6!6!P!J!A!F!Z!j!j!k!l!l!l!l!k!]!A!<!!!!!1!:!A!F!Z!Z!F!A!:!:!A!Q!G!G!9!9!9!8!:!1!!!!!!!!!!!!!!!!!!!!!!!!!!!!!!!!!!!!!!!!!!!!!!!!!!!!!!!!!!!!!!!!!1!:!:!:!:!:!<!2!!!!!!!!!!!!!!!!!!!!!!!!!!!!!!!!!!!<!<!<!<!1!1!1!!!!!!!!!!!!!!!!!!!!!!!!!!!!!!!!!!!!!!!!!!!!!!!!!!!!!!!!!!!!!!!!!!!!!!!!!!!!!!!!!!!!!!!!!!!!!!!!!!!!!!!!!!!!!!!!!!!!!!!!!!!!!!!!!!!!!!!!!!!!",
"!!!!!!!!!!!!!!!!!!!!!!!!!!!)!)!#!+!#!%!!!!!!!.!.!.!.!.!.!.!.!.!?!.!.!?!-!?!.!.!.!.!.!.!.!$!$!$!$!$!,!%!!!!!!!!!!!!!!!!!!!!!!!!!!!!!!!!!!!!!!!!!!!!!!!!!!!!!$!$!&!$!3!#!P!P!D!0!/!=!G!j!k!k!p!p!k!k!j!j!j!j!G!R!R!=!3!3!0!D!!!$!$!&!$!#!#!!!!!!!!!!!!!!!!!!!!!!!!!!!!!!!!!!!!!!!!!!!!!!!!!!!!!!!D!D!0!0!3!3!=!=!G!j!j!j!k!k!p!p!p!p!p!k!j!j!j!j!j!j!G!i!i!i!G!=!/!3!3!3!D!D!D!!!!!!!!!!!!!!!!!!!!!!!!!!!!!!!!!!!!!!!1!1!8!8!9!9!=!=!8!6!6!2!P!:!F!Z!Z!j!k!p!l!l!l!q!m!A!:!:!:!A!A!F!Z!Z!F!A!:!:!:!A!Z!Z!Z!K!=!9!8!:!1!!!!!!!!!!!!!!!!!!!!!!!!!!!!!!!!!!!!!!!!!!!!!!!!!!!!!!!!!!!!!!!!!!!!!!!!!!!!!!!!!!!!!!!!!!!!!!!!!!!!!!!!!!!!!!!2!:!A!F!F!A!A!:!1!!!!!!!!!!!!!!!!!!!!!!!!!!!!!!!!!!!!!!!!!!!!!!!!!!!!!!!!!!!!!!!!!!!!!!!!!!!!!!!!!!!!!!!!!!!!!!!!!!!!!!!!!!!!!!!!!!!!!!!!!!!!!!!!!!!!!!!!!!!!",
"!!!!!!!!!!!!!!!!!!!!!!!!!!!$!$!#!#!.!#!!!!!!!!!!!.!.!.!.!.!.!-!#!%!$!#!-!.!.!.!.!.!.!.!.!#!-!#!#!#!)!$!!!!!!!!!!!!!!!!!!!!!!!!!!!!!!!!!!!!!!!!!!!!!!!!!!!!!&!&!%!$!D!3!P!D!0!3!/!=!=!G!j!k!p!p!p!p!k!k!j!j!i!j!i!G!/!3!0!!!!!&!&!%!$!$!$!!!!!!!!!!!!!!!!!!!!!!!!!!!!!!!!!!!!!!!!!!!!!!!!!!!!!!!D!D!/!3!/!/!=!=!G!G!i!j!k!k!p!p!p!p!p!p!k!k!k!j!j!j!i!j!j!j!i!G!4!/!3!0!0!g!D!!!!!!!!!!!!!!!!!!!!!!!!!!!!!!!!!!!!!1!1!1!1!8!8!8!8!8!6!6!6!2!P!:!F!F!F!F!r!l!l!l!l!q!n!m!m!m!F!F!F!]!Z!Z!F!A!A!A!A!Q!Z!Z!Z!K!G!=!9!:!1!!!!!!!!!!!!!!!!!!!!!!!!!!!!!!!!!!!!!!!!!!!!!!!!!!!!!!!!!!!!!!!!!!!!!!!!!!!!!!!!!!!!!!!!!!!!!!!!!!!!!!!!!!!!!!!!!1!A!F!F!F!A!:!1!!!!!!!!!!!!!!!!!!!!!!!!!!!!!!!!!!!!!!!!!!!!!!!!!!!!!!!!!!!!!!!!!!!!!!!!!!!!!!!!!!!!!!!!!!!!!!!!!!!!!!!!!!!!!!!!!!!!!!!!!!!!!!!!!!!!!!!!!!!!",
"!!!!!!!!!!!!!!!!!!!!!!!!!!!-!-!)!%!.!-!!!!!!!!!!!!!!!#!%!-!.!.!-!#!-!.!.!.!#!&!-!P!P!P!P!-!#!%!+!#!%!#!!!!!!!!!!!!!!!!!!!!!!!!!!!!!!!!!!!!!!!!!!!!!!!!!!!!!)!)!%!%!%!D!3!D!0!3!/!=!=!G!j!j!k!p!k!k!k!j!j!j!i!j!R!G!4!4!D!D!!!)!)!%!%!%!%!!!!!!!!!!!!!!!!!!!!!!!!!!!!!!!!!!!!!!!!!!!!!!!!!!!!!D!D!b!4!3!/!/!=!=!=!G!G!i!k!k!p!p!p!p!p!p!p!k!k!k!j!j!j!k!k!j!j!R!=!4!/!0!0!!!!!!!!!!!!!!!!!!!!!!!!!!!!!!!!!!!!!H!2!6!6!6!H!1!6!6!6!6!6!6!2!P!P!A!F!F!A!1!A!n!l!l!l!k!k!k!j!j!Z!F!A!F!F!F!F!A!A!F!F!Z!i!Z!G!G!G!G!9!A!1!2!!!!!!!!!!!!!!!!!!!!!!!!!!!!!!!!!!!!!!!!!!!!!!!!!!!!!!!!!!!!!!!!!!!!!!!!!!!!!!!!!!!!!!!!!!!!!!!!!!!!!!!!!!!!!!!!!1!A!A!A!A!:!1!!!!!!!!!!!!!!!!!!!!!!!!!!!!!!!!!!!!!!!!!!!!!!!!!!!!!!!!!!!!!!!!!!!!!!!!!!!!!!!!!!!!!!!!!!!!!!!!!!!!!!!!!!!!!!!!!!!!!!!!!!!!!!!!!!!!!!!!!!!!",
"!!!!!!!!!!!!!!!!!!!!!!!!!!!!!.!$!#!.!!!!!!!!!!!!!!!!!#!&!-!P!$!)!h!)!%!-!P!#!+!-!P!P!P!-!#!%!+!#!.!.!!!!!!!!!!!!!!!!!!!!!!!!!!!!!!!!!!!!!!!!!!!!!!!!!!!!!!!$!$!#!#!#!D!b!3!3!/!=!=!G!G!i!j!j!k!j!i!i!G!G!G!G!G!G!G!/!3!3!D!!!$!$!#!#!#!#!!!!!!!!!!!!!!!!!!!!!!!!!!!!!!!!!!!!!!!!!!!!!!!!!D!D!0!D!D!3!/!3!4!=!=!=!G!i!j!j!j!k!p!p!k!k!k!k!j!j!j!j!j!j!j!j!i!G!G!=!4!4!3!b!D!!!!!!!!!!!!!!!!!!!!!!!!!!!!!!!!!D!H!6!6!6!6!:!P!P!2!2!2!2!2!P!P!:!A!F!A!:!1!A!j!k!k!k!W!W!W!W!Z!Z!A!:!:!:!A!A!A!A!F!Z!i!i!Z!G!K!G!G!9!A!:!1!!!!!!!!!!!!!!!!!!!!!!!!!!!!!!!!!!!!!!!!!!!!!!!!!!!!!!!!!!!!!!!!!!!!!!!!!!!!!!!!!!!!!!!!!!!!!!!!!!!!!!!!!!!!!!!!!2!8!9!9!8!:!1!!!!!!!!!!!!!!!!!!!!!!!!!!!!!!!!!!!!!!!!!!!!!!!!!!!!!!!!!!!!!!!!!!!!!!!!!!!!!!!!!!!!!!!!!!!!!!!!!!!!!!!!!!!!!!!!!!!!!!!!!!!!!!!!!!!!!!!!!!!!",
"!!!!!!!!!!!!!!!!!!!!!!!!!!!!!!!!!!!!!!!!!!!!!!!!!!!!!#!+!-!.!.!-!#!-!.!.!.!#!S!X!-!#!-!#!%!+!#!!!!!!!!!!!!!!!!!!!!!!!!!!!!!!!!!!!!!!!!!!!!!!!!!!!!!!!!!!!!!-!-!#!-!-!-!D!D!0!3!/!4!=!G!R!i!j!j!j!i!G!=!4!4!=!=!=!=!/!3!D!!!!!-!-!#!-!-!-!!!!!!!!!!!!!!!!!!!!!!!!!!!!!!!!!!!!!!!!!!!!!!!D!0!0!D!3!0!3!/!=!=!G!G!G!G!G!i!j!j!k!k!k!j!j!j!i!R!R!R!R!R!R!G!G!G!G!G!4!/!/!3!0!D!!!!!!!!!!!!!!!!!!!!!!!!!!!!!!!!!0!6!6!6!6!6!6!6!6!6!P!P!P!P!P!1!A!F!F!A!A!-!A!Z!k!k!k!W!W!W!Z!Z!Q!:!1!#!2!1!:!:!A!9!Q!Z!Z!Z!G!K!=!Q!9!8!8!1!!!!!!!!!!!!!!!!!!!!!!!!!!!!!!!!!!!!!!!!!!!!!!!!!!!!!!!!!!!!!!!!!!!!!!!!!!!!!!!!!!!!!!!!!!!!!!!!!!!!!!!!!!!!!!!!!2!6!8!8!6!8!1!!!!!!!!!!!!!!!!!!!!!!!!!!!!!!!!!!!!!!!!!!!!!!!!!!!!!!!!!!!!!!!!!!!!!!!!!!!!!!!!!!!!!!!!!!!!!!!!!!!!!!!!!!!!!!!!!!!!!!!!!!!!!!!!!!!!!!!!!!!!",
"!!!!!!!!!!!!!!!!!!!!!!!!!!!!!!!!!!!!!!!!!!!!!!!!!!!!!#!%!-!.!.!$!&!-!.!.!.!S!X!M!B!%!$!%!+!#!!!!!!!!!!!!!!!!!!!!!!!!!!!!!!!!!!!!!!!!!!!!!!!!!!!!!!!!!!!!!!!!!.!$!#!.!!!D!D!D!0!D!3!/!=!=!R!i!j!j!R!G!=!4!4!4!/!3!3!0!D!!!!!!!!!.!$!#!.!!!!!!!!!!!!!!!!!!!!!!!!!!!!!!!!!!!!!!!!!!!!!!!!!3!3!b!b!D!3!3!/!=!=!=!=!G!R!i!G!i!j!j!k!k!j!i!i!G!=!=!=!=!=!=!=!=!G!G!G!4!3!0!D!/!D!!!!!!!!!!!!!!!!!!!!!!!!!!!!!!!!!/!6!6!6!6!6!6!6!6!6!6!8!8!9!Q!:!A!A!F!A!A!A!F!Z!k!k!k!W!W!Z!Z!Q!8!1!$!$!#!6!8!8!9!Q!Q!Z!Z!Z!G!G!=!9!8!6!6!2!!!!!!!!!!!!!!!!!!!!!!!!!!!!!!!!!!!!!!!!!!!!!!!!!!!!!!!!!!!!!!!!!!!!!!!!!!!!!!!!!!!!!O!!!!!!!!!2!2!2!2!!!!!!!!!!!!!2!6!6!6!6!2!!!!!!!!!!!!!!!!!!!!!!!!!!!!!!!!!!!!!!!!!!!!!!!!!!!!!!!!!!!!!!!!!!!!!!!!!!!!!!!!!!!!!!!!!!!!!!!!!!!!!!!!!!!!!!!!!!!!!!!!!!!!!!!!!!!!!!!!!!!!",
"!!!!!!!!!!!!!!!!!!!!!!!!!!!!!!!!!!!!!!!!!!!!!!!Q!9!9!9!6!#!.!#!+!s!+!#!#!.!X!M!B!M!B!%!+!#!!!!!!!!!!!!!!!!!!!!!!!!!!!!!!!!!!!!!!!!!!!!!!!!!!!!!!!!!!!!!!!!!!!#!&!$!-!!!!!!!D!0!D!D!3!4!=!G!G!j!i!G!=!/!4!/!/!3!D!D!D!D!!!!!!!!!#!&!$!-!!!!!!!!!!!!!!!!!!!!!!!!!!!!!!!!!!!!!!!!!!!!!!!!!!!!!D!0!D!0!0!3!3!/!4!=!=!G!G!R!i!i!j!j!j!j!i!R!G!=!4!4!4!4!=!=!=!=!=!=!/!/!/!D!!!!!!!!!!!!!!!!!!!!!!!!!!!!!!!!!!!!!!!H!6!6!8!6!6!6!6!6!8!9!9!9!8!1!1!:!A!A!A!A!F!Z!W!W!W!W!W!Z!Z!A!1!$!%!%!%!1!8!9!G!G!G!G!G!G!G!Q!9!8!6!6!2!!!!!!!!!!!!!!!!!!!!!!!!!!!!!!!!!!!!!!!!!!!!!!!!!!!!!!!!!!!!!!!!!!!!!!!!!!!!!O!!!!!!!E!!!!!!!!!2!6!6!6!6!2!!!2!2!6!2!P!2!2!2!2!!!!!!!!!!!!!!!!!!!!!!!!!!!!!!!!!!!!!!!!!!!!!!!!!!!!!!!!!!!!!!!!!!!!!!!!!!!!!!!!!!!!!!!!!!!!!!!!!!!!!!!!!!!!!!!!!!!!!!!!!!!!!!!!!!!!!!!!!!!!!!",
"!!!!!!!!!!!!!!!!!!!!!!!!!!!!!!!!!!!!!!!!!!!!!!!W!R!R!R!8!$!#!-!$!&!-!.!S!X!M!B!M!B!>!+!#!!!!!!!!!!!!!!!!!!!!!!!!!!!!!!!!!!!!!!!!!!!!!!!!!!!!!!!!!!!!!!!!!!!!!#!&!$!-!!!!!!!!!D!D!D!D!0!4!G!G!G!=!D!0!3!3!0!0!0!0!W!9!!!!!!!!!!!#!&!$!-!!!!!!!!!!!!!!!!!!!!!!!!!!!!!!!!!!!!!!!!!!!!!!!!!!!!!D!0!0!b!b!D!0!0!3!3!4!=!=!G!R!i!j!j!j!j!i!R!G!G!=!G!4!4!4!4!4!4!/!/!3!D!D!!!!!!!!!!!!!!!!!!!!!!!!!!!!!!!!!!!!!!!!!!!2!6!6!9!6!1!1!1!:!A!6!6!6!*!+!*!+!<!A!F!Z!W!W!W!W!W!Z!Z!F!:!%!&!&!+!2!8!9!G!G!G!G!G!K!=!=!9!8!6!!!!!!!!!!!!!!!!!!!!!!!!!!!!!!!!!!!!!!!!!!!!!!!!!!!!!!!!!!!!!!!!!!!!!!!!!!!!!!!!!!!E!!!!!f!!!!!!!!!2!6!6!8!9!8!:!1!6!6!6!6!2!!!!!!!!!!!!!!!!!!!!!!!!!!!!!!!!!!!!!!!!!!!!!!!!!!!!!!!!!!!!!!!!!!!!!!!!!!!!!!!!!!!!!!!!!!!!!!!!!!!!!!!!!!!!!!!!!!!!!!!!!!!!!!!!!!!!!!!!!!!!!!!!!!!!!!",
"!!!!!!!!!!!!!!!!!!!!!!!!!!!!!!!!!!!!!!!!!!!!!!!V!W!W!W!9!&!$!#!-!$!#!B!K!M!B!M!B!>!d!&!#!!!!!!!!!!!!!!!!!!!!!!!!!!!!!!!!!!!!!!!!!!!!!!!!!!!!!!!!!!!!!!!!!!!!!#!&!$!-!!!!!!!!!D!0!D!b!D!4!4!4!4!4!3!/!3!D!$!D!D!_!_!Q!!!!!!!!!!!#!&!$!-!!!!!!!!!!!!!!!!!!!!!!!!!!!!!!!!!!!!!!!!!!!!!!!!!!!!!D!D!D!D!D!/!0!D!3!/!4!=!=!=!G!G!R!j!j!j!R!R!G!G!=!4!4!4!4!4!0!0!3!3!3!D!D!!!!!!!!!!!!!!!!!!!!!!!!!!!!!!!!!!!!!!!!!!!!!2!6!6!H!H!1!:!:!1!6!6!&!+!(!)!)!'!:!F!Z!W!W!W!W!W!Z!Z!A!1!&!)!'!6!8!9!G!G!G!G!=!=!=!=!=!:!1!1!!!!!!!!!!!!!!!!!!!!!!!!!!!!!!!!!!!!!!!!!!!!!!!!!!!!!!!!!!!!!!!!!!!!!E!!!!!!!E!!!!!!!!!!!!!!!!!!!2!6!6!9!9!9!F!F!A!8!8!6!6!2!!!!!!!!!!!!!!!!!!!!!!!!!!!!!!!!!!!!!!!!!!!!!!!!!!!!!!!!!!!!!!!!!!!!!!!!!!!!!!!!!!!!!!!!!!!!!!!!!!!!!!!!!!!!!!!!!!!!!!!!!!!!!!!!!!!!!!!!!!!!!!!!!!!!!!",
"!!!!!!!!!!!!!!!!!!!!!!!!!!!!!!!!!!!!!!!!!!!!!!!^!_!_!_!Q!)!&!&!&!&!&!L!B!B!M!B!>!d!#!%!#!!!!!!!!!!!!!!!!!!!!!!!!!!!!!!!!!!!!!!!!!!!!!!!!!!!!!!!!!!!!!!!!!!!!!#!&!$!-!!!!!!!!!V!W!W!0!0!/!/!4!3!3!0!3!0!$!#!t!Q!$!#!9!!!!!!!!!!!#!&!$!-!!!!!!!!!!!!!!!!!!!!!!!!!!!!!!!!!!!!!!!!!!!!!!!!!!!!!!!!!!!!!D!3!0!D!D!3!/!4!4!=!G!=!i!j!j!i!G!G!=!/!/!/!4!/!/!3!3!0!D!D!D!D!D!!!!!!!!!!!!!!!!!!!!!!!!!!!!!!!!!!!!!!!!!!!!!!!2!6!6!:!9!G!:!1!6!2!%!&!+!7!'!h!1!F!Z!Z!W!W!W!Z!i!Z!A!1!2!2!6!8!9!G!G!G!G!Q!9!9!9!9!8!:!1!1!!!!!!!!!!!!!!!!!!!!!!!!!!!!!!!!!<!:!1!!!!!!!!!!!!!!!!!!!!!!!!!!!!!!!!!#!-!-!-!-!$!$!-!-!-!#!!!2!6!6!9!9!Q!F!]!]!Q!=!=!8!6!2!!!!!!!!!!!!!!!!!!!!!!!!!!!!!!!!!!!!!!!!!!!!!!!!!!!!!!!!!!!!!!!!!!!!!!!!!!!!!!!!!!!!!!!!!!!!!!!!!!!!!!!!!!!!!!!!!!!!!!!!!!!!!!!!!!!!!!!!!!!!!!!!!!!!!!",
"!!!!!!!!!!!!!!!!!!!!!!!!!!!!!!!!!!!!!!!!!!!!!!!V!W!W!W!9!&!$!$!$!$!$!B!I!M!B!>!d!$!%!$!!!!!!!!!!!!!!!!!!!!!!!!!!!!!!!!!!!!!!!!!!!!!!!!!!!!!!!!!!!!!!!!!!!!!!!#!&!$!-!!!!!!!!!W!9!-!#!D!0!0!0!D!0!3!D!#!#!-!8!#!-!-!6!!!!!!!!!!!#!&!$!-!!!!!!!!!!!!!!!!!!!!!!!!!!!!!!!!!!!!!!!!!!!!!!!!!!!!!!!!!!!!!D!D!D!D!D!D!0!3!/!=!G!G!G!R!G!G!0!D!0!3!3!3!3!3!3!0!3!3!D!P!#!&!-!!!!!!!!!!!!!!!!!!!!!!!!!!!!!!!!!!!!!!!!!!!!!!!!!2!2!1!1!9!:!1!2!-!#!%!&!%!#!-!:!Q!R!Z!W!W!Z!i!R!Q!A!2!6!6!6!9!Q!G!=!=!Q!9!9!6!6!6!6!1!1!1!!!!!!!!!!!!!!!!!!!!!!!!!!!!!!!:!:!A!:!1!!!!!!!!!!!!!!!!!!!!!!!!!!!!!-!-!c!&!&!$!%!%!+!+!$!-!-!2!6!9!Q!Q!]!]!u!]!Q!=!=!6!6!!!!!!!!!!!!!!!!!!!!!!!!!!!!!!!!!!!!!!!!!!!!!!!!!!!!!!!!!!!!!!!!!!!!!!!!!!!!!!!!!!!!!!!!!!!!!!!!!!!!!!!!!!!!!!!!!!!!!!!!!!!!!!!!!!!!!!!!!!!!!!!!!!!!!!!!",
"!!!!!!!!!!!!!!!!!!!!!!!!!!!!!!!!!!!!!!!!!!!!!!!W!9!-!#!8!#!#!#!#!#!B!I!M!B!>!Y!-!6!8!6!!!!!!!!!!!!!!!!!!!!!!!!!!!!!!!!!!!!!!!!!!!!!!!!!!!!!!!!!!!!!!!!!!!!!!!-!%!#!-!!!!!!!!!Q!-!$!#!-!-!D!D!0!D!0!0!D!-!.!#!#!-!.!g!!!!!!!!!!!-!%!#!-!!!!!!!!!!!!!!!!!!!!!!!!!!!!!!!!!!!!!!!!!!!!!!!!!!!!!!!!!!!!!D!D!D!0!D!D!D!D!0!4!=!G!=!G!G!=!0!0!3!3!3!0!D!0!D!D!0!D!P!P!-!%!#!-!!!!!!!!!!!!!!!!!!!!!!!!!!!!!!!!!!!!!!!!!!!!!!!!!!!!!1!1!1!1!2!.!#!$!%!#!.!.!A!Q!Z!Z!Z!Z!Z!Z!Q!9!8!6!6!6!8!9!Q!Q!9!9!9!9!8!6!6!6!1!1!1!!!!!!!!!!!!!!!!!!!!!!!!!!!!!!!!!:!A!A!A!A!1!!!!!!!!!!!!!!!!!-!-!-!#!#!c!c!-!-!.!.!-!.!.!-!2!-!f!2!6!9!Q!F!u!u!]!F!8!8!6!6!2!!!!!!!!!!!!!!!!!!!!!!!!!!!!!!!!!!!!!!!!!!!!!!!!!!!!!!!!!!!!!!!!!!!!!!!!!!!!!!!!!!!!!!!!!!!!!!!!!!!!!!!!!!!!!!!!!!!!!!!!!!!!!!!!!!!!!!!!!!!!!!!!!!!!!!!!",
"!!!!!!!!!!!!!!!!!!!!!!!!!!!!!!!!!!!!!!!!!!!!!!!Q!-!$!#!-!-!-!-!-!B!I!M!B!>!Y!-!$!#!-!g!!!!!!!!!!!!!!!!!!!!!!!!!!!!!!!!!!!!!!!!!!!!!!!!!!!!!!!!!!!!!!!!!!!!!-!#!Y!L!$!-!!!!!!!8!-!%!$!-!.!D!.!D!D!D!D!D!.!R!R!R!R!R!R!!!!!!!!!-!#!Y!L!$!-!!!!!!!!!!!!!!!!!!!!!!!!!!!!!!!!!!!!!!!!!!!!!!!!!!!!!!!!!-!$!D!D!0!D!D!b!D!0!4!4!=!4!4!4!4!/!/!/!3!3!D!V!D!D!D!D!P!P!-!#!#!#!$!-!!!!!!!!!!!!!!!!!!!!!!!!!!!!!!!!!!!!!!!!!!!!!!!!!!!!!2!1!2!.!.!#!$!-!-!.!8!Q!R!Z!Z!Z!Z!Z!G!G!Q!8!6!6!6!6!9!9!9!8!A!A!6!6!6!6!!!!!!!!!!!!!!!!!!!!!!!!!!!!!!!!!!!!!!!!!A!A!A!A!A!:!!!!!!!!!!!!!#!#!#!$!%!6!+!&!%!#!.!c!c!#!2!2!2!2!2!$!2!6!9!F!]!u!]!F!A!6!6!2!2!!!!!!!!!!!!!!!!!!!!!!!!!!!!!!!!!!!!!!!!!!!!!!!!!!!!!!!!!!!!!!!!!!!!!!!!!!!!!!!!!#!-!-!-!-!$!$!-!-!-!#!!!!!!!!!!!!!!!!!!!!!!!!!!!!!!!!!!!!!!!!!!!!!!!!!!!!",
"!!!!!!!!!!!!!!!!!!!!!!!!!!!!!!!!!!!!!!!!!!!!!!!!!#!%!$!-!!!!!!!>!C!C!B!>!Y!P!#!&!#!.!!!!!!!!!!!!!!!!!!!!!!!!!!!!!!!!!!!!!!!!!!!!!!!!!!!!!!!!!!!!!!!!!!!!!-!%!$!Y!B!+!$!-!!!!!!!#!&!$!-!!!!!!!D!!!!!!!!!!!t!V!_!V!t!t!!!!!!!-!%!$!Y!B!+!$!-!!!!!!!!!!!!!!!!!!!!!!!!!!!!!!!!!!!!!!!!!!!!!!!!!!!!!!!#!+!D!D!D!D!D!D!0!3!4!4!=!4!3!3!/!3!3!/!3!0!R!R!R!D!D!R!P!-!%!$!#!$!+!$!-!!!!!!!!!!!!!!!!!!!!!!!!!!!!!!!!!!!!!!!!!!!!!!!!!!!!!2!-!#!.!-!#!H!Q!6!8!Q!G!G!5!G!G!G!5!=!=!=!9!6!6!6!1!1!1!1!1!1!6!6!2!!!!!!!!!!!!!!!!!!!!!!!!!!!!!!!!!!!!!!!!!!!A!A!A!A!A!:!!!R!Q!Q!9!#!$!%!&!*!6!8!6!+!&!$!c!.!1!6!6!6!6!6!2!%!2!6!8!A!]!]!F!A!6!2!Q!9!!!!!!!!!!!!!!!!!!!!!!!!!!!!!!!!!!!!!!!!!!!!!!!!!!!!!!!!!!!!!!!!!!!!!!!!!!!!!!!!!-!-!%!&!&!$!%!%!+!+!$!-!-!!!!!!!!!!!!!!!!!!!!!!!!!!!!!!!!!!!!!!!!!!!!!!!!!!",
"!!!!!!!!!!!!!!!!!!!!!!!!!!!!!!!!!!!!!!!!!!!!!!!!!#!%!$!-!!!!!!!>!C!C!>!!!!!R!R!R!R!R!R!!!!!!!!!!!!!!!!!!!!!!!!!!!!!!!!!!!!!!!!!!!!!!!!!!!!!!!!!!!!!!!!!!!-!$!d!Y!S!v!+!#!!!!!!!#!+!%!-!!!!!!!!!!!!!!!!!!!R!R!R!R!R!R!!!!!!!-!$!d!Y!S!v!+!#!!!!!!!!!!!!!!!!!!!!!!!!!!!!!!!!!!!!!!!!!!!!!!!!!!!!!!!!!$!v!w!Y!x!D!0!0!3!4!/!=!4!3!0!3!0!0!3!3!0!9!9!#!#!9!9!P!-!$!-!Y!S!v!+!#!!!!!!!!!!!!!!!!!!!!!!!!!!!!!!!!!!!!!!!!!!!!!!!!!!!!!!!-!$!-!.!H!1!6!6!6!9!G!G!5!5!5!5!5!=!=!=!=!9!6!6!#!9!-!1!1!1!2!-!!!!!!!!!!!!!!!!!!!!!!!!!!!!!!!!!!!!!!!!!!!!!:!:!<!<!<!1!!!V!W!W!Q!$!&!+!*!2!8!Q!9!1!%!%!$!2!8!9!9!8!6!6!2!$!2!6!6!:!A!A!:!1!2!W!W!Q!!!!!!!!!!!!!!!!!!!!!!!!!!!!!!!!!!!!!!!!!!!!!!!!!!!!!!!!!!!!!!!!!!!!!!!-!-!-!#!y!z!E!-!-!.!.!-!.!.!-!-!-!-!#!#!#!-!-!!!!!!!!!!!!!!!!!!!!!!!!!!!!!!!!!!!!!!!!",
"!!!!!!!!!!!!!!!!!!!!!!!!!!!!!!!!!!!!!!!!!!!!!!!!!#!%!$!-!!!!!!!!!>!>!!!!!!!t!V!_!V!t!t!!!!!!!!!!!!!!!!!!!!!!!!!!!!!!!!!!!!!!!!!!!!!!!!!!!!!!!!!!!!!!!!!!!!!-!x!Y!w!v!$!!!!!!!!!$!*!%!-!!!!!!!!!!!!!!!!!!!9!9!9!9!9!9!!!!!!!!!-!x!Y!w!v!$!!!!!!!!!!!!!!!!!!!!!!!!!!!!!!!!!!!!!!!!!!!!!!!!!!!!!!!!!!!!!v!M!Y!x!!!D!D!D!3!0!3!3!0!D!D!3!3!D!P!P!6!-!-!-!-!6!P!P!-!x!Y!w!v!$!!!!!!!!!!!!!!!!!!!!!!!!!!!!!!!!!!!!!!!!!!!!!!!!!!!!!!!!!-!%!1!1!1!6!6!6!6!8!9!=!5!K!K!K!K!=!=!=!=!=!8!6!$!#!-!%!.!#!%!-!!!!!!!!!!!!!!!!!!!!!!!!!!!!!!!!!!!!!!!!!!!!!!!<!!!!!!!!!!!^!_!_!Z!&!%!2!2!6!9!Q!9!1!-!#!$!#!:!9!9!8!8!6!6!2!.!2!.!-!1!1!+!&!^!_!_!Z!!!!!!!!!!!!!!!!!!!!!!!!!!!!!!!!!!!!!!!!!!!!!!!!!!!!!!!!!!!!!!!!!!!#!#!#!$!%!N!O!c!z!E!f!E!{!#!-!.!.!.!-!$!%!&!+!&!%!#!#!!!!!!!!!!!!!!!!!!!!!!!!!!!!!!!!!!!!",
"!!!!!!!!!!!!!!!!!!!!!!!!!!!!!!!!!!!!!!!!!!!!!!!!!#!%!$!-!!!!!!!!!!!!!!!!!!!R!R!R!R!R!R!!!!!!!!!!!!!!!!!!!!!!!!!!!!!!!!!!!!!!!!!!!!!!!!!!!!!!!!!!!!!!!!!!!!!!!x!Y!M!v!!!!!!!!!!!$!&!%!-!!!!!!!!!!!!!!!!!!!6!6!6!6!6!6!!!!!!!!!!!x!Y!M!v!!!!!!!!!!!!!!!!!!!!!!!!!!!!!!!!!!!!!!!!!!!!!!!!!!!!!!!!!!!!!!!v!w!Y!x!!!!!R!R!D!R!D!D!D!0!3!3!D!D!D!P!P!-!$!#!.!P!P!P!P!x!Y!M!v!!!!!!!!!!!!!!!!!!!!!!!!!!!!!!!!!!!!!!!!!!!!!!!!!!!!!!!!!!!-!&!#!:!9!8!6!6!6!6!6!9!=!9!9!9!=!9!9!9!9!9!6!6!2!$!P!&!.!#!&!-!!!!!!!!!!!!!!!!!!!!!!!!!!!!!!!!!!!!!!!!!!!!!!!!!!!!!!!!!!!V!W!W!Q!2!2!6!6!6!9!G!Q!1!.!.!.!.!.!1!6!8!9!8!6!2!.!.!.!.!-!$!&!%!V!W!W!Q!!!!!!!!!!!!!!!!!!!!!!!!!!!!!!!!!!!!!!!!!!!!!!!!!!!!!!!!!R!Q!Q!9!#!$!%!&!*!N!O!O!+!c!c!#!J!O!E!#!.!.!-!$!%!%!%!&!&!+!$!#!#!R!Q!Q!9!!!!!!!!!!!!!!!!!!!!!!!!!!",
"!!!!!!!!!!!!!!!!!!!!!!!!!!!!!!!!!!!!!!!!!!!!!!!R!R!R!R!R!R!!!!!!!!!!!!!!!!!9!9!9!9!9!9!!!!!!!!!!!!!!!!!!!!!!!!!!!!!!!!!!!!!!!!!!!!!!!!!!!!!!!!!!!!!!!!!!!!!!!x!Y!M!v!!!!!!!!!!!#!%!$!-!!!!!!!!!!!!!!!!!!!!!-!$!#!.!!!!!!!!!!!!!x!Y!M!v!!!!!!!!!!!!!!!!!!!!!!!!!!!!!!!!!!!!!!!!!!!!!!!!!!!!!!!!!!!!!!!v!L!d!x!!!!!t!V!_!V!D!D!D!3!D!D!0!0!0!0!D!-!$!#!.!P!P!P!P!x!Y!w!v!!!!!!!!!!!!!!!!!!!!!!!!!!!!!!!!!!!!!!!!!!!!!!!!!!!!!!!!!-!#!%!-!1!1!:!6!6!6!2!6!6!8!9!:!A!8!9!8!8!6!6!6!2!#!$!.!%!.!-!%!#!-!!!!!!!!!!!!!!!!!!!!!!!!!!!!!!!!!!!!!!!!!!!!!!!!!!!!!!!!!Z!Q!Q!2!6!6!6!6!6!9!Q!Q!1!6!#!-!-!-!-!-!6!9!9!8!6!2!8!8!.!.!-!%!#!Z!Q!Q!8!!!!!!!!!!!!!!!!!!!!!!!!!!!!!!!!!!!!!!!!!!!!!!!!!!!!!!!!!V!W!W!Q!$!&!+!*!c!E!f!#!$!%!E!f!#!J!E!-!-!-!#!&!$!#!#!$!%!+!*!$!$!V!W!W!Q!!!!!!!!!!!!!!!!!!!!!!!!!!",
"!!!!!!!!!!!!!!!!!!!!!!!!!!!!!!!!!!!!!!!!!!!!!!!t!V!_!V!t!t!!!!!!!!!!!!!!!!!6!6!6!6!6!6!!!!!!!!!!!!!!!!!!!!!!!!!!!!!!!!!!!!!!!!!!!!!!!!!!!!!!!!!!!!!!!!!!!!!!!x!C!C!v!!!!!!!!!R!R!R!R!R!R!!!!!!!!!!!!!!!!!!!-!$!#!.!!!!!!!!!!!!!x!C!C!v!!!!!!!!!!!!!!!!!!!!!!!!!!!!!!!!!!!!!!!!!!!!!!!!!!!!!!!!!!!!!!!v!|!v!x!!!!!R!R!R!R!D!R!P!D!D!D!D!D!D!D!P!-!$!#!.!P!P!P!P!x!d!L!v!!!!!!!!!!!!!!!!!!!!!!!!!!!!!!!!!!!!!!!!!!!!!!!!!!!!!!!-!$!#!$!#!-!P!1!1!1!%!$!2!6!6!:!1!1!8!8!8!6!6!2!2!-!-!$!-!#!.!#!$!#!$!-!!!!!!!!!!!!!!!!!!!!!!!!!!!!!!!!!!!!!!!!!!!!!!!!!!!!!!!6!8!1!6!6!6!6!6!6!8!9!9!6!8!$!#!#!#!#!#!6!=!Q!8!6!2!-!6!.!#!.!#!-!6!8!8!g!!!!!!!!!!!!!!!!!!!!!!!!!!!!!!!!!!!!!!!!!!!!!!!!!!!!!!!!!^!_!_!Z!&!%!&!E!f!J!-!.!.!-!#!f!#!-!J!}!-!#!$!#!.!.!.!.!-!$!+!+!&!^!_!_!Z!!!!!!!!!!!!!!!!!!!!!!!!!!",
"!!!!!!!!!!!!!!!!!!!!!!!!!!!!!!!!!!!!!!!!!!!!!!!R!R!R!R!R!R!!!!!!!!!!!!!!!!!!!-!$!#!.!!!!!!!!!!!!!!!!!!!!!!!!!!!!!!!!!!!!!!!!!!!!!!!!!!!!!!!!!!!!!!!!!!!!!!!!!x!d!L!v!!!!!!!!!t!V!_!V!t!t!!!!!!!!!!!!!!!!!!!-!$!#!.!!!!!!!!!!!!!x!d!L!v!!!!!!!!!!!!!!!!!!!!!!!!!!!!!!!!!!!!!!!!!!!!!!!!!!!!!!!!!!!!!!!v!S!v!x!!!!!9!9!9!9!D!9!D!D!!!!!D!D!-!P!P!#!&!#!-!-!P!$!$!#!v!|!v!!!!!!!!!!!!!!!!!!!!!!!!!!!!!!!!!!!!!!!!!!!!!!!!!!!!!-!$!+!%!#!$!%!-!!!Q!-!&!$!2!6!6!1!1!:!9!9!9!H!1!1!%!-!-!-!#!.!.!$!#!%!+!$!-!!!!!!!!!!!!!!!!!!!!!!!!!!!!!!!!!!!!!!!!!!!!!!!!!!!!!!!!!1!1!8!6!6!6!6!6!6!6!1!9!&!$!$!$!$!$!6!8!8!6!6!2!-!6!-!$!.!-!.!.!.!.!!!!!!!!!!!!!!!!!!!!!!!!!!!!!!!!!!!!!!!!!!!!!!!!!!!!!!!!!!!V!W!W!Q!#!-!J!{!.!8!6!6!6!6!#!-!-!-!-!{!{!-!6!6!#!6!6!-!.!.!-!%!#!V!W!W!Q!!!!!!!!!!!!!!!!!!!!!!!!!!",
"!!!!!!!!!!!!!!!!!!!!!!!!!!!!!!!!!!!!!!!!!!!!!!!9!9!9!9!9!9!!!!!!!!!!!!!!!!!!!-!$!#!.!!!!!!!!!!!!!!!!!!!!!!!!!!!!!!!!!!!!!!!!!!!!!!!!!!!!!!!!!!!!!!!!!!!!!!!!!x!v!|!v!!!!!!!!!R!R!R!R!R!R!!!!!!!!!!!!!!!!!!!#!$!#!-!!!!!!!!!!!!!x!v!|!v!!!!!!!!!!!!!!!!!!!!!!!!!!!!!!!!!!!!!!!!!!!!!!!!!!!!!!!!!!!!!!!v!L!v!x!!!!!6!6!-!-!6!6!!!!!!!%!$!$!$!-!.!#!&!$!-!-!$!&!%!%!v!S!v!!!!!!!!!!!!!!!!!!!!!!!!!!!!!!!!!!!!!!!!!!!!!!!!!!!!!#!+!-!-!-!#!$!-!!!R!R!R!R!R!1!1!1!1!9!1!1!:!:!:!:!:!1!1!#!-!.!$!#!-!-!-!+!#!!!!!!!!!!!!!!!!!!!!!!!!!!!!!!!!!!!!!!!!!!!!!!!!!!!!!!!!!!!1!1!1!6!6!6!2!6!6!2!Q!%!&!&!&!&!&!2!6!6!6!2!$!-!.!#!%!.!.!.!#!-!!!!!!!!!!!!!!!!!!!!!!!!!!!!!!!!!!!!!!!!!!!!!!!!!!!!!!!!!!!!!Z!Q!Q!8!-!.!J!.!.!9!8!8!8!8!$!#!#!#!#!#!#!%!8!#!$!#!g!-!.!#!.!#!-!Z!Q!Q!8!!!!!!!!!!!!!!!!!!!!!!!!!!",
"!!!!!!!!!!!!!!!!!!!!!!!!!!!!!!!!!!!!!!!!!!!!!!!6!6!6!6!6!6!!!!!!!!!!!!!!!!!!!-!$!#!.!!!!!!!!!!!!!!!!!!!!!!!!!!!!!!!!!!!!!!!!!!!!!!!!!!!!!!!!!!!!!!!!!!!!!!!!!x!v!S!v!!!!!!!!!9!9!9!9!9!9!!!!!!!!!!!!!!!!!!!#!%!$!-!!!!!!!!!!!!!x!v!S!v!!!!!!!!!!!!!!!!!!!!!!!!!!!!!!!!!!!!!!!!!!!!!!!!!!!!!!!!!!!!!!!v!L!v!x!!!!!!!#!%!#!-!!!!!!!!!&!&!&!+!$!-!-!+!#!$!$!+!%!!!$!v!L!v!!!!!!!!!!!!!!!!!!!!!!!!!!!!!!!!!!!!!!!!!!!!!!!!!!!!!!!#!~!I#!!#!-!!!!!t!V!_!V!1!1!1!1!1!:!1!1!1!1!1!1!1!1!-!-!.!.!-!~###!!+!#!!!!!!!!!!!!!!!!!!!!!!!!!!!!!!!!!!!!!!!!!!!!!!!!!!!!!!!!!!!!!!!-!2!2!2!2!8!2!6!2!6!#!$!$!$!$!%!2!2!2!2!W!&!-!#!$!#!.!.!-!$!!!!!!!!!!!!!!!!!!!!!!!!!!!!!!!!!!!!!!!!!!!!!!!!!!!!!!!!!!!!!!!6!8!8!g!-!.!.!-!.!Q!$!%!-!9!#!$!$!$!$!$!%!#!9!#!&!$#$!.!-!$!.!-!.!.!#!S!w!|!!!!!!!!!!!!!!!!!!!!!!!!",
"!!!!!!!!!!!!!!!!!!!!!!!!!!!!!!!!!!!!!!!!!!!!!!!!!#!%!#!-!!!!!!!!!!!!!!!!!!!#!#!$!#!-!#!!!!!!!!!!!!!!!!!!!!!!!!!!!!!!!!!!!!!!!!!!!!!!!!!!!!!!!!!!!!!!!!!!!!!!!x!v!S!v!!!!!!!!!6!6!6!6!6!6!!!!!!!!!!!!!!!!!!!#!%!$!-!!!!!!!!!!!!!x!v!S!v!!!!!!!!!!!!!!!!!!!!!!!!!!!!!!!!!!!!!!!!!!!!!!!!!!!!!!!!!!!!!!!!!v!x!!!!!!!!!#!%!$!-!!!!!!!!!&!!!!!!!&!$!#!%!#!&!&!!!!!!!!!v!L!v!!!!!!!!!!!!!!!!!!!!!!!!!!!!!!!!!!!!!!!!!!!!!!!!!!!!!!!!!Y!w!v!!!!!!!!!R!R!R!R!1!1!!!!!!!1!1!1!1!1!1!1!1!#!-!-!.!!!!!Y!w!v!#!!!!!!!!!!!!!!!!!!!!!!!!!!!!!!!!!!!!!!!!!!!!!!!!!!!!!!!!!!!!!!!!!.!%!.!.!.!#!2!2!2!-!#!#!#!#!#!+!#!.!-!#!R!+!-!$!$!#!-!.!#!!!!!!!!!!!!!!!!!!!!!!!!!!!!!!!!!!!!!!!!!!!!!!!!!!!!!!!!!!!!!!!!!B!K!.!.!.!%!.!.!.!9!%!%!-!8!#!#!#!&!&!&!%!#!8!#!)!$!6!.!#!%!.!.!.!.!L!Y#%!d!|!!!!!!!!!!!!!!!!!!!!!!",
"!!!!!!!!!!!!!!!!!!!!!!!!!!!!!!!!!!!!!!!!!!!!!!!!!#!%!$!-!!!!!!!!!!!!!!!!!!!$!%!$!#!&!%!!!!!!!!!!!!!!!!!!!!!!!!!!!!!!!!!!!!!!!!!!!!!!!!!!!!!!!!!!!!!!!!!!!!!!!x!v!S!v!!!!!!!!!!!#!%!#!-!!!!!!!!!!!!!!!!!!!#!$!%!$!$!#!!!!!!!!!!!x!v!S!v!!!!!!!!!!!!!!!!!!!!!!!!!!!!!!!!!!!!!!!!!!!!!!!!!!!!!!!!!!!!!!!!!!!!!!!!!!!!!#!%!$!-!!!!!!!!!!!!!!!!!!!!!-!-!-!!!!!!!!!!!!!x!v!!!!!!!!!!!!!!!!!!!!!!!!!!!!!!!!!!!!!!!!!!!!!!!!!!!!!!!!!!!d!L!v!!!!!!!!!9!9!9!9!1!1!!!1!1!1!!!!!&!1!1!#!$!#!-!-!.!!!!!d!L!v!!!!!!!!!!!!!!!!!!!!!!!!!!!!!!!!!!!!!!!!!!!!!!!!!!!!!!!!!!!!!!!!!!!.!&!.!.!.!-!&!%!-!.!-!-!%!-!-!+!#!.!-!#!9!$!-!-!&!-!.!.!!!!!!!!!!!!!!!!!!!!!!!!!!!!!!!!!!!!!!!!!!!!!!!!!!!!!!!!!!!!!!!!!!!L!B!B!M!.!&!.!.!.!8!&!%!-!6!-!-!%!$!$!%!$!-!6!#!%!&!-!#!$!#!.!.!.!-!L!d#%!d!~!!!!!!!!!!!!!!!!!!!!!!",
"!!!!!!!!!!!!!!!!!!!!!!!!!!!!!!!!!!!!!!!!!!!!!!!!!#!%!$!-!!!!!!!!!!!!!!!!!!!-!%!&!#!#!-!!!!!!!!!!!!!!!!!!!!!!!!!!!!!!!!!!!!!!!!!!!!!!!!!!!!!!!!!!!!!!!!!!!!!!!x!v!L!v!!!!!!!!!!!#!&!$!-!!!!!!!!!!!!!!!!!!!%!&!%!$!&!%!!!!!!!!!!!x!v!L!v!!!!!!!!!!!!!!!!!!!!!!!!!!!!!!!!!!!!!!!!!!!!!!!!!!!!!!!!!!!!!!!!!!!!!!!!!!!!!#!%!$!-!!!!!!!!!!!!!!!!!!!!!!!!!!!!!!!!!!!!!!!!!!!!!!!!!!!!!!!!!!!!!!!!!!!!!!!!!!!!!!!!!!!!!!!!!!!!!!!!!!!!!v!|!v!!!!!!!!!6!6!6!6!6!6!!!!!!!!!!!!!!!&!&!$!#!-!-!-!.!!!!!v!|!v!!!!!!!!!!!!!!!!!!!!!!!!!!!!!!!!!!!!!!!!!!!!!!!!!!!!!!!!!!!!!!!!!!!.!%!.!.!.!-!+!$!-!.!.!.!+!.!.!&!$!-!-!-!#!%!-!-!$!#!.!.!!!!!!!!!!!!!!!!!!!!!!!!!!!!!!!!!!!!!!!!!!!!!!!!!!!!!!!!!!!!!!!!!!!B!I!M!B!.!%!.!.!.!6!+!$!-!.!.!.!+!#!#!+!#!.!-!#!$!+!-!$!$!#!-!.!.!#!)!L#!#&!!!!!!!!!!!!!!!!!!!!!!!!",
"!!!!!!!!!!!!!!!!!!!!!!!!!!!!!!!!!!!!!!!!!!!!!!!!!#!%!$!-!!!!!!!!!!!!!!!!!!!%!$!%!#!&!!!!!!!!!!!!!!!!!!!!!!!!!!!!!!!!!!!!!!!!!!!!!!!!!!!!!!!!!!!!!!!!!!!!!!!!!x!C!C!v!!!!!!!!!!!#!+!$!-!!!!!!!!!!!!!!!!!!!-!%!%!$!#!-!!!!!!!!!!!x!C!C!v!!!!!!!!!!!!!!!!!!!!!!!!!!!!!!!!!!!!!!!!!!!!!!!!!!!!!!!!!!!!!!!!!!!!!!!!!!!!!#!%!$!-!!!!!!!!!!!!!!!!!!!!!!!!!!!!!!!!!!!!!!!!!!!!!!!!!!!!!!!!!!!!!!!!!!!!!!!!!!!!!!!!!!!!!!!!!!!!!!!!!!!!!v!L!v!!!!!!!!!!!-!$!#!.!!!!!!!!!!!!!!!!!!!&!%!#!-!.!.!!!!!!!v!L!v!!!!!!!!!!!!!!!!!!!!!!!!!!!!!!!!!!!!!!!!!!!!!!!!!!!!!!!!!!!!!!!!!!!.!#!-!.!-!-!$!#!-!.!.!-!+!!!!!!!&!#!-!#!&!+!&!%!#!-!.!-!!!!!!!!!!!!!!!!!!!!!!!!!!!!!!!!!!!!!!!!!!!!!!!!!!!!!!!!!!!!!!!!!B!I!M!B!>!.!#!-!.!-!-!$!#!-!.!.!-!+!-!-!+!#!.!-!#!#!$!-!-!&!-!.!.!##'!~!d!C!d#&!!!!!!!!!!!!!!!!!!!!!!",
"!!!!!!!!!!!!!!!!!!!!!!!!!!!!!!!!!!!!!!!!!!!!!!!!!#!%!$!-!!!!!!!!!!!!!!!%!%!$!-!&!#!$!&!%!!!!!!!!!!!!!!!!!!!!!!!!!!!!!!!!!!!!!!!!!!!!!!!!!!!!!!!!!!!!!!!!!!!!!!!x!v!!!!!!!!!!!!!#!+!$!-!!!!!!!!!!!!!!!!!!!&!$!%!#!&!!!!!!!!!!!!!!!x!v!!!!!!!!!!!!!!!!!!!!!!!!!!!!!!!!!!!!!!!!!!!!!!!!!!!!!!!!!!!!!!!!!!!!!!!!!!!!!#!$!%!$!$!#!!!!!!!!!!!!!!!!!!!!!!!!!!!!!!!!!!!!!!!!!!!!!!!!!!!!!!!!!!!!!!!!!!!!!!!!!!!!!!!!!!!!!!!!!!!!!!!!!!!!!v!!!!!!!!!!!!!-!$!#!.!!!!!!!!!!!!!!!!!!!!!%!.!.!.!!!!!!!!!!!v!!!!!!!!!!!!!!!!!!!!!!!!!!!!!!!!!!!!!!!!!!!!!!!!!!!!!!!!!!!!!!!!!!!!!.!.!#!-!-!-!%!#!-!.!-!%!&!!!!!!!&!$!#!%!$!#!-!-!-!.!.!!!!!!!!!!!!!!!!!!!!!!!!!!!!!!!!!!!!!!!!!!!!!!!!!!!!!!!!!!!!!!!!!B!I!M!B!>!Y!.!.!#!-!-!-!%!#!-!.!-!%!&!.!.!&!$!-!-!-!#!%!-!-!$!#!.!.!-!P!-!d!C!d!|!!!!!!!!!!!!!!!!!!!!!!",
"!!!!!!!!!!!!!!!!!!!!!!!!!!!!!!!!!!!!!!!!!!!!!!!#!$!%!$!$!#!!!!!!!!!!!%!$!#!-!!!%!#!-!&!&!%!!!!!!!!!!!!!!!!!!!!!!!!!!!!!!!!!!!!!!!!!!!!!!!!!!!!!!!!!!!!!!!!!!!!!!!!!!!!!!!!!!!!!#!%!$!-!!!!!!!!!!!!!!!&!+!$!-!+!#!$!+!%!!!!!!!!!!!!!!!!!!!!!!!!!!!!!!!!!!!!!!!!!!!!!!!!!!!!!!!!!!!!!!!!!!!!!!!!!!!!!!!!!!!!!!!!!!!%!&!%!$!&!%!!!!!!!!!!!!!!!!!!!!!!!!!!!!!!!!!!!!!!!!!!!!!!!!!!!!!!!!!!!!!!!!!!!!!!!!!!!!!!!!!!!!!!!!!!!!!!!!!!!!!!!!!!!!!!!!!!!-!$!#!.!!!!!!!!!!!!!!!!!!!!!!!.!.!!!!!!!!!!!!!!!!!!!!!!!!!!!!!!!!!!!!!!!!!!!!!!!!!!!!!!!!!!!!!!!!!!!!!!!!!!!!!!!!!!!!!.!-!#!%!&!+!&!#!-!-!&!!!!!!!!!!!&!$!#!#!$!#!-!-!.!!!!!!!!!!!!!!!!!!!!!!!!!!!!!!!!!!!!!!!!!!!!!!!!!!!!!!!!!!!!!!!!!>!C!C!B!>!Y#(#(!.!-!#!%!&!+!&!#!-!-!&!$!!!!!#!&!#!-!#!&!+!&!%!#!-!.!-!!!.!#!~!S!|!%!!!!!!!!!!!!!!!!!!!!!!",
"!!!!!!!!!!!!!!!!!!!!!!!!!!!!!!!!!!!!!!!!!!!!!!!%!&!%!$!&!%!!!!!!!!!!!$!!!!!!!!!$!#!!!!!!!$!!!!!!!!!!!!!!!!!!!!!!!!!!!!!!!!!!!!!!!!!!!!!!!!!!!!!!!!!!!!!!!!!!!!!!!!!!!!!!!!!!!#!$!%!$!$!#!!!!!!!!!!!%!$!#!-!!!&!!!-!$!&!%!!!!!!!!!!!!!!!!!!!!!!!!!!!!!!!!!!!!!!!!!!!!!!!!!!!!!!!!!!!!!!!!!!!!!!!!!!!!!!!!!!!!!!!!!-!%!%!$!#!-!!!!!!!!!!!!!!!!!!!!!!!!!!!!!!!!!!!!!!!!!!!!!!!!!!!!!!!!!!!!!!!!!!!!!!!!!!!!!!!!!!!!!!!!!!!!!!!!!!!!!!!!!&!-!-!!!!!#!&!#!-!-!!!$!$!!!!!!!!!!!!!!!!!!!!!!!!!!!!!!!!!!!!!!!!!!!!!!!!!!!!!!!!!!!!!!!!!!!!!!!!!!!!!!!!!!!!!!!!!!!!!!!!!!!!!!!.!.!-!-!-!#!$!%!#!$!&!!!!!!!!!!!&!$!$!#!$!#!-!-!.!!!!!!!!!!!!!!!!!!!!!!!!!!!!!!!!!!!!!!!!!!!!!!!!!!!!!!!!!!!!!!!!!>!C!C!>!Y#'!!!!!.!.!-!-!-!#!$!%!#!$!&!-!!!!!-!&!$!#!%!$!#!-!-!-!.!-!!!!!-!#!%!#!%!&!!!!!!!!!!!!!!!!!!!!!!",
"!!!!!!!!!!!!!!!!!!!!!!!!!!!!!!!!!!!!!!!!!!!!!!!-!%!%!$!#!-!!!!!!!!!!!!!!!!!!!!!$!#!!!!!!!!!!!!!!!!!!!!!!!!!!!!!!!!!!!!!!!!!!!!!!!!!!!!!!!!!!!!!!!!!!!!!!!!!!!!!!!!!!!!!!!!!!!%!&!%!$!&!%!!!!!!!!!!!!!!!!!!!!!!!!!!!!!!!!!!!!!!!!!!!!!!!!!!!!!!!!!!!!!!!!!!!!!!!!!!!!!!!!!!!!!!!!!!!!!!!!!!!!!!!!!!!!!!!!!!!!!!!!!&!$!%!#!&!!!!!!!!!!!!!!!!!!!!!!!!!!!!!!!!!!!!!!!!!!!!!!!!!!!!!!!!!!!!!!!!!!!!!!!!!!!!!!!!!!!!!!!!!!!!!!!!!!!!!!!!!%!$!$!$!-!.!#!&!$!-!-!$!&!%!$!!!!!!!!!!!!!!!!!!!!!!!!!!!!!!!!!!!!!!!!!!!!!!!!!!!!!!!!!!!!!!!!!!!!!!!!!!!!!!!!!!!!!!!!!!!!!!!!!!!!!!!.!-!-!#!$!#!$!$!&!!!!!!!!!!!!!!!&!&!$!#!-!-!-!.!!!!!!!!!!!!!!!!!!!!!!!!!!!!!!!!!!!!!!!!!!!!!!!!!!!!!!!!!!!!!!!!#)!>!>!Y#%!!!!!!!!!.!-!-!#!$!#!$!$!&!$!!!!!!!!!$!&!$!#!#!$!#!-!-!.!!!!!!!.!#!$!#!+!&!!!!!!!!!!!!!!!!!!!!!!",
"!!!!!!!!!!!!!!!!!!!!!!!!!!!!!!!!!!!!!!!!!!!!!!!&!$!%!#!&!!!!!!!!!!!!!!!!!!!!!!!!!!!!!!!!!!!!!!!!!!!!!!!!!!!!!!!!!!!!!!!!!!!!!!!!!!!!!!!!!!!!!!!!!!!!!!!!!!!!!!!!!!!!!!!!!!!!!-!%!%!$!#!-!!!!!!!!!!!!!!!!!!!!!!!!!!!!!!!!!!!!!!!!!!!!!!!!!!!!!!!!!!!!!!!!!!!!!!!!!!!!!!!!!!!!!!!!!!!!!!!!!!!!!!!!!!!!!!!!!!!!!&!+!$!-!+!#!$!+!%!!!!!!!!!!!!!!!!!!!!!!!!!!!!!!!!!!!!!!!!!!!!!!!!!!!!!!!!!!!!!!!!!!!!!!!!!!!!!!!!!!!!!!!!!!!!!!!!!!!!!&!&!&!+!$!-!-!+!#!$!$!+!%!!!$!!!!!!!!!!!!!!!!!!!!!!!!!!!!!!!!!!!!!!!!!!!!!!!!!!!!!!!!!!!!!!!!!!!!!!!!!!!!!!!!!!!!!!!!!!!!!!!!!!!!!!!.!-!-!#!$!#!$!$!&!!!!!!!!!!!!!!!!!!!%!#!-!.!.!!!!!!!!!!!!!!!!!!!!!!!!!!!!!!!!!!!!!!!!!!!!!!!!!!!!!!!!!!!!!!!!!!!!#)#)#)!!!!!!!!!!!.!-!-!#!$!#!$!$!&!-!!!!!!!!!-!&!$!$!#!$!#!-!.!.!!!!!!!-!#!%!#!%!&!!!!!!!!!!!!!!!!!!!!!!",
"!!!!!!!!!!!!!!!!!!!!!!!!!!!!!!!!!!!!!!!!!!!&!+!$!-!+!#!$!+!%!!!!!!!!!!!!!!!!!!!!!!!!!!!!!!!!!!!!!!!!!!!!!!!!!!!!!!!!!!!!!!!!!!!!!!!!!!!!!!!!!!!!!!!!!!!!!!!!!!!!!!!!!!!!!!!!!&!$!%!#!&!!!!!!!!!!!!!!!!!!!!!!!!!!!!!!!!!!!!!!!!!!!!!!!!!!!!!!!!!!!!!!!!!!!!!!!!!!!!!!!!!!!!!!!!!!!!!!!!!!!!!!!!!!!!!!!!!!!!!%!$!#!-!!!&!!!-!$!&!%!!!!!!!!!!!!!!!!!!!!!!!!!!!!!!!!!!!!!!!!!!!!!!!!!!!!!!!!!!!!!!!!!!!!!!!!!!!!!!!!!!!!!!!!!!!!!!!!!!!&!!!!!!!&!$!#!%!#!&!&!!!!!!!!!!!!!!!!!!!!!!!!!!!!!!!!!!!!!!!!!!!!!!!!!!!!!!!!!!!!!!!!!!!!!!!!!!!!!!!!!!!!!!!!!!!!!!!!!!!!!!!!!!!!!!!.!-!-!-!#!$!&!&!!!!!!!!!!!!!!!!!!!!!!!.!.!!!!!!!!!!!!!!!!!!!!!!!!!!!!!!!!!!!!!!!!!!!!!!!!!!!!!!!!!!!!!!!!!!!!!!!!!!!!!!!!!!!!!!!!!.!-!-!-!#!$!&!&!$!!!!!!!!!!!!!#!&!&!$!#!-!-!.!.!!!!!!!!!-!#!$!&!!!!!!!!!!!!!!!!!!!!!!!!",
"!!!!!!!!!!!!!!!!!!!!!!!!!!!!!!!!!!!!!!!!!%!$!#!-!!!&!!!-!$!&!%!!!!!!!!!!!!!!!!!!!!!!!!!!!!!!!!!!!!!!!!!!!!!!!!!!!!!!!!!!!!!!!!!!!!!!!!!!!!!!!!!!!!!!!!!!!!!!!!!!!!!!!!!!!&!+!$!-!+!#!$!+!%!!!!!!!!!!!!!!!!!!!!!!!!!!!!!!!!!!!!!!!!!!!!!!!!!!!!!!!!!!!!!!!!!!!!!!!!!!!!!!!!!!!!!!!!!!!!!!!!!!!!!!!!!!!!!!!!!!!!!!!!!!!!!!!!!!!!!!!!!!!!!!!!!!!!!!!!!!!!!!!!!!!!!!!!!!!!!!!!!!!!!!!!!!!!!!!!!!!!!!!!!!!!!!!!!!!!!!!!!!!!!!!!!!!!!!!!!!!!!!!!!!!!!-!-!-!!!!!!!!!!!!!!!!!!!!!!!!!!!!!!!!!!!!!!!!!!!!!!!!!!!!!!!!!!!!!!!!!!!!!!!!!!!!!!!!!!!!!!!!!!!!!!!!!!!!!!!!!!!!!!!!!!!!!.!.!-!#!%!!!!!!!!!!!!!!!!!!!!!!!!!!!!!!!!!!!!!!!!!!!!!!!!!!!!!!!!!!!!!!!!!!!!!!!!!!!!!!!!!!!!!!!!!!!!!!!!!!!!!!!!!!!!!!!!!!!!!!!!!.!.!-!#!%!$!#!!!!!!!!!!!!!!!!!!!#!%!#!-!.!.!!!!!!!!!!!!!!!!!!!!!!!!!!!!!!!!!!!!!!!!!!",
"!!!!!!!!!!!!!!!!!!!!!!!!!!!!!!!!!!!!!!!!!!!!!!!!!!!!!!!!!!!!!!!!!!!!!!!!!!!!!!!!!!!!!!!!!!!!!!!!!!!!!!!!!!!!!!!!!!!!!!!!!!!!!!!!!!!!!!!!!!!!!!!!!!!!!!!!!!!!!!!!!!!!!!!%!$!#!-!!!&!!!-!$!&!%!!!!!!!!!!!!!!!!!!!!!!!!!!!!!!!!!!!!!!!!!!!!!!!!!!!!!!!!!!!!!!!!!!!!!!!!!!!!!!!!!!!!!!!!!!!!!!!!!!!!!!!!!!!!!!!!!!!!!!!!!!!!!!!!!!!!!!!!!!!!!!!!!!!!!!!!!!!!!!!!!!!!!!!!!!!!!!!!!!!!!!!!!!!!!!!!!!!!!!!!!!!!!!!!!!!!!!!!!!!!!!!!!!!!!!!!!!!!!!!!!!!!!!!!!!!!!!!!!!!!!!!!!!!!!!!!!!!!!!!!!!!!!!!!!!!!!!!!!!!!!!!!!!!!!!!!!!!!!!!!!!!!!!!!!!!!!!!!!!!!!!!!!!!!!!!!!!!!!!!!!!!!!!!!!.!.!!!!!!!!!!!!!!!!!!!!!!!!!!!!!!!!!!!!!!!!!!!!!!!!!!!!!!!!!!!!!!!!!!!!!!!!!!!!!!!!!!!!!!!!!!!!!!!!!!!!!!!!!!!!!!!!!!!!!!!!!!!!!!!.!.!!!!!!!!!!!!!!!!!!!!!!!!!!!!!.!.!!!!!!!!!!!!!!!!!!!!!!!!!!!!!!!!!!!!!!!!!!!!!!"
};