/* XPM */
static const char *robot_enemy_death_f01[] = {
/* columns rows colors chars-per-pixel */
"64 64 63 1",
"! c None",
"# c #005C5C",
"$ c #007474",
"% c #008C8C",
"& c #00A4A4",
"' c #78E0E0",
"( c #B4ECEC",
") c #40D0D0",
"* c #28C8C8",
"+ c #10C0C0",
", c #00BCBC",
"- c #004444",
". c #002C2C",
"/ c #AC0C0C",
"0 c #840404",
"1 c #980808",
"2 c #C01010",
"3 c #CC3838",
"4 c #5CD8D8",
"5 c #000000",
"6 c #BCD85C",
"7 c #90BC00",
"8 c #001414",
"9 c #E0ECB4",
": c #ECF4D8",
"; c #D4E498",
"< c #B0D040",
"= c #C06410",
"> c #AC580C",
"? c #984C08",
"@ c #98C010",
"A c #6C8C00",
"B c #D89C64",
"C c #CC8038",
"D c #7CA400",
"E c #700404",
"F c #E4C098",
"G c #DCAC7C",
"H c #C47024",
"I c #884404",
"J c #C03014",
"K c #C42424",
"L c #28CC28",
"M c #743804",
"N c #C45018",
"O c #C4701C",
"P c #C89020",
"Q c #980088",
"R c #C8CC28",
"S c #C8B024",
"T c #5C0000",
"U c #D09050",
"V c #643000",
"W c #545454",
"X c #747474",
"Y c #848484",
"Z c #4C4C4C",
"[ c #8C8C8C",
"] c #5C5C5C",
"^ c #444444",
"_ c #989898",
"` c #B0B0B0",
"a c #A0A0A0",
"!!!!!!!!!!!!!!!!!!!!!!!!!!!!!!!!!!!!!!!!!!!!!!!!!!!!!!!!!!!!!!!!",
"!!!!!!!!!!!!!!!!!!!!!!!!!!!!!!!!!!!!!!!!!!!!!!!!!!!!!!!!!!!!!!!!",
"!!!!!!!!!!!!!!!!!!!!!!!!!!!!!!!!!!!!!!!!!!!!!!!!!!!!!!!!!!!!!!!!",
"!!!!!!!!!!!!!!!!!!!!!!!!!!!!!!!!!!!!!!!!!!!!!!!!!!!!!!!!!!!!!!!!",
"!!!!!!!!!!!!!!!!!!!!!!!!!!!!!!!!!!!!!!!!!!!!!!!!!!!!!!!!!!!!!!!!",
"!!!!!!!!!!!!!!!!!!!!!!!!!!!!!#$%&%$#!!!!!!!!!!!!!!!!!!!!!!!!!!!!",
"!!!!!!!!!!!!!!!!!!!!!%#!!!!#$'(')*+,$#!!!!!!!!!!!!!!!!!!!!!!!!!!",
"!!!!!!!!!!!!!!!!!!!!!%#!!!$%)%%%%%%%%,$!!!!!!!!!!!!!!!!!!!!!!!!!",
"!!!!!!!!!!!!!!!!!!!!!%#!!$-------------$!!!!!!!!!!!!!!!!!!!!!!!!",
"!!!!!!!!!!!!!!!!!!!!!%#!#./0.........0/.#!!!!!!!!!!!!!!!!!!!!!!!",
"!!!!!!!!!!!!!!!!!!!!!%#!%-.1231-.-1321.-%!!!!!!!!!!!!!!!!!!!!!!!",
"!!!!!!!!!!!!!!!!!!!!!%#!&###############,!!!!!!!!!!!!!!!!!!!!!!!",
"!!!!!!!!!!!!!!!!!!!!!&#!$,&,+*4*+,&&&&&,$!!!!!!!!!!!!!!!!!!!!!!!",
"!!!!!!!!!!!!!!!!!!!!!,#!#&%%%%%%%%%%%%%&#!!!!!!!!!!!!!!!!!!!!!!!",
"!!!!!!!!!!!!!!!!!!!!!&#!!$&&&&&&&&&&&&&$!!!!!!!!!!!!!!!!!!!!!!!!",
"!!!!!!!!!!!!!!!!!!!!!%#!!!!-..#---#..-!!!!!!!!!!!!!!!!!!!!!!!!!!",
"!!!!!!!!!!!!!!!!!!!!!%#!!!!#$5$&*&%.-#!!!!!!!!!!!!!!!!!!!!!!!!!!",
"!!!!!!!!!!!!!!!!!!!!!67!!!!%%5....85$%!!!!!!!!!!!!!!!!!!!!!!!!!!",
"!!!!!!!!!!!!!!!!!!!!##97####,5-##-55:########!!!!!!!!!!!!!!!!!!!",
"!!!!!!!!!!!!!!!!!!!#%%%9%%:%#%%&')%;<%%%%%%%%#!!!!!!!!!!!!!!!!!!",
"!!!!!!!!!!!!!!=>>?#%-...@-%#-:%&')<A-#%-....-%#=>>?!!!!!!!!!!!!!",
"!!!!!!!!!!!!!!BCC>#######D-:.;EE#D...--########BCC>!!!!!!!!!!!!!",
"!!!!!!!!!!!!!!FGGH#$$$$$$$#--E1E0EE.--#$$$$$$$#FGGH!!!!!!!!!!!!!",
"!!!!!!!!!!!!!!FGGH#$%%%%%:$#I1///10E##$%%%%%%$#FGGH!!!!!!!!!!!!!",
"!!!!!!!!!!!!!!BCC>#$%&&&&&0?>J//2/EE&&&KLLK&%$#BCC>!!!!!!!!!!!!!",
"!!!!!!!!!!!!!!H>>I#-#EME001JJJJ/11EE+EE,,,,&%%#H>>I!!!!!!!!!!!!!",
"!!!!!!!!!!!!!!?#-M--#$EE1/2JJJJN2J1/1E0EE0&%$#-I#-M!!!!!!!!!!!!!",
"!!!!!!!!!!!!!!.$#..-1$E1/JJJNOOONNJJ2/111/E$##..$#.!!!!!!!!!!!!!",
"!!!!!!!!!!!!!!#&$-.--111JNOOPPPP=NNNNNJ/1/0E--.#&$-!!!!!!!!!!!!!",
"!!!!!!!!!!!!!!#&$-Q..-01JNOPRRSPOOO=NNNNJ210..Q#&$-!!!!!!!!!!!!!",
"!!!!!!!!!!!!!$$&$1#QQE0/JNPSSRRSSPPPPN==J110E!$$&$##!!!!!!!!!!!!",
"!!!!!!!!!!!!!&&%$E1QE01/JJNPSRRRRSSPPOPON/10!!&&%$$$!!!!!!!!!!!!",
"!!!!!!!!!!!!!**%%%E1E01/JJNPPSRSSSPPPOP=N22EE!**%%%%!!!!!!!!!!!!",
"!!!!!!!!!!!!!$$###ET11/JJNNOPPSPOONNNNNNN/11E!$$####!!!!!!!!!!!!",
"!!!!!!!!!!!!!--#---EE01/2JN=OPPPONJ22JJJJ/1E!!--#---!!!!!!!!!!!!",
"!!!!!!!!!!!!!!.$#.!EEE0E1/JJ=OPP=NJ222/110E!!!!.$#.!!!!!!!!!!!!!",
"!!!!!!!!!!!!!!#&$-!!!E0EE12JNNPONJ/2//1EEEE!!!!#&$-!!!!!!!!!!!!!",
"!!!!!!!!!!!!!!#&$-!!!!EEEE02NNNJE0110000C?!!!!!#&$-!!!!!!!!!!!!!",
"!!!!!!!!!!!!!!#&$-!!!!E0ETE222221/1E$EEGG>!!!!!#&$-!!!!!!!!!!!!!",
"!!!!!!!!!!!!!!#&$-!!!!BCC00//211010$#U>$#?!!!!!#&$-!!!!!!!!!!!!!",
"!!!!!!!!!!!!!!#&$-!!!!C?-#E000E01E##-I#--M!!!!!#&$-!!!!!!!!!!!!!",
"!!!!!!!!!!!!!!-%#-!!!!>-$#--EE0E00E-.##-.V!!!!!-%#-!!!!!!!!!!!!!",
"!!!!!!!!!!!!!-#WX$-!!!I-%$-.E.EEEEE.======!!!!-#WX$-!!!!!!!!!!!!",
"!!!!!!!!!!!!-%$WY,$-!!!#&$-!!!E!!!!!UBGBUU!!!-%$WY,$-!!!!!!!!!!!",
"!!!!!!!!!!!!-$ZW[],#!!!#,%-!!!!!!!!!======!!!-$ZW[],#!!!!!!!!!!!",
"!!!!!!!!!!!!!-^W_]$!!!!$+%-!!!!!!!!!??????!!!!-^W_]$!!!!!!!!!!!!",
"!!!!!!!!!!!!!!^W`]!!!!!$&%-!!!!!!!!!MMMMMM!!!!!^W`]!!!!!!!!!!!!!",
"!!!!!!!!!!!!!!^W`]!!!!!#%$-!!!!!!!!!!-$#.!!!!!!^W`]!!!!!!!!!!!!!",
"!!!!!!!!!!!!!!^55]!!!!======!!!!!!!!!-$#.!!!!!!^55]!!!!!!!!!!!!!",
"!!!!!!!!!!!!!!^ZX]!!!!UBGBUU!!!!!!!!!-$#.!!!!!!^ZX]!!!!!!!!!!!!!",
"!!!!!!!!!!!!!!^]a]!!!!======!!!!!!!!!#$#-!!!!!!^]a]!!!!!!!!!!!!!",
"!!!!!!!!!!!!!!^][]!!!!??????!!!!!!!!!#%$-!!!!!!^][]!!!!!!!!!!!!!",
"!!!!!!!!!!!!!!^][]!!!!MMMMMM!!!!!!!!!#%$-!!!!!!^][]!!!!!!!!!!!!!",
"!!!!!!!!!!!!!!^][]!!!!!#%#-!!!!!!!!!#$%$$#!!!!!^][]!!!!!!!!!!!!!",
"!!!!!!!!!!!!!!^]X]!!!!!#&$-!!!!!!!!!%&%$&%!!!!!^]X]!!!!!!!!!!!!!",
"!!!!!!!!!!!!!!^55]!!!!!#,$-!!!!!!!!!-%%$#-!!!!!^55]!!!!!!!!!!!!!",
"!!!!!!!!!!!!!!!^]!!!!!!#,$-!!!!!!!!!&$%#&!!!!!!!^]!!!!!!!!!!!!!!",
"!!!!!!!!!!!!!!!!!!!!!!!#%$-!!!!!!!&,$-,#$,%!!!!!!!!!!!!!!!!!!!!!",
"!!!!!!!!!!!!!!!!!!!!!!#$%$$#!!!!!%$#-!&!-$&%!!!!!!!!!!!!!!!!!!!!",
"!!!!!!!!!!!!!!!!!!!!!!%&%$&%!!!!!!!!!!!!!!!!!!!!!!!!!!!!!!!!!!!!",
"!!!!!!!!!!!!!!!!!!!!!!-%%$#-!!!!!!!!!!!!!!!!!!!!!!!!!!!!!!!!!!!!",
"!!!!!!!!!!!!!!!!!!!!!!&$%#&!!!!!!!!!!!!!!!!!!!!!!!!!!!!!!!!!!!!!",
"!!!!!!!!!!!!!!!!!!!!&,$-,#$,%!!!!!!!!!!!!!!!!!!!!!!!!!!!!!!!!!!!",
"!!!!!!!!!!!!!!!!!!!%$#-!&!-$&%!!!!!!!!!!!!!!!!!!!!!!!!!!!!!!!!!!"
};