/* XPM */
static const char *robot_enemy_death_f02[] = {
/* columns rows colors chars-per-pixel */
"64 64 52 1",
"! c None",
"# c #D4E498",
"$ c #B0D040",
"% c #700404",
"& c #6C8C00",
"' c #840404",
"( c #445C00",
") c #980808",
"* c #004444",
"+ c #AC0C0C",
", c #ECECB8",
"- c #743804",
". c #805424",
"/ c #884404",
"0 c #005C5C",
"1 c #94602C",
"2 c #848808",
"3 c #984C08",
"4 c #C01010",
"5 c #5C0000",
"6 c #C45018",
"7 c #C03014",
"8 c #ECF4D8",
"9 c #AC580C",
": c #587400",
"; c #C06410",
"< c #C4701C",
"= c #C89020",
"> c #C8B024",
"? c #D89C64",
"@ c #CC8038",
"A c #E4C098",
"B c #DCAC7C",
"C c #C8CC28",
"D c #C47024",
"E c #643000",
"F c #980088",
"G c #00A4A4",
"H c #008C8C",
"I c #007474",
"J c #00BCBC",
"K c #5C5C5C",
"L c #989898",
"M c #545454",
"N c #444444",
"O c #8C8C8C",
"P c #B0B0B0",
"Q c #002C2C",
"R c #747474",
"S c #4C4C4C",
"T c #D09050",
"U c #A0A0A0",
"!!!!!!!!!!!!!!!!!!!!!!!!!!!!!!!!!!!!!!!!!!!!!!!!!!!!!!!!!!!!!!!!",
"!!!!!!!!!!!!!!!!!!!!!!!!!!!!!!!!!!!!!!!!!!!!!!!!!!!!!!!!!!!!!!!!",
"!!!!!!!!!!!!!!!!!!!!!!!!!!!!!!!!!!!!!!!!!!!!!!!!!!!!!!!!!!!!!!!!",
"!!!!!!!!!!!!!!!!!!!!!!!!!!!!!!!!!!!!!!!!!!!!!!!!!!!!!!!!!!!!!!!!",
"!!!!!!!!!!!!!!!!!!!!!!!!!!!!!!!!!!!!!!!!!!!!!!!!!!!!!!!!!!!!!!!!",
"!!!!!!!!!!!!!!!!!!!!!!!!!!!!!!!!!!!!!!!!!!!!!!!!!!!!!!!!!!!!!!!!",
"!!!!!!!!!!!!!!!!!!!!!!!!!!!!!!!!!!!!!!!!!!!!!!!!!!!!!!!!!!!!!!!!",
"!!!!!!!!!!!!!!!!!!!!!!!!!!!!!!!!!!!!!!!!!!!!!!!!!!!!!!!!!!!!!!!!",
"!!!!!!!!!!!!!!!!!!!!!!!!!!!!!!!!!!!!!!!!!!!!!!!!!!!!!!!!!!!!!!!!",
"!!!!!!!!!!!!!!!!!!!!!!!!!!!!!!!!!!!!!!!!!!!!!!!!!!!!!!!!!!!!!!!!",
"!!!!!!!!!!!!!!!!!!!!!!!!!!!!!!!!!!!!!!!!!!!!!!!!!!!!!!!!!!!!!!!!",
"!!!!!!!!!!!!!!!!!!!!!!!!!!!!!!!!!!!!!!!!!!!!!!!!!!!!!!!!!!!!!!!!",
"!!!!!!!!!!!!!!!!!!!!!!!!!!!!!!!!!!!!!!!!!!!!!!!!!!!!!!!!!!!!!!!!",
"!!!!!!!!!!!!!!!!!!!!!!!!!!!!!!!!!!#!!!!!!!!!!!!!!!!!!!!!!!!!!!!!",
"!!!!!!!!!!!!!!!!!!!!!!!!!!!!!!!!!!$!!!!!!!!!!!!!!!!!!!!!!!!!!!!!",
"!!!!!!!!!!!!!!!!!!!!!!!!!!!!!!!%!!&!!!!!!!!!!!!!!!!!!!!!!!!!!!!!",
"!!!!!!!!!!!!!!!!!!!!!!!!!!!!!!%'%%(!%%!!!!!!!!!!!!!!!!!!!!!!!!!!",
"!!!!!!!!!!!!!!!!!!!!!!!!!!!!!%')%%%%%%*!!!!!!!!!!!!!!!!!!!!!!!!!",
"!!!!!!!!!!!!!!!!!!!!!!!!!!%%%')+)))%''%*!!!!!!!!!!!!!!!!!!!!!!!!",
"!!!!!!!!!!!!!!!!!!!!!!!!,-./-))++++)''%0!!!!!!!!!!!!!!!!!!!!!!!!",
"!!!!!!!!!!!!!!!!!!!!!!!!%-123+++++4+'5%%*!!!!!!!!!!!!!!!!!!!!!!!",
"!!!!!!!!!!!!!!!!!!%%!!!%')33674++4+)%5%8*!!!!!!!!!!!!!!!!!!!!!!!",
"!!!!!!!!!!!!!!!!!%-%!''')+797777+)))'%%:*!%%!!!!!!!!!!!!!!!!!!!!",
"!!!!!!!!!!!!!!!!!%-%%+444+7774777444)''%%%'%%%%!!!!!!!!!!!!!!!!!",
"!!!!!!!!!!!!!!!!!!!%)')444477776;776+)76+%)''))))%!!!!!!!!!!!!!!",
"!!!!!!!!!!!!!!!!!%!'4+477776<=>==<;66677+4+%'47+'%%!!!!!!!!!!!!!",
"!!!!!!!!!!!!!!!!;9+)+477666;=<<==<;66666767))''))'%%3!!!!!!!!!!!",
"!!!!!!!!!!!!!!!!?@))+776<<==>><==<66;67667677+47))%%9!!!!!!!!!!!",
"!!!!!!!!!!!!!!!!AB))+76;<==CCC>>=<<<<<6;6;666774+))%D%!!!!!!!!!!",
"!!!!!!!!!!!!!!!!?%')+76<==>CCCCC>====<<<;;;;;674)))%%%!!!!!!!!!!",
"!!!!!!!!!!!!!!!%%''))776===>>CCCCC>======6<<<67+)))%%%!!!!!!!!!!",
"!!!!!!!!!!!!!!!%%+)++7766<=>>CCCCCC>>>===<===<64+)''E%!!!!!!!!!!",
"!!!!!!!!!!!!!!%%54)++77766<>>CCCCCCC>>>===>>==;74+''!!!!!!!!!!!!",
"!!!!!!!!!!!!%%'%%)+)47776<===>CC>>>>========<66744)5%!!!!!!!!!!!",
"!!!!!!!!!!!%''%)')+7766666<==>>>===<;;;;;;666664++)'%!!!!!!!!!!!",
"!!!!!!!!!!!))55%))+77776;<6<==>>=<<6777777776664)'%+%!!!!!!!!!!!",
"!!!!!!!!!!!!!%'%''))+47766;<<====<;674444777777+++%!!!!!!!!!!!!!",
"!!!!!!!!!!!!!%''55%''))4776;<====<;6676444444++)%%!!!!!!!!!!!!!!",
"!!!!!!!!!!!!!%%%%%+'%)+477766;===;;66744444'')))%%!!!!!!!!!!!!!!",
"!!!!!!!!!!!!!!!!!%)'%%)+44767<==<667+++4++))'%%%%%!!!!!!!!!!!!!!",
"!!!!!!!!!!!!!!!!!%%%%%%')+7666;66'%'))))))'))%F0G*!!!!!!!!!!!!!!",
"!!!!!!!!!!!!!!!!!%%%'%%%%'4767667'')))'%'%%'%FF*H0*!!!!!!!!!!!!!",
"!!!!!!!!!!!!!!!!*I%%'%%5%'4474444+++))%?%%%%FF*000I*!!!!!!!!!!!!",
"!!!!!!!!!!!!!!!!0J%%%%%%')4474))+))+)';;;%%;F*HI0IJI*!!!!!!!!!!!",
"!!!!!!!!!!!!!!!!!IKLMN%'')4+74)')''))'330033F*I*MOKJ0!!!!!!!!!!!",
"!!!!!!!!!!!!!!!!!!KPMN!%%%)'))'%%))%FF-****-FF*NMLKI!!!!!!!!!!!!",
"!!!!!!!!!!!!!!!!!!KLMN!!;;%;%%%'))%%%FF*I0QFFFFNMPK!!!!!!!!!!!!!",
"!!!!!!!!!!!!!!!!!!KRSN!!T?B?%%%)%%''''%*I0QFFFFNMLK!!!!!!!!!!!!!",
"!!!!!!!!!!!!!!!!!!KUKN!!;;;;%;F%%%%%%%F*I0QFFFFNSRK!!!!!!!!!!!!!",
"!!!!!!!!!!!!!!!!!!KOKN!!3333%3%%!!%%*FF0G0**FII0KUK!!!!!!!!!!!!!",
"!!!!!!!!!!!!!!!!!!KRKN!!--**--!!!HIII*Q0GI**IGHHKOK!!!!!!!!!!!!!",
"!!!!!!!!!!!!!!!!!!KRKN!!!0H0*!!!!GGGJI**J0IIJH!IKRK!!!!!!!!!!!!!",
"!!!!!!!!!!!!!!!!!!!KN!!!!0HI*!!!!G!!!GI0H0GG!!!!KRK!!!!!!!!!!!!!",
"!!!!!!!!!!!!!!!!!!!!!!!!!0HI*!!!!!!!!!!***!!!!!!NK!!!!!!!!!!!!!!",
"!!!!!!!!!!!!!!!!!!!!!!!!!0HI*!!!!!!!!!!!!!!!!!!!!!!!!!!!!!!!!!!!",
"!!!!!!!!!!!!!!!!!!!!!!!!!0HI*!!!!!!!!!!!!!!!!!!!!!!!!!!!!!!!!!!!",
"!!!!!!!!!!!!!!!!!!!!!!!!0IHII0!!!!!!!!!!!!!!!!!!!!!!!!!!!!!!!!!!",
"!!!!!!!!!!!!!!!!!!!!!!!!HGHIGH!!!!!!!!!!!!!!!!!!!!!!!!!!!!!!!!!!",
"!!!!!!!!!!!!!!!!!!!!!!!!*HHI0*!!!!!!!!!!!!!!!!!!!!!!!!!!!!!!!!!!",
"!!!!!!!!!!!!!!!!!!!!!!!!GIH0G!!!!!!!!!!!!!!!!!!!!!!!!!!!!!!!!!!!",
"!!!!!!!!!!!!!!!!!!!!!!GJI*J0IJH!!!!!!!!!!!!!!!!!!!!!!!!!!!!!!!!!",
"!!!!!!!!!!!!!!!!!!!!!HI0*!G!*IGH!!!!!!!!!!!!!!!!!!!!!!!!!!!!!!!!",
"!!!!!!!!!!!!!!!!!!!!!!!!!!!!!!!!!!!!!!!!!!!!!!!!!!!!!!!!!!!!!!!!",
"!!!!!!!!!!!!!!!!!!!!!!!!!!!!!!!!!!!!!!!!!!!!!!!!!!!!!!!!!!!!!!!!"
};