/* XPM */
static const char *boss_floor3_standing_f04[] = {
/* columns rows colors chars-per-pixel */
"64 64 30 1",
"! c None",
"# c #A06C3C",
"$ c #B08458",
"% c #C4A080",
"& c #D0B094",
"' c #E4D0C0",
"( c #A0A0A0",
") c #BCBCBC",
"* c #D8D8D8",
"+ c #A8784C",
", c #8C8C8C",
"- c #94602C",
". c #7C7C7C",
"/ c #980088",
"0 c #2C5480",
"1 c #346090",
"2 c #3C6CA0",
"3 c #4C78A8",
"4 c #244870",
"5 c #183450",
"6 c #142840",
"7 c #FCFCFC",
"8 c #C01010",
"9 c #805424",
": c #684018",
"; c #000000",
"< c #2C2C2C",
"= c #3C3C3C",
"> c #4C4C4C",
"? c #141414",
"!!!!!!!!!!!!!!!!!!!!!!!!!!!!!!!!!!!!!!!!!!!!!!!!!!!!!!!!!!!!!!!!",
"!!!!!!!!!!!!!!!!!!!!!!!!!!!!!!!!!!!!!!!!!!!!!!!!!!!!!!!!!!!!!!!!",
"!!!!!!!!!!!!!!!!!!!!!!!!!!!!!!!!!!!!!!!!!!!!!!!!!!!!!!!!!!!!!!!!",
"!!!!!!!!!!!!!!!!!!!!!!!!!!!!!!!!!!!!!!!!!!!!!!!!!!!!!!!!!!!!!!!!",
"!!!!!!!!!!!!!!!!!!!!!!!!!!!!!!!!!!!!!!!!!!!!!!!!!!!!!!!!!!!!!!!!",
"!!!!!!!!!!!!!!!!!!!!!!!!!!!!!!!!!!!!!!!!!!!!!!!!!!!!!!!!!!!!!!!!",
"!!!!!!!!!!!!!!!!!!!!!!!!!!!!!!!!!!!!!!!!!!!!!!!!!!!!!!!!!!!!!!!!",
"!!!!!!!!!!!!!!!!!!!!!!!!!!!!!!!!!!!!!!!!!!!!!!!!!!!!!!!!!!!!!!!!",
"!!!!!!!!!!!!!!!!!!!!!!!!!!!!!!!!!!!!!!!!!!!!!!!!!!!!!!!!!!!!!!!!",
"!!!!!!!!!!!!!!!!!!!!!!!!!!!!!!!!!!!!!!!!!!!!!!!!!!!!!!!!!!!!!!!!",
"!!!!!!!!!!!!!!!!!!!!!!!!!!!!!!!!!!!!!!!!!!!!!!!!!!!!!!!!!!!!!!!!",
"!!!!!!!!!!!!!!!!!!!!!!!!!!!!!!!!!!!!!!!!!!!!!!!!!!!!!!!!!!!!!!!!",
"!!!!!!!!!!!!!!!!!!!!!!!!!!!!!!!!!!!!!!!!!!!!!!!!!!!!!!!!!!!!!!!!",
"!!!!!!!!!!!!!!!!!!!!!!!!!!!!#$%%%%%$#!!!!!!!!!!!!!!!!!!!!!!!!!!!",
"!!!!!!!!!!!!!!!!!!!!!!!!!!!#$%&&'&&%$#!!!!!!!!!!!!!!!!!!!!!!!!!!",
"!!!!!!!!!!!!!!!!!!!!!!!!!!!(($%%%%%$((!!!!!!!!!!!!!!!!!!!!!!!!!!",
"!!!!!!!!!!!!!!!!!!!!!!!!!!!)*))((())*)!!!!!!!!!!!!!!!!!!!!!!!!!!",
"!!!!!!!!!!!!!!!!!!!!!!!!!!!()**)))**)(!!!!!!!!!!!!!!!!!!!!!!!!!!",
"!!!!!!!!!!!!!!!!!!!!!!!!!!!+))*****))+!!!!!!!!!!!!!!!!!!!!!!!!!!",
"!!!!!!!!!!!!!!!!!!!!!!!!!!!+,()))))(,+!!!!!!!!!!!!!!!!!!!!!!!!!!",
"!!!!!!!!!!!!!!!!!!!!!!!!!!!+-#.,*,*)-+!!!!!!!!!!!!!!!!!!!!!!!!!!",
"!!!!!!!!!!!!!!!!!!!!!!!!!!!!#+$+#)$+),.!)!!!!!!!!!!!!!!!!!!!!!!!",
"!!!!!!!!!!!!!!!!!!!!!!!!!!!!++%+#+%++/*)!!!!!!!!!!!!!!!!!!!!!!!!",
"!!!!!!!!!!!!!!!!!!!!!!!!!!!01222222210!!!!!!!!!!!!!!!!!!!!!!!!!!",
"!!!!!!!!!!!!!!!!!!!!!23322104566666540122332!!!!!!!!!!!!!!!!!!!!",
"!!!!!!!!!!!!!!!!!!!!2011111111111111111111102!!!!!!!!!!!!!!!!!!!",
"!!!!!!!!!!!!!!!!!!!!2101100011100011100011012!!!!!!!!!!!!!!!!!!!",
"!!!!!!!!!!!!!!!!!!!!2004010000000000000104002!!!!!!!!!!!!!!!!!!!",
"!!!!!!!!!!!!!!!!!!!!2000400000000000000040002!!!!!!!!!!!!!!!!!!!",
"!!!!!!!!!!!!!!!!!!!!2100040010000000100400012!!!!!!!!!!!!!!!!!!!",
"!!!!!!!!!!!!!!!!!!!!3040050000111110000500403!!!!!!!!!!!!!!!!!!!",
"!!!!!!!!!!!!!!!!!!!!2004464000000000004644002!!!!!!!!!!!!!!!!!!!",
"!!!!!!!!!!!!!!!!!!!!!20546440000400004464502!!!!!!!!!!!!!!!!!!!!",
"!!!!!!!!!!!!!!!!!!!!2110550444444444440550112!!!!!!!!!!!!!!!!!!!",
"!!!!!!!!!!!!!!!!!!!!!04446400455555400464440!!!!!!!!!!!!!!!!!!!!",
"!!!!!!!!!!!!!!!!!!!!2110465400011100045640112!!!!!!!!!!!!!!!!!!!",
"!!!!!!!!!!!!!!!!!!!!3004456544000004456544003!!!!!!!!!!!!!!!!!!!",
"!!!!!!!!!!!!!!!!!!!!2100464045555555404640012!!!!!!!!!!!!!!!!!!!",
"!!!!!!!!!!!!!!!!!!!!2000464400000000044640002!!!!!!!!!!!!!!!!!!!",
"!!!!!!!!!!!!!!!!!!!!3004450040010100400544003!!!!!!!!!!!!!!!!!!!",
"!!!!!!!!!!!!!!!!!!!!!)7)/450111161111054/)78!!!!!!!!!!!!!!!!!!!!",
"!!!!!!!!!!!!!!!!!!!!!%#9#045555545555540#9#%!!!!!!!!!!!!!!!!!!!!",
"!!!!!!!!!!!!!!!!!!!!!%$:$244000444000442$:$%!!!!!!!!!!!!!!!!!!!!",
"!!!!!!!!!!!!!!!!!!!!!%$#90044556665544009#$%!!!!!!!!!!!!!!!!!!!!",
"!!!!!!!!!!!!!!!!!!!!!#999100004565400001999#!!!!!!!!!!!!!!!!!!!!",
"!!!!!!!!!!!!!!!!!!!!!!!!!210004565400002!!!!!!!!!!!!!!!!!!!!!!!!",
"!!!!!!!!!!!!!!!!!!!!!!!!!310004565400012!!!!!!!!!!!!!!!!!!!!!!!!",
"!!!!!!!!!!!!!!!!!!!!!!!!!311004565400012!!!!!!!!!!!!!!!!!!!!!!!!",
"!!!!!!!!!!!!!!!!!!!!!!!!!201110565401103!!!!!!!!!!!!!!!!!!!!!!!!",
"!!!!!!!!!!!!!!!!!!!!!!!!!210440565044012!!!!!!!!!!!!!!!!!!!!!!!!",
"!!!!!!!!!!!!!!!!!!!!!!!!!!2000456540002!!!!!!!!!!!!!!!!!!!!!!!!!",
"!!!!!!!!!!!!!!!!!!!!!!!!!214555060554412!!!!!!!!!!!!!!!!!!!!!!!!",
"!!!!!!!!!!!!!!!!!!!!!!!!!300110464001103!!!!!!!!!!!!!!!!!!!!!!!!",
"!!!!!!!!!!!!!!!!!!!!!!!!!200044464440002!!!!!!!!!!!!!!!!!!!!!!!!",
"!!!!!!!!!!!!!!!!!!!!!!!!!210000464000012!!!!!!!!!!!!!!!!!!!!!!!!",
"!!!!!!!!!!!!!!!!!!!!!!!!!!2000046400002!!!!!!!!!!!!!!!!!!!!!!!!!",
"!!!!!!!!!!!!!!!!!!!!!!!!!!2000046400002!!!!!!!!!!!!!!!!!!!!!!!!!",
"!!!!!!!!!!!!!!!!!!!!!!!!!!2000046400002!!!!!!!!!!!!!!!!!!!!!!!!!",
"!!!!!!!!!!!!!!!!!!!!!!!!!!2100046400012!!!!!!!!!!!!!!!!!!!!!!!!!",
"!!!!!!!!!!!!!!!!!!!!!!!!!!210004!400012!!!!!!!!!!!!!!!!!!!!!!!!!",
"!!!!!!!!!!!!!!!!!!!!!!!!!!;<<<;!!!;<<<;!!!!!!!!!!!!!!!!!!!!!!!!!",
"!!!!!!!!!!!!!!!!!!!!!!!!!;<=>=<;!;<=>=<;!!!!!!!!!!!!!!!!!!!!!!!!",
"!!!!!!!!!!!!!!!!!!!!!!!!!;====<?!;<====;!!!!!!!!!!!!!!!!!!!!!!!!",
"!!!!!!!!!!!!!!!!!!!!!!!!!!;;;;;;!;;;;;;!!!!!!!!!!!!!!!!!!!!!!!!!"
};