/* XPM */
static char *wall_r03_c08[] = {
"64 64 25 1",
"a	c #C0D0E4",
"b	c #A8BCD8",
"c	c #94B0D0",
"d	c #008C00",
"e	c #5CD85C",
"f	c #B8ECB8",
"g	c #78E078",
"h	c #00A400",
"i	c #80A0C4",
"j	c #6C90BC",
"k	c #643000",
"l	c #743804",
"m	c #2C5480",
"n	c #5884B0",
"o	c #502400",
"p	c #884404",
"q	c #AC580C",
"r	c #984C08",
"s	c #3C6CA0",
"t	c #C06410",
"u	c #C47024",
"v	c #CC8038",
"w	c #D09050",
"x	c #D89C64",
"y	c #4C78A8",
"aaaaaaaaaaaaaaaaaaaaaaaaaaaaaaaaaaaaaaaaaaaaaaaaaaaaaaaaaaaaaaaa",
"bbbbbbbbbbbbbbbbbbbbbbbbbbbbbbbbbbbbbbbbbbbbbbbbbbbbbbbbbbbbbbbb",
"cccccccccccccccccccccccccccccccccccccccccccccccccccccccccccccccc",
"dddddddddddddddddddddddddddddddddddddddddddddddddddddddddddddddd",
"eeeeeeeeeeeeeeeeeeeeeeeeeeeeeeeeeeeeeeeeeeeeeeeeeeeeeeeeeeeeeeee",
"ffffffffffffffffffffffffffffffffffffffffffffffffffffffffffffffff",
"gggggggggggggggggggggggggggggggggggggggggggggggggggggggggggggggg",
"hhhhhhhhhhhhhhhhhhhhhhhhhhhhhhhhhhhhhhhhhhhhhhhhhhhhhhhhhhhhhhhh",
"cccccccccccccccccccccccccccccccccccccccccccccccccccccccccccccccc",
"iiiiiiiiiiiiiiiiiiiiiiiiiiiiiiiiiiiiiiiiiiiiiiiiiiiiiiiiiiiiiiii",
"jjjjjjjjjjjjjjjjjjjjjjjjjjjjjjjjjjjjjjjjjjjjjjjjjjjjjjjjjjjjjjjj",
"klllllllllllllllllllllllllllllmnjcklllllllllllllllllllllllllllll",
"olppppppppppppqolpppppppppppprsicaolppppppppppppqolppppppppppppq",
"okprrrrrrrrrrtuokprrrrrrrrrrtlsicaokprrrrrrrrrrtuokprrrrrrrrrrtu",
"oklrqqqqqqqquvuoklrqqqqqqqquvlsicaoklrqqqqqqqquvuoklrqqqqqqqquvu",
"oklptttttttvwvuoklptttttttvwvlsicaoklptttttttvwvuoklptttttttvwvu",
"oklpuuuuuuuxwvuoklpuuuuuuuxwvlsicaoklpuuuuuuuxwvuoklpuuuuuuuxwvu",
"oklpvvvvvvvxwvuoklpvvvvvvvxwvlsicaoklpvvvvvvvxwvuoklpvvvvvvvxwvu",
"oklpwwwwwwwxwvuoklpwwwwwwwxwvlsicaoklpwwwwwwwxwvuoklpwwwwwwwxwvu",
"oklpxxxxxxxxwvuoklpxxxxxxxxwvlsicaoklpxxxxxxxxwvuoklpxxxxxxxxwvu",
"oklpwwwwwwwxwvuoklpwwwwwwwxwvlsicaoklpwwwwwwwxwvuoklpwwwwwwwxwvu",
"oklpvvvvvvvxwvuoklpvvvvvvvxwvlsicaoklpvvvvvvvxwvuoklpvvvvvvvxwvu",
"oklpuuuuuuuxwvuoklpuuuuuuuxwvlsicaoklpuuuuuuuxwvuoklpuuuuuuuxwvu",
"oklptttttttvwvuoklptttttttvwvlsicaoklptttttttvwvuoklptttttttvwvu",
"oklrqqqqqqqquvuoklrqqqqqqqquvlsicaoklrqqqqqqqquvuoklrqqqqqqqquvu",
"okprrrrrrrrrrtuokprrrrrrrrrrtlsicaokprrrrrrrrrrtuokprrrrrrrrrrtu",
"olppppppppppppqolpppppppppppprsicaolppppppppppppqolppppppppppppq",
"klllllllllllllllllllllllllllllsicaklllllllllllllllllllllllllllll",
"olppppppppppppppppppppppppppprsicaolpppppppppppppppppppppppppppq",
"okprrrrrrrrrrrrrrrrrrrrrrrrrtlsicaokprrrrrrrrrrrrrrrrrrrrrrrrrtu",
"oklrqqqqqqqqqqqqqqqqqqqqqqquvlsicaoklrqqqqqqqqqqqqqqqqqqqqqqquvu",
"oklpttttttttttttttttttttttvwvlsicaoklpttttttttttttttttttttttvwvu",
"oklpuuuuuuuuuuuuuuuuuuuuuuxwvlsicaoklpuuuuuuuuuuuuuuuuuuuuuuxwvu",
"oklpvvvvvvvvvvvvvvvvvvvvvvxwvlsicaoklpvvvvvvvvvvvvvvvvvvvvvvxwvu",
"oklpwwwwwwwwwwwwwwwwwwwwwwxwvlsicaoklpwwwwwwwwwwwwwwwwwwwwwwxwvu",
"oklpxxxxxxxxxxxxxxxxxxxxxxxwvlsicaoklpxxxxxxxxxxxxxxxxxxxxxxxwvu",
"oklpwwwwwwwwwwwwwwwwwwwwwwxwvlsicaoklpwwwwwwwwwwwwwwwwwwwwwwxwvu",
"oklpvvvvvvvvvvvvvvvvvvvvvvxwvlsicaoklpvvvvvvvvvvvvvvvvvvvvvvxwvu",
"oklpuuuuuuuuuuuuuuuuuuuuuuxwvlsicaoklpuuuuuuuuuuuuuuuuuuuuuuxwvu",
"oklpttttttttttttttttttttttvwvlsicaoklpttttttttttttttttttttttvwvu",
"oklrqqqqqqqqqqqqqqqqqqqqqqquvlsicaoklrqqqqqqqqqqqqqqqqqqqqqqquvu",
"okprrrrrrrrrrrrrrrrrrrrrrrrrtlsicaokprrrrrrrrrrrrrrrrrrrrrrrrrtu",
"olppppppppppppppppppppppppppprsicaolpppppppppppppppppppppppppppq",
"klllllllllllllllllllllllllllllsicaklllllllllllllllllllllllllllll",
"olppppppppppppppppppppppppppprsicaolpppppppppppppppppppppppppppq",
"okprrrrrrrrrrrrrrrrrrrrrrrrrtlsicaokprrrrrrrrrrrrrrrrrrrrrrrrrtu",
"oklrqqqqqqqqqqqqqqqqqqqqqqquvlsicaoklrqqqqqqqqqqqqqqqqqqqqqqquvu",
"oklpttttttttttttttttttttttvwvlsicaoklpttttttttttttttttttttttvwvu",
"oklpuuuuuuuuuuuuuuuuuuuuuuxwvlsicaoklpuuuuuuuuuuuuuuuuuuuuuuxwvu",
"oklpvvvvvvvvvvvvvvvvvvvvvvxwvlsicaoklpvvvvvvvvvvvvvvvvvvvvvvxwvu",
"oklpwwwwwwwwwwwwwwwwwwwwwwxwvlsicaoklpwwwwwwwwwwwwwwwwwwwwwwxwvu",
"oklpxxxxxxxxxxxxxxxxxxxxxxxwvlsicaoklpxxxxxxxxxxxxxxxxxxxxxxxwvu",
"oklpwwwwwwwwwwwwwwwwwwwwwwxwvlsicaoklpwwwwwwwwwwwwwwwwwwwwwwxwvu",
"oklpvvvvvvvvvvvvvvvvvvvvvvxwvlsicaoklpvvvvvvvvvvvvvvvvvvvvvvxwvu",
"oklpuuuuuuuuuuuuuuuuuuuuuuxwvlsicaoklpuuuuuuuuuuuuuuuuuuuuuuxwvu",
"oklpttttttttttttttttttttttvwvlsicaoklpttttttttttttttttttttttvwvu",
"oklrqqqqqqqqqqqqqqqqqqqqqqquvlsicaoklrqqqqqqqqqqqqqqqqqqqqqqquvu",
"okprrrrrrrrrrrrrrrrrrrrrrrrrtlsicaokprrrrrrrrrrrrrrrrrrrrrrrrrtu",
"olppppppppppppppppppppppppppprsicaolpppppppppppppppppppppppppppq",
"klllllllllllllllllllllllllllllsicaklllllllllllllllllllllllllllll",
"aaaaaaaaaaaaaaaaaaaaaaaaaaaacjsicaaaaaaaaaaaaaaaaaaaaaaaaaaaaaaa",
"cccccccccccccccccccccccccccccjsicacccccccccccccccccccccccccccccc",
"cccccccccccccccccccccccccccccjsicacccccccccccccccccccccccccccccc",
"yyyyyyyyyyyyyyyyyyyyyyyyyyyyyymsayyyyyyyyyyyyyyyyyyyyyyyyyyyyyyy"
};