/* XPM */
static char *wall_r11_c07[] = {
"64 64 26 1",
"a	c #848484",
"b	c #747474",
"c	c #444444",
"d	c #A0A0A0",
"e	c #3C3C3C",
"f	c #7C7C7C",
"g	c #8C8C8C",
"h	c #242424",
"i	c #4C4C4C",
"j	c #B0B0B0",
"k	c #5C5C5C",
"l	c #545454",
"m	c #6C6C6C",
"n	c #989898",
"o	c #94980C",
"p	c #C42424",
"q	c #2C2C2C",
"r	c #0C0C0C",
"s	c #1C1C1C",
"t	c #343434",
"u	c #000000",
"v	c #141414",
"w	c #2C2C00",
"x	c #3C3C00",
"y	c #505000",
"z	c #646400",
"abcddddeeddddeeddddeeddddeeddddeeddddeeddddeeddddeeddddeeddddeba",
"abcfdgdeefdgdeefdgdeefdgdeefdgdeefdgdeefdgdeefdgdeefdgdeefdgdeba",
"abcfcgdeefcgdeefcgdeefcgdeefcgdeefcgdeefcgdeefcgdeefcgdeefcgdeba",
"abecccdeecccdeecccdeecccdeecccdeecccdeecccdeecccdeecccdeecccdeba",
"abehhhheehhhhiihhhhiihhhhiihhhhiihhhhiihhhhiihhhhiihhhheehhhheba",
"abeeeeeeibbbbbbbbbbbbbbbbbbbbbbbbbbbbbbbbbbbbbbbbbbbbbbieeeeeeba",
"abeeeeeibddddddddddddddddddddddddddddddddddddddddddddddbieeeeeba",
"abeeeeibdjjjjjjjjjjjjjjjjjjjjjjjjjjjjjjjjjjjjjjjjjjjjjjdbieeeeba",
"abeeeibdjddddddddddddddddddddddddddddddddddddddddddddddjdbieeeba",
"abeeibdjdddaaaaaaaaaaaaaaaaaaaaaaaaaaaaaaaaaaaaaaaaaadddjdbieeba",
"abeibdjddafkkkkkkkkkkkkkkkkkkkkkkkkkkkkkkkkkkkkkkkkkkfaddjdbieba",
"abebdjddafkeelaaaaaaaaaaaaaaaaaaaaaaaaaaaaaaaaaaaaabekfaddjdbeba",
"abebdjddakeelbbbbbbbbbbbbbbbbbbbbbbbbbbbbbbbbbbbbbbgbekaddjdbeba",
"abebdjddakehbbmmmmmmmmmmmmmmmmmmmmmmmmmmmmmmmmmmmmbbnekaddjdbeba",
"abebdjddakehbmkkkoookkkookkookkokkoookooookoookkkkkbgekaddjdbeba",
"abebdjddakehbmkkkkkkokokkokokokokokkkkkkkkkkkkokkkkbgekaddjdbeba",
"abebdjddakehbmkkkokkokokkokokokokokookoookkoookkkkkbgekaddjdbeba",
"abebdjddakehbmkkkokkokokookokokokokkokokkkkokkokkkkbgekaddjdbeba",
"abebdjddakehbmkkkoookkokkokokkookkoookooookokkokkkkbgekaddjdbeba",
"abebdjddakehbmkkkkkkkkkkkkkkkkkkkkkkkkkkkkkkkkkkkkkbgekaddjdbeba",
"abbbbbbbbbbhfbmmmmmmmmmmmkkkkbccccccckkkkkkkkkkkkkbbnbbbbbbbbbba",
"abiiiiiiiiihhfbbbbbbbbbbbmkkkbpppqcbckkmbbbbbbbbbbbgqiiiiiiiiiba",
"abqhhhhhhhhhhhhhhhhhhhhhhfmkkbppqcbpckmanrrrrrrrrrrshhhhhhhhhqba",
"abtqqqqqqqqqqqqqqqqqqqqqhhfmkbpqcbppckfgsqqqqqqqqqqqqqqqqqqqqtba",
"abttttttttttttttttttttttthfmkbqcbpppckfgttttttttttttttttttttttba",
"abccccccccccccccccccccccchfmkbcbppppckfgccccccccccccccccccccccba",
"abcdddddddqrdddddddddddddhfmkbbppppqckfgddddddddddddqrdddddddcba",
"abcagggggaqrggggggggggggghfmkbppppqcckfgggggggggggggqragggggacba",
"abcbcccccbqrccccccccccccchfmkbpppqcbckfgccccccccccccqrbcccccbcba",
"abcblllllbqrlllllllllllllhfmkbppqcbpckfgllllllllllllqrblllllbcba",
"abcbbbbbbbqrbbbbbbbbbbbbbhfmkbpqcbppckfgbbbbbbbbbbbbqrbbbbbbbcba",
"abcqqqqqqqqqqqqqqqqqqqqqqhfmkbqcbpppckfgqqqqqqqqqqqqqqqqqqqqqcba",
"abctttttttttttttttttttttthafmbcbppppcffgtttttttttttttttttttttcba",
"abceeeeeeeeeeeeeeeeeeeeeeesaffffffffffgseeeeeeeeeeeeeeeeeeeeecba",
"abcccccccccccccccccccccccctrrrrrrrrrrrscccccccccccccccccccccccba",
"bbttttttttttttttttttttttttttttttttttttttttttttttttttttttttttttbb",
"iehhhhhhhhhhhhhhhhhhhhhhhhhhhhhhhhhhhhhhhhhhhhhhhhhhhhhhhhhhhhei",
"uuuuuuuuuuuuuuuuuuuuuuuuuuuuuuuuuuuuuuuuuuuuuuuuuuuuuuuuuuuuuuuu",
"uuuuuuuuuuuuuuuuuuuuuuuuuuuuuuuuuuuuuuuuuuuuuuuuuuuuuuuuuuuuuuuu",
"bbbbbbbbbbbbbbbbbbbbbbbbbbbbbbbbbbbbbbbbbbbbbbbbbbbbbbbbbbbbbbbb",
"lllllllabllllllllllllllllllllllllllllllllllllllllllllllballlllll",
"eeeeeeeeabeeeeeeeeeeeeeeeeeeeeeeeeeeeeeeeeeeeeeeeeeeeebaeeeeeeee",
"eeeeeeeeeabeeeeeeeeeeeeeeeeeeeeeeeeeeeeeeeeeeeeeeeeeebaeeeeeeeee",
"lllllleeeeabllllllllllllllllllllllllllllllllllllllllbaeeeellllll",
"tttttcleeeeablttttttttttttttttttttttttttttttttttttlbaeeeelcttttt",
"hhhhhhcleeeeablhhhhhhhhhhhhhhhhhhhhhhhhhhhhhhhhhhlbaeeeelchhhhhh",
"ssssssscleeeeablsssssssssssssssssssssssssssssssslbaeeeelcsssssss",
"vvvvvvvvcleeeeablvvvvvvvvvvvvvvvvvvvvvvvvvvvvvvlbaeeeelcvvvvvvvv",
"wwwwwwwwwcleeeeablwwwwwwwwwwwwwwwwwwwwwwwwwwwwlbaeeeelcwwwwwwwww",
"xxxxxxxxxxcleeeeablxxxxxxxxxxxxxxxxxxxxxxxxxxlbaeeeelcxxxxxxxxxx",
"yyyyyyyyyyycleeeeablyyyyyyyyyyyyyyyyyyyyyyyylbaeeeelcyyyyyyyyyyy",
"zzzzzzzzzzzzcleeeeabzzzzzzzzzzzzzzzzzzzzzzzzbaeeeelczzzzzzzzzzzz",
"yyyyyyyyyyyybaeeeeabyyyyyyyyyyyyyyyyyyyyyyyybaeeeeabyyyyyyyyyyyy",
"xxxxxxxxxxxbaeeeeablxxxxxxxxxxxxxxxxxxxxxxxxlbaeeeeabxxxxxxxxxxx",
"wwwwwwwwwwbaeeeeablwwwwwwwwwwwwwwwwwwwwwwwwwwlbaeeeeabwwwwwwwwww",
"uuuuuuuuubaeeeeabluuuuuuuuuuuuuuuuuuuuuuuuuuuulbaeeeeabuuuuuuuuu",
"vvvvvvvvbaeeeeablvvvvvvvvvvvvvvvvvvvvvvvvvvvvvvlbaeeeeabvvvvvvvv",
"sssssssbaeeeeablsssssssssssssssssssssssssssssssslbaeeeeabsssssss",
"hhhhhhbaeeeeablhhhhhhhhhhhhhhhhhhhhhhhhhhhhhhhhhhlbaeeeeabhhhhhh",
"tttttbaeeeeablttttttttttttttttttttttttttttttttttttlbaeeeeabttttt",
"bbbbbbeeeeabbbbbbbbbbbbbbbbbbbbbbbbbbbbbbbbbbbbbbbbbbaeeeebbbbbb",
"llllleeeelllllllllllllllllllllllllllllllllllllllllllllleeeelllll",
"eeeeeeeeeeeeeeeeeeeeeeeeeeeeeeeeeeeeeeeeeeeeeeeeeeeeeeeeeeeeeeee",
"eeeeeeeeeeeeeeeeeeeeeeeeeeeeeeeeeeeeeeeeeeeeeeeeeeeeeeeeeeeeeeee"
};