/* XPM */
static char *wall_r03_c01[] = {
"64 64 46 1",
"a	c #3884CC",
"b	c #0C5CAC",
"c	c #5090D0",
"d	c #043C74",
"e	c #C4C4C4",
"f	c #989898",
"g	c #646464",
"h	c #A8A8A8",
"i	c #7C7C7C",
"j	c #003064",
"k	c #2474C4",
"l	c #044488",
"m	c #000000",
"n	c #747474",
"o	c #848484",
"p	c #B0B0B0",
"q	c #8C8C8C",
"r	c #A0A0A0",
"s	c #141414",
"t	c #0C0C0C",
"u	c #545454",
"v	c #2C2C2C",
"w	c #00A4A4",
"x	c #28C8C8",
"y	c #00BCBC",
"z	c #78E0E0",
"A	c #40D0D0",
"B	c #5CD8D8",
"C	c #B4ECEC",
"D	c #D8F4F4",
"E	c #98E4E4",
"F	c #201408",
"G	c #301C0C",
"H	c #402810",
"I	c #343434",
"J	c #60401C",
"K	c #3C3C3C",
"L	c #704820",
"M	c #805424",
"N	c #A06C3C",
"O	c #503418",
"P	c #A8784C",
"Q	c #94602C",
"R	c #10C0C0",
"S	c #085098",
"T	c #1068C0",
"aaaaaaaaaaaaaaaaaaaaaaaaaaaaaaaaaaaaaaaaaaaaaaaaaaaaaaaaaaaaaaaa",
"bcbdbcbdbcefgcbdbcbdbcbdbcbdbcbdbcbdbcbdbcbdbcbdbcefgcbdbcbdbcbd",
"babdbabdbehfigjdbabdbabdbabdbabdbabdbabdbabdbabdbehfigjdbabdbabd",
"babdbabdbehfigjdbabdbabdbabdbabdbabdbabdbabdbabdbehfigjdbabdbabd",
"kkkkkkkkkehfiglkkkkkkkkkkkkkkkkkkkkkkkkkkkkkkkkkkehfiglkkkkkkkkk",
"mmmmmmmmmehfigmmfnnnnnofngnfonnnnnnongnfonnnnnnmmehfigmmmmmmmmmm",
"mmmmmmmmmehfigmmpqooooqrpngnproooqrngnprqoooonnmmehfigmmmmmmmmmm",
"sttttttttehfigtteprffffrpeogoeppppogoeprffffronttehfigtttttttttt",
"qqqqqqqqqehfiguueprfffffrpeogoeeeogoeprfffffronuuehfigugqqqqqqqq",
"uuuuuuuuuehfigvveprffffffpeeogggggoeepffffffronvvehfigvvuuuuuuuu",
"wwwwwwwwwehfigxxeprffffffpeogoeeeogoepffffffronxxehfigxywwwwwwww",
"xxxxxxxxxeeeegzzeprfffffrpogoeppppogoprfffffronzzeeeegzAxxxxxxxx",
"BBBBBBBBBehhhgCCeprffffrpogoeprffrpogoprffffronCCehhhgCzBBBBBBBB",
"zzzzzzzzzefffgDDeprfffrpogoeprffffrpogoprfffronDDefffgDEzzzzzzzz",
"EEEEEEEEEeiiigDDeprffrpogoeprffffffrpogoprffronDDeiiigDCEEEEEEEE",
"BBBBBBBBBnggggCCeprfrpogoeprffffffffrpogoprfronCCnggggCzBBBBBBBB",
"xxxxxxxxxehfigzzeprrpogoeprffffffffffrpogoprronzzehfigzAxxxxxxxx",
"uuuuuuuuuehfigvveprpogoeprffffffffffffrpogopronvvehfigvvuuuuuuuu",
"qqqqqqqqqehfiguuqppogoeprffffffffffffffrpogoppquuehfigugqqqqqqqq",
"FFFFFFFFFehfigFFnooggoeooooooooooooooooopoggoonFFehfigFGFFFFFFFF",
"HHHHHHHHHehfigFFnIIIInqnnnnnnnnnnnnnnnnnqnIIIInFFehfigFGHHHHHHHH",
"JJJJJJJJJehfigFFnKKKKneeeeeeeeeeeeeeeeeehnKKKKnFFehfigFGJJJJJJJJ",
"JJJJJJJJJeeeegFFnooggoeooooooooooooooooopoggoonFFeeeegFGJJJJJJJJ",
"JJJJJJJJJehhhgFFqeeogoeprrrrrrrrrrrrrrrrpogoeeqFFehhhgFGJJJJJJJJ",
"JJJLMMMMMefffgFHeppeogoepfffffffffffffrpogoeponFGefffgFHMMMMLJJJ",
"JJLMFFFFFeiiigFFeprpeogoepfffffffffffrpogoepronFFeiiigFGFFFFLLJJ",
"JJMFFFFFFnggggFFeprrpeogoepfffffffffrpogoeprronFFnggggFGFFFFFMJJ",
"JJMNHHHHHeeeegFFeprfrpeogoepfffffffrpogoeprfronFFeeeegFGHHHHNMJJ",
"JJJMNNNNNehhhgHJeprffrpeogoepfffffrpogoeprffronHOehhhgHJNNNPMJJJ",
"MMMMMMMMMefffgFHeprfffrpeogoepfffrpogoeprfffronFGefffgFHMMMMMMMM",
"FFFFFFFFFeiiigFFeprffffrpeogoeppppogoeprffffronFFeiiigFGFFFFFFFF",
"FFFFFFFFFnggggFFeprfffffrpeogoeeeogoeprfffffronFFnggggFGFFFFFFFF",
"QQQQQQQQQeeeegGOeprffffffpeeogggggoeepffffffronGHeeeegGOQQQQQQQQ",
"JJJJJJJJJehhhgFFeprffffffpeogoeeeogoepffffffronFFehhhgFGJJJJJJJJ",
"JJJLMMMMMefffgFHeprfffffrpogoeppppogoprfffffronFGefffgFHMMMMLJJJ",
"JJLMFFFFFeiiigFFeprffffrpogoeprffrpogoprffffronFFeiiigFGFFFFLLJJ",
"JJMFFFFFFnggggFFeprfffrpogoeprffffrpogoprfffronFFnggggFGFFFFFMJJ",
"JJMNHHHHHeeeegFFeprffrpogoeprffffffrpogoprffronFFeeeegFGHHHHNMJJ",
"JJJMNNNNNehhhgHJeprfrpogoeprffffffffrpogoprfronHOehhhgHJNNNPMJJJ",
"JJJLMMMMMefffgFHeprrpogoeprffffffffffrpogoprronFGefffgFHMMMMLJJJ",
"JJLMFFFFFeiiigFFeprpogoeprffffffffffffrpogopronFFeiiigFGFFFFLLJJ",
"JJMFFFFFFnggggFFqppogoeprffffffffffffffrpogoppqFFnggggFGFFFFFMJJ",
"JJMNHHHHHehfigFFnooggoeooooooooooooooooopoggoonFFehfigFGHHHHNMJJ",
"JJJMNNNNNehfigHJnIIIInqnnnnnnnnnnnnnnnnnqnIIIInHOehfigHJNNNPMJJJ",
"JJJJJJJJJehfigFFnKKKKneeeeeeeeeeeeeeeeeehnKKKKnFFehfigFGJJJJJJJJ",
"qqqqqqqqqehfiguunooggoeooooooooooooooooopoggoonuuehfigugqqqqqqqq",
"uuuuuuuuuehfigvvqeeogoepfffffffffffffffrpogoeeqvvehfigvvuuuuuuuu",
"xxxxxxxxxehfigzzeppeogoepfffffffffffffrpogoeponzzehfigEAxxxxxxxx",
"BBBBBBBBBeeeegCCeprpeogoepfffffffffffrpogoepronCCeeeegDEBBBBBBBB",
"EEEEEEEEEehhhgDDeprrpeogoepfffffffffrpogoeprronDDehhhgDDEEEEEEEE",
"zzzzzzzzzefffgDDeprfrpeogoepfffffffrpogoeprfronDDefffgDCzzzzzzzz",
"BBBBBBBBBeiiigCCeprffrpeogoepfffffrpogoeprffronCCeiiigDEBBBBBBBB",
"xxxxxxxxxnggggzzeprfffrpeogoepfffrpogoeprfffronzznggggEBxxxxxxxx",
"wwwwwwwwwehfigxxeprffffrpeogoeppppogoeprffffronxxehfigARwwwwwwww",
"uuuuuuuuuehfigvveprfffffrpeogoeeeogoeprfffffronvvehfigvvuuuuuuuu",
"qqqqqqqqqehfiguueprffffffpeeogggggoeepffffffronuuehfigugqqqqqqqq",
"mmmmmmmmmehfigmmeprffffffpeogoeeeogoepffffffronmmehfigmmmmmmmmmm",
"mmmmmmmmmehfigmmeprfffffrpogoeppppogoprfffffronmmehfigmmmmmmmmmm",
"mmmmmmmmmehfigmmeprffffrpogoeprffrpogoprffffronmmehfigmmmmmmmmmm",
"sttttttttehfigtteprfffrpogoeprffffrpogoprfffronttehfigtttttttttt",
"kkkkkkkkkehfigSkkkkkkkkkkkkkkkkkkkkkkkkkkkkkkkkkkehfigSkkkkkkkkk",
"dddddddddehfigjddddddddddddddddddddddddddddddddddehfigjddddddddd",
"lllllllllehfigjllllllllllllllllllllllllllllllllllehfigjlllllllll",
"TTTTTTTTTTefglTTTTTTTTTTTTTTTTTTTTTTTTTTTTTTTTTTTTefglTTTTTTTTTT"
};