/* XPM */
static char *wall_r02_c07[] = {
"64 64 37 1",
"a	c #3884CC",
"b	c #0C5CAC",
"c	c #5090D0",
"d	c #043C74",
"e	c #2474C4",
"f	c #0C0C0C",
"g	c #1C1C1C",
"h	c #242424",
"i	c #2C2C2C",
"j	c #343434",
"k	c #8C8C8C",
"l	c #989898",
"m	c #A0A0A0",
"n	c #A8A8A8",
"o	c #B0B0B0",
"p	c #5C5C5C",
"q	c #3C3C3C",
"r	c #646464",
"s	c #747474",
"t	c #848484",
"u	c #00A4A4",
"v	c #28C8C8",
"w	c #00BCBC",
"x	c #5CD8D8",
"y	c #78E0E0",
"z	c #98E4E4",
"A	c #201408",
"B	c #402810",
"C	c #60401C",
"D	c #A8784C",
"E	c #A06C3C",
"F	c #503418",
"G	c #805424",
"H	c #301C0C",
"I	c #94602C",
"J	c #141414",
"K	c #044488",
"aaaaaaaaaaaaaaaaaaaaaaaaaaaaaaaaaaaaaaaaaaaaaaaaaaaaaaaaaaaaaaaa",
"bcbdbcbdbcbdbcbdbcbdbcbdbcbdbcbdbcbdbcbdbcbdbcbdbcbdbcbdbcbdbcbd",
"babdbabdbabdbabdbabdbabdbabdbabdbabdbabdbabdbabdbabdbabdbabdbabd",
"babdbabdbabdbabdbabdbabdbabdbabdbabdbabdbabdbabdbabdbabdbabdbabd",
"eeeeeeeeeeeeeeeeeeeeeeeeeeeeeeeeeeeeeeeeeeeeeeeeeeeeeeeeeeeeeeee",
"fffffffffffffffffffffffffffffffffffffffffffffffffffffffffffffffg",
"hhhhhhhhhhhhhhhhhhhhhhhhhhhhhhhhhhhhhhhhhhhhhhhhhhhhhhhhhhhhhhhi",
"jjjjjjjjjjjjjjjjjjjjjjjjjjjjjjjjjjjjjjjjjjjjjjjjjjjjjjjjjjjjjjjj",
"kkkkkkkklmnooooonmlkkkkkkkpqqqqqqqqqqpkkkkkkkklmnooooonmlkkkkkkk",
"okrsolkktsrrrrrrrrrrrrrrrrkpqqqqqqqqpkrrrrrrrrrrrrrrrsolkktsrsok",
"okuuolkktsuuuuuuuuuuuuuuuurkpjqqqqjpkruuuuuuuuuuuuuuuuolkktsuuok",
"okvvolkktsvvvvvvvvvvvvvvvwurkpiqqipkruwvvvvvvvvvvvvvvvolkktsvvok",
"okxxolkktsxxxxxxxxxxxxxxxvwurkpiipkruwvxxxxxxxxxxxxxxxolkktsxxok",
"okyyolkktsyyyyyyyyyyyyyyyxvwurkhhkruwvxyyyyyyyyyyyyyyyolkktsyyok",
"okzzolkktszzzzzzzzzzzzzzzyxvurkhhkruvxyzzzzzzzzzzzzzzzolkktszzok",
"okxxolkktsxxxxxxxxxxxxxzzyxvurkhhkruvxyzzxxxxxxxxxxxxxolkktsxxok",
"okvvolkktsvvvvvvvvvvvvvxzyxvurkhhkruvxyzxvvvvvvvvvvvvvolkktsvvok",
"okrsolkktsrrrrrrrrrrruvxzyxvurkhhkruvxyzxvurrrrrrrrrrsolkktsrsok",
"kkkkkkkkkkkkkkkkkkkkruvxzyxvurkhhkruvxyzxvurkkkkkkkkkkkkkkkkkkkk",
"AAAAAAAAAAAAAAAAAAAkruvxzyxvurkhhkruvxyzxvurkAAAAAAAAAAAAAAAAAAA",
"BBBBBBBBBBBBBBBBBBBkruvxzyxvurkhhkruvxyzxvurkABBBBBBBBBBBBBBBBBB",
"CCCCCCCCCCCCCCCCCCCkruvxzyxvurkhhkruvxyzxvurkABCCCCCCCCCCCCCCCCC",
"CCDEEEEEEEEEEEFCCCCkruvxzyxvurkhhkruvxyzxvurkABCCDEEEEEEEEEEEFCC",
"CCEGGGGGGGGGGCBCCCCkruvxzyxvurkhhkruvxyzxvurkABCCEGGGGGGGGGGCBCC",
"CCEGCCCCCCCCCFBCCCCkruvxzyxvurkhhkruvxyzxvurkABCCEGCCCCCCCCCFBCC",
"CCEGCCCCCCCCCFBCCCCkruvxzyxvurkhhkruvxyzxvurkABCCEGCCCCCCCCCFBCC",
"CCECFFFFFFFFFFBCCCCkruvxzyxvurlhhlruvxyzxvurkABCCECFFFFFFFFFFBCC",
"CCFBBBBBBBBBBBBCCCCkruvxzyxvurmhhmruvxyzxvurkABCCFBBBBBBBBBBBBCC",
"CCCCCCCCCCCCCCCCCCCkruvxzyxvurnhhnruvxyzxvurkABCCCCCCCCCCCCCCCCC",
"GGGGGGGGGGGGGGGGGGGkruvxzyxvurohhoruvxyzxvurkHFGGGGGGGGGGGGGGGGG",
"AAAAAAAAAAAAAAAAAAAkruvxzyxvurohhoruvxyzxvurkAAAAAAAAAAAAAAAAAAA",
"AAAAAAAAAAAAAAAAAAAkruvxzyxvurohhoruvxyzxvurkAAAAAAAAAAAAAAAAAAA",
"IIIIIIIIIIIIIIIIIIIkruvxzyxvurohhoruvxyzxvurkCGIIIIIIIIIIIIIIIII",
"CCCCCCCCCCCCCCCCCCCkruvxzyxvurohhoruvxyzxvurkABCCCCCCCCCCCCCCCCC",
"CCDEEEEEEEEEEEFCCCCkruvxzyxvurnhhnruvxyzxvurkABCCDEEEEEEEEEEEFCC",
"CCEGGGGGGGGGGCBCCCCkruvxzyxvurmhhmruvxyzxvurkABCCEGGGGGGGGGGCBCC",
"CCEGCCCCCCCCCFBCCCCkruvxzyxvurlhhlruvxyzxvurkABCCEGCCCCCCCCCFBCC",
"CCEGCCCCCCCCCFBCCCCkruvxzyxvurkhhkruvxyzxvurkABCCEGCCCCCCCCCFBCC",
"CCEGCCCCCCCCCFBCCCCkruvxzyxvurkhhkruvxyzxvurkABCCEGCCCCCCCCCFBCC",
"CCEGCCCCCCCCCFBCCCCkruvxzyxvurkhhkruvxyzxvurkABCCEGCCCCCCCCCFBCC",
"CCEGCCCCCCCCCFBCCCCkruvxzyxvurkhhkruvxyzxvurkABCCEGCCCCCCCCCFBCC",
"CCEGCCCCCCCCCFBCCCCkruvxzyxvurkhhkruvxyzxvurkABCCEGCCCCCCCCCFBCC",
"CCECFFFFFFFFFFBCCCCkruvxzyxvurkhhkruvxyzxvurkABCCECFFFFFFFFFFBCC",
"CCFBBBBBBBBBBBBCCCCkruvxzyxvurkhhkruvxyzxvurkABCCFBBBBBBBBBBBBCC",
"CCCCCCCCCCCCCCCCCCCkruvxzyxvurkhhkruvxyzxvurkABCCCCCCCCCCCCCCCCC",
"kkkkkkklmnooooonmlkkruvxzyxvurkhhkruvxyzxvurkklmnooooonmlkkkkkkk",
"okrsolkktsrrrrrrrrrrruvxzyxvurkhhkruvxyzxvurrrrrrrrrrsolkktsrsok",
"okvvolkktsvvvvvvvvvvvvvxzyxvurkhhkruvxyzxvvvvvvvvvvvvvolkktsvvok",
"okxxolkktsxxxxxxxxxxxxxzzyxvurkhhkruvxyzzxxxxxxxxxxxxxolkktsxxok",
"okzzolkktszzzzzzzzzzzzzzzyxvurkhhkruvxyzzzzzzzzzzzzzzzolkktszzok",
"okyyolkktsyyyyyyyyyyyyyyyxvwurkhhkruwvxyyyyyyyyyyyyyyyolkktsyyok",
"okxxolkktsxxxxxxxxxxxxxxxvwurkphhpkruwvxxxxxxxxxxxxxxxolkktsxxok",
"okvvolkktsvvvvvvvvvvvvvvvwurkpghhgpkruwvvvvvvvvvvvvvvvolkktsvvok",
"okuuolkktsuuuuuuuuuuuuuuuurkpghqqhgpkruuuuuuuuuuuuuuuuolkktsuuok",
"okrsolkktsrrrrrrrrrrrrrrrrkpghqqqqhgpkrrrrrrrrrrrrrrrsolkktsrsok",
"kkkkkkkkkkkkkkkkkkkkkkkkkkpghqqqqqqhgpkkkkkkkkkkkkkkkkkkkkkkkkkk",
"fffffffffffffffffffffffJJJghqqqqqqqqhgJfffffffffffffffffffffffff",
"JJJJJJJJJJJJJJJJJJJJJJJJJJhqqqqqqqqqqhJJJJJJJJJJJJJJJJJJJJJJJJJJ",
"hhhhhhhhhhhhhhhhhhhhhhhhhiqqqqqqqqqqqqihhhhhhhhhhhhhhhhhhhhhhhhh",
"jjjjjjjjjjjjjjjjjjjjjjjjjqqqqqqqqqqqqqqjjjjjjjjjjjjjjjjjjjjjjjjj",
"eeeeeeeeeeeeeeeeeeeeeeeeeeeeeeeeeeeeeeeeeeeeeeeeeeeeeeeeeeeeeeee",
"dddddddddddddddddddddddddddddddddddddddddddddddddddddddddddddddd",
"KKKKKKKKKKKKKKKKKKKKKKKKKKKKKKKKKKKKKKKKKKKKKKKKKKKKKKKKKKKKKKKK",
"bbbbbbbbbbbbbbbbbbbbbbbbbbbbbbbbbbbbbbbbbbbbbbbbbbbbbbbbbbbbbbbb"
};