/* XPM */
static char *wall_r15_c07[] = {
"64 64 23 1",
"a	c #BCBCBC",
"b	c #A8A8A8",
"c	c #989898",
"d	c #7C7C7C",
"e	c #2C2C2C",
"f	c #A0A0A0",
"g	c #848484",
"h	c #747474",
"i	c #C4C4C4",
"j	c #D8D8D8",
"k	c #6C6C6C",
"l	c #5C5C5C",
"m	c #545454",
"n	c #646464",
"o	c #4C4C4C",
"p	c #8C8C8C",
"q	c #B0B0B0",
"r	c #CCCCCC",
"s	c #444444",
"t	c #3C3C3C",
"u	c #343434",
"v	c #242424",
"w	c #28CC28",
"abbbbbbbbbbbbbbbbbbbbbbbbbbbccdeedcfbbbbbbbbbbbbbbbbbbbbbbbbbbba",
"bcgggggggggggggggggggggggggghhheehhdggggggggggggggggggggggggggcb",
"bgaaijdklaaijdkmaaijdkmaaijdnloeeolnmaaijdkmaaijdkmaaijdkmaaijgb",
"bgcabidklcabidkmcabidkmcabidnloeeolnmcabidkmcabidkmcabidkmcabigb",
"bgcdbadklcdbadkmcdbadkmcdbadnloeeolnmcdbadkmcdbadkmcdbadkmcdbagb",
"bgcdbadklcdbadkmcdbadkmcdbadnloeeolnmcdbadkmcdbadkmcdbadkmcdbagb",
"bgcdbadklcdbadkmcdbadkmcdbadnloeeolnmcdbadkmcdbadkmcdbadkmcdbagb",
"bgcdbadklcdbadkmcdbadkmcdbadnloeeolnmcdbadkmcdbadkmcdbadkmcdbagb",
"bgcdbadklcdbadkmcdbadkmcdbadnloeeolnmcdbadkmcdbadkmcdbadkmcdbagb",
"bgcdbadklcdbadkmaaaaaaaaaaaabbpeepbqaaaaaaaaaaaadkmcdbadkmcdbagb",
"bgcdbadklcdbadkajjjjjjjjjjjjiibeebirjjjjjjjjjjjjakmcdbadkmcdbagb",
"bgcdbadklcdbadajaaaaaaaaaaaabbpeepbqaaaaaaaaaaaajamcdbadkmcdbagb",
"bgcdbadklcdbaajaffffffffffffppheehpcffffffffffffajacdbadkmcdbagb",
"bgcdbadklcdbajafddddddddddddhhheehhhddddddddddddfajadbadkmcdbagb",
"bgcdbadklcdajafdsssssssssssstuveevutssssssssssssdfajabadkmcdbagb",
"bgcdbadkmcajafdsoooooooooooosteeeetsoooooooooooosdfajaadklcdbagb",
"bgcdbadklajafdsollllllllllllmoteetomllllllllllllosdfajadklcdbagb",
"bgcdbadkajafdsolkkkkkkkkkkkknloeeolnkkkkkkkkkkkklosdfajaklcdbagb",
"bgcdbadajafdsolkkkkkkkkkkkkknloeeolnkkkkkkkkkkkkklosdfajalcdbagb",
"bgcdbaajafdsolkkkkkkkkkkkkkknloeeolnkkkkkkkkkkkkkklosdfajacdbagb",
"bgcdbajafdsolkkkkkkkkkkkkkkknloeeolnkkkkkkkkkkkkkkklosdfajadbagb",
"bgcdajafdsolkkkkkkkkkkkkkkkknloeeolnkkkkkkkkkkkkkkkklosdfajabagb",
"bgcajafdsolkkkkkkkkkkkkkkkkknloeeolnkkkkkkkkkkkkkkkkklosdfajaagb",
"bgbjafdsolkkkkkkkkkkkkkkkkkknloeeolnkkkkkkkkkkkkkkkkkklosdfajagb",
"bgbafdsolkkkkkkkkkkkkkkkkkkknloeeolnkkkkkkkkkkkkkkkkkkklosdfaagb",
"bgbadsolkkkkkkkkkkkkkkkkkkkknloeeolnkkkkkkkkkkkkkkkkkkkklosdaagb",
"bgbabbbbbbbbbbbbbbbbbbbbbbbbccdeedcfbbbbbbbbbbbbbbbbbbbbbbbbaagb",
"bgbaggggggggggggmsssssssssssshheehhssssssssssssmgggggggggggdaagb",
"bgbaddddddddddddhuuuuuuuuuuvuhheehhuvuuuuuuuuuuhddddddddddddaagb",
"bgbadkkkkkkkkkkkhussssssssuvuloeeoluvussssssssuhkkkkkkkkkkkdaagb",
"bgbadkkkkkkkkkkkhusvvvvvvsuvuloeeoluvusvvvvvvsuhkkkkkkkkkkkdaagb",
"bgbadkkkkkkkkkkkhusmhhhhmsuvuloeeoluvusmhhhhmsuhkkkkkkkkkkkdaagb",
"bgbadhhhhhhhhhhhhussssswwsuvuhheehhuvuswwsssssuhhhhhhhhhhhhdaagb",
"bgbaddddddddddddhuuuuuuuuuuvuhheehhuvuuuuuuuuuuhddddddddddddaagb",
"bgbaggggggggggggmsssssssssssshheehhssssssssssssmggggggggggggaagb",
"bgbadssssssssssssssssssssssstuveevutsssssssssssssssssssssssdaagb",
"bgbafdoooooooooooooooooooooosteeeetsoooooooooooooooooooooodfaagb",
"bgbjafdlllllllllllllllllllllmoteetomllllllllllllllllllllldfajagb",
"bgcajafdkkkkkkkkkkkkkkkkkkkknloeeolnkkkkkkkkkkkkkkkkkkkkdfajaagb",
"bgcdajafdkkkkkkkkkkkkkkkkkkknloeeolnkkkkkkkkkkkkkkkkkkkdfajabagb",
"bgcdbajafdkkkkkkkkkkkkkkkkkknloeeolnkkkkkkkkkkkkkkkkkkdfajadbagb",
"bgcdbaajafdkkkkkkkkkkkkkkkkknloeeolnkkkkkkkkkkkkkkkkkdfajacdbagb",
"bgcdbadajafdkkkkkkkkkkkkkkkknloeeolnkkkkkkkkkkkkkkkkdfajalcdbagb",
"bgcdbadkajafdkkkkkkkkkkkkkkknloeeolnkkkkkkkkkkkkkkkdfajaklcdbagb",
"bgcdbadklajafdkkkkkkkkkkkkkknloeeolnkkkkkkkkkkkkkkdfajadklcdbagb",
"bgcdbadkmcajafdkkkkkkkkkkkkknloeeolnkkkkkkkkkkkkkdfajaadklcdbagb",
"bgcdbadklcdajafdkkkkkkkkkkkknloeeolnkkkkkkkkkkkkdfajabadkmcdbagb",
"bgcdbadklcdbajafddddddddddddhhheehhhddddddddddddfajadbadkmcdbagb",
"bgcdbadklcdbaajaffffffffffffppheehpcffffffffffffajacdbadkmcdbagb",
"bgcdbadklcdbadajaaaaaaaaaaaabbpeepbqaaaaaaaaaaaajamcdbadkmcdbagb",
"bgcdbadklcdbadkajjjjjjjjjjjjiibeebirjjjjjjjjjjjjakmcdbadkmcdbagb",
"bgcdbadklcdbadkmaaaaaaaaaaaabbpeepbqaaaaaaaaaaaadkmcdbadkmcdbagb",
"bgcdbadklcdbadkmcdbadkmcdbadnloeeolnmcdbadkmcdbadkmcdbadkmcdbagb",
"bgcdbadklcdbadkmcdbadkmcdbadnloeeolnmcdbadkmcdbadkmcdbadkmcdbagb",
"bgcdbadklcdbadkmcdbadkmcdbadnloeeolnmcdbadkmcdbadkmcdbadkmcdbagb",
"bgcdbadklcdbadkmcdbadkmcdbadnloeeolnmcdbadkmcdbadkmcdbadkmcdbagb",
"bgcdbadklcdbadkmcdbadkmcdbadnloeeolnmcdbadkmcdbadkmcdbadkmcdbagb",
"bgcabidklcabidkmcabidkmcabidnloeeolnmcabidkmcabidkmcabidkmcabigb",
"bgaaijdklaaijdkmaaijdkmaaijdnloeeolnmaaijdkmaaijdkmaaijdkmaaijgb",
"bgmmmmkkmmmmmkkmmmmmkkmmmmmknloeeolnmmmmmkkmmmmmkkmmmmmkkmmmmmgb",
"bgkkkkkkkkkkkkkkkkkkkkkkkkkknloeeolnkkkkkkkkkkkkkkkkkkkkkkkkkkgb",
"bgkkkkkkkkkkkkkkkkkkkkkkkkkknloeeolnkkkkkkkkkkkkkkkkkkkkkkkkkkgb",
"bknnnnnnnnnnnnnnnnnnnnnnnnnnlmseesmlnnnnnnnnnnnnnnnnnnnnnnnnnnkb",
"kmmmmmmmmmmmmmmmmmmmmmmmmmmmosueeusommmmmmmmmmmmmmmmmmmmmmmmmmmk"
};