/* XPM */
static char *wall_r07_c05[] = {
"64 64 28 1",
"a	c #346090",
"b	c #204060",
"c	c #0C1C30",
"d	c #848484",
"e	c #C4C4C4",
"f	c #04A468",
"g	c #BCBCBC",
"h	c #A8A8A8",
"i	c #B0B0B0",
"j	c #A0A0A0",
"k	c #04BC78",
"l	c #8C8C8C",
"m	c #989898",
"n	c #30C890",
"o	c #60D8AC",
"p	c #747474",
"q	c #7C7C7C",
"r	c #5C5C5C",
"s	c #646464",
"t	c #4C4C4C",
"u	c #6C6C6C",
"v	c #081420",
"w	c #142840",
"x	c #244870",
"y	c #183450",
"z	c #3C6CA0",
"A	c #2C5480",
"B	c #4C78A8",
"aaaaaaaaaaaaaaaaaaaaaaaaaaaaaaaaaaaaaaaaaaaaaaaaaaaaaaaaaaaaaaaa",
"bbbbbbbbbbbbbbbbbbbbbbbbbbbbbbbbbbbbbbbbbbbbbbbbbbbbbbbbbbbbbbbb",
"cccccdeeeeeeedccccccccccccccccccccccccccccccccccccdeeeeeeedccccc",
"fffffeghhhhhijffffffffffffffffffffffffffffffffffffeihhhhhijfffff",
"kkkkkehlllllmjkkkkkkkkkkkkkkkkkkkkkkkkkkkkkkkkkkkkehlllllmjkkkkk",
"nnnnnehlllllmjnnnnnnnnnnnnnnnnnnnnnnnnnnnnnnnnnnnnehlllllmjnnnnn",
"oooooehlllllmjooooooooooooooooooooooooooooooooooooehlllllmjooooo",
"nnnnnehlllllmjnnnnnnnnnnnnnnnnnnnnnnnnnnnnnnnnnnnnehlllllmjnnnnn",
"kkkkkehlllllmjkkkkkkkkkkkkkkkkkkkkkkkkkkkkkkkkkkkkehlllllmjkkkkk",
"fffffehlllllmjffffffffffffffffffffffffffffffffffffehlllllmjfffff",
"aaaaaehlllllmjaaaaaaaaaaaaaaaaaaaaaaaaaaaaaaaaaaaaehlllllmjaaaaa",
"bbbbbehlllllmjdbbbbbbbbbbbbbbbbbbbbbbbbbbbbbbbbbblehlllllmjbbbbb",
"cccccehlllllmhjdcccccccccccccccccccccccccccccccclehmlllllmjccccc",
"iiiiiehllllllmheeeeeeeeeeeeeeeeeeeeeeeeeeeeeeeeeehmllllllmjpliii",
"jjjjjehlllllllmhhhhhhhhhhhhhhhhhhhhhhhhhhhhhhhhhhmlllllllmjpqjjj",
"iiiieehllllllllllllllllllllllllllllllllllllllllllllllllllmjqliii",
"eeeeeehllllllllllllllllllllllllllllllllllllllllllllllllllmjqjeee",
"iiiiiehllllllllllllllllllllllllllllllllllllllllllllllllllmjpliii",
"jjjjjehlllqpppppmllllllllllllllllllllllllllllllqpppppmlllmjpqjjj",
"qqqqlehllqprrrrrhmllljjjllljjjjjjjjjjllljjjlllqprrrrrhmllmjppqqq",
"ppppqehllprpppppehllliiislliiiiiiiiiislliiisllprppppqehllmjppppp",
"rrrrpehllprprrrrehllleeeslleeeeeeeeeeslleeesllprrrrrpehllmjprrrr",
"tttttehllprtttttehllliiislliiiiiiiiiislliiisllprtttttehllmjttttt",
"rrrttehllprttrrrehllljjjslljjjjjjjjjjslljjjsllprrrrttehllmjttrrr",
"uuuurehllprruuuuehlllqqqsllqqqqqqqqqqsllqqqsllpruuuurehllmjruuuu",
"qqqqqehllprpppqqehlllpppsllppppppppppsllpppsllprpppqqehllmjppqqq",
"lllllehllprpppllehllllssslllsssssssssslllsssllprpppllehllmjpplll",
"jjjjjehllprppdjjehllllllllllllllllllllllllllllprppdjjehllmjpqjjj",
"iiiieehllprpdmiiehllllllllllllllllllllllllllllprpdmieehllmjqliii",
"eeeeeehllprpmheeehllljjjjjjjjjjjjjjjjjjjjjjlllprdmheeehllmjqjeee",
"iiiiiehllprpdmiiehllliiiiiiiiiiiiiiiiiiiiiisllprpdmiiehllmjpliii",
"jjjjjehllprppdjjehllleeeeeeeeeeeeeeeeeeeeeesllprppdjjehllmjpqjjj",
"qqqqlehllprpppqqehllliiiiiiiiiiiiiiiiiiiiiisllprpppqlehllmjppqqq",
"ppppqehllprpppppehllljjjjjjjjjjjjjjjjjjjjjjsllprppppqehllmjppppp",
"rrrrpehllprprrrrehlllqqqqqqqqqqqqqqqqqqqqqqsllprrrrrpehllmjprrrr",
"tttttehllprtttttehlllppppppppppppppppppppppsllprtttttehllmjttttt",
"rrrttehllprttrrrehllllssssssssssssssssssssssllprrrrttehllmjttrrr",
"uuuurehllprruuuuehllllllllllllllllllllllllllllpruuuurehllmjruuuu",
"qqqqqehllprpppqqehllllllllllllllllllllllllllllprpppqqehllmjppqqq",
"cccccehllprcccccehllljjjllljjjjjjjjjjllljjjlllprcccccehllmjccccc",
"vvvvvehllprvvvvvehllliiislliiiiiiiiiislliiisllprvvvvvehllmjvvvvv",
"wwwcvehllprwwwwwehllleeeslleeeeeeeeeeslleeesllprwwwcvehllmjwwwww",
"ccccvehllprcccccehllliiislliiiiiiiiiislliiisllprccccvehllmjccccc",
"vvvvvehllprvvvvvehllljjjslljjjjjjjjjjslljjjsllprvvvvvehllmjvvvvv",
"wwwwwehllprwwwwwehlllqqqsllqqqqqqqqqqsllqqqsllprwwwwwehllmjwwwww",
"xyyyyehllqpeeeeehmlllpppsllppppppppppsllpppsllqpeeeeehmllmjyyyyy",
"zxbbbehlllqhhhhhmlllllssslllsssssssssslllssslllqhhhhhmlllmjbbbbc",
"azAxxehllllllllllllllllllllllllllllllllllllllllllllllllllmjxxxwv",
"AaBzzehllllllllllllllllllllllllllllllllllllllllllllllllllmjzzycv",
"Aazzaehlllllllmmmmmmmmmmmmmmmmmmmmmmmmmmmmmmmmmmmmlllllllmjaawcv",
"AazaAehllllllmmjjjjjjjjjjjjjjjjjjjjjjjjjjjjjjjjjjhmllllllmjAawcv",
"AazaAehlllllmmjpxAxbbbbbbbbbbbbbbbbbbbbbbbbbbxwcdehmlllllmjAawcv",
"AazaAehlllllmjpxAaAxxxxxxxxxxxxxxxxxxxxxxxxxxAwcvdehlllllmjAawcv",
"AazaAehlllllmjvAazaAAAAAAAAAAAAAAAAAAAAAAAAAAawcvAehlllllmjAawcv",
"AazaAehlllllmjvAazaAAAAAAAAAAAAAAAAAAAAAAAAAAawcvAehlllllmjAawcv",
"AazaAehlllllmjvAazaAAAAAAAAAAAAAAAAAAAAAAAAAAawcvAehlllllmjAawcv",
"AazaaehlllllmjvAazaaaaaaaaaaaaaaaaaaaaaaaaaaaawcvAehlllllmjaawcv",
"AaAxxehlllllmjvAaAxxxxxxxxxxxxxxxxxxxxxxxxxxxxwcvAehlllllmjxxwcv",
"AxbbbehlllllmjvAxbbbbbbbbbbbbbbbbbbbbbbbbbbbbbxcvAehlllllmjbbxcv",
"xyyyyehlllllmjvxyyyyyyyyyyyyyyyyyyyyyyyyyyyyyyybvxehlllllmjyyybv",
"wwwwwehlllllmjywwwwwwwwwwwwwwwwwwwwwwwwwwwwwwwwwywehlllllmjwwwwy",
"aaaaaaaaaaaaaaaaaaaaaaaaaaaaaaaaaaaaaaaaaaaaaaaaaaaaaaaaaaaaaaaa",
"bbbbbbbbbbbbbbbbbbbbbbbbbbbbbbbbbbbbbbbbbbbbbbbbbbbbbbbbbbbbbbbb",
"cccccccccccccccccccccccccccccccccccccccccccccccccccccccccccccccc"
};