/* XPM */
static char *wall_r03_c00[] = {
"64 64 51 1",
"a	c #7CACDC",
"b	c #3884CC",
"c	c #98C0E4",
"d	c #0C5CAC",
"e	c #E0E0E0",
"f	c #B0B0B0",
"g	c #747474",
"h	c #C4C4C4",
"i	c #989898",
"j	c #085098",
"k	c #64A0D8",
"l	c #1068C0",
"m	c #2C2C2C",
"n	c #848484",
"o	c #8C8C8C",
"p	c #A0A0A0",
"q	c #3C3C3C",
"r	c #CCCCCC",
"s	c #A8A8A8",
"t	c #BCBCBC",
"u	c #444444",
"v	c #646464",
"w	c #545454",
"x	c #5C5C5C",
"y	c #00A4A4",
"z	c #28C8C8",
"A	c #00BCBC",
"B	c #78E0E0",
"C	c #40D0D0",
"D	c #5CD8D8",
"E	c #B4ECEC",
"F	c #D8F4F4",
"G	c #98E4E4",
"H	c #7C7C7C",
"I	c #60401C",
"J	c #201408",
"K	c #301C0C",
"L	c #805424",
"M	c #503418",
"N	c #A06C3C",
"O	c #402810",
"P	c #704820",
"Q	c #A8784C",
"R	c #B08458",
"S	c #94602C",
"T	c #C4A080",
"U	c #D0B094",
"V	c #BC906C",
"W	c #6C6C6C",
"X	c #343434",
"Y	c #2474C4",
"aaaaaaaaaaaaaaaaaaaaaaaaaaaaaaaaaaaaaaaaaaaaaaaaaaaaaaaaaaaaaaaa",
"bcbdbcbdbcefgcbdbcbdbcbdbcbdbcbdbcbdbcbdbcbdbcbdbcefgcbdbcbdbcbd",
"babdbabdbehfigjdbabdbabdbabdbabdbabdbabdbabdbabdbehfigjdbabdbabd",
"babdbabdbehfigjdbabdbabdbabdbabdbabdbabdbabdbabdbehfigjdbabdbabd",
"kkkkkkkkkehfiglkkkkkkkkkkkkkkkkkkkkkkkkkkkkkkkkkkehfiglkkkkkkkkk",
"mmmmmmmmmehfigmmfgnnnopfgggfpnnnnnopgggfponnnggmmehfigmmmmmmmmmm",
"qqqqqqqqqehfigqqrippppstrogortpppstogortsppppogqqehfigqqqqqqqqqq",
"uuuuuuuuuehfiguuehffffftrepgperrrrpgpertfffffpnuuehfiguuuuuuuuuu",
"oooooooooehfigvgehfffffftrepgpeeepgpertffffffpnvgehfigvgoooooooo",
"gggggggggehfigwxehfffffffreepgggggpeerfffffffpnwxehfigwxgggggggg",
"yyyyyyyyyehfigzzehfffffffrepgpeeepgperfffffffpnzzehfigzAyyyyyyyy",
"zzzzzzzzzeeeeiBBehfffffftrpgperrrrpgprtffffffpnBBeeeeiBCzzzzzzzz",
"DDDDDDDDDehhhoEEehffffftrpgpertfftrpgprtfffffpnEEehhhoEBDDDDDDDD",
"BBBBBBBBBefffnFFehfffftrpgpertfffftrpgprtffffpnFFefffnFGBBBBBBBB",
"GGGGGGGGGeiiiHFFehffftrpgpertfffffftrpgprtfffpnFFeiiiHFEGGGGGGGG",
"DDDDDDDDDgggggEEehfftrpgpertfffffffftrpgprtffpnEEgggggEBDDDDDDDD",
"zzzzzzzzzehfigBBehftrpgpertfffffffffftrpgprtfpnBBehfigBCzzzzzzzz",
"gggggggggehfigwxehtrpgpertfffffffffffftrpgprtpnwxehfigwxgggggggg",
"oooooooooehfigvgsrrpgpertfffffffffffffftrpgprrsvgehfigvgoooooooo",
"IIIIIIIIIehfigJJgppggpeppppppppppppppppprpggppgJJehfigJKIIIIIIII",
"LLLLLLLLLehfigJKgxxxxgsnnnnnnnnnnnnnnnnnsgxxxxgJJehfigJMLLLLLLLL",
"NNNNNNNNNehfigJMgvvvvgeeeeeeeeeeeeeeeeeehgvvvvgJOehfigOPNNNNNNNN",
"NNNNNNNNNeeeeiJMgppggpeppppppppppppppppprpggppgJOeeeeiOPNNNNNNNN",
"NNNNNNNNNehhhoJMseepgperffffffffffffffftrpgpeesJOehhhoOPNNNNNNNN",
"NNNQRRRRRefffnJPehrepgperffffffffffffftrpgperpnOIefffnISRRRRQNNN",
"NNQROOOOOeiiiHJJehtrepgperffffffffffftrpgpertpnJJeiiiHJJOOOOQQNN",
"NNROIIIIIgggggJJehftrepgperffffffffftrpgpertfpnJJgggggJKIIIIORNN",
"NNRTLLLLLeeeeiJKehfftrepgperffffffftrpgpertffpnJJeeeeiJMLLLLTRNN",
"NNNRTTTTTehhhoOSehffftrepgperffffftrpgpertfffpnILehhhoLQTTTURNNN",
"RRRRRRRRRefffnJPehfffftrepgperffftrpgpertffffpnOIefffnISRRRRRRRR",
"MMMMMMMMMeiiiHJJehffffftrepgperrrrpgpertfffffpnJJeiiiHJJMMMMMMMM",
"IIIIIIIIIgggggJJehfffffftrepgpeeepgpertffffffpnJJgggggJKIIIIIIII",
"VVVVVVVVVeeeeiKLehfffffffreepgggggpeerfffffffpnMPeeeeiPNVVVVVVVV",
"NNNNNNNNNehhhoJMehfffffffrepgpeeepgperfffffffpnJOehhhoOPNNNNNNNN",
"NNNQRRRRRefffnJPehfffffftrpgperrrrpgprtffffffpnOIefffnISRRRRQNNN",
"NNQROOOOOeiiiHJJehffffftrpgpertfftrpgprtfffffpnJJeiiiHJJOOOOQQNN",
"NNROIIIIIgggggJJehfffftrpgpertfffftrpgprtffffpnJJgggggJKIIIIORNN",
"NNRTLLLLLeeeeiJKehffftrpgpertfffffftrpgprtfffpnJJeeeeiJMLLLLTRNN",
"NNNRTTTTTehhhoOSehfftrpgpertfffffffftrpgprtffpnILehhhoLQTTTURNNN",
"NNNQRRRRRefffnJPehftrpgpertfffffffffftrpgprtfpnOIefffnISRRRRQNNN",
"NNQROOOOOeiiiHJJehtrpgpertfffffffffffftrpgprtpnJJeiiiHJJOOOOQQNN",
"NNROIIIIIgggggJJsrrpgpertfffffffffffffftrpgprrsJJgggggJKIIIIORNN",
"NNRTLLLLLehfigJKgppggpeppppppppppppppppprpggppgJJehfigJMLLLLTRNN",
"NNNRTTTTTehfigOSgxxxxgsnnnnnnnnnnnnnnnnnsgxxxxgILehfigLQTTTURNNN",
"NNNNNNNNNehfigJIgvvvvgeeeeeeeeeeeeeeeeeehgvvvvgJOehfigOPNNNNNNNN",
"oooooooooehfigvggppggpeppppppppppppppppprpggppgvgehfigvgoooooooo",
"gggggggggehfigwxseepgperffffffffffffffftrpgpeeswxehfigwxgggggggg",
"zzzzzzzzzehfigBBehrepgperffffffffffffftrpgperpnBBehfigBCzzzzzzzz",
"DDDDDDDDDeeeeiEEehtrepgperffffffffffftrpgpertpnEEeeeeiEBDDDDDDDD",
"GGGGGGGGGehhhoFFehftrepgperffffffffftrpgpertfpnFFehhhoFEGGGGGGGG",
"BBBBBBBBBefffnFFehfftrepgperffffffftrpgpertffpnFFefffnFGBBBBBBBB",
"DDDDDDDDDeiiiHEEehffftrepgperffffftrpgpertfffpnEEeiiiHEBDDDDDDDD",
"zzzzzzzzzgggggBBehfffftrepgperffftrpgpertffffpnBBgggggBCzzzzzzzz",
"yyyyyyyyyehfigzzehffffftrepgperrrrpgpertfffffpnzzehfigzAyyyyyyyy",
"gggggggggehfigwxehfffffftrepgpeeepgpertffffffpnwxehfigwxgggggggg",
"oooooooooehfigvgehfffffffreepgggggpeerfffffffpnvgehfigWgoooooooo",
"mmmmmmmmmehfigmmehfffffffrepgpeeepgperfffffffpnmmehfigmmmmmmmmmm",
"XXXXXXXXXehfigXXehfffffftrpgperrrrpgprtffffffpnXXehfigXXXXXXXXXX",
"qqqqqqqqqehfigqqehffffftrpgpertfftrpgprtfffffpnqqehfigqqqqqqqqqq",
"uuuuuuuuuehfiguuehfffftrpgpertfffftrpgprtffffpnuuehfiguuuuuuuuuu",
"kkkkkkkkkehfigYkkkkkkkkkkkkkkkkkkkkkkkkkkkkkkkkkkehfigYkkkkkkkkk",
"dddddddddehfigjddddddddddddddddddddddddddddddddddehfigjddddddddd",
"lllllllllehfigjllllllllllllllllllllllllllllllllllehfigjlllllllll",
"bbbbbbbbbbefglbbbbbbbbbbbbbbbbbbbbbbbbbbbbbbbbbbbbefglbbbbbbbbbb"
};