/* XPM */
static char *wall_r05_c01[] = {
"64 64 14 1",
"a	c #502400",
"b	c #643000",
"c	c #884404",
"d	c #3C3C3C",
"e	c #402810",
"f	c #684018",
"g	c #805424",
"h	c #2C1400",
"i	c #141414",
"j	c #301C0C",
"k	c #5C340C",
"l	c #3C1800",
"m	c #2C2C2C",
"n	c #040404",
"abbbbbbbbbbbbbbbbbbbbbbbbbbbbcddeffffffffffffffffffffffffffffgdd",
"haaaaaaaaaaaaaaaaaaaaaaaaaaaabdijekkkkkkkkkkkkkkkkkkkkkkkkkkkfdi",
"hlaaaaaaaaaaaaaaaaaaaaaaaaaaabmijeeeeeeeeeeeeeeeeeeeeejeeeeekfdi",
"hlaaaaaaalaaaaaaaaaaaaaaalhaabmijeeeeejeeeeeeeeeeeeekeeeeeeekfmi",
"hlaaaalaaaaaaaaaaaalaaaaaalaabdijeeekeeeeeefeeeeeeeefkeeeeeekfmi",
"hlaaaaaaalhaaaaaaaaaaaaabaaaabmijeeefkeeeeeeeeeeeeeeeeeeeeeekfmi",
"hlaaaaaaaalaaaaaaaaaaalaaaaaabmijeeeeeeeeeeeeeeeefeeeeeeeeeekfmi",
"hlaaaaaabaaaaaaaaaaaaaaaaaaaabmijeeeeeeeeejeeeeeeeeeeeeeefeekfmi",
"hlaaaaaaaaaaaaaaalaalhaaaaaaabmijeeeeeeekeeeeeeeeeeeefeeeeeekfmi",
"hlaaaaaaaaaaaalaaaaaalaaaaaaabmijeeeeeeefkeeeeeeeeeeeeeeeeeekfmi",
"hlaaaaaaaaaaaaaaaaabaaaaaaaaabmijeeeeeeeeeeeeeeeeeeeeeeeeeeekfmi",
"hlaaaaaaaaaaaaaaaaaaaaaaaaaaabmijeeeeeeeeeeeeeefeeeeeeeeeeeekfdi",
"hlllllllllllllllllllllllllllabmnjeeeeeeeeeeeeeeeeeeeeeeeeeeeefmi",
"hhhhhhhhhhhhhhhhhhhhhhhhhhhhhamijjjjjjjjjjjjjjjjjjjjjjjjjjjjjemi",
"iniiiiiiiiiiiiiiiiiiniiiiiniidmiiiiiiiiiiiiiiiiiiiiiiiiiiiiiidmi",
"mmmimmmmdmmmimmmmmmmmmmdmmmmddmmmmmmmmmmmmmmmmdmmmmmmdmmmmmmddmm",
"bbbbbbbbbbbbbcddabbbbbbbbbbbbbbbbbbbbbbbbbbbbcddabbbbbbbbbbbbbbb",
"aaaaaaaaaaaaabdihaaaaaaaaaaaaaaaaaaaaaaaaaaaabdihaaaaaaaaaaaaaaa",
"aaaaaaaaaaaaabmihlaaaaaaaaaaaaaalaaaaalaaaaaabmihlaaaaaaaalaaaaa",
"alaaaaaaaaaaabmihlaaaalhaaaaaaaaaaaaaaaaaaaaabmnhlaaalaaaaaaaaaa",
"aaaaalaaalhaabmihlaaaaalaaaaaaaaaaaaaaaalaaaabmihlaaaaaaaaaaaaaa",
"aaaaaaaaaalaabmnhlaaabaaaaalaaaaaaaaaaaaaaalabmihlaaaaaaaaaaaaaa",
"aaaaalaabaaaabmihlaaaaaaaaaaaaaaaaaalhaaaaaaabiihlaaaaaaaaalaaaa",
"aalhaaaaaaaaabmihlaaaaaaaaaaaaaaaaaaalaaaaaaabmihlaalaaaaaaaaala",
"aaalaaaaaalaabiihlaaaaalaaaaaaaaaaabaaaaaaaaabiihlaaaaalaaaaaaaa",
"abaaaaalaaaaabmihlaaaaaaaalaalaaaaaaaaaaalaaabmihlaaaaaaaaaaaaaa",
"aaaaaaaaaaaaabmihlaaaaaaaaaaaaaaaaaaaaaaaaaaabmihlaaaaaaaaaaaaaa",
"aaaaaaaaaaaaabmihlaaaaaaaaaaaaaaaaaaaaaaaaaaabmnhlaaaaaaaaaaaaaa",
"llllllllllllabmihlllllllllllllllllllllllllllabmihlllllllllllllll",
"hhhhhhhhhhhhhamihhhhhhhhhhhhhhhhhhhhhhhhhhhhhamihhhhhhhhhhhhhhhh",
"iiiiiiiniiiiidmiiiiiiniiiiiiiiiiiiiiiiiiiiiiidmiiiiiiiiiniiiiiii",
"immmmdmmmmmmddmmmimmmmmmdmmmmmmmmmmmimmdmmmmddmmmmimmmdmmmmmmmmm",
"abbbbbbbbbbbbbbbbbbbbbbbbbbbbcddabbbbbbbbbbbbbbbbbbbbbbbbbbbbcdd",
"haaaaaaaaaaaaaaaaaaaaaaaaaaaabdihaaaaaaaaaaaaaaaaaaaaaaaaaaaabdi",
"hlaalhaaaaaaaaaaaaaaaaaaalaaabmihlaaaaaaaaaaaaaaaaaaaaalaaaaabmi",
"hlaaalaaaalaalaaaaaaaaaaaaaaabmihlaaaaaaaaaaaaaalhaaaaaaaaaaabmi",
"hlabaaaaaaaaaaaaaaaaaalaaaaaabmihlaaaaaalalaaaaaalaaaaaaaaaaabmi",
"hlaaaaaaaaalaaaalaaaaaaaaaaaabmihlaaaaaaaaaaaaabaaaaaaaalaaaabdi",
"hlaaaaaaaaaaaaaaaaaaaaaaaalaabmihlaaaaaaaaaaaaaaaaaaaaalhaaaabmi",
"hlaaaaaaaaaaaaalhaaaaaaaaaaaabmihlaaaaaaaaalaaaaaaaaaaaalaaaabmi",
"hlaaaaaaaalaaaaalaaaaalaaaaaabmihlaalhaaaaaaaaaaaaaaaabaaaaaabmi",
"hlaaaaaaaaaaaabaaaaalaaaaaaaabmihlaaalaaaaaaalaaaaaaaaaaaaaaabmi",
"hlaaalaaaaaaaaaaaaaaaaaaaaaaabmihlabaaaaaaaaaaaaaaaaaaaaaaaaabmi",
"hlaaaaaaaaaaaaaaaaaaaaaaaaaaabmihlaaaaaaaaaaaaaaaaaaaaaaaaaaabmi",
"hlllllllllllllllllllllllllllabmihlllllllllllllllllllllllllllabmi",
"hhhhhhhhhhhhhhhhhhhhhhhhhhhhhamihhhhhhhhhhhhhhhhhhhhhhhhhhhhhami",
"iiiiiiniiiiiiiiiiiiiiiiininiidmiiiiiiiiniiiiiiiiiniiiniiiiiiidmi",
"mmimmmmmmmdmmmmmmimmmmmmmmmmddmmmmmmimmmmmmmmmmmmmmmmmmmmmmmddmm",
"bbbbbbbbbbbbbcddeffffffffffffffffffffffffffffgmdabbbbbbbbbbbbbbb",
"aaaaaaaaaaaaabdijekkkkkkkkkkkkkkkkkkkkkkkkkkkfdihaaaaaaaaaaaaaaa",
"alaaaaaaaaaaabmijeeeeeeeeejeeeeeeeeeeeeeeeeekfmihlaaaaaaaaaalaaa",
"aaaaaaaaaaaaabmijeefeeeekeeeeeeeefeeeeefeeeekfmnhlaaaaaalhaaaaaa",
"aaaaaaaaaaaaabmijeeeeeeefkeeeeeeeeeeeeeeeeeekfmihlaaaaaaalaaalaa",
"laaaaaaalaaaabiijeeeeeeeeeeeeeefeeeeeeeeeeeekfmihlaaaaabaaaaaaaa",
"aaaaaaaaaaaaabmijeefeeeeeeeeeeeeeeeeefeeeefekfmihlaaalaaaaaaaaaa",
"aaaaaaaalhaaabmijeeeefeeeeeeeeeeeeejeeeeeeeekfmihlaaaaaalaaaaala",
"aaaalaaaalaaabdijeeeeeeeeeeeeeeeekeeeeeefeeekfmihlaaaaaaaaaaaaaa",
"alaaaaabaaalabmijeeeeeeeeeeeeeeeefkeefeeeeeekfdihlaaaaaaaaaaaaaa",
"aaaaaaaaaaaaabmijeeeeefeeeeeeeeeeeeeeeeeeeeekfmihlaaaaalaaaaaaaa",
"aaaaaaaaaaaaabmnjeeeeeeeeeffeeeeeeeeeeeeeeeekfiihlaaaaaaaaaaaaaa",
"llllllllllllabmijeeeeeeeeeeeeeeeeeeeeeeeeeeeefmihlllllllllllllll",
"hhhhhhhhhhhhhaiijjjjjjjjjjjjjjjjjjjjjjjjjjjjjemihhhhhhhhhhhhhhhh",
"iniiiiiiiniiidmiiiiiiiniiiiiiiiiiiiiiiiiiiniidmiiniiiiiiiiiiiiii",
"mmmimmmmmmmmddmmmmmdmdmmmmimmmmmmmdmmmmmmmmmddmmmmmmmimdmmmimmmm"
};