/* XPM */
static char *wall_r11_c08[] = {
"64 64 25 1",
"a	c #5C5C5C",
"b	c #BCBCBC",
"c	c #C4C4C4",
"d	c #D8D8D8",
"e	c #7C7C7C",
"f	c #6C6C6C",
"g	c #545454",
"h	c #8C8C8C",
"i	c #989898",
"j	c #A8A8A8",
"k	c #A0A0A0",
"l	c #4C4C4C",
"m	c #444444",
"n	c #3C3C3C",
"o	c #040404",
"p	c #848484",
"q	c #343434",
"r	c #242424",
"s	c #1C1C1C",
"t	c #141414",
"u	c #2C2C00",
"v	c #3C3C00",
"w	c #505000",
"x	c #646400",
"y	c #747474",
"aabbcdefabbcdefgbbcdefgbbcdefgbbcdefgbbcdefgbbcdefgbbcdefgbbcdha",
"aaibjcefaibjcefgibjcefgibjcefgibjcefgibjcefgibjcefgibjcefgibjcha",
"aaiejbefaiejbefgiejbefgiejbefgiejbefgiejbefgiejbefgiejbefgiejbha",
"aaiejbefaiejbefgiejbefgiejbefgiejbefgiejbefgiejbefgiejbefgiejbha",
"aaiejbefaiejbefgiejbefgiejbefgiejbefgiejbefgiejbefgiejbefgiejbha",
"aaiejbefaiejbefgiejbefgiejbefgiejbefgiejbefgiejbefgiejbefgiejbha",
"aaiejbefaiejbefgiejbefgiejbefgiejbefgiejbefgiejbefgiejbefgiejbha",
"aaiejbefaiejbefgbbbbbbbbbbbbbbbbbbbbbbbbbbbbbbbbefgiejbefgiejbha",
"aaiejbefaiejbefbddddddddddddddddddddddddddddddddbfgiejbefgiejbha",
"aaiejbefaiejbebdbbbbbbbbbbbbbbbbbbbbbbbbbbbbbbbbdbgiejbefgiejbha",
"aaiejbefaiejbbdbkkkkkkkkkkkkkkkkkkkkkkkkkkkkkkkkbdbiejbefgiejbha",
"aaiejbefaiejbdbkeeeeeeeeeeeeeeeeeeeeeeeeeeeeeeeekbdbejbefgiejbha",
"aaiejbefaiebdbkeffffffffffffffffffffffffffffffffekbdbjbefgiejbha",
"aaiejbefgibdbkeffffffffffffffffffffffffffffffffffekbdbbefaiejbha",
"aaiejbefabdbkefffffffjjjjjjjjjjjjjjjjjjjjjjfffffffekbdbefaiejbha",
"aaiejbefbdbkeffffffffecccccccccccccccccccceffffffffekbdbfaiejbha",
"aaiejbebdbkeffffffffalfjjjjjjjjjjjjjjjjjjflaffffffffekbdbaiejbha",
"aaiejbbdbkefffffffffalmneffffffffffffffenmlafffffffffekbdbiejbha",
"aaiejbdbkefffffffffffalmneffffffffffffenmlafffffffffffekbdbejbha",
"aaiebdbkefffffffffffffalmneffffffffffenmlafffffffffffffekbdbjbha",
"aaibdbkefffffffffffffffalmneeeeeeeeeenmlafffffffffffffffekbdbbha",
"aaidbkefffffffffffffffffalmnnnnnnnnnnmlafffffffffffffffffekbdbha",
"aaibkefffffffffffffffffffalmmmmmmmmmmlafffffffffffffffffffekbbha",
"aaibefffffffffffffffffffffallllllllllafffffffffffffffffffffebbha",
"aaibeeeeeeeeeeeeeeeeeeeeeeeeeeeeeeeeeeeeeeeeeeeeeeeeeeeeeeeebbha",
"aaikiiiiiiiiiiiiiiiiiiiiiiiiiiiiiiiiiiiiiiiiiiiiiiiiiiiiiiiikbha",
"cccccccccccccccccccccccccccccccccccccccccccccccccccccccccccccccc",
"jjjjjjjjjjjjjjjjjjjjjjjjjjjjjjjjjjjjjjjjjjjjjjjjjjjjjjjjjjjjjjjj",
"aaaaaaaaaaaaaaaaaaaaaaaaaaaaaaaaaaaaaaaaaaaaaaaaaaaaaaaaaaaaaaaa",
"ffffffffffffffffffffffffffffffffffffffffffffffffffffffffffffffff",
"eeeeeeeeeeeeeeeeeeeeeeeeeeeeeeeeeeeeeeeeeeeeeeeeeeeeeeeeeeeeeeee",
"mmmmmmmmmmmmmmmmmmmmmmmmmmmmmmmmmmmmmmmmmmmmmmmmmmmmmmmmmmmmmmmm",
"llllllllllllllllllllllllllllllllllllllllllllllllllllllllllllllll",
"gggggggggggggggggggggggggggggggggggggggggggggggggggggggggggggggg",
"aaaaaaaaaaaaaaaaaaaaaaaaaaaaaaaaaaaaaaaaaaaaaaaaaaaaaaaaaaaaaaaa",
"llllllllllllllllllllllllllllllllllllllllllllllllllllllllllllllll",
"nnnnnnnnnnnnnnnnnnnnnnnnnnnnnnnnnnnnnnnnnnnnnnnnnnnnnnnnnnnnnnnn",
"oooooooooooooooooooooooooooooooooooooooooooooooooooooooooooooooo",
"oooooooooooooooooooooooooooooooooooooooooooooooooooooooooooooooo",
"iiiiiiiiiiiiiiiiiiiiiiiiiiiiiiiiiiiiiiiiiiiiiiiiiiiiiiiiiiiiiiii",
"ppppppppippppppppppppppppppppppppppppppppppppppppppppppipppppppp",
"aaaaaaaapiaaaaaaaaaaaaaaaaaaaaaaaaaaaaaaaaaaaaaaaaaaaaipaaaaaaaa",
"aaaaaaaaapiaaaaaaaaaaaaaaaaaaaaaaaaaaaaaaaaaaaaaaaaaaipaaaaaaaaa",
"ffffffaaaapiffffffffffffffffffffffffffffffffffffffffipaaaaffffff",
"qqqqqgfaaaapigqqqqqqqqqqqqqqqqqqqqqqqqqqqqqqqqqqqqqipaaaafgqqqqq",
"rrrrrrgfaaaapigrrrrrrrrrrrrrrrrrrrrrrrrrrrrrrrrrrripaaaafgrrrrrr",
"sssssssgfaaaapigsssssssssssssssssssssssssssssssssipaaaafgsssssss",
"ttttttttgfaaaapigtttttttttttttttttttttttttttttttipaaaafgtttttttt",
"uuuuuuuuugfaaaapiguuuuuuuuuuuuuuuuuuuuuuuuuuuuuipaaaafguuuuuuuuu",
"vvvvvvvvvvgfaaaapigvvvvvvvvvvvvvvvvvvvvvvvvvvvipaaaafgvvvvvvvvvv",
"wwwwwwwwwwwgfaaaapigwwwwwwwwwwwwwwwwwwwwwwwwwipaaaafgwwwwwwwwwww",
"xxxxxxxxxxxxgfaaaapigxxxxxxxxxxxxxxxxxxxxxxxipaaaafgxxxxxxxxxxxx",
"wwwwwwwwwwwwyiaaaapygwwwwwwwwwwwwwwwwwwwwwwwypaaaaiywwwwwwwwwwww",
"vvvvvvvvvvvyiaaaapygvvvvvvvvvvvvvvvvvvvvvvvvvypaaaaiyvvvvvvvvvvv",
"uuuuuuuuuuyiaaaapyguuuuuuuuuuuuuuuuuuuuuuuuuuuypaaaaiyuuuuuuuuuu",
"oooooooooyiaaaapygoooooooooooooooooooooooooooooypaaaaiyooooooooo",
"ttttttttyiaaaapygtttttttttttttttttttttttttttttttypaaaaiytttttttt",
"sssssssyiaaaapygsssssssssssssssssssssssssssssssssypaaaaiysssssss",
"rrrrrryiaaaapygrrrrrrrrrrrrrrrrrrrrrrrrrrrrrrrrrrrypaaaaiyrrrrrr",
"qqqqqyiaaaapygqqqqqqqqqqqqqqqqqqqqqqqqqqqqqqqqqqqqqypaaaaiyqqqqq",
"iiiiiiaaaapyiiiiiiiiiiiiiiiiiiiiiiiiiiiiiiiiiiiiiiiiypaaaaiiiiii",
"pppppaaaappppppppppppppppppppppppppppppppppppppppppppppaaaappppp",
"aaaaaaaaaaaaaaaaaaaaaaaaaaaaaaaaaaaaaaaaaaaaaaaaaaaaaaaaaaaaaaaa",
"aaaaaaaaaaaaaaaaaaaaaaaaaaaaaaaaaaaaaaaaaaaaaaaaaaaaaaaaaaaaaaaa"
};