/* XPM */
static char *wall_r16_c01[] = {
"64 64 22 1",
"a	c #CCCCCC",
"b	c #BCBCBC",
"c	c #B0B0B0",
"d	c #A8A8A8",
"e	c #8C8C8C",
"f	c #545454",
"g	c #848484",
"h	c #747474",
"i	c #4C4C4C",
"j	c #6C6C6C",
"k	c #646464",
"l	c #7C7C7C",
"m	c #5C5C5C",
"n	c #3C3C3C",
"o	c #444444",
"p	c #007474",
"q	c #5CD8D8",
"r	c #00A4A4",
"s	c #343434",
"t	c #C01010",
"u	c #28CC28",
"v	c #980808",
"aaaaaaaaaaaaaaaaaaaaaaaaaaaaaaaaaaaaaaaaaaaaaaaaaaaaaaaaaaaaaaaa",
"bbbbbbbbbbbbbbbbbbbbbbbbbbbbbbbbbbbbbbbbbbbbbbbbbbbbbbbbbbbbbbbb",
"cccccccccccccccccccccccccccccccccccccccccccccccccccccccccccccccc",
"dddddddddddddddddddddddddddddddddddddddddddddddddddddddddddddddd",
"eeeeeeeeeeeeeeeeeeeeeeeeeeeeeeeeeeeeeeeeeeeeeeeeeeeeeeeeeeeeeeee",
"ffffffffffffffffffffffffffffffffffffffffffffffffffffffffffffffff",
"ffffffffffffffffffffffffffffffffffffffffffffffffffffffffffffffff",
"ffffffffffffffffffffffffffffffffffffffffffffffffffffffffffffffff",
"ggfffffffffffffffffffffffffffffffffffffffffffffffffffffffffffffg",
"hhggiiiiiiiiiiiiiiiiiiiiiiiiiiiiiiiiiiiiiiiiiiiiiiiiiiiiiiiiiggh",
"jhhhggfffffffffffffffffffffffffffffffffffffffffffffffffffffgghhh",
"jjjhhhggiiiiiiiiiiiiiiiiiiiiiiiiiiiiiiiiiiiiiiiiiiiiiiiiigghhhjj",
"jjjjjhhhggkkkkkkkkkkkkkkkkkkkkkkkkkkkkkkkkkkkkkkkkkkkkkggkhhjjjj",
"jjjjjjjkhklllllllllllllllllllllllllllllllllllllllllllllmkhkjjjjj",
"jjjjjjkjkmlhnnnnnnnnnnnnnnnnnnnnnnnnnnnnnnnnnnnnnnnnnnhgmkjkjjjj",
"jjjjjkjkmghnnmmmmmmmmmmmmmmmmmmmmmmmmmmmmmmmmmmmmmmmmnnhgmkjkjjj",
"jjjjkjkmghnnmiiiiiiiiiiiiiiiiiiiiiiiiiiiiiiiiiiiiiiiimnnhgmkjkjj",
"jjjkjkmghnnminnnnnnnnnnnnnnnnnnnnnnnnnnnnnnnnnnnnnnnnimnnhgmkjkj",
"jjkjkmghnnmimmmmmmmmmmmmmmmmmmmmmmmmmmmmmmmmmmmmmmmmmmimnnhgmkjk",
"lkjkmghnnmiffffffffffffffffffffffffffffffffffffffffffffimnnhgmkj",
"kllllhnnmiiiiiiiiiiiiiiiiiiiiiiiiiiiiiiiiiiiiiiiiiiiiiiiimnnhlll",
"nnnnlhnmiooooooooooooooooooooooooooooooooooooooooooooooooimnhlnn",
"pnnnlhnmiiiiiiiiiiiiiiiiiiiiiiiiiiiiiiiiiiiiiiiiiiiiiiiiiimnhlnn",
"qnrnlhnmissssssssssssssssssssssssssssssssssssssssssssssssimnhlrn",
"qnrnlhnminnnnnnnnnnnnnnnnnnnnnnnnnnnnnnnnnnnnnnnnnnnnnnnnimnhlrn",
"qnrnlhnmimmmmmmmmmmmmmmmmmmmmmmmmmmmmmmmmmmmmmmmmmmmmmmmmimnhlrn",
"qnrnlhnmiffffffffffffffffffffffffffffffffffffffffffffffffimnhlrn",
"qnrnlhnmiiiiiiiiiiiiiiiiiiiiiiiiiiiiiiiiiiiiiiiiiiiiiiiiiimnhlrn",
"qnrnlhnmiooooooooooooooooooooooooooooooooooooooooooooooooimnhlrn",
"qtrtlhnmiiiiiiiiiiiiiiiiiiiiiiiiiiiiiiiiiiiiiiiiiiiiiiiiiimnhlrt",
"qtrtlhnmissssssssssssssssssssssssssssssssssssssssssssssssimnhlrt",
"qnrnlhnminnnnnnnnnnnnnnnnnnnnnnnnnnnnnnnnnnnnnnnnnnnnnnnnimnhlrn",
"qnrnlhnmimmmmmmmmmmmmmmmmmmmmmmmmmmmmmmmmmmmmmmjjjjjjmmmmimnhlrn",
"qnrnlhnmiffffffffffffffffffffffffffffffffffffffmumvmmffffimnhlrn",
"qnrnlhnmiiiiiiiiiiiiiiiiiiiiiiiiiiiiiiiiiiiiiiimumvmmiiiiimnhlrn",
"qnrnlhnmioooooooooooooooooooooooooooooooooooooommmmmmooooimnhlrn",
"qnrnlhnmiiiiiiiiiiiiiiiiiiiiiiiiiiiiiiiiiiiiiiijjjjjjiiiiimnhlrn",
"qnrnlhnmissssssssssssssssssssssssssssssssssssssssssssssssimnhlrn",
"qnrnlhnminnnnnnnnnnnnnnnnnnnnnnnnnnnnnnnnnnnnnnnnnnnnnnnnimnhlrn",
"qnrnlhnmimmmmmmmmmmmmmmmmmmmmmmmmmmmmmmmmmmmmmmmmmmmmmmmmimnhlrn",
"qnrnlhnmiffffffffffffffffffffffffffffffffffffffffffffffffimnhlrn",
"pnnnlhnmiiiiiiiiiiiiiiiiiiiiiiiiiiiiiiiiiiiiiiiiiiiiiiiiiimnhlnn",
"nnnnlhnmiooooooooooooooooooooooooooooooooooooooooooooooooimnhlnn",
"lllllhnnmiiiiiiiiiiiiiiiiiiiiiiiiiiiiiiiiiiiiiiiiiiiiiiiimnnhlll",
"hkjkmghnnmissssssssssssssssssssssssssssssssssssssssssssimnnhgmkj",
"jjkjkmghnnminnnnnnnnnnnnnnnnnnnnnnnnnnnnnnnnnnnnnnnnnnimnnhgmkjk",
"jjjkjkmghnnminnnnnnnnnnnnnnnnnnnnnnnnnnnnnnnnnnnnnnnnimnnhgmkjkj",
"jjjjkjkmghnnmiiiiiiiiiiiiiiiiiiiiiiiiiiiiiiiiiiiiiiiimnnhgmkjkjj",
"jjjjjkjkmghnnmmmmmmmmmmmmmmmmmmmmmmmmmmmmmmmmmmmmmmmmnnhgmkjkjjj",
"jjjjjjkjkmlhnnnnnnnnnnnnnnnnnnnnnnnnnnnnnnnnnnnnnnnnnnhgmkjkjjjj",
"jjjjjjjkjklllllllllllllllllllllllllllllllllllllllllllllmkjkjjjjj",
"jjjjjjjhggkkkkkkkkkkkkkkkkkkkkkkkkkkkkkkkkkkkkkkkkkkkkkggkjjjjjj",
"jjjjjhggiiiiiiiiiiiiiiiiiiiiiiiiiiiiiiiiiiiiiiiiiiiiiiiiigghjjjj",
"jjjhggfffffffffffffffffffffffffffffffffffffffffffffffffffffgghjj",
"jhggiiiiiiiiiiiiiiiiiiiiiiiiiiiiiiiiiiiiiiiiiiiiiiiiiiiiiiiiiggh",
"gghfffffffffffffffffffffffffffffffffffffffffffffffffffffffffffhg",
"hfffffffffffffffffffffffffffffffffffffffffffffffffffffffffffffff",
"ffffffffffffffffffffffffffffffffffffffffffffffffffffffffffffffff",
"ffffffffffffffffffffffffffffffffffffffffffffffffffffffffffffffff",
"ffffffffffffffffffffffffffffffffffffffffffffffffffffffffffffffff",
"ffffffffffffffffffffffffffffffffffffffffffffffffffffffffffffffff",
"ffffffffffffffffffffffffffffffffffffffffffffffffffffffffffffffff",
"ffffffffffffffffffffffffffffffffffffffffffffffffffffffffffffffff",
"ffffffffffffffffffffffffffffffffffffffffffffffffffffffffffffffff"
};