/* XPM */
static char *wall_r08_c06[] = {
"64 64 31 1",
"a	c #7C7C7C",
"b	c #6C6C6C",
"c	c #A0A0A0",
"d	c #989898",
"e	c #A8A8A8",
"f	c #B0B0B0",
"g	c #048C58",
"h	c #007448",
"i	c #04A468",
"j	c #04BC78",
"k	c #30C890",
"l	c #5C5C5C",
"m	c #7CE0BC",
"n	c #60D8AC",
"o	c #9CE4C8",
"p	c #848484",
"q	c #8C8C8C",
"r	c #B8ECD8",
"s	c #1C1C1C",
"t	c #343434",
"u	c #18C084",
"v	c #444444",
"w	c #545454",
"x	c #3C3C3C",
"y	c #2C2C2C",
"z	c #4C4C4C",
"A	c #646464",
"B	c #747474",
"C	c #141414",
"D	c #BCBCBC",
"E	c #242424",
"abbbbbbbbbbbbbbbbbbbbbbbbbbbbbbbbbbbbbbbbbbbbbbbbbbbbbbbbbbbbbba",
"cddceffffffecddceffffffecffecdddddddddddddddddcffecdffffefecdddc",
"ghhhhhhhhhhhhhhhhhhhhhhgiiiiiiiiiiiiiiiighhhhhhhhhhhhhhhhhhhhhhg",
"igggggggggggggggggggggijjjjjjjjjjjjjjjjjjigggggggggggggggggggggi",
"kjjjjjjjjjjjjjjjjjjjjkallllllllllllllllllakjjjjjjjjjjjjjjjjjjjjk",
"mnnnnnnnnnnnnnnnnnnmoalaaaaapqddddqpaaaaalaomnnnnnnnnnnnnnnnnnnm",
"ommorrrrrrrroomrroomalassssssssssssssssssalaorrrroommmoorrrrromo",
"mnnnnnnnnnnnnnnnnnmolattttttttttttttttttttalomnnnnnnnnnnnnnnnnnm",
"kjjjjjjjjjjjjjjjjjuklavvvvvvvvvvvvvvvvvvvvalkujjjjjjjjjjjjjjjjjk",
"igggggggggggggggggijlawwwwwwwwwwwwwwwwwwwwaljigggggggggggggggggi",
"ghhhhhhhhhhhhhhhhhgilaxxxxxxxxxxxxxxxxxxxxalighhhhhhhhhhhhhhhhhg",
"cdceffceffffffffecddlayyyyyyyyyyyyyyyyyyyyaldddceffceffecdffecdc",
"abbbbbbbbbbbbbbbbbbblassssssssssssssssssssalbbbbbbbbbbbbbbbbbbba",
"xxxxxxxxxxxxxxxxxxxxlattttttttttttttttttttalxxxxxxxxxxxxxxxxxxxx",
"xvvvvvvvvvvvvvvvvvvvlavvvvvvvvvvvvvvvvvvvvalvvvvvvvvvvvvvvvvvvvx",
"xzzzzzzwzzwlAbbbAlwzlazzzzzzzzzzzzzzzzzzzzalzzzzzwlwzlwzzzzwzzzx",
"xzzaAqczzwlAbbbaAqczlattttttttttttttttttttalzcqAalwzlwzzzcqAazzx",
"xztlBcqzwlAbbbtlBcqwlayyyyyyyyyyyyyyyyyyyyalzqcBltzlwzzzzqcBltwx",
"xztvbBAwlAbbbAtvbBAllassssssssssssssssssssalzAbBvtlwzzzzwAbBvtlx",
"xztzvlAlAbbbAltzvlAwlattttttttttttttttttttalzAlvztwzzzzwzAlvztAx",
"xztttttAbbbAlwtttttzlavvvvvvvvvvvvvvvvvvvvalwtttttzzzzwzztttttlx",
"xwbbbbbbbbbbbbbbbbbzlazzzzzzzzzzzzzzzzzzzzallbbbbbbbbbbbbbbbbbwx",
"xzbCCCCCCCCCCCCCCCbzlattttttttttttttttttttalwbCCCCCCCCCCCCCCCbzx",
"xzbqqqdqdddddqdqqqbllayyyyyyyyyyyyyyyyyyyyalzbqqqdqdddddqdqqqbwx",
"xwblllllllllllllllbwlassssssssssssssssssssallblllllllllllllllblx",
"xlbCCCCCCCCCCCCCCCbwlattttttttttttttttttttalwbCCCCCCCCCCCCCCCbAx",
"xAbaaaapqdddqpaaaabzlavvvvvvvvvvvvvvvvvvvvalzbaaaapqdddqpaaaabbx",
"xbbbAlwzzwlwzzzlwwzzlpzzzzzzzzzzzzzzzzzzzzplzzzwzzzzwlAlwzwlAbAx",
"xbbaAqczwlwzzzlaAqczlqttttttttttttttttttttqlzcqAazzwlAlwzcqAaAlx",
"xbtlBcqwlwzzzltlBcqzldyyyyyyyyyyyyyyyyyyyydlzqcBltwlAlwzwqcBltwx",
"xAtvbBAlwzzzlwtvbBAzldssssssssssssssssssssdlwAbBvtlAlwzwlAbBvtzx",
"xltzvlAwzzzlwwtzvlAzldttttttttttttttttttttdlzAlvztAlwzwlAAlvztzx",
"xwtttttzzzlwwztttttzldvvvvvvvvvvvvvvvvvvvvdlztttttlwzwlAbtttttwx",
"xzzwlwzzzlwwzzzzzzzwldzzzzzzzzzzzzzzzzzzzzdlzzwlAlwzwlAbAlwzzwlx",
"xzwlwzzzlwwzzzzzzzwzldttttttttttttttttttttdlzwlAlwzwlAbAlwzzwlzx",
"xwlwzzzlwwzzzzzzzwzwlqyyyyyyyyyyyyyyyyyyyyqlwlAlwzwlAbAlwzzwlzwx",
"xlwzzzlwwzzzzzzzwzwllpsssssssssssssssssssspllAlwzwlAbAlwzzwlzwzx",
"xwzzzlwwzzzzzzzwzwlAlattttttttttttttttttttalAlwzwlAbAlwzzwlzwzzx",
"xzzzlwwzzzzzzzwzwlAblavvvvvvvvvvvvvvvvvvvvallwzwlAbAlwzzwlzwzzzx",
"xzzlwwzzzzzzzwzwlAbAlazzzzzzzzzzzzzzzzzzzzalwzwlAbAlwzzwlzwzzzwx",
"xzlaAqczzzzzwzwaAqcllattttttttttttttttttttalzcqAaAlwzzwlzcqAawlx",
"xltlBcqzzzzwzwtlBcqwlayyyyyyyyyyyyyyyyyyyyalwqcBltwzzwlzwqcBltwx",
"xwtvbBAzzzwzwltvbBAzlassssssssssssssssssssallAbBvtzzwlzwzAbBvtzx",
"xwtzvlAzzwzwlAtzvlAwlattttttttttttttttttttalAAlvztzwlzwzzAlvztwx",
"xztttttzwzwlAbtttttzlavvvvvvvvvvvvvvvvvvvvalbtttttwlzwzzztttttlx",
"xzzzzzzwzwlAbAlwzwzwlazzzzzzzzzzzzzzzzzzzzalAlwzzwlzwzzzwlwzwlAx",
"xzzzzzwzwlAbAlwzwzwllattttttttttttttttttttallwzzwlzwzzzwlwzwlAbx",
"xzzzzwzwlAbAlwzwzwlwlayyyyyyyyyyyyyyyyyyyyalwzzwlzwzzzwlwzwlAbAx",
"xzzzwzwlAbAlwzwzwlwzlassssssssssssssssssssalzzwlzwzzzwlwzwlAbAlx",
"xzzwzwlAbAlwzwzwlwzzlattttttttttttttttttttalzwlzwzzzwlwzwlAbAlwx",
"xzwzwlAbAlwzwzwlwzzzlavvvvvvvvvvvvvvvvvvvvalwlzwzzzwlwzwlAbAlwzx",
"xwzwlAbAlwzwzwlwzzzzlazzzzzzzzzzzzzzzzzzzzallzwzzzwlwzwlAbAlwzzx",
"xzwaAqclwzwzwlwaAqczlattttttttttttttttttttalzcqAawlwzwlAbcqAazwx",
"xwtlBcqwzwzwlwtlBcqzlayyyyyyyyyyyyyyyyyyyyalwqcBltwzwlAbAqcBltzx",
"xltvbBAzwzwlwztvbBAzlassssssssssssssssssssalzAbBvtzwlAbAlAbBvtzx",
"xAtzvlAwzwlwzztzvlAzlattttttttttttttttttttalzAlvztwlAbAlwAlvztzx",
"xbtttttzwlwzzztttttzlawvvvvvvvvvvvvvvvvvvwalztttttlAbAlwztttttzx",
"xAlwzwzwlwzzzzzzzzzzvlawzzzzzzzzzzzzzzzzwalvwlwzwlAbAlwzzwzzzzzx",
"xlwzwzwlwzzzzzzzzzzzzvlaapqdcefDDfecdqpaalvzlwzwlAbAlwzzwzzzzzzx",
"ydlydlydlydlydlydlydlyvllllllllllllllllllvydlydlydlydlydlydlydly",
"yalyalyalyalyalyalyalsxwExwExwExwExwExwExwsalsalyalyalyalyalyaly",
"yplyplyplyplyplyplyplywlywlywlywlywlywlywlyplyplyplyplyplyplyply",
"yalyalyalyalyalyalyalyalyalyalyalyalyalyalyalyalyalyalyalyalyaly",
"yalyalyalyalyalyalyalyalyalyalyalyalyalyalyalyalyalyalyalyalyaly"
};