/* XPM */
static char *wall_r14_c09[] = {
"64 64 24 1",
"a	c #FCFCFC",
"b	c #E0E0E0",
"c	c #C0D0E4",
"d	c #98C0E4",
"e	c #081420",
"f	c #B4D0EC",
"g	c #7CACDC",
"h	c #6C90BC",
"i	c #5884B0",
"j	c #4C78A8",
"k	c #3C6CA0",
"l	c #2C5480",
"m	c #244870",
"n	c #346090",
"o	c #183450",
"p	c #142840",
"q	c #0C1C30",
"r	c #0C0C0C",
"s	c #040404",
"t	c #E8E8E8",
"u	c #204060",
"v	c #A8BCD8",
"w	c #80A0C4",
"x	c #94B0D0",
"aabbbccccccddddddddddddddddddddeedddddccccccccffaaffcccccccddddd",
"addgggghhihiiiiiijjjjkjjkkkkjlmeemkiiiiihihhggggddddgggghihiiiii",
"bdghhhiiijjkknnlllmmmooopppppeeeeqolllnnkkjjiiihhhgghhhiijjkknnl",
"bdggghhiijjkjnknnllmmooopopppeeeeeomllnnknjkjjiihhgggghhijjkjnkn",
"cggggghhhijjjkknnnlmlmmmoopppeeeeeomlmlnnnkkjjjihhhgggghhiijjkkn",
"cghgggghhiijjkjnknnllmmmoopopeeeeeqommllnnknjkjjiihhgggghiijjkjn",
"cghhhgghhhiiijjkknnlllmmmmoopeeeeeqommmlllnnkkjjiiihhhgghhhiijjk",
"cgihhggmkllllmmmmomoooooppppqeeeeeeqppppoooomommmmllllkkllhiijjk",
"cgihhhgkqppppppqqqqqqqrrqqrrrsseesssssrrqqqqqqqqqqpppppppchhhiij",
"chjiihhkpmkllllmmmmomooooopppeeeeeeqpqppppoooomommmmlllldcghhiij",
"chjiiihlpkghhhiiijjkknnnlllmmoeeeeepppoommmlllnnkkjjiiihdtghhhii",
"dhkjjiilpkggghhiijjkjnkknnllmoeeeeepppopoommllnnknjkjjiidtggghhi",
"dikjjjilplgggghhhijjjkkknnnlmuqeeeepppppoommlmlnnnkkjjjidthggghh",
"dinjkjjlplhgggghhiijjkjjvwwwwwleewwwwwwwopoommllnnknjkjjdfhggggh",
"dinkkjjlplhhhgghhhiiijjvwwhhiileewnnlllkwpoommmlllnnkkjjgchhhggh",
"dinknjkmqlihhgggghhiijvwwhjijjleewmmumuunwopoommllnnknjkgcihhggg",
"dinnnkkmqlihhhgggghhhvwwhhiijjleewnmmmuuunwpooomlllnnnkkgdihhhgg",
"dilnnknmqmjiihhgggghvwwhhhihjileewnnmmumuunwopoommllnnknhdjiihhg",
"djlllnnmqmjiiihhhggvwwxxwwhhiileewknnnmmuuunwpoommmlllnnhdjiiihh",
"djmllnnmqmkjjiihhgvwwvxxwwhhihleewkknnmmumuunxopoommllnnhdjjjiih",
"djmlmlnoqmkjjjihhvwwvxvxxxwhhhleewjknknnmmuuukwpoommlmlnhdkjjjih",
"djommlloqmnjkjjiivwxvvxvxxwwhhleewjjkknnmmumumwpopoommllhdkjkjji",
"djommmloqonkkjjiivwxvvvxvxxwwwleewjjkkknnnmmumwpppoommmlignkkjji",
"djpoommoqonknjkjjvwxxvvvxvxwwhleewijjkknnmmummwppopoommlignknjkj",
"djpooomoqonnnkkjjvwhxxvvvxvxxwleewijjjkkknmmmmwppppooomliglnnkkj",
"djpopooprolnnknjkvwwhxxvvvxvxwleewhjijjkknnmmmwppppopoomiglnnknj",
"djpppooprplllnnkkvwhhwxxvvvxvxleewhiijjkkknnnlwppppppoomiglllnnk",
"djppppppqommllnnkvwwhhxxxvvvxvleewhihjijjkknnlwpoppppopoigmllnnk",
"djppppppqoomlllnnvwwhhwwxxvvvxleewhhhiijjjknkjwooppppppoihmlmlnn",
"djpopppprooommllnnvwwiwwwxxvvvleewwhhihjijjkiwooopoppppojhommlln",
"fjpopppprpoommmlllnvwwhhwwxxvvleexwwwhhiijjiwommmoopppppjhommmll",
"fjoopopprpoooommllnnvwwhhwwxxvleevxwwhhihjwwomlmmoopopppjhooomml",
"fioopopprppooommlmlnnvwwhwwxxxleexvxxwwhhwwomllllmooopppjhpoooml",
"fioooopprpppoooommllnnvwwhhwwxleevxvxwwhxwomlnnllmmoopopjhpopoom",
"fimmoooprpppppoommmlllkvwwwwxxleeccvcvxxwomnnnnlllmmmoopjhpppoom",
"fimmoooproppppopoommllnnvwwwwwleewwwwwwwomnkjnknnllmmoopjhpppopo",
"cilmmmooqoppppppppomllnnnkkjlpmeeplkkklllmnjjkknnnlmlmmojhpppppo",
"cilllmmoqoopppppppoommllnknjknmeenjgggghhiijjkjnknnllmmojhpppppo",
"cinnllmoqoooppppopoommlllnnkknmeeljhhgghhhiiijjkknnlllmmjhoppppp",
"cinnnlloqpooppppppopoolllnnknnueelkhhgggghhiijjkjnknnllmjhopoppp",
"ciknnnllrpmooppppppooomlllnnnlueelkhhhgggghhhiijjkknnnllihmooppp",
"cijnknnlrpmoopoppppopoommllnnloeemniihhgggghhiijjkjnknnligmoopop",
"chjkknnlqpmmmooppppppoommmlllmoeemniiihhhgghhhiiijjkknnligmmmoop",
"chjkjnknqommmoopoppppopoommllmoeemljjiihhgggghhiijjkjnkniglmmoop",
"cgjjjkknqolmlmmooppppppoommlmuoeeuljjjihhhgggghhhijjjkkniglmlmmo",
"fgijjkjnqonllmmoopoppppopoommupeeumjkjjiihhgggghhiijjkjnignllmmo",
"fgiiijjkqonlllmmmooppppppoommopeeomkkjjiiihhhgghhhiiijjkignlllmm",
"fghiijjkqonnnllmmoopoppppopoooqeeomknjkjjiihhgggghhiijjkidnnnllm",
"fdhhhiijqmnnnnlllmoooppppppooqqeepmnnkkjjiihhhgggghhhiijhdknnnll",
"fdghhiijqmknknnllmmoopoppppopqeeepunnknjkjjiihhgggghhiijhdknknnl",
"fdghhhiiqmkkknnlllmmmooppppppqeeequllnnkkjjiiihhhgghhhiihdjkknnl",
"fdggghhiqmjkjnknnllmmoopoppppqeeeqollnnknjkjjiihhgggghhihdjkjnkn",
"cggggghhpmjjjkknnnlmlmmooppppeeeeqolmlnnnkkjjjihhhgggghhgdijjkkn",
"cghgggghplijjkjnknnllmmoopoppeeeeeqmmllnnknjkjjiihhgggghgdijjkjn",
"cghhhgghpliiijjkknnlllmmmooppeeeeeqmmmlllnnkkjjiiihhhgghddhiijjk",
"cgihhgggkddgghhhhihiiiiiijjjjnmeemnjjiiiiiihihhhhggddddddchiijjk",
"cgihhhggfaaffddddddggggggghhhjneenjhhhgggggggddddddfffaafchhhiij",
"chjiihhgggghhiijjkjnknnllmmooeeeeeeopoommllnnknjkjjiihhgggghhiij",
"chjiiihhhgghhhiiijjkknnlllmmmqeeeeeppoommmlllnnkkjjiiihhhgghhhii",
"dhkjjiihhgggghhiijjkjnknnllmmqeeeeeppopoommllnnknjkjjiihhgggghhi",
"dikjjjihhhgggghhhijjjkknnnlmloqeeeeppppoommlmlnnnkkjjjihhhgggghh",
"dinjkjjiihhgggghhiijjkjnknnlloqeeeqppppopoommllnnknjkjjiihhggggh",
"diommmmllllllkkllllllmmmmooooqeeeeeqqqqqqpppppooooommmmllllllkkl",
"dopppppppoooommmmoooopppppppppeeeqqrqrrrrqrqqqqppppppppppoooommm"
};