/* XPM */
static char *wall_r06_c02[] = {
"64 64 20 1",
"a	c #CCCCCC",
"b	c #C4C4C4",
"c	c #BCBCBC",
"d	c #B0B0B0",
"e	c #040404",
"f	c #848484",
"g	c #A0A0A0",
"h	c #7C7C7C",
"i	c #444444",
"j	c #646464",
"k	c #5C5C5C",
"l	c #545454",
"m	c #6C6C6C",
"n	c #747474",
"o	c #4C4C4C",
"p	c #3C3C3C",
"q	c #1C1C1C",
"r	c #242424",
"s	c #2C2C2C",
"t	c #989898",
"abcddddddddddddddddddddddddddeeeeeeabcdddddddddddddddddddddddddd",
"bffffffffffffffffffffffffffgheeeeeebffffffffffffffffffffffffffgh",
"cfiiiiiiiiiiiiiiiiiiiiiiiiijkeeeeeecfiiiiiiiiiiiiiiiiiiiiiiiiijk",
"dflllllllllllllllllllllllllkleeeeeedflllllllllllllllllllllllllkl",
"dfjjjjmnhhhhhhhhhhhhhnmjjjjloeeeeeedfjjjjmnhhhhhhhhhhhhhnmjjjjli",
"dfooooooooooooooooooooooooooieeeeeedfooooooooooooooooooooooooooi",
"dfpppppppppppppppppppppppppoieeeeeedfpppppppppppppppppppppppppoi",
"dfqrsssssssssssssssssssssrqoieeeeeedfqrsssssssssssssssssssssrqoi",
"dfiiiiiiiiiiiiiiiiiiiiiiiiioieeeeeedfiiiiiiiiiiiiiiiiiiiiiiiiioi",
"dfllllllllllllllllllllllllloieeeeeedfllllllllllllllllllllllllloi",
"dfjjjjmnhhhhhhhhhhhhhnmjjjjoieeeeeedfjjjjmnhhhhhhhhhhhhhnmjjjjoi",
"dfiiiiiiiiiiiiiiiiiiiiiiiiioieeeeeedfiiiiiiiiiiiiiiiiiiiiiiiiioi",
"dfpppppppppppppppppppppppppoieeeeeedfpppppppppppppppppppppppppoi",
"dfqrsssssssssssssssssssssrqoieeeeeedfqrsssssssssssssssssssssrqoi",
"dfiiiiiiiiiiiiiiiiiiiiiiiiioieeeeeedfiiiiiiiiiiiiiiiiiiiiiiiiioi",
"dfllllllllllllllllllllllllloieeeeeedfllllllllllllllllllllllllloi",
"dfjjjjmnhhhhhhhhhhhhhnmjjjjoieeeeeedfjjjjmnhhhhhhhhhhhhhnmjjjjoi",
"dfiiiiiiiiiiiiiiiiiiiiiiiiioieeeeeedfiiiiiiiiiiiiiiiiiiiiiiiiioi",
"dfpppppppppppppppppppppppppoieeeeeedfpppppppppppppppppppppppppoi",
"dfqrsssssssssssssssssssssrqoieeeeeedfqrsssssssssssssssssssssrqoi",
"dfiiiiiiiiiiiiiiiiiiiiiiiiioieeeeeedfiiiiiiiiiiiiiiiiiiiiiiiiioi",
"dfllllllllllllllllllllllllloieeeeeedfllllllllllllllllllllllllloi",
"dfjjjjmnhhhhhhhhhhhhhnmjjjjoieeeeeedfjjjjmnhhhhhhhhhhhhhnmjjjjoi",
"cfiiiiiiiiiiiiiiiiiiiiiiiiioieeeeeedfiiiiiiiiiiiiiiiiiiiiiiiiioi",
"bfpppppppppppppppppppppppppoieeeeeedfpppppppppppppppppppppppppoi",
"afqrsssssssssssssssssssssrqlieeeeeecfqrsssssssssssssssssssssrqli",
"afiiiiiiiiiiiiiiiiiiiiiiiiikieeeeeebfiiiiiiiiiiiiiiiiiiiiiiiiiki",
"afllllllllllllllllllllllllljieeeeeeaflllllllllllllllllllllllllji",
"afjjjjmnhhhhhhhhhhhhhnmjjjjjieeeeeeafjjjjmnhhhhhhhhhhhhhnmjjjjji",
"afooooooooooooooooooooooooojieeeeeeafoooooooooooooooooooooooooji",
"afpppppppppppppppppppppppppjieeeeeeafpppppppppppppppppppppppppji",
"afqrsssssssssssssssssssssrqjieeeeeeafqrsssssssssssssssssssssrqji",
"afiiiiiiiiiiiiiiiiiiiiiiiiijieeeeeeafiiiiiiiiiiiiiiiiiiiiiiiiiji",
"afllllllllllllllllllllllllljieeeeeeaflllllllllllllllllllllllllji",
"bfjjjjmnhhhhhhhhhhhhhnmjjjjjieeeeeeafjjjjmnhhhhhhhhhhhhhnmjjjjji",
"cfiiiiiiiiiiiiiiiiiiiiiiiiijieeeeeeafiiiiiiiiiiiiiiiiiiiiiiiiiji",
"dfpppppppppppppppppppppppppkieeeeeebfpppppppppppppppppppppppppki",
"dfqrsssssssssssssssssssssrqlieeeeeecfqrsssssssssssssssssssssrqli",
"dfiiiiiiiiiiiiiiiiiiiiiiiiioieeeeeedfiiiiiiiiiiiiiiiiiiiiiiiiioi",
"dfllllllllllllllllllllllllloieeeeeedfllllllllllllllllllllllllloi",
"dfjjjjmnhhhhhhhhhhhhhnmjjjjoieeeeeedfjjjjmnhhhhhhhhhhhhhnmjjjjoi",
"dfiiiiiiiiiiiiiiiiiiiiiiiiioieeeeeedfiiiiiiiiiiiiiiiiiiiiiiiiioi",
"dfpppppppppppppppppppppppppoieeeeeedfpppppppppppppppppppppppppoi",
"dfqrsssssssssssssssssssssrqoieeeeeedfqrsssssssssssssssssssssrqoi",
"dfiiiiiiiiiiiiiiiiiiiiiiiiioieeeeeedfiiiiiiiiiiiiiiiiiiiiiiiiioi",
"dfllllllllllllllllllllllllloieeeeeedfllllllllllllllllllllllllloi",
"dfjjjjmnhhhhhhhhhhhhhnmjjjjoieeeeeedfjjjjmnhhhhhhhhhhhhhnmjjjjoi",
"dfiiiiiiiiiiiiiiiiiiiiiiiiioieeeeeedfiiiiiiiiiiiiiiiiiiiiiiiiioi",
"dfpppppppppppppppppppppppppoieeeeeedfpppppppppppppppppppppppppoi",
"dfqrsssssssssssssssssssssrqoieeeeeedfqrsssssssssssssssssssssrqoi",
"dfiiiiiiiiiiiiiiiiiiiiiiiiioieeeeeedfiiiiiiiiiiiiiiiiiiiiiiiiioi",
"dfllllllllllllllllllllllllloieeeeeedfllllllllllllllllllllllllloi",
"dfjjjjmnhhhhhhhhhhhhhnmjjjjoieeeeeedfjjjjmnhhhhhhhhhhhhhnmjjjjoi",
"dfiiiiiiiiiiiiiiiiiiiiiiiiioieeeeeedfiiiiiiiiiiiiiiiiiiiiiiiiioi",
"dfpppppppppppppppppppppppppoieeeeeedfpppppppppppppppppppppppppoi",
"dfqrsssssssssssssssssssssrqoieeeeeedfqrsssssssssssssssssssssrqoi",
"dfiiiiiiiiiiiiiiiiiiiiiiiiioieeeeeedfiiiiiiiiiiiiiiiiiiiiiiiiioi",
"dfllllllllllllllllllllllllloieeeeeedfllllllllllllllllllllllllloi",
"dfjjjjmnhhhhhhhhhhhhhnmjjjjoieeeeeedfjjjjmnhhhhhhhhhhhhhnmjjjjoi",
"dfiiiiiiiiiiiiiiiiiiiiiiiiilieeeeeedfiiiiiiiiiiiiiiiiiiiiiiiiili",
"dfpppppppppppppppppppppppppkieeeeeedfpppppppppppppppppppppppppki",
"dfqrsssssssssssssssssssssrqjieeeeeedfqrsssssssssssssssssssssrqji",
"dtjklooooooooooooooooooolkjmieeeeeedtjklooooooooooooooooooolkjmi",
"dhkloiiiiiiiiiiiiiiiiiiiiiiiieeeeeedhkloiiiiiiiiiiiiiiiiiiiiiiii"
};