/* XPM */
static char *wall_r05_c03[] = {
"64 64 15 1",
"a	c #502400",
"b	c #743804",
"c	c #884404",
"d	c #3C3C3C",
"e	c #2C1400",
"f	c #1C1C1C",
"g	c #5C0000",
"h	c #401C00",
"i	c #2C2C2C",
"j	c #0C0C0C",
"k	c #340000",
"l	c #480000",
"m	c #200000",
"n	c #700404",
"o	c #840404",
"abbbbbbbbbbbbbbbbbbbbbbbbbbbbcddabbbbbbbbbbbbbbbbbbbbbbbbbbabcdd",
"eaaaaaaaaaaaaaaaaaaaaaaaaaaaabdfeaaaaaaaaaaaaaaaaaaaaaaaaggaabdf",
"ehaaaaaaaaaaaaaaaaaaaaaaaheaabifehaaaaahaaaaaaaaaaaggaahaaaaabdf",
"ehaaaaaaaaaaahaaaaaaaaaaaahaabifehaaaaaaaaaaaaaaaaaaaaaaaaaaabif",
"ehaaaaaaahaaaaaaaahaaaaabaaaabdfehaaaaaaaaaaaaaaaaaaaaaaaaaaabif",
"ehaaaaaaaaaaaaaaaaaaaaaaaaaaabifehaahaaaaaaahaaaaaaaaaaaaaaaabif",
"ehahaaaaaaaaaaaaaaaaaaaaaaaaabifehaaaaaaaaaaaaaaahaaaaahaaaaabif",
"ehaaaaaaaaaaahaaaaaaaaaaaaaaabifehaaaaaaaaaaaaaaaaggaaggaahaabif",
"ehaaaaaaaaaaaaaaahaaaaaaaaaaabifehaaaaaaaaaaaaaaaaaaaaaaaaaaabif",
"ehaaaaaaaaaaaaaaaaahaaaaaaaaabifehaaaaaaaaaaaheaaaaaaaaahaaaabif",
"ehaaaaaaaahaaaaaaaaaaahaaaaaabifehaaaaaaaaaaaahaaaaaaaaaaaaaabif",
"ehaaaaaaaaaaaaaaaaaaaaaaaaaaabifehaaaaaaaaaabaaaggaaaaaaaaaaabdf",
"ehhhhhhhhhhhhhhhhhhhhhhhhhhhabijehhhhhhhhhhhhhhhhhhhhhhhhhhhabif",
"eeeeeeeeeeeeeeeeeeeeeeeeeeeeeaifeeeeeeeeeeekkekkekkekeklkkeeeaif",
"fjffffffffffffffffffjfffffjffdifffffffffffffmflfffffhmmffffffdif",
"iiifiiiidiiifiiiiiiiiiidiiiiddiiiiiiiiiiiiiklkdiiikkihihiihiddii",
"bbbbbbbbbbbbbcddabbbbbbbbbbbbbbbbbbbbbbbbbnnbadhabbnnnnbnnbbbbbb",
"aaaaaaaaaaaaabdfeaaaaaaaaaaaaaaaaaaaaaaaaaaggnlfkaaaaaaaaaaaaaaa",
"aaheaaaaaaaaabifehaaaaaaaaaaahaaaaaaaahaaagggnimklggaaaaaaahaaaa",
"aaahaaaaahaaabifehaaaaaaaaaaaaaaaaaaaaggaggggaklklggggaaaaaaaaah",
"abaaaaaaaaaaabifehaaaaaaahaaaaaaaaaheggagggggnkmllggaaaaaaaaaaaa",
"aaaaaaaaaaaaabijehaaaaaaaaaaaahaaaaglaaggggggbklllggggghaaaaaaaa",
"ahaaaaaaaaaaabifehahaaahaaaaaaaaaabaaaaggglaanmlllggggaaaaaaaaaa",
"aaaaaaaahaaaabifehaaaaaaaaaaaaaaaaaaaaagglgaanklllggaaaahaaaaaaa",
"aaaaaaaaaaaaabffehaaaaaaaahaaaaaaaglaaggllgaanllllghaaaaaaaaaaha",
"aaaaaaaaaaaaabifehahaaaahaaaaaaaaaagggaaglaggnklllaahaaaheaaaaaa",
"aaaahaaaaaaaabifehaaaaaaaaaaaaaaaagggaaaglaaankllhaaaaaaahaaaaaa",
"aaaaaaaaaaaaabifehaaaaaaaaggaaaaaaaaggggglaaanlllhaaaaabaaaaaaaa",
"hhhhhhhhhhhhabifehhhhhhhhhhhllhhhhhhlllllhllgnllkhhhhhhhhhhhhhhh",
"eeeeeeeeeeeeeaifeeekkeeeekekkkeklellkllllekkkglheeeeeeeeeeeeeeee",
"fffffffjfffffdiffffffjmflfmmmhmlmmmmlllmfffmlllhffffffffjfffffff",
"fiiiidiiiiiiddiiimiihlkkdilklllkllklllhkilkllkkiiifiiidiiiiiiiii",
"abbbbbbbbbbbbbbbbbnnnbbannnnnnkkgnnnnnbnnnnbabaabbbbbbbbbbbbbcdd",
"eaaaaaaaaaaaaaaaaaaaaggggggggakllggggaaaaagggggaaaaaaaaaaaaaabdf",
"ehaaaaaaaaaaaaaaggaaggaaagglgnllllgggglggggllgaaaaaaaahaaaaaabif",
"ehaaaaaaaaaaggahaaaggggagggggnllllggaagglllllgghaaaaaaaaaaaaabif",
"ehaaaaaaaaaaagggggggggaggggggnllllgggggllllalaaaahaaaaaaaaaaabif",
"ehaaaahaaaaaagggggggllgglggggnlllhaaaagllllalaaaaaaaaaaheahaabdf",
"ehaaaaaaaaaaagggggglllllllgggnllllgaaagglglalaaaaaaaaaaahaaaabif",
"ehaaaaaaaaaaggggggglllllglgggnlmklgaaglggalaaaaaaaaaaabaaaaaabif",
"ehaaahaaaaagllghggglllllllgggnilkhaaaagggalaaahaaaahaaaaaaaaabif",
"ehaaaaaaheagglgggggllgglgggggnkmllgagggggalaaaaaaaaaaaaaaaaaabif",
"ehaaaaaaalgngggaaaglggglgggggakmkhahaggaaalahaaaahaaaahaaaaaabif",
"ehaaaaabaaaaaggaggllggglgggggbifehaggaaaaalaaaaaaaaaaaaaaaaaabif",
"ehhhhhhhhhhhllhhllllllllllllabifehllllhhhhhhhhhhhhhhhhhhhhhhabif",
"eeeeeeeeeekkleklkkkkkllllklkeaifeeelkkeeeeeeeeeeeeeeeeeeeeeeeaif",
"ffffffjfffmmfmmmhfmmlllllmlffdiffmmffffjfffffffffjfffjfffffffdif",
"iifiiiikiidhkkklhmlllllllliiddiiiiiifiiiiiiiiiiiiiiiiiiiiiiiddii",
"bbbbbbbbbnnbbollgnnnnnnnnbbbbbbbbbbbbbbbbbbbbcidabbbbbbbbbbbbbbb",
"aaaaaaaaaaaagnlleggllllaaaaaaaaaaaaaaaaaaaaaabdfeaaaaaaaaaaaaaaa",
"aaaaaaggahaggnlhklggllllgaaaaaaaaaaaaaaaaaaaabifehaaahaaaaahaaaa",
"ahaaaaaaaagggnlhehgglllllaaahaaaaaaaaahahaaaabijehaaaaaaaaaaaaaa",
"aaaaaaaaaagggnlmelgggaalaaaaaaaaaaaaaaaaaaaaabifehaaahaaaaaaaaaa",
"aahaaaahgggggnhfelggghalhaaaaaaaaaaaaaaaaaaaabifehaaaaaaaaaaaaaa",
"aaaaaaaggggggnhfllgggaalaaaaaheaaaaaaahaaaaaabifehaaaaaaaaaaaaha",
"aaaaaaaggggagnkmklaaaaalaaaaaahaaahaaaaaaaaaabifehaaaaaaheaaaaaa",
"aaahagggggaggadfklggaahlaaaabaaaaaaaaaaaahaaabifehhaaaaaahaaaaaa",
"aaaaagggghaggbimehlgaaaaaaaaaaaaaahaaaaaaaaaabdfehaaaaabaaahaaaa",
"aaaaaggggaaaabimkhaaaaaahaaaaaaaaaaaaaaaaaaaabifehaaaaaaaaaaaaaa",
"aaaagglgaaaaabimlhaaaaaaaaaaaaaaaaaaaaaaaahaabffehaahaaaaaaaaaaa",
"hhhhhhhllhhhabkmlhhhhhhhhhhhhhhhhhhhhhhhhhhhabifehhhhhhhhhhhhhhh",
"eeeekkleeeeeeammeeeeeeeeeeeeeeeeeeeeeeeeeeeeeaifeeeeeeeeeeeeeeee",
"fjffmmfffjfffdifffffffjfffffffffffffffffffjffdiffjffffffffffffff",
"iikfihiiiiiiddiiiiididiiiifiiiiiiidiiiiiiiiiddiiiiiiifidiiifiiii"
};