/* XPM */
static char *wall_r08_c08[] = {
"64 64 17 1",
"a	c #A0A0A0",
"b	c #BCBCBC",
"c	c #CCCCCC",
"d	c #D8D8D8",
"e	c #5C5C5C",
"f	c #7C7C7C",
"g	c #2C2C2C",
"h	c #6C6C6C",
"i	c #8C8C8C",
"j	c #4C4C4C",
"k	c #3C3C3C",
"l	c #141414",
"m	c #700404",
"n	c #980808",
"o	c #E8E8E8",
"p	c #840404",
"q	c #AC0C0C",
"abccccccccccccccccccccccccccddeeabccccccccccccccccccccccccccddee",
"fabbbbbbbbbbbbbbbbbbbbbbbbbbcdegfabbbbbbbbbbbbbbbbbbbbbbbbbbcdeg",
"hibaihiiifhhifiiiiahibiaiaiibcjghibaihiiaaiiaibaabffaafiiaiibceg",
"efaaaaiaiihiiiiiaaaafiiaaaaaacjgefaaaaiaiiifbaaaahaaffiiiiiaacjg",
"efaiiiaaiififiaiaahiaabaaifiacegefaiiiaaiiiiaiaibfaaaaiaaiiiacjg",
"jfaihiaiiifiaiaiiiiibaaaaabaacjgjfaihiaiifiiaaaiafiiaaihiiiaacjg",
"jhbbifaiiiaiaiaiiiafaaiaafiabcegjhbbifaiiiiafiaabaaaiibiaaaabcjg",
"jhbiiiiaaaaaibiiaaabaaifaiiibcjgjhbiiiiaiifaaiaafaiiiaiaiaiibcjk",
"jhifiiaiaiiihiaaiifaiaaaiifiicekjhifiiaiibaaaaabiiiiiaiaifiiicjg",
"jhiiiiaaiiiaaiaaaafbiaiaiiiiicjgjhiiiiaaifiaabaaihaaiaififiiicjg",
"jhfiibaaaiiiiiffaahaaaabfiiifcjgjhfiibaaaaaaaiifaaaaiiiiihiifcjg",
"jhfiaciaiiaiifaaffbaabiaiiaifbegjhfiaciaaiaiaibihaiiiifihhfifbeg",
"kehhhhhhhhhhhhhhhhhhhhhhhhhffajlkehhhhhhhhhhhhhhhhhhhhhhhhhffajg",
"gkjjjjjjjjjmjjjjjjjmjjjjjjjjeheggkjjjjjjjjjjjjjjjjjjjjjjjjjjehjg",
"ggggggglggggggggglggglgggggggejgggggggglggggggggglggglgggggggejg",
"kjjkjehjejejkjjejjjejejejjjjeejjejkjejjejjjkjjjjjjjjjjejjjjeeejj",
"ccccccccccdcnoeeabccccccccccccccccccccccccccddeeabcccccccccccccc",
"cbbbbbcbbbbbcdegfanbbbbbbbbbbbbbbbbbbbbbbbbbcdegfabbbbbbbbbbbbbb",
"aiiiiaaiihiabcjghibaihiiaaiiaibaabffaafiiaiibcjghibaihiiifhhifii",
"iaifiiiaiaaabdjgefaaaaianiifbaaaahaaffiiiiiaacjgefaaaaiaiihiiiii",
"iaaiiiiaaiiibnjgefaniiaaiiiiaiaibfaaaaiaaiiiacjgefaiiianiififiaa",
"iiaiifiiaihibcjljfainininfiinaanafiiaaihiiiaacjgmfaihiaiiifiaiaa",
"iiaaiiiiafibbcjgjhbbifaiiiiafpaabaaaiibinaaabckmjhnbinaiiiaiaiaa",
"iaiafiiaiiiicdjgmhbiiinnnifaaiaafaiiiaiaiainbcjgjhnpniiaaaaaibii",
"iiaaabiiaiifbckgjhifnnnnpnnaaaapiiiiiniaifiinqkgjnppnnaiaiiihiaa",
"iaaaifiaaiiibdmgjhiiinpppniaanaaihaaiaifnfiinqmgmnppnnaniiiaaiaa",
"aaaaaaaaabnnbcjgjhfiipppnnnannnfaaaainiiininnqmmjnnpnnaaaiiiiiff",
"aaiiaiaancaincjgmhnincpnniaiaibihpiinnnihhfnnqmmjhnpnciaiiaiifaa",
"hhhhhhhhhhpfaqmmmehhhhphhhhphhhphhpppppphhhnnqmmmepphhhhhhhhhhhh",
"kkkkkkkkkkkkmnmmmmjjjjmjmmmjjmjjmjjmmmmmmmmjmpmggmmjjjjjjjjjjjjj",
"klggglmgggggmpmmmmggggmmmmmmgggmglgmmmmmmmmmgpjggggmmgglgggggggg",
"kjjjjejjjmjjppmmmmmkjmmmpmmmmmmmmmmemmmpmmmmepjjjjkjmjemjjjjjjjj",
"abccccccccqqqqqqqccccccqnqqqqqppnqqqqqqqqqqqcnccncccccccccccddee",
"fabbbbbnbnnbnppnbbnbbbbbnpnnnppmmnpnnpnnnnnnnbbbbbbbbbbbbbbbcdeg",
"hiaiiaibnabnppppnnaiiafiippnnpmmmnppnppnpnnhifnnniahibiaiaiibcjg",
"efiifbaaaahappppniiinfinipianpmmmpppppppnihiinppnnaafiiaaaaaacjg",
"efiiiaiaibfappnnnnniiniaappipnmmmppppppnnnfnfnppppnnnabaaifiacjg",
"jffiiaaaiafiipnnhiiinanhipiaacjmmpppppppnnfianpppppnnnaaaabaaceg",
"jhiiafiaabaaapibnnnnanbiananbnjmmpppppppinniappppppppniaafiabcjg",
"jhifaaiaafaiipannpnniaiaiannbcjmjpbpppppaaaaipiianpppnifaiiibcjg",
"jhbaaaaabiiinpanpppniaianfniicjmjpippnppaiiihpaaiipppaaaiifiicjk",
"jhfiaabaaihaananpppniaififiiicjgjpipppppiiiaapaaaafbpaiaiiiiicjg",
"jhaaaaiifaanaiiipppiniiiihiifcjgjhfipnppainiipffanhapaabfiiifcjg",
"jhiaiaibihaiiiifphpfnifihhfifbjgmhfipcppiiaiifaaffbapbiaiiaifbjg",
"kehhhhhhhhhhhhhhphphhphhhhhffajgmehhphhphhhhhhhhhhhhphphhhhffajg",
"gkjjjjjjjjjjjjjjjjmjjmjjjjjjehjggkjjmjjmjjjjjjjjjjjjjjjjjjjjehjg",
"ggggggglggggggggglmgglgggggggejgggggmggmggggggggglggglgggggggejg",
"kjjkjehjejejkjjejjjejejejjjjeejjjjjjkjjmjjjjjjjjjjjjjjjjjjjjeejj",
"ccccccccccdcdoeeabcccccccccccccccccccccnccccddjeabcccccccccccccc",
"cbbbbbcbbbbbcdegfabbbbbbbbbbbbbbbbbbbbbbbbbbcdegfabbbbbbbbbbbbbb",
"aiiiiaaiihiabcjghibaihaiiaibaabffaafiiaiiaiibcjghibaihiiifhhifii",
"iaifiiiaiaaabdjgefaaaaiifbaaaahaaffiiiiiaiiaacjgefaaaaiaiihiiiii",
"iaaiiiiaaiiibcjkefaiiiiiiaiaibfaaaaiaaiiiiiiacjgefaiiiaaiififiaa",
"iiaiifiiaihibckgjfaihifiiaaaiafiiaaihiiiaiiaacjgjfaihiaiiifiaiaa",
"iiaaiiiiafibbcjgjhbbifiiafiaabaaaiibiaaaaaaabcjgjhbbifaiiiaiaiaa",
"iaiafiiaiiiicdjgjhbiiiifaaiaafaiiiaiaiaiiaiibcjgjhbiiiiaaaaaibii",
"iiaaabiiaiifbcegjhifiibaaaaabiiiiiaiaifiifiiicjgjhifiiaiaiiihiaa",
"iaaaifiaaiiibdjgjhiiiifiaabaaihaaiaififiifiiicegjhiiiiaaiiiaaiaa",
"aaaaaaaaabiibcjgjhfiibaaaaiifaaaaiiiiihiihiifcjgjhfiibaaaiiiiiff",
"aaiiaiaaicaiacjljhfiaciaiaibihaiiiifihhfihfifbkgjhfiaciaiiaiifaa",
"hhhhhhhhhhffacjgkehhhhhhhhhhhhhhhhhhhhhhhhhffajgkehhhhhhhhhhhhhh",
"kkkkkkkkkkkkjjkggkjjjjjjjjjjjjjjjjjjjjjjjjjjehjggkjjjjjjjjjjjjjj",
"klggglgggggggejgggggggglggggggggglggglgggggggejgggggggglgggggggg",
"kjjkjjjjjjjjeejjkjjkjehjejejkjjejjjejejejjjjeejjjjjjjkjejjjkjjjj"
};