/* XPM */
static char *wall_r14_c01[] = {
"64 64 32 1",
"a	c #FCFCFC",
"b	c #E0E0E0",
"c	c #C0D0E4",
"d	c #98C0E4",
"e	c #081420",
"f	c #B4D0EC",
"g	c #7CACDC",
"h	c #6C90BC",
"i	c #5884B0",
"j	c #4C78A8",
"k	c #3C6CA0",
"l	c #2C5480",
"m	c #204060",
"n	c #346090",
"o	c #244870",
"p	c #183450",
"q	c #142840",
"r	c #0C1C30",
"s	c #0C0C0C",
"t	c #040404",
"u	c #980808",
"v	c #C01010",
"w	c #C45018",
"x	c #C89020",
"y	c #AC580C",
"z	c #884404",
"A	c #E8E8E8",
"B	c #C03014",
"C	c #94B0D0",
"D	c #80A0C4",
"E	c #A8BCD8",
"F	c #28CC28",
"aabbbccccccddddddddddddddddddddeedddddccccccccffaaffcccccccddddd",
"addgggghhihiiiiiijjjjkjjkkkkjlmeemkiiiiihihhggggddddgggghihiiiii",
"bdghhhiiijjkknnlllooopppqqqqqeeeeeplllnnkkjjiiihhhgghhhiijjkknnl",
"bdggghhiijjkjnknnlloopppqpqqqeeeeepollnnknjkjjiihhgggghhijjkjnkn",
"cggggghhhijjjkknnnloloooppqqqeeeeepololnnnkkjjjihhhgggghhiijjkkn",
"cghgggghhiijjkjnknnlloooppqpqeeeeerpoollnnknjkjjiihhgggghiijjkjn",
"cghhhgghhhiiijjkknnlllooooppqeeeeerpooolllnnkkjjiiihhhgghhhiijjk",
"cgihhggoklllloooopopppppqqqqreeeeeerqqqqppppopoooollllkkllhiijjk",
"cgihhhgkrqqqqqqrrrrrrrssrrssstteetttttssrrrrrrrrrrqqqqqqqchhhiij",
"chjiihhkuvwxxxxwvvvvwxxxxwvvvyzeezyxxxxwvvvvwxxxxwvvvvwxdcghhiij",
"chjiiihluwxxxxwvvvvwxxxxwvvvvyzeezyxxxwvvvvwxxxxwvvvvwxxdAghhhii",
"dhkjjiilBxxxxwvvvvwxxxxwvvvvwyzeezyxxwvvvvwxxxxwvvvvwxxxdAggghhi",
"dikjjjilyxxxwvvvvwxxxxwvvvvwxyzeezyxwvvvvwxxxxwvvvvwxxxxdAhggghh",
"dinjkjjlyxxwvvvvwxxxxwvvvvwxxyzeezywvvvvwxxxxwvvvvwxxxxwdfhggggh",
"dinkkjjlyxwvvvvwxxxxwvvvvwxxxyzeezwvvvvwxxxxwvvvvwxxxxwvgchhhggh",
"dinknjkorlihhgggghhiijjjkjnknoreeerpqpqqqqpqppoollnnknjkgcihhggg",
"dinnnkkorlihhnnnngnnhnnnnjkknoqeerppppqqqqqqqqpqqqqnnnkkgdihhhgg",
"dilnnknorojiipvvvgvvhvvvCjkjnlqeerpoppqqvvvqvvpvvvjlnnknhdjiihhg",
"djlllnnorojiipvvhvvvvhvvCijjklqeermooopqvvqvvvvpvvjlllnnhdjiiihh",
"djollnnorokjjpvhvvvvvvhvCijjknqeeqmloopqvpvvvvvvpvjollnnhdjjjiih",
"djololnprokjjjpvvvvvvvvhhhijjnpeeqololooqvvvvvvvvpoololnhdkjjjih",
"djpoollpronjkjpvvvvvvvvghhiijnpeeponllooqvvvvvvvvqppoollhdkjkjji",
"djpooolprpnkkpvivvvvvvgvChhiikmeeponlllqvovvvvvvqvjpooolignkkjji",
"djqppooprpnknpvvjvvvvgvvChhiinmeeqlnnllqvvpvvvvqvvlppoolignknjkj",
"djqpppoprpnnnkpvvivvhvvCgghhhkoeeplnnnllqvvpvvqvvjqpppoliglnnkkj",
"djqpqppqsplnnkpvvvjivvvgggghhkoeepnnknnlqvvvpqvvvlqpqppoiglnnknj",
"djqqqppqsqlllnnpvvvvvvChhgghhjoeemnkknnllqvvvvvvjqqqqppoiglllnnk",
"djqqqqqqrpoollnpvvvvvvhhhggggjleemnkjnknnqvvvvvvlqqqqpqpigollnnk",
"djqqqqqqrppolllnpvvvvCiihhgggDleeonjjkknnnqvvvvjpqqqqqqpihololnn",
"djqpqqqqspppoollpvvvvhiiihhggDjeeokjjkjnknqvvvvlpqpqqqqpjhpoolln",
"fjqpqqqqsqppooollpvvCkjjiihhhDjeelkiijjkknnqvvjooppqqqqqjhpoooll",
"fjppqpqqsqppppoollnnknjjjiihhDjeeljiijjkjnknjjlooppqpqqqjhpppool",
"fippqpqqsqqpppoololnnnjkjiihhjjeejjhhiijjkknnnlllopppqqqjhqpppol",
"fippppqqsqqqppppoollnnkkkECggjleejDECggojkjnknnllooppqpqjhqpqppo",
"fioopppqsqqqqqppooolllknkCFFjqleejDCFFjonjjkknnllloooppqjhqqqppo",
"fioopppqspqqqqpqppoollnnngFFjqoeejDgFFjonjjkjnknnllooppqjhqqqpqp",
"cilooopprpqqqqqqqqpollnnngFFjqoeelDgFFjonijjjkknnnloloopjhqqqqqp",
"cilllooprppqqqqqqqppoollnghhjqmeeljghhjoniijjkjnknnlloopjhqqqqqp",
"cinnlloprpppqqqqpqppoolllghnjqmeeojgnhjonhiiijjkknnllloojhpqqqqq",
"cinnnllprqppqqqqqqpqpplllggejqpeeokgegjonhhiijjkjnknnllojhpqpqqq",
"ciknnnllsqoppqqqqqqpppollggejqpeeokgegjonghhhiijjkknnnllihoppqqq",
"cijnknnlsqoppqpqqqqpqppooggejqqeemngegjongghhiijjkjnknnligoppqpq",
"chjkknnlrqoooppqqqqqqppooggejqqeemngegjongghhhiiijjkknnligoooppq",
"chjkjnknrpoooppqpqqqqpqppggEjqqeemlgEgjongggghhiijjkjnkniglooppq",
"cgjjjkknrplolooppqqqqqqppghhjqqeeplghhjonhgggghhhijjjkknigloloop",
"fgijjkjnrpnllooppqpqqqqpqqqqqqreepoooooonhhgggghhiijjkjnignlloop",
"fgiiijjkrpnllloooppqqqqqqppoopreeqonnnnnnihhhgghhhiiijjkignllloo",
"fghiijjkrpnnnllooppqpqqqqpqpppeeeqoknjkjjiihhgggghhiijjkidnnnllo",
"fdhhhiijronnnnlllopppqqqqqqppreeeronnkkjjiihhhgggghhhiijhdknnnll",
"fdghhiijroknknnllooppqpqqqqpqreeermnnknjkjjiihhgggghhiijhdknknnl",
"fdghhhiirokkknnllloooppqqqqqqreeeemllnnkkjjiiihhhgghhhiihdjkknnl",
"fdggghhirojkjnknnllooppqpqqqqreeeepllnnknjkjjiihhgggghhihdjkjnkn",
"cggggghhqojjjkknnnlolooppqqqqeeeeeplolnnnkkjjjihhhgggghhgdijjkkn",
"cghgggghqlijjkjnknnllooppqpqqeeeeeroollnnknjkjjiihhgggghgdijjkjn",
"cghhhgghqliiijjkknnllloooppqqeeeeerooolllnnkkjjiiihhhgghddhiijjk",
"cgihhgggkddgghhhhihiiiiiijjjjnmeemnjjiiiiiihihhhhggddddddchiijjk",
"cgihhhggfaaffddddddggggggghhhjleeljhhhgggggggddddddfffaafchhhiij",
"chjiihhgggghhiijjkjnknnllooppeeeeeepqppoollnnknjkjjiihhgggghhiij",
"chjiiihhhgghhhiiijjkknnllloooreeeeeqqppooolllnnkkjjiiihhhgghhhii",
"dhkjjiihhgggghhiijjkjnknnllooreeeeeqqpqppoollnnknjkjjiihhgggghhi",
"dikjjjihhhgggghhhijjjkknnnlolpeeeeeqqqqppoololnnnkkjjjihhhgggghh",
"dinjkjjiihhgggghhiijjkjnknnllpeeeerqqqqpqppoollnnknjkjjiihhggggh",
"dipoooollllllkkllllllooooppppreeeeerrrrrrqqqqqpppppoooollllllkkl",
"dpqqqqqqqppppooooppppqqqqqqqqeeeeeesrssssrsrrrrqqqqqqqqqqppppooo"
};