/* XPM */
static char *wall_r08_c02[] = {
"64 64 27 1",
"a	c #5884B0",
"b	c #346090",
"c	c #204060",
"d	c #04A468",
"e	c #04BC78",
"f	c #30C890",
"g	c #60D8AC",
"h	c #D8D8D8",
"i	c #A8A8A8",
"j	c #848484",
"k	c #142840",
"l	c #C4C4C4",
"m	c #E8E8E8",
"n	c #183450",
"o	c #081420",
"p	c #0C1C30",
"q	c #A0A0A0",
"r	c #8C8C8C",
"s	c #7C7C7C",
"t	c #747474",
"u	c #B0B0B0",
"v	c #3C6CA0",
"w	c #2C5480",
"x	c #6C90BC",
"y	c #4C78A8",
"z	c #244870",
"A	c #80A0C4",
"aaaaaaaaaaaaaaaaaaaaaaaaaaaaaaaaaaaaaaaaaaaaaaaaaaaaaaaaaaaaaaaa",
"bbbbbbbbbbbbbbbbbbbbbbbbbbbbbbbbbbbbbbbbbbbbbbbbbbbbbbbbbbbbbbbb",
"cccccccccccccccccccccccccccccccccccccccccccccccccccccccccccccccc",
"dddddddddddddddddddddddddddddddddddddddddddddddddddddddddddddddd",
"eeeeeeeeeeeeeeeeeeeeeeeeeeeeeeeeeeeeeeeeeeeeeeeeeeeeeeeeeeeeeeee",
"ffffffffffffffffffffffffffffffffffffffffffffffffffffffffffffffff",
"gggggggggggggggggggggggggggggggggggggggggggggggggggggggggggggggg",
"ffffffffffffffffffffffffffffffffffffffffffffffffffffffffffffffff",
"eeeeeeeeeeeeeeeeeeeeeeeeeeeeeeeeeeeeeeeeeeeeeeeeeeeeeeeeeeeeeeee",
"dddddddddddddddddddddddddddddddddddddddddddddddddddddddddddddddd",
"aaaaaaaaaaaaaaaaaaaaaaaaaaaaaaaaaaaaaaaaaaaaaaaaaaaaaaaaaaaaaaaa",
"bbbbbbbbbbbbbbbbbbbbbbbbbbbbbbbbbbbbbbbbbbbbbbbbbbbbbbbbbbbbbbbb",
"cccccccccccccccccccccccccccccccccccccccccccccccccccccccccccccccc",
"hhhhijkkkkkkkkkkkkkkkkkkkkkkkkkkkkkkkkkkkkkkkkkkkkkkkkkkkkihhhhh",
"llllijkkkkkkkkkkkkkkkkkkkkkkkkkkkkkkkkkkkkkkkkkkkkkkkkkkkkihllll",
"hhhhijkkkkkkkkkkkkkkkkkkkkkkkkkkkkkkkkkkkkkkkkkkkkkkkkkkkkihhhhh",
"mmmmijnooooooooooooooknooooooooooooooknooooooooooooooknoooihmmmm",
"hhhhijnnnnnnnnnnnnnkpknnnnnnnnnnnnnkpknnnnnnnnnnnnnkpknnnnihhhhh",
"llllijnkkkkkkkkkkkkkpknkkkkkkkkkkkkkpknkkkkkkkkkkkkkpknkkkihllll",
"qqqqijnooooooooooooooknooooooooooooooknooooooooooooooknoooihqqqq",
"rrrrijnnnnnnnnnnnnnnnknnnnnnnnnnnnnnnknnnnnnnnnnnnnnnknnnnihrrrr",
"ssssijnkkkkkkkkkkkkkkknkkkkkkkkkkkkkkknkkkkkkkkkkkkkkknkkkihssss",
"ttttijnooooooooooooooknooooooooooooooknooooooooooooooknoooihtttt",
"ssstijnnnnnnnnnnnnnkpknnnnnnnnnnnnnkpknnnnnnnnnnnnnkpknnnnihtsss",
"rrrrijnkkkkkkkkkkkkkpknkkkkkkkkkkkkkpknkkkkkkkkkkkkkpknkkkihrrrr",
"qqqqijnooooooooooooooknooooooooooooooknooooooooooooooknoooihqqqq",
"uuuuijnnnnnnnnnnnnnnnknnnnnnnnnnnnnnnknnnnnnnnnnnnnnnknnnnihuuuu",
"llllijnkkkkkkkkkkkkkkknkkkkkkkkkkkkkkknkkkkkkkkkkkkkkknkkkihllll",
"hhhhijnooooooooooooooknooooooooooooooknooooooooooooooknoooihhhhh",
"mmmmijnnnnnnnnnnnnnkpknnnnnnnnnnnnnkpknnnnnnnnnnnnnkpknnnnihmmmm",
"hhhhijnkkkkkkkkkkkkkpknkkkkkkkkkkkkkpknkkkkkkkkkkkkkpknkkkihhhhh",
"llllijnooooooooooooooknooooooooooooooknooooooooooooooknoooihllll",
"qqqqijnnnnnnnnnnnnnnnknnnnnnnnnnnnnnnknnnnnnnnnnnnnnnknnnnihqqqq",
"rrrrijnkkkkkkkkkkkkkkknkkkkkkkkkkkkkkknkkkkkkkkkkkkkkknkkkihrrrr",
"ssssijnooooooooooooooknooooooooooooooknooooooooooooooknoooihssss",
"ttttijnnnnnnnnnnnnnkpknnnnnnnnnnnnnkpknnnnnnnnnnnnnkpknnnnihtttt",
"ssstijnkkkkkkkkkkkkkpknkkkkkkkkkkkkkpknkkkkkkkkkkkkkpknkkkihtsss",
"rrrrijnooooooooooooooknooooooooooooooknooooooooooooooknoooihrrrr",
"qqqqijnnnnnnnnnnnnnnnknnnnnnnnnnnnnnnknnnnnnnnnnnnnnnknnnnihqqqq",
"kkkkkknkkkkkkkkkkkkkkknkkkkkkkkkkkkkkknkkkkkkkkkkkkkkknkkkkkkkkk",
"oooooknooooooooooooooknooooooooooooooknooooooooooooooknooooooooo",
"nnnkpknnnnnnnnnnnnnkpknnnnnnnnnnnnnkpknnnnnnnnnnnnnkpknnnnnnnnnn",
"kkkkpknkkkkkkkkkkkkkpknkkkkkkkkkkkkkpknkkkkkkkkkkkkkpknkkkkkkkkk",
"oooooknooooooooooooooknooooooooooooooknooooooooooooooknooooooooo",
"nnnnnknnnnnnnnnnnnnnnknnnnnnnnnnnnnnnknnnnnnnnnnnnnnnknnnnnnnnnn",
"vwwwwwwwwwwwwwwvwwwwwwwwwwwwwwwwwwwwwwwwwwwwwwwwwvwwwwwwwwwwwwww",
"xvbbbbbbbbbbbbcxvbbbbbbbbbbbbbbbbbbbbbbbbbbbbbbbcxvbbbbbbbbbbbbc",
"axyvvvvvvvvvvznaxyvvvvvvvvvvvvvvvvvvvvvvvvvvvvvznaxyvvvvvvvvvvzn",
"yaAxxxxxxxxxwcnyaAxxxxxxxxxxxxxxxxxxxxxxxxxxxxwcnyaAxxxxxxxxxwcn",
"yaxxaaaaaaaazcnyaxxaaaaaaaaaaaaaaaaaaaaaaaaaaazcnyaxxaaaaaaaazcn",
"yaxayyyyyyyazcnyaxayyyyyyyyyyyyyyyyyyyyyyyyyyazcnyaxayyyyyyyazcn",
"yaxayyyyyyyazcnyaxayyyyyyyyyyyyyyyyyyyyyyyyyyazcnyaxayyyyyyyazcn",
"yaxayyyyyyyazcnyaxayyyyyyyyyyyyyyyyyyyyyyyyyyazcnyaxayyyyyyyazcn",
"yaxayyyyyyyazcnyaxayyyyyyyyyyyyyyyyyyyyyyyyyyazcnyaxayyyyyyyazcn",
"yaxayyyyyyyazcnyaxayyyyyyyyyyyyyyyyyyyyyyyyyyazcnyaxayyyyyyyazcn",
"yaxayyyyyyyazcnyaxayyyyyyyyyyyyyyyyyyyyyyyyyyazcnyaxayyyyyyyazcn",
"yaxaaaaaaaaazcnyaxaaaaaaaaaaaaaaaaaaaaaaaaaaaazcnyaxaaaaaaaaazcn",
"yayvvvvvvvvvzcnyayvvvvvvvvvvvvvvvvvvvvvvvvvvvvzcnyayvvvvvvvvvzcn",
"yvbbbbbbbbbbvcnyvbbbbbbbbbbbbbbbbbbbbbbbbbbbbbvcnyvbbbbbbbbbbvcn",
"vwwwwwwwwwwwwbnvwwwwwwwwwwwwwwwwwwwwwwwwwwwwwwwbnvwwwwwwwwwwwwbn",
"zzzzzzzzzzzzzzwzzzzzzzzzzzzzzzzzzzzzzzzzzzzzzzzzwzzzzzzzzzzzzzzw",
"aaaaaaaaaaaaaaaaaaaaaaaaaaaaaaaaaaaaaaaaaaaaaaaaaaaaaaaaaaaaaaaa",
"bbbbbbbbbbbbbbbbbbbbbbbbbbbbbbbbbbbbbbbbbbbbbbbbbbbbbbbbbbbbbbbb",
"cccccccccccccccccccccccccccccccccccccccccccccccccccccccccccccccc"
};