/* XPM */
static char *wall_r13_c04[] = {
"64 64 28 1",
"a	c #989898",
"b	c #E0E0E0",
"c	c #B0B0B0",
"d	c #747474",
"e	c #848484",
"f	c #4C4C4C",
"g	c #5C5C5C",
"h	c #3C3C3C",
"i	c #C4C4C4",
"j	c #646464",
"k	c #2C2C2C",
"l	c #1C1C1C",
"m	c #A0A0A0",
"n	c #A8A8A8",
"o	c #7C7C7C",
"p	c #BCBCBC",
"q	c #D8D8D8",
"r	c #E8E8E8",
"s	c #000000",
"t	c #545454",
"u	c #8C8C8C",
"v	c #00A4A4",
"w	c #28C8C8",
"x	c #5CD8D8",
"y	c #98E4E4",
"z	c #78E0E0",
"A	c #0C0C0C",
"B	c #444444",
"aaaaaaaabcdaaaeefgddddddddgfhhhhhhhfgddddddddgfhggfffiajfffffhkl",
"mmmmmmmbicadmmaagdeeeeeeeedgfllllllgdeeeeeeeedgfddgginaojggggfhk",
"pqrqqiibicadddddddddddmmmmedglsssslmpippmiddddddddddinaojddddgfh",
"miqiiiibicadjttttttttjuaaaedglssssldmpaaaojttttttttjinaojoooogfh",
"mpippppbicadjvwxyzxwvjuaaaedglssssldamaaaojvwxyzxwvjinaojddddgfh",
"mpippppbicadjvwxyzxwvjuaaaedglssssldamaaaojvwxyzxwvjinaojddddgfh",
"mpippppbicadjvwxyzxwvjuaaaedglssssldamaaaojvwxyzxwvjinaojddddgfh",
"mpippppbicadjvwxyzxwvjuaaaedglssssldamaaaojvwxyzxwvjinaojddddgfh",
"mmmmmmmbicadjvwxyzxwvjueeedgflsssslgdeeeeujvwxyzxwvjinaojggggfhk",
"aaaaaaabicadjvwxyzxwvjddddgfhlsssslfgddddojvwxyzxwvjinaojffffhkl",
"eeeeeeebbbbatvwxyzxwvtggggfhklsssslhfggggdtvwxyzxwvtiiiijhhhhklA",
"aaaaaaabiiiujvwxyzxwvjddddgfhlsssslfgddddojvwxyzxwvjinnnjffffhkl",
"mmmmmmmbcccejvwxyzxwvjueeedgflsssslgdeeeeojvwxyzxwvjiaaajggggfhk",
"pqrqqiibaaaojvwxyzxwvjmnmmedglsssslmpippmojvwxyzxwvjiooojoooogfh",
"miqiiiidddddjvwxyzxwvjuaaaedglAssAldmpaaaojvwxyzxwvjdjjjjddddgfh",
"mpippppbicadjvwxyzxwvjuaaaedgllsslldamaaaojvwxyzxwvjinaojddddgfh",
"mpippppbicadjvwxyzxwvjuaaaedglAssAldamaaaojvwxyzxwvjinaojddddgfh",
"mpippppbicadjvwxyzxwvjuaaaedglssssldamaaaojvwxyzxwvjinaojddddgfh",
"mpippppbicadjvwxyzxwvjuaaaedglssssldamaaaojvwxyzxwvjinaojddddgfh",
"mmmmmmmbicadjvwxyzxwvjueeedgflsssslgdeeeeujvwxyzxwvjinaojggggfhk",
"aaaaaaabicadjvwxyzxwvjddddgfhlsssslfgddddojvwxyzxwvjinaojffffhkl",
"eeeeeeebbbbatvwxyzxwvtggggfhklsssslhfggggBtvwxyzxwvtiiiijhhhhklA",
"aaaaaaabiiiujvwxyzxwvjddddgfhlsssslfgddddojvwxyzxwvjinnnjffffhkl",
"mmmmmmmbcccejvwxyzxwvjueeedgflsssslgdeeeeojvwxyzxwvjiaaajggggfhk",
"pqrqqiibaaaojvwxyzxwvjmnmmedglsssslmpippmojvwxyzxwvjiooojoooogfh",
"miqiiiidddddjvwxyzxwvjuaaaedglssssldmpaaaojvwxyzxwvjdjjjjddddgfh",
"mpippppbbbbajvwxyzxwvjuaaaedglssssldamaaaojvwxyzxwvjiiiijddddgfh",
"mpippppbiiiujvwxyzxwvjuaaaedglssssldamaaaojvwxyzxwvjinnnjddddgfh",
"mpippppbcccejvwxyzxwvjuaaaedglssssldamaaaojvwxyzxwvjiaaajddddgfh",
"mpippppbaaaojvwxyzxwvjuaaaedglssssldamaaaojvwxyzxwvjiooojddddgfh",
"mmmmmmmdddddjvwxyzxwvjueeedgflsssslgdeeeeujvwxyzxwvjdjjjjggggfhk",
"aaaaaaabbbbajvwxyzxwvjddddgfhlsssslfgddddojvwxyzxwvjiiiijffffhkl",
"eeeeeeebiiiutvwxyzxwvtggggfhklsssslhfggggBtvwxyzxwvtinnnjhhhhklA",
"aaaaaaabcccejvwxyzxwvjddddgfhlsssslfgddddojvwxyzxwvjiaaajffffhkl",
"mmmmmmmbaaaojvwxyzxwvjueeedgflsssslgdeeeeojvwxyzxwvjiooojggggfhk",
"pqrqqiidddddjvwxyzxwvjmnmmedglsssslmpippmojvwxyzxwvjdjjjjoooogfh",
"miqiiiibbbbajvwxyzxwvjuaaaedglssssldmpaaaojvwxyzxwvjiiiijddddgfh",
"mpippppbiiiujvwxyzxwvjuaaaedglssssldamaaaojvwxyzxwvjinnnjddddgfh",
"mpippppbcccejvwxyzxwvjuaaaedglssssldamaaaojvwxyzxwvjiaaajddddgfh",
"mpippppbaaaojvwxyzxwvjuaaaedglssssldamaaaojvwxyzxwvjiooojddddgfh",
"mpippppdddddjvwxyzxwvjuaaaedglssssldamaaaojvwxyzxwvjdjjjjddddgfh",
"mmmmmmmbicadjvwxyzxwvjueeedgflsssslgdeeeeujvwxyzxwvjinaojggggfhk",
"aaaaaaabicadjvwxyzxwvjudddgfhlsssslfgddddojvwxyzxwvjinaojffffhkl",
"eeeeeeebicadtvwxyzxwvtggggfhklsssslhfggggBtvwxyzxwvtinaojhhhhklA",
"aaaaaaabicadjvwxyzxwvjddddgfhlsssslfgddddojvwxyzxwvjinaojffffhkl",
"mmmmmmmbicadjvwxyzxwvjueeedgflsssslgdeeeeojvwxyzxwvjinaojggggfhk",
"pqrqqiibicadjvwxyzxwvjmnmmedglsssslmpippmojvwxyzxwvjinaojoooogfh",
"miqiiiibbbbajvwxyzxwvjuaaaedglssssldmpaaaojvwxyzxwvjiiiijddddgfh",
"mpippppbiiiujvwxyzxwvjuaaaedglssssldamaaaojvwxyzxwvjinnnjddddgfh",
"mpippppbcccejvwxyzxwvjuaaaedglssssldamaaaojvwxyzxwvjiaaajddddgfh",
"mpippppbaaaojvwxyzxwvjuaaaedglssssldamaaaojvwxyzxwvjiooojddddgfh",
"mpippppdddddjvwxyzxwvjuaaaedglssssldamaaaojvwxyzxwvjdjjjjddddgfh",
"mmmmmmmbicadjvwxyzxwvjueeedgflAssAlgdeeeeujvwxyzxwvjinaojggggfhk",
"aaaaaaabicadjvwxyzxwvjddddgfhlsssslfgddddojvwxyzxwvjinaojffffhkl",
"eeeeeeebicadtvwxyzxwvtggggfhklsssslhfggggBtvwxyzxwvtinaojhhhhklA",
"mmmmmmmbicadjvwxyzxwvjueeedgflsssslgdeeeeojvwxyzxwvjinaojffffhkl",
"pqrqqiibicadjvwxyzxwvjmnmmedglsssslmpippmojvwxyzxwvjinaojggggfhk",
"miqiiiibicadjvwxyzxwvjuaaaedglssssldmpaaaojvwxyzxwvjinaojoooogfh",
"mpippppbicadjvwxyzxwvjuaaaedglssssldamaaaojvwxyzxwvjinaojddddgfh",
"mpippppbicadjvwxyzxwvjuaaaedglssssldamaaaojvwxyzxwvjinaojddddgfh",
"mpippppbicadjvwxyzxwvjuaaaedglssssldamaaaojvwxyzxwvjinaojddddgfh",
"mpippppbicadovwxyzxwvouaaaedglssssldamaaauovwxyzxwvoinaojddddgfh",
"mmmmmmmmbcdaaaeefgddddddddgfhllllllfgddddddddgfhggfffiajfffffhkl",
"eeeeeeeeeeeeeeddhfggggggggfhkkkkkkkhfggggggggfhkkkhhhhhhhhhhhklA"
};