/* XPM */
static char *wall_r13_c06[] = {
"64 64 25 1",
"a	c #7C7C7C",
"b	c #C4C4C4",
"c	c #989898",
"d	c #646464",
"e	c #2C2C2C",
"f	c #3C3C3C",
"g	c #545454",
"h	c #1C1C1C",
"i	c #A8A8A8",
"j	c #4C4C4C",
"k	c #0C0C0C",
"l	c #000000",
"m	c #848484",
"n	c #8C8C8C",
"o	c #747474",
"p	c #A0A0A0",
"q	c #BCBCBC",
"r	c #CCCCCC",
"s	c #6C6C6C",
"t	c #5C5C5C",
"u	c #00A4A4",
"v	c #28C8C8",
"w	c #5CD8D8",
"x	c #98E4E4",
"y	c #78E0E0",
"aaaaaaaabcdaaaddefggggggggfehhhhhhhefggggggggfehffeeeiajeeeeehkl",
"mmmmmmmbicadmmaafgddddddddgfekkkkkkfgddddddddgfeggffinaojffffehk",
"pqrqqiibicadssssssssssnmmmdgfkllllkmpippmmssssssssssinaojttttfeh",
"miqppppbicadtjjjjjjjjtmaaadgfkllllkgmpaaadtjjjjjjjjtinaojggggfeh",
"mpippppbicadtuvwxywvutmaaadgfkllllkgamaaadtuvwxywvutinaojggggfeh",
"mpippppbicadtuvwxywvutmaaadgfkllllkgamaaadtuvwxywvutinaojggggfeh",
"mpippppbicadtuvwxywvutmaaadgfkllllkgamaaadtuvwxywvutinaojggggfeh",
"mpippppbicadtuvwxywvutmaaadgfkllllkgamaaadtuvwxywvutinaojggggfeh",
"mmmmmmmbicadtuvwxywvutddddgfekllllkfgdddddtuvwxywvutinaojffffehk",
"aaaaaaabicadtuvwxywvutggggfehkllllkefgggggtuvwxywvutinaojeeeehkl",
"dddddddbbbbdjuvwxywvujffffehkkllllkhefffffjuvwxywvujiiiijhhhhkll",
"aaaaaaabiiidtuvwxywvutggggfehkllllkefgggggtuvwxywvutinnnjeeeehkl",
"mmmmmmmbcccdtuvwxywvutddddgfekllllkfgdddddtuvwxywvutiaaajffffehk",
"pqrqqiibaaadtuvwxywvutnmmmdgfkllllkmpippmmtuvwxywvutiooojttttfeh",
"miqppppoddddtuvwxywvutmaaadgfkllllkgmpaaadtuvwxywvutojjjjggggfeh",
"mpippppbicadtuvwxywvutmaaadgfkllllkgamaaadtuvwxywvutinaojggggfeh",
"mpippppbicadtuvwxywvutmaaadgfkllllkgamaaadtuvwxywvutinaojggggfeh",
"mpippppbicadtuvwxywvutmaaadgfkllllkgamaaadtuvwxywvutinaojggggfeh",
"mpippppbicadtuvwxywvutmaaadgfkllllkgamaaadtuvwxywvutinaojggggfeh",
"mmmmmmmbicadtuvwxywvutddddgfekllllkfgdddddtuvwxywvutinaojffffehk",
"aaaaaaabicadtuvwxywvutggggfehkllllkefgggggtuvwxywvutinaojeeeehkl",
"dddddddbbbbdjuvwxywvujffffehkkllllkhefffffjuvwxywvujiiiijhhhhkll",
"aaaaaaabiiidtuvwxywvutggggfehkllllkefgggggtuvwxywvutinnnjeeeehkl",
"mmmmmmmbcccdtuvwxywvutddddgfekllllkfgdddddtuvwxywvutiaaajffffehk",
"pqrqqiibaaadtuvwxywvutnmmmdgfkllllkmpippmmtuvwxywvutiooojttttfeh",
"miqppppoddddtuvwxywvutmaaadgfkllllkgmpaaadtuvwxywvutojjjjggggfeh",
"mpippppbbbbdtuvwxywvutmaaadgfkllllkgamaaadtuvwxywvutiiiijggggfeh",
"mpippppbiiidtuvwxywvutmaaadgfkllllkgamaaadtuvwxywvutinnnjggggfeh",
"mpippppbcccdtuvwxywvutmaaadgfkllllkgamaaadtuvwxywvutiaaajggggfeh",
"mpippppbaaadtuvwxywvutmaaadgfkllllkgamaaadtuvwxywvutiooojggggfeh",
"mmmmmmmoddddtuvwxywvutddddgfekllllkfgdddddtuvwxywvutojjjjffffehk",
"aaaaaaabbbbdtuvwxywvutggggfehkllllkefgggggtuvwxywvutiiiijeeeehkl",
"dddddddbiiidjuvwxywvujffffehkkllllkhefffffjuvwxywvujinnnjhhhhkll",
"aaaaaaabcccdtuvwxywvutggggfehkllllkefgggggtuvwxywvutiaaajeeeehkl",
"mmmmmmmbaaadtuvwxywvutddddgfekllllkfgdddddtuvwxywvutiooojffffehk",
"pqrqqiioddddtuvwxywvutnmmmdgfkllllkmpippmmtuvwxywvutojjjjttttfeh",
"miqppppbbbbdtuvwxywvutmaaadgfkllllkgmpaaadtuvwxywvutiiiijggggfeh",
"mpippppbiiidtuvwxywvutmaaadgfkllllkgamaaadtuvwxywvutinnnjggggfeh",
"mpippppbcccdtuvwxywvutmaaadgfkllllkgamaaadtuvwxywvutiaaajggggfeh",
"mpippppbaaadtuvwxywvutmaaadgfkllllkgamaaadtuvwxywvutiooojggggfeh",
"mpippppoddddtuvwxywvutmaaadgfkllllkgamaaadtuvwxywvutojjjjggggfeh",
"mmmmmmmbicadtuvwxywvutddddgfekllllkfgdddddtuvwxywvutinaojffffehk",
"aaaaaaabicadtuvwxywvutggggfehkllllkefgggggtuvwxywvutinaojeeeehkl",
"dddddddbicadjuvwxywvujffffehkkllllkhefffffjuvwxywvujinaojhhhhkll",
"aaaaaaabicadtuvwxywvutggggfehkllllkefgggggtuvwxywvutinaojeeeehkl",
"mmmmmmmbicadtuvwxywvutddddgfekllllkfgdddddtuvwxywvutinaojffffehk",
"pqrqqiibicadtuvwxywvutnmmmdgfkllllkmpippmmtuvwxywvutinaojttttfeh",
"miqppppbbbbdtuvwxywvutmaaadgfkllllkgmpaaadtuvwxywvutiiiijggggfeh",
"mpippppbiiidtuvwxywvutmaaadgfkllllkgamaaadtuvwxywvutinnnjggggfeh",
"mpippppbcccdtuvwxywvutmaaadgfkllllkgamaaadtuvwxywvutiaaajggggfeh",
"mpippppbaaadtuvwxywvutmaaadgfkllllkgamaaadtuvwxywvutiooojggggfeh",
"mpippppoddddtuvwxywvutmaaadgfkllllkgamaaadtuvwxywvutojjjjggggfeh",
"mmmmmmmbicadtuvwxywvutddddgfekllllkfgdddddtuvwxywvutinaojffffehk",
"aaaaaaabicadtuvwxywvutggggfehkllllkefgggggtuvwxywvutinaojeeeehkl",
"dddddddbicadjuvwxywvujffffehkkllllkhefffffjuvwxywvujinaojhhhhkll",
"mmmmmmmbicadtuvwxywvutddddgfekllllkfgdddddtuvwxywvutinaojeeeehkl",
"pqrqqiibicadtuvwxywvutnmmmdgfkllllkmpippmmtuvwxywvutinaojffffehk",
"miqppppbicadtuvwxywvutmaaadgfkllllkgmpaaadtuvwxywvutinaojttttfeh",
"mpippppbicadtuvwxywvutmaaadgfkllllkgamaaadtuvwxywvutinaojggggfeh",
"mpippppbicadtuvwxywvutmaaadgfkllllkgamaaadtuvwxywvutinaojggggfeh",
"mpippppbicadtuvwxywvutmaaadgfkllllkgamaaadtuvwxywvutinaojggggfeh",
"mpippppbicadouvwxywvuomaaadgfkllllkgamaaadouvwxywvuoinaojggggfeh",
"aaaaaaaabcdaaaddefggggggggfehkllllkefggggggggfehffeeeiajeeeeehkl",
"ddddddddddddddggheffffffffehkkkkkkkheffffffffehkkkhhhhhhhhhhhkll"
};