/* XPM */
static char *wall_r10_c02[] = {
"64 64 27 1",
"a	c #A0A0A0",
"b	c #848484",
"c	c #6C6C6C",
"d	c #747474",
"e	c #BCBCBC",
"f	c #5C5C5C",
"g	c #CCCCCC",
"h	c #8C8C8C",
"i	c #B0B0B0",
"j	c #545454",
"k	c #444444",
"l	c #3C3C3C",
"m	c #989898",
"n	c #7C7C7C",
"o	c #646464",
"p	c #4C4C4C",
"q	c #C4C4C4",
"r	c #A8A8A8",
"s	c #040404",
"t	c #343434",
"u	c #242424",
"v	c #1C1C1C",
"w	c #141414",
"x	c #2C2C00",
"y	c #3C3C00",
"z	c #505000",
"A	c #646400",
"aaaaaaaaaaaaaaaaaaaaaaaaaaaaaaaaaaaaaaaaaaaaaaaaaaaaaaaaaaaaaaaa",
"abbbbbbbbbbbbbbbbbbbbbbbbbbbbbbbbbbbbbbbbbbbbbbbbbbbbbbbbbbbbbba",
"abccccccccccccccccccccccccccccccccccccccccccccccccccccccccccccba",
"abccccccccccccccccccccccccccccccccccccccccccccccccccccccccccccba",
"abccccccccccccccccccccccccccccccccccccccccccccccccccccccccccccba",
"abccccccccccccccccccccccccccccccccccccccccccccccccccccccccccccba",
"abccccccccccccccccccccdaaaaaecfaeccaaaaagbccccccccccccccccccccba",
"abddddddddddddddddddddfhbbbacfhbbicjhbbhafddddddddddddddddddddba",
"abbbbbbbbbbbbbbbbbbbbbfhbbacfhbbbbacjhbbafbbbbbbbbbbbbbbbbbbbbba",
"abkkkkkkkkkkkkkkkkkkkkfhbacfhhhhhhhacjhbafkkkkkkkkkkkkkkkkkkkkba",
"abllllllllllllllllllllfhaccfjjjjjjjjccjhafllllllllllllllllllllba",
"abmmmmmmmmmmmmmmmmmmmmfaccecchbbbbhejecjafmmmmmmmmmmmmmmmmmmmmba",
"abnnnnnnnnnnnnnnnnnnnnfochachbajjjjjjbacdfnnnnnnnnnnnnnnnnnnnnba",
"abccccccccccccccccccccfohbachbacccccjbbedfccccccccccccccccccccba",
"abddddddddddddddddddddfhbbachbaaaaaejbbbafddddddddddddddddddddba",
"abkkkkkkkkkkkkkkkkkkkkfjhbacjjjjjbhajbbhfnkkkkkkkkkkkkkkkkkkkkba",
"abllllllllllllllllllllaojhacccccjbbajbhfdellllllllllllllllllllba",
"abmmmmmmmmmmmmmmmmmmmmmacjachbbbbbhfjhfcabmmmmmmmmmmmmmmmmmmmmba",
"abnnnnnnnnnnnnnnnnnnnnfbacccjjjjjjjcffcabfnnnnnnnnnnnnnnnnnnnnba",
"abccccccccccccccccccccfhbaccaaaaaaaeccebbfccccccccccccccccccccba",
"abnnnnnnnnnnnnnnnnnnnnnfbbacjhbbbbhjcebbfnnnnnnnnnnnnnnnnnnnnnba",
"abooooooooooooooooooooofhbbacjhbbhjcabbmfoooooooooooooooooooooba",
"abklllllllllllllllllllllfbbbacjhhjcabbbflllllllllllllllllllllkba",
"abpkkkkkkkkkkkkkkkkkkkkkfhbbbacjjcabbbmfkkkkkkkkkkkkkkkkkkkkkpba",
"abppppppppppppppppppppppkfbbbhiaaahbbbfkppppppppppppppppppppppba",
"abffffffffffffffffffffffffhbbhmaamhbbmffffffffffffffffffffffffba",
"abfqqqqqqqqqqqqqqqqqqqqqqafbbhmaamhbbfaqqqqqqqqqqqqqqqqqqqqqqfba",
"abfarrrrrrrrrrrrrrrrrrrrrrfhbhmaamhbmfrrrrrrrrrrrrrrrrrrrrrrafba",
"abfbffffffffffffffffffffffofbhmaamhbfoffffffffffffffffffffffbfba",
"abfbccccccccccccccccccccccofhhmaamhmfoccccccccccccccccccccccbfba",
"abfhnnnnnnnnnnnnnnnnnnnnnnnofhmaamhfonnnnnnnnnnnnnnnnnnnnnnnhfba",
"abfkkkkkkkkkkkkkkkkkkkkkkkkkfhmaammfkkkkkkkkkkkkkkkkkkkkkkkkkfba",
"abfppppppppppppppppppppppppkofmaamfokppppppppppppppppppppppppfba",
"abfjjjjjjjjjjjjjjjjjjjjjjjjjkfmaamfkjjjjjjjjjjjjjjjjjjjjjjjjjfba",
"abffffffffffffffffffffffffffjofaafojffffffffffffffffffffffffffba",
"bdppppppppppppppppppppppppppppoffoppppppppppppppppppppppppppppdb",
"ojlllllllllllllllllllllllllllllllllllllllllllllllllllllllllllljo",
"ssssssssssssssssssssssssssssssssssssssssssssssssssssssssssssssss",
"ssssssssssssssssssssssssssssssssssssssssssssssssssssssssssssssss",
"mmmmmmmmmmmmmmmmmmmmmmmmmmmmmmmmmmmmmmmmmmmmmmmmmmmmmmmmmmmmmmmm",
"bbbbbbbbmbbbbbbbbbbbbbbbbbbbbbbbbbbbbbbbbbbbbbbbbbbbbbbmbbbbbbbb",
"ffffffffbmffffffffffffffffffffffffffffffffffffffffffffmbffffffff",
"fffffffffbmffffffffffffffffffffffffffffffffffffffffffmbfffffffff",
"ccccccffffbmccccccccccccccccccccccccccccccccccccccccmbffffcccccc",
"tttttjcffffbmjtttttttttttttttttttttttttttttttttttttmbffffcjttttt",
"uuuuuujcffffbmjuuuuuuuuuuuuuuuuuuuuuuuuuuuuuuuuuuumbffffcjuuuuuu",
"vvvvvvvjcffffbmjvvvvvvvvvvvvvvvvvvvvvvvvvvvvvvvvvmbffffcjvvvvvvv",
"wwwwwwwwjcffffbmjwwwwwwwwwwwwwwwwwwwwwwwwwwwwwwwmbffffcjwwwwwwww",
"xxxxxxxxxjcffffbmjxxxxxxxxxxxxxxxxxxxxxxxxxxxxxmbffffcjxxxxxxxxx",
"yyyyyyyyyyjcffffbmjyyyyyyyyyyyyyyyyyyyyyyyyyyymbffffcjyyyyyyyyyy",
"zzzzzzzzzzzjcffffbmjzzzzzzzzzzzzzzzzzzzzzzzzzmbffffcjzzzzzzzzzzz",
"AAAAAAAAAAAAjcffffbmjAAAAAAAAAAAAAAAAAAAAAAAmbffffcjAAAAAAAAAAAA",
"zzzzzzzzzzzzdmffffbdjzzzzzzzzzzzzzzzzzzzzzzzdbffffmdzzzzzzzzzzzz",
"yyyyyyyyyyydmffffbdjyyyyyyyyyyyyyyyyyyyyyyyyydbffffmdyyyyyyyyyyy",
"xxxxxxxxxxdmffffbdjxxxxxxxxxxxxxxxxxxxxxxxxxxxdbffffmdxxxxxxxxxx",
"sssssssssdmffffbdjsssssssssssssssssssssssssssssdbffffmdsssssssss",
"wwwwwwwwdmffffbdjwwwwwwwwwwwwwwwwwwwwwwwwwwwwwwwdbffffmdwwwwwwww",
"vvvvvvvdmffffbdjvvvvvvvvvvvvvvvvvvvvvvvvvvvvvvvvvdbffffmdvvvvvvv",
"uuuuuudmffffbdjuuuuuuuuuuuuuuuuuuuuuuuuuuuuuuuuuuudbffffmduuuuuu",
"tttttdmffffbdjtttttttttttttttttttttttttttttttttttttdbffffmdttttt",
"mmmmmmffffbdmmmmmmmmmmmmmmmmmmmmmmmmmmmmmmmmmmmmmmmmdbffffmmmmmm",
"bbbbbffffbbbbbbbbbbbbbbbbbbbbbbbbbbbbbbbbbbbbbbbbbbbbbbffffbbbbb",
"ffffffffffffffffffffffffffffffffffffffffffffffffffffffffffffffff",
"ffffffffffffffffffffffffffffffffffffffffffffffffffffffffffffffff"
};