/* XPM */
static char *wall_r15_c02[] = {
"64 64 20 1",
"a	c #805424",
"b	c #94602C",
"c	c #A06C3C",
"d	c #684018",
"e	c #5C340C",
"f	c #3C3C3C",
"g	c #301C0C",
"h	c #402810",
"i	c #000000",
"j	c #984C08",
"k	c #AC580C",
"l	c #C06410",
"m	c #643000",
"n	c #502400",
"o	c #3C1800",
"p	c #884404",
"q	c #2C1400",
"r	c #141414",
"s	c #28CC28",
"t	c #2C2C2C",
"abcbbaaadedabaaaaaaaaaaaaaadeffffffgdeeeeeeeeeeeeeeeheaaaeeeehhg",
"abcbbaddehdbcbddddddddddddddeiiiiiigdedddddddddddddehdbcbddeehhg",
"abcbbaddehdbcbddjklkkjjjjjmnoiiiiiijklkkjjjjjmnodddehdbcbddeehhg",
"abcbbaddehdbcbddnjkpppppppmnoiiiiiinjkpppppppmnohedehdbcbddeehhg",
"abcbbaddehdbcbddnpjpppppppmnoiiiiiinpjpppppppmnohedehdbcbddeehhg",
"abcbbaddehdbcbddnpjpppppppmnoiiiiiinpjpppppppmnohedehdbcbddeehhg",
"abcbbaddehdbcbddonmmmmmmmmnoqiiiiiionmmmmmmmmnoqhedehdbcbddeehhg",
"abcbbaddehdbcbdddehhhhhhhhhhhiiiiiighhhhhhhhhhhhhedehdbcbddeehhg",
"abcbbaddehdbcbddddeeeeeeeehhhiiiiiigheeeeeeeeeeeeedehdbcbddeehhg",
"abcbbaddehdbcbddddddddddddehhiiiiiighedddddddddddddehdbcbddeehhg",
"abcbbaddehdbcbddjklkkjjjjjmnoiiiiiijklkkjjjjjmnodddehdbcbddeehhg",
"abcbbaddehdbcbddnjkpppppppmnoiiiiiinjkpppppppmnohedehdbcbddeehhg",
"abcbbaddehdbcbddnpjpppppppmnoriiiirnpjpppppppmnohedehdbcbddeehhg",
"abcbbaddehdbcbddnpjpppppppmnoiiiiiinpjpppppppmnohedehdbcbddeehhg",
"abcbbaddehdbcbddonmmmmmmmmnoqriiiironmmmmmmmmnoqhedehdbcbddeehhg",
"abcbbaddehdbcbdddehhhhhhhhhhhiriirighhhhhhhhhhhhhedehdbcbddeehhg",
"abcbbaddehdbcbddddeeeeeeeehhhiiiiiigheeeeeeeeeeeeedehdbcbddeehhg",
"abcbbaddehdbcbddddddddddddehhiiiiiighedddddddddddddehdbcbddeehhg",
"abcbbaddehdbcbddjklkkjjjjjmnoiiiiiijklkkjjjjjmnodddehdbcbddeehhg",
"abcbbaddehdbcbddnjkpppppppmnoiiiiiinjkpppppppmnohedehdbcbddeehhg",
"abcbbaddehdbcbddnpjpppppppmnoiiiiiinpjpppppppmnohedehdbcbddeehhg",
"abcbbaddehdbcbddnpjpppppppmnoiiiiiinpjpppppppmnohedehdbcbddeehhg",
"abcbbaddehdbcbddonmmmmmmmmnoqiiiiiionmmmmmmmmnoqhedehdbcbddeehhg",
"abcbbaddehdbcbdddehhhhhhhhhhhiiiiiighhhhhhhhhhhhhedehdbcbddeehhg",
"abcbbaddehdbcbddddeeeeeeeehhhiiiiiigheeeeeeeeeeeeedehdbcbddeehhg",
"abcbbaddehdbcbddddddddddddehhiiiiiighedddddddddddddehdbcbddeehhg",
"abcbbaddehdbcbddjklkkjjjjjmnoiiiiiijklkkjjjjjmnodddehdbcbddeehhg",
"abcbbaddehdbcbddnjkpppppppmnoiiiiiinjkpppppppmnohedehdbcbddeehhg",
"abcbbaddehdbcbddnpjpppppppmnoiiiiiinpjpppppppmnohedehdbcbddeehhg",
"abcbbaddehdbcbddnpjpppppppmnoiiiiiinpjpppppppmnohedehdbcbddeehhg",
"abcbbaddehdbcbddnpjmmmmmmpmnoiiiiiinpjmmmmmmpmnohedehdbcbddeehhg",
"abcbbaddehdbcbddnpjmnnnnjpmnoiiiiiinpjmnnnnjpmnohedehdbcbddeehhg",
"abcbbaddehdbcbddnpjmnsssjpmnoiiiiiinpjmnsssjpmnohedehdbcbddeehhg",
"abcbbaddehdbcbddnpjmnsssjpmnoiiiiiinpjmnsssjpmnohedehdbcbddeehhg",
"abcbbaddehdbcbddnpjmjjjjjpmnoiiiiiinpjmjjjjjpmnohedehdbcbddeehhg",
"abcbbaddehdbcbddnpjpppppppmnoiiiiiinpjpppppppmnohedehdbcbddeehhg",
"abcbbaddehdbcbddnpjpppppppmnoiiiiiinpjpppppppmnohedehdbcbddeehhg",
"abcbbaddehdbcbddnpjpppppppmnoiiiiiinpjpppppppmnohedehdbcbddeehhg",
"abcbbaddehdbcbddonmmmmmmmmnoqiiiiiionmmmmmmmmnoqhedehdbcbddeehhg",
"abcbbaddehdbcbdddehhhhhhhhhhhiiiiiighhhhhhhhhhhhhedehdbcbddeehhg",
"abcbbaddehdbcbddddeeeeeeeehhhiiiiiigheeeeeeeeeeeeedehdbcbddeehhg",
"abcbbaddehdbcbddddddddddddehhiiiiiighedddddddddddddehdbcbddeehhg",
"abcbbaddehdbcbddjklkkjjjjjmnoiiiiiijklkkjjjjjmnodddehdbcbddeehhg",
"abcbbaddehdbcbddnjkpppppppmnoiiiiiinjkpppppppmnohedehdbcbddeehhg",
"abcbbaddehdbcbddnpjpppppppmnoiiiiiinpjpppppppmnohedehdbcbddeehhg",
"abcbbaddehdbcbddnpjpppppppmnoiiiiiinpjpppppppmnohedehdbcbddeehhg",
"abcbbaddehdbcbddonmmmmmmmmnoqriiiironmmmmmmmmnoqhedehdbcbddeehhg",
"abcbbaddehdbcbdddehhhhhhhhhhhiriirighhhhhhhhhhhhhedehdbcbddeehhg",
"abcbbaddehdbcbddddeeeeeeeehhhiiiiiigheeeeeeeeeeeeedehdbcbddeehhg",
"abcbbaddehdbcbddddddddddddehhiiiiiighedddddddddddddehdbcbddeehhg",
"abcbbaddehdbcbddjklkkjjjjjmnoiiiiiijklkkjjjjjmnodddehdbcbddeehhg",
"abcbbaddehdbcbddnjkpppppppmnoiiiiiinjkpppppppmnohedehdbcbddeehhg",
"abcbbaddehdbcbddnpjpppppppmnoriiiirnpjpppppppmnohedehdbcbddeehhg",
"abcbbaddehdbcbddnpjpppppppmnoiiiiiinpjpppppppmnohedehdbcbddeehhg",
"abcbbaddehdbcbddonmmmmmmmmnoqiiiiiionmmmmmmmmnoqhedehdbcbddeehhg",
"abcbbaddehdbcbdddehhhhhhhhhhhiiiiiighhhhhhhhhhhhhedehdbcbddeehhg",
"abcbbaddehdbcbddddeeeeeeeehhhiiiiiigheeeeeeeeeeeeedehdbcbddeehhg",
"abcbbaddehdbcbddddddddddddehhiiiiiighedddddddddddddehdbcbddeehhg",
"abcbbaddehdbcbddjklkkjjjjjmnoiiiiiijklkkjjjjjmnodddehdbcbddeehhg",
"abcbbaddehdbcbddnjkpppppppmnoiiiiiinjkpppppppmnohedehdbcbddeehhg",
"abcbbaddehdbcbddnpjpppppppmnoiiiiiinpjpppppppmnohedehdbcbddeehhg",
"abcbbaddehdbcbddnpjpppppppmnoiiiiiinpjpppppppmnohedehdbcbddeehhg",
"abcbbaddehdbcbddonmmmmmmmmnoqiiiiiionmmmmmmmmnoqhedehdbcbddeehhg",
"hhhhhhhhhhhhhhhhhhhhhhhhhhhhhttttttghhhhhhhhhhhhhhhhhhhhhhhhhhhh"
};