/* XPM */
static char *wall_r05_c06[] = {
"64 64 15 1",
"a	c #989898",
"b	c #8C8C8C",
"c	c #848484",
"d	c #7C7C7C",
"e	c #000000",
"f	c #646464",
"g	c #4C4C4C",
"h	c #2C2C2C",
"i	c #444444",
"j	c #3C3C3C",
"k	c #545454",
"l	c #5C5C5C",
"m	c #343434",
"n	c #242424",
"o	c #141414",
"abcddddddddddddddddddddddddddeeeeeeabcdddddddddddddddddddddddddd",
"bfffffffffffffffffffffffffffgeeeeeebfffffffffffffffffffffffffffg",
"cfhhhhhhhhhhhhhhhhhhhhhhhhhgieeeeeecfhhhhhhhhhhhhhhhhhhhhhhhhhgi",
"dfjjjjjjjjjjjjjjjjjjjjjjjjjijeeeeeedfjjjjjjjjjjjjjjjjjjjjjjjjjij",
"dfggggklffffffffffffflkggggjmeeeeeedfggggklffffffffffffflkggggjh",
"dfmmmmmmmmmmmmmmmmmmmmmmmmmmheeeeeedfmmmmmmmmmmmmmmmmmmmmmmmmmmh",
"dfnnnnnnnnnnnnnnnnnnnnnnnnnmheeeeeedfnnnnnnnnnnnnnnnnnnnnnnnnnmh",
"dfooooooooooooooooooooooooomheeeeeedfooooooooooooooooooooooooomh",
"dfhhhhhhhhhhhhhhhhhhhhhhhhhmheeeeeedfhhhhhhhhhhhhhhhhhhhhhhhhhmh",
"dfjjjjjjjjjjjjjjjjjjjjjjjjjmheeeeeedfjjjjjjjjjjjjjjjjjjjjjjjjjmh",
"dfggggklffffffffffffflkggggmheeeeeedfggggklffffffffffffflkggggmh",
"dfhhhhhhhhhhhhhhhhhhhhhhhhhmheeeeeedfhhhhhhhhhhhhhhhhhhhhhhhhhmh",
"dfnnnnnnnnnnnnnnnnnnnnnnnnnmheeeeeedfnnnnnnnnnnnnnnnnnnnnnnnnnmh",
"dfooooooooooooooooooooooooomheeeeeedfooooooooooooooooooooooooomh",
"dfhhhhhhhhhhhhhhhhhhhhhhhhhmheeeeeedfhhhhhhhhhhhhhhhhhhhhhhhhhmh",
"dfjjjjjjjjjjjjjjjjjjjjjjjjjmheeeeeedfjjjjjjjjjjjjjjjjjjjjjjjjjmh",
"dfggggklffffffffffffflkggggmheeeeeedfggggklffffffffffffflkggggmh",
"dfhhhhhhhhhhhhhhhhhhhhhhhhhmheeeeeedfhhhhhhhhhhhhhhhhhhhhhhhhhmh",
"dfnnnnnnnnnnnnnnnnnnnnnnnnnmheeeeeedfnnnnnnnnnnnnnnnnnnnnnnnnnmh",
"dfooooooooooooooooooooooooomheeeeeedfooooooooooooooooooooooooomh",
"dfhhhhhhhhhhhhhhhhhhhhhhhhhmheeeeeedfhhhhhhhhhhhhhhhhhhhhhhhhhmh",
"dfjjjjjjjjjjjjjjjjjjjjjjjjjmheeeeeedfjjjjjjjjjjjjjjjjjjjjjjjjjmh",
"dfggggklffffffffffffflkggggmheeeeeedfggggklffffffffffffflkggggmh",
"dfhhhhhhhhhhhhhhhhhhhhhhhhhmheeeeeedfhhhhhhhhhhhhhhhhhhhhhhhhhmh",
"dfnnnnnnnnnnnnnnnnnnnnnnnnnmheeeeeedfnnnnnnnnnnnnnnnnnnnnnnnnnmh",
"cfooooooooooooooooooooooooojheeeeeecfooooooooooooooooooooooooojh",
"bfhhhhhhhhhhhhhhhhhhhhhhhhhiheeeeeebfhhhhhhhhhhhhhhhhhhhhhhhhhih",
"afjjjjjjjjjjjjjjjjjjjjjjjjjgheeeeeeafjjjjjjjjjjjjjjjjjjjjjjjjjgh",
"afggggklffffffffffffflkgggggheeeeeeafggggklffffffffffffflkgggggh",
"afmmmmmmmmmmmmmmmmmmmmmmmmmgheeeeeeafmmmmmmmmmmmmmmmmmmmmmmmmmgh",
"afnnnnnnnnnnnnnnnnnnnnnnnnngheeeeeeafnnnnnnnnnnnnnnnnnnnnnnnnngh",
"afooooooooooooooooooooooooogheeeeeeafooooooooooooooooooooooooogh",
"afhhhhhhhhhhhhhhhhhhhhhhhhhgheeeeeeafhhhhhhhhhhhhhhhhhhhhhhhhhgh",
"afjjjjjjjjjjjjjjjjjjjjjjjjjgheeeeeeafjjjjjjjjjjjjjjjjjjjjjjjjjgh",
"afggggklffffffffffffflkgggggheeeeeeafggggklffffffffffffflkgggggh",
"afhhhhhhhhhhhhhhhhhhhhhhhhhgheeeeeeafhhhhhhhhhhhhhhhhhhhhhhhhhgh",
"bfnnnnnnnnnnnnnnnnnnnnnnnnniheeeeeebfnnnnnnnnnnnnnnnnnnnnnnnnnih",
"cfooooooooooooooooooooooooojheeeeeecfooooooooooooooooooooooooojh",
"dfhhhhhhhhhhhhhhhhhhhhhhhhhmheeeeeedfhhhhhhhhhhhhhhhhhhhhhhhhhmh",
"dfjjjjjjjjjjjjjjjjjjjjjjjjjmheeeeeedfjjjjjjjjjjjjjjjjjjjjjjjjjmh",
"dfggggklffffffffffffflkggggmheeeeeedfggggklffffffffffffflkggggmh",
"dfhhhhhhhhhhhhhhhhhhhhhhhhhmheeeeeedfhhhhhhhhhhhhhhhhhhhhhhhhhmh",
"dfnnnnnnnnnnnnnnnnnnnnnnnnnmheeeeeedfnnnnnnnnnnnnnnnnnnnnnnnnnmh",
"dfooooooooooooooooooooooooomheeeeeedfooooooooooooooooooooooooomh",
"dfhhhhhhhhhhhhhhhhhhhhhhhhhmheeeeeedfhhhhhhhhhhhhhhhhhhhhhhhhhmh",
"dfjjjjjjjjjjjjjjjjjjjjjjjjjmheeeeeedfjjjjjjjjjjjjjjjjjjjjjjjjjmh",
"dfggggklffffffffffffflkggggmheeeeeedfggggklffffffffffffflkggggmh",
"dfhhhhhhhhhhhhhhhhhhhhhhhhhmheeeeeedfhhhhhhhhhhhhhhhhhhhhhhhhhmh",
"dfnnnnnnnnnnnnnnnnnnnnnnnnnmheeeeeedfnnnnnnnnnnnnnnnnnnnnnnnnnmh",
"dfooooooooooooooooooooooooomheeeeeedfooooooooooooooooooooooooomh",
"dfhhhhhhhhhhhhhhhhhhhhhhhhhmheeeeeedfhhhhhhhhhhhhhhhhhhhhhhhhhmh",
"dfjjjjjjjjjjjjjjjjjjjjjjjjjmheeeeeedfjjjjjjjjjjjjjjjjjjjjjjjjjmh",
"dfggggklffffffffffffflkggggmheeeeeedfggggklffffffffffffflkggggmh",
"dfhhhhhhhhhhhhhhhhhhhhhhhhhmheeeeeedfhhhhhhhhhhhhhhhhhhhhhhhhhmh",
"dfnnnnnnnnnnnnnnnnnnnnnnnnnmheeeeeedfnnnnnnnnnnnnnnnnnnnnnnnnnmh",
"dfooooooooooooooooooooooooomheeeeeedfooooooooooooooooooooooooomh",
"dfhhhhhhhhhhhhhhhhhhhhhhhhhmheeeeeedfhhhhhhhhhhhhhhhhhhhhhhhhhmh",
"dfjjjjjjjjjjjjjjjjjjjjjjjjjmheeeeeedfjjjjjjjjjjjjjjjjjjjjjjjjjmh",
"dfggggklffffffffffffflkggggmheeeeeedfggggklffffffffffffflkggggmh",
"dfhhhhhhhhhhhhhhhhhhhhhhhhhmheeeeeedfhhhhhhhhhhhhhhhhhhhhhhhhhmh",
"dfnnnnnnnnnnnnnnnnnnnnnnnnnjheeeeeedfnnnnnnnnnnnnnnnnnnnnnnnnnjh",
"dfoooooooooooooooooooooooooiheeeeeedfoooooooooooooooooooooooooih",
"dfgijmmmmmmmmmmmmmmmmmmmmjigheeeeeedfgijmmmmmmmmmmmmmmmmmmmmjigh",
"dgijmhhhhhhhhhhhhhhhhhhhhhhhheeeeeedgijmhhhhhhhhhhhhhhhhhhhhhhhh"
};