/* XPM */
static char *wall_r07_c03[] = {
"64 64 13 1",
"a	c #183450",
"b	c #244870",
"c	c #081420",
"d	c #346090",
"e	c #3C6CA0",
"f	c #5884B0",
"g	c #6C90BC",
"h	c #142840",
"i	c #2C5480",
"j	c #204060",
"k	c #4C78A8",
"l	c #0C0C0C",
"m	c #141414",
"aabcdeeeeeefgeeeeehcdeeeeeefgeeeeehcdeeeeeefgeeeeehcdeeeeeefgeeg",
"aabcaiiiiiiegbbaajhcaiiiiiiegbbaabhcaiiiiiiegbbjabhcaiiiiiiegieg",
"aabcabbbbbbegbbaaihcabbbbbbegiiaabhcabbbbbbegbbjabhcabbbbbbegieg",
"aabcabbbbbbegbjaaihcabbbbbbegiiaabhcabbbbbbegbbjabhcabbbbbbegieg",
"aabcabbbbbbegbjaaihcabbbbbbegiiaabhcabbbbbbegbbjabhcabbbbbbegieg",
"aabcabbbbbbegbjaaihcabbbbbbegiiaabhcabbbbbbegbbjabhcabbbbbbegieg",
"aabcabbbbbbegbjaaihcabbbbbbegiiaajhcabbbbbbegbbjajhcabbbbbbegieg",
"aabcabbbbbbegbjaaihcabbbbbbegiiaajhcabbbbbbegbbjjjhcabbbbbbegieg",
"aabcabbbbbbegbjaaihcabbbbbbegiiaajhcabbbbbbegiijjjhcabbbbbbegieg",
"aabcabbbbbbegbjaaihcabbbbbbegiiaaahcabbbbbbegiijjjhcabbbbbbegieg",
"aabcabbbbbbegbjaaihcabbbbbbegiiaaahcabbbbbbegiijjjhcabbbbbbegieg",
"aabcabbbbbbegbjaaihcabbbbbbegbbaaahcabbbbbbegiijjjhcabbbbbbegieg",
"aabcabbbbbbegbbaaihcabbbbbbegbbibahcabbbbbbegiijjjhcabbbbbbegieg",
"aabcabbbbbbegbbaaihcabbbbbbegbbibahcabbbbbbegiibbbhcabbbbbbegieg",
"aabcaaaaaaaigbbaaihcaaaaaaaigbbibahcaaaaaaaigiibbbhcaaaaaaaigieg",
"aabchhhhhhhhkbbaaihchhhhhhhhkbbibahchhhhhhhhkiibbbhchhhhhhhhkieg",
"aabhheajjjjjjjjjjjjjjjjjjjjjjjjjjjjjjjjjjjjjjjjjjjjjjjjjaclabieg",
"aabiegddddddddddddddddddddddddddddddddddddddddddddddddddddcabieg",
"aabiegffffffffffffffffffffffffffffffffffffffffffffffffffffdabieg",
"aajgegddddddddddddddddddddddddddddddddddddddddddddddddddddhajgeg",
"aacjdghhhhhhhhhhhhhhhhhhhhhhhhhhhhhhhhhhhhhhhhhhhhhhhhhhhhlhcjdg",
"aabidglllllllllmmmmmmmmmmmmmmmmmmmmmmmmmmmmmmmmmmllllllllllabieg",
"aabiegcccccccccccccccccccccccccccccccccccccccccccccccccccclabieg",
"aabiegcaaaaaaaaaaaaaaaaaaaaaaaaaaaaaaaaaaaaaaaaaaaaaaaaaaclabieg",
"aabiegajjjjjjjjjjjjjjjjjjjjjjjjjjjjjjjjjjjjjjjjjjjjjjjjjaclabieg",
"aabiegddddddddddddddddddddddddddddddddddddddddddddddddddddcabieg",
"aabiegffffffffffffffffffffffffffffffffffffffffffffffffffffdabieg",
"aajgegddddddddddddddddddddddddddddddddddddddddddddddddddddhajgeg",
"aacjdghhhhhhhhhhhhhhhhhhhhhhhhhhhhhhhhhhhhhhhhhhhhhhhhhhhhlhcjdg",
"aabidglllllllllmmmmmmmmmmmmmmmmmmmmmmmmmmmmmmmmmmllllllllllabieg",
"aabiegcccccccccccccccccccccccccccccccccccccccccccccccccccclabieg",
"aabiegcaaaaaaaaaaaaaaaaaaaaaaaaaaaaaaaaaaaaaaaaaaaaaaaaaaclabieg",
"aabiegajjjjjjjjjjjjjjjjjjjjjjjjjjjjjjjjjjjjjjjjjjjjjjjjjaclabieg",
"aabiegddddddddddddddddddddddddddddddddddddddddddddddddddddcabieg",
"aabiegffffffffffffffffffffffffffffffffffffffffffffffffffffdabieg",
"aajgegddddddddddddddddddddddddddddddddddddddddddddddddddddhajgeg",
"aacjdghhhhhhhhhhhhhhhhhhhhhhhhhhhhhhhhhhhhhhhhhhhhhhhhhhhhlhcjdg",
"aabidglllllllllmmmmmmmmmmmmmmmmmmmmmmmmmmmmmmmmmmllllllllllabieg",
"aabiegcccccccccccccccccccccccccccccccccccccccccccccccccccclabieg",
"aabiegcaaaaaaaaaaaaaaaaaaaaaaaaaaaaaaaaaaaaaaaaaaaaaaaaaaclabieg",
"aabiegajjjjjjjjjjjjjjjjjjjjjjjjjjjjjjjjjjjjjjjjjjjjjjjjjaclabieg",
"aabiegddddddddddddddddddddddddddddddddddddddddddddddddddddcabieg",
"aabiegffffffffffffffffffffffffffffffffffffffffffffffffffffdabieg",
"aajgegddddddddddddddddddddddddddddddddddddddddddddddddddddhajgeg",
"aacjdghhhhhhhhhhhhhhhhhhhhhhhhhhhhhhhhhhhhhhhhhhhhhhhhhhhhlhcjdg",
"aabidglllllllllmmmmmmmmmmmmmmmmmmmmmmmmmmmmmmmmmmllllllllllabieg",
"aabiegcccccccccccccccccccccccccccccccccccccccccccccccccccclabieg",
"aabiegcaaaaaaaaaaaaaaaaaaaaaaaaaaaaaaaaaaaaaaaaaaaaaaaaaaclabieg",
"aabiegajjjjjjjjjjjjjjjjjjjjjjjjjjjjjjjjjjjjjjjjjjjjjjjjjaclabieg",
"aabiegddddddddddddddddddddddddddddddddddddddddddddddddddddcabieg",
"aabiegffffffffffffffffffffffffffffffffffffffffffffffffffffdabieg",
"aajgegddddddddddddddddddddddddddddddddddddddddddddddddddddhajgeg",
"aacjdghhhhhhhhhhhhhhhhhhhhhhhhhhhhhhhhhhhhhhhhhhhhhhhhhhhhlhcjdg",
"aabidglllllllllmmmmmmmmmmmmmmmmmmmmmmmmmmmmmmmmmmllllllllllabieg",
"aabiegcccccccccccccccccccccccccccccccccccccccccccccccccccclabieg",
"aabiegcaaaaaaaaaaaaaaaaaaaaaaaaaaaaaaaaaaaaaaaaaaaaaaaaaaclabieg",
"aabiegajjjjjjjjjjjjjjjjjjjjjjjjjjjjjjjjjjjjjjjjjjjjjjjjjaclabieg",
"aabiegddddddddddddddddddddddddddddddddddddddddddddddddddddcabieg",
"aabiegffffffffffffffffffffffffffffffffffffffffffffffffffffdabieg",
"aajgegddddddddddddddddddddddddddddddddddddddddddddddddddddhajgeg",
"aacjdghhhhhhhhhhhhhhhhhhhhhhhhhhhhhhhhhhhhhhhhhhhhhhhhhhhhlhcjdg",
"aabidglllllllllmmmmmmmmmmmmmmmmmmmmmmmmmmmmmmmmmmllllllllllabieg",
"aabiegcccccccccccccccccccccccccccccccccccccccccccccccccccclabieg",
"aabiegcjjjjjjjjjjjjjjjjjjjjjjjjjjjjjjjjjjjjjjjjjjjjjjjjjjclabieg"
};