/* XPM */
static char *wall_r03_c07[] = {
"64 64 9 1",
"a	c #502400",
"b	c #643000",
"c	c #884404",
"d	c #3C3C3C",
"e	c #2C1400",
"f	c #141414",
"g	c #3C1800",
"h	c #2C2C2C",
"i	c #040404",
"abbbbbbbbbbbbbbbbbbbbbbbbbbbbcddabbbbbbbbbbbbbbbbbbbbbbbbbbbbcdd",
"eaaaaaaaaaaaaaaaaaaaaaaaaaaaabdfeaaaaaaaaaaaaaaaaaaaaaaaaaaaabdf",
"egaaaaaaaaaaaaaaaaaaaaaaageaabhfegaaaaagaaaaabbaaaaaaaagaaaaabdf",
"egaaabaaaaaaagaaaaaaaaaaaagaabhfegaaaaaaaaaaaaaaaaaaaaaaaaaaabhf",
"egaaaaaaagaaaaaaaagaaaaabaaaabdfegaaaaaaaaaaaaaaaaaaaaaaaaaaabhf",
"egaaaaaaaaaaaaaaaaaaaaaaaaaaabhfegaagaaaaaaagaaaaaaaaaaaaaaaabhf",
"egagaaaaaaaaaaaaaaaaabaaaaaaabhfegaaaaaaaaaaaaaaagaaaaagaaaaabhf",
"egaaaaaabaaaagaaaaaaaaaaaaaaabhfegaaaaaaaaaaaaaaaaaaaaaaaagaabhf",
"egaaaaaaaaaaaaaaagaaaaaaaaaaabhfegaaaabbaaaaaaaaaaaaaaaaaaaaabhf",
"egaaaaaaaaaaaaaaaaagaaaaabaaabhfegaaaaaaaaaaageaaabaaaaagaaaabhf",
"egaaaaaaaagaaaabaaaaaagaaaaaabhfegaaaaaaaaaaaagaaaaaaaaaaaaaabhf",
"egaaaaaaaaaaaaaaaaaaaaaaaaaaabhfegaaaaaaaaaabaaaaaaaaaaaaaaaabdf",
"egggggggggggggggggggggggggggabhiegggggggggggggggggggggggggggabhf",
"eeeeeeeeeeeeeeeeeeeeeeeeeeeeeahfeeeeeeeeeeeeeeeeeeeeeeeeeeeeeahf",
"fiffffffffffffffffffifffffiffdhffffffffffffffffffffffffffffffdhf",
"hhhfhhhhdhhhfhhhhhhhhhhdhhhhddhhhhhhhhhhhhhhhhdhhhhhhdhhhhhhddhh",
"bbbbbbbbbbbbbcddabbbbbbbbbbbbbbbbbbbbbbbbbbbbcddabbbbbbbbbbbbbbb",
"aaaaaaaaaaaaabdfeaaaaaaaaaaaaaaaaaaaaaaaaaaaabdfeaaaaaaaaaaaaaaa",
"aageaaaaaaaaabhfegaaaaaaaaaaagaaaaaaaagaaaaaabhfegaaaaaaaaagaaaa",
"aaagaaaaagaaabhfegaaaaaaaaaaaaaaaaaaaaaaaaaaabhiegaaaaaaaaaaaaag",
"abaaaaaaaaaaabhfegaaaaaaagaaaaaaaaageaaaaaaaabhfegaaaaaaaaaaaaaa",
"aaaaaaaaaaaaabhiegaaaaaaaaaaaagaaaaagaaaaaaaabhfegaaaaagaaaaaaaa",
"agaaaaaaaaaaabhfegagaaagaaaaaaaaaabaaaaaaagaabffegaaaaaaaaaaaaaa",
"aaaaaaaagaaaabhfegaaaaaaaaaaaaabaaaaaaaaaaaaabhfegaaaaaagaaaaaaa",
"aaaaaaaaaaaaabffegaaaaaaaagaaaaaaaagaaaagaaaabffegagaaaaaaaaaaga",
"aaaaaaaaaaaaabhfegagaaaagaaaaaaaaaaaaaaaaaaaabhfegaagaaageaaaaaa",
"aaaagaaaaaaaabhfegaaaaaaaaaaaaaaabaaaaaaaaaaabhfegaaaaaaagaaaaaa",
"aaaaaaaaaaaaabhfegaaaaaaaaaaaaaaaaaaaaaaaaaaabhiegaaaaabaaaaaaaa",
"ggggggggggggabhfegggggggggggggggggggggggggggabhfeggggggggggggggg",
"eeeeeeeeeeeeeahfeeeeeeeeeeeeeeeeeeeeeeeeeeeeeahfeeeeeeeeeeeeeeee",
"fffffffifffffdhffffffifffffffffffffffffffffffdhfffffffffifffffff",
"fhhhhdhhhhhhddhhhfhhhhhhdhhhhhhhhhhhfhhdhhhhddhhhhfhhhdhhhhhhhhh",
"abbbbbbbbbbbbbbbbbbbbbbbbbbbbcddabbbbbbbbbbbbbbbbbbbbbbbbbbbbcdd",
"eaaaaaaaaaaaaaaaaaaaaaaaaaaaabdfeaaaaaaaaaaaaaaaaaaaaaaaaaaaabdf",
"egaaaaaaaaaaaaaaaaaaaaaaaaagabhfegaaaagaaaaagaaaaaaaaagaaaaaabhf",
"egaaaaaaaaaaaaagaaaaaaabaaaaabhfegaaaaaaaaaaaaagaaaaaaaaaaaaabhf",
"egaaaaaaaagaaaaaaaaaaaaaaaaaabhfegaaaaaaaaaaaaaaagaaaaaaaaaaabhf",
"egaaaagaaaaaabaaaaaagagaaaaaabhfegaaaaaaabaagaaaaaaaaaageagaabdf",
"egaaaaaaaaaaaaaaaaaaaaaaagaaabhfegaaaaaaaaaaaaaaaaaaaaaagaaaabhf",
"egaaaaaaaaaaaaaaaaaaaagaaaaaabhfegaaaagaaaaaaaaaaaaaaabaaaaaabhf",
"egaaagaaaaaaggagaaaaaaaaaaaaabhfegaaaaaaaaaaaagaaaagaaaaaaaaabhf",
"egaaaaaagaaaagaaaaaaaaaaaaaaabhfegaaaaabaaaaaaaaaaaaaaaaaaaaabhf",
"egaaaaaaagabaaaaaaaaaaaaabaaabhfegagaaaaaaaagaaaagaaaagaaaaaabhf",
"egaaaaabaaaaaaaaaaaaaaaaaaaaabhfegaaaaaaaaaaaaaaaaaaaaaaaaaaabhf",
"egggggggggggggggggggggggggggabhfegggggggggggggggggggggggggggabhf",
"eeeeeeeeeeeeeeeeeeeeeeeeeeeeeahfeeeeeeeeeeeeeeeeeeeeeeeeeeeeeahf",
"ffffffifffffffffffffffffififfdhffffffffifffffffffifffifffffffdhf",
"hhfhhhhhhhdhhhhhhfhhhhhhhhhhddhhhhhhfhhhhhhhhhhhhhhhhhhhhhhhddhh",
"bbbbbbbbbbbbbcddabbbbbbbbbbbbbbbbbbbbbbbbbbbbchdabbbbbbbbbbbbbbb",
"aaaaaaaaaaaaabdfeaaaaaaaaaaaaaaaaaaaaaaaaaaaabdfeaaaaaaaaaaaaaaa",
"aaaaaaaaagaaabhfegaaaaaaaaaaaaaaaaaaaaaaaaaaabhfegaaagaaaaagaaaa",
"agaaaaaaaaaaabhfegaaaaaaaaaagaaaabaaaagagaaaabhiegaaaaaaaaaaaaaa",
"aaaaaaaaaaaaabhfegaaaaaaaaaaaaaaaaaaaaaaaaaaabhfegaaagaaaaaaaaaa",
"aagaaaagaaaaabffegaaagaagaaaaaaaaaaaaaaaaaaaabhfegaaaaaaaaaabaaa",
"aaaaaaaaaaaaabhfegaaaaaaaaaaageaaaaaaagaaaaaabhfegaaaaaaaaaaaaga",
"aaaaaaaaaaaaabhfegaaaaaaaaaaaagaaagaaaaaaaaaabhfegaaaaaageaaaaaa",
"aaagaaaaaaaaabdfegaaaagaaaaabaaaaaaaaaaaagaaabhfeggaaaaaagaaaaaa",
"aaaaaaaaagaaabhfeggaaaaaaaaaaaaaaagaaaaaaaaaabdfegaaaaabaaagaaaa",
"aaaaaaaaaaaaabhfegaaaaaagaaaaaaaaaaaaaaaaaaaabhfegaaaaaaaaaaaaaa",
"aaaaaagaaaaaabhiegaaaaaaaaaaaaaaaaaaaaaaaagaabffegaagaaaaaaaaaaa",
"ggggggggggggabhfegggggggggggggggggggggggggggabhfeggggggggggggggg",
"eeeeeeeeeeeeeaffeeeeeeeeeeeeeeeeeeeeeeeeeeeeeahfeeeeeeeeeeeeeeee",
"fifffffffifffdhfffffffifffffffffffffffffffiffdhffiffffffffffffff",
"hhhfhhhhhhhhddhhhhhdhdhhhhfhhhhhhhdhhhhhhhhhddhhhhhhhfhdhhhfhhhh"
};