/* XPM */
static char *wall_r02_c04[] = {
"64 64 13 1",
"a	c #244870",
"b	c #183450",
"c	c #5884B0",
"d	c #6C90BC",
"e	c #A8BCD8",
"f	c #80A0C4",
"g	c #3C6CA0",
"h	c #346090",
"i	c #94B0D0",
"j	c #4C78A8",
"k	c #2C5480",
"l	c #142840",
"m	c #081420",
"abcccccccdebfffeabcccccccdebfffeabcccccccdebfffeabcccccccdebfffe",
"abgggggggdebggdeabgggggggdebggdeabgggggggdebggdeabgggggggdebggde",
"abgggggggdebggdeabgggggggdebggdeabgggggggdebggdeabgggggggdebggde",
"abgggggggdebggdeabgggggggdebggdeabgggggggdebggdeabgggggggdebggde",
"abgggggggdebhideabgggggggdebhideabgggggggdebhideabgggggggdebhide",
"abgggggggdebahdeabgggggggdebahdeabgggggggdebahdeabgggggggdebahde",
"abaaaaaaaafbggdeabaaaaaaaafbggdeabaaaaaaaafbggdeabaaaaaaaafbggde",
"dgjjhgghggabggdedhgggggkhgabggdedjjjjjgjggabggdedjcccccccgabggde",
"dgjjhgghggabggdedhgggggkggabggdedjjjjjgjggabggdedjcccccccgabggde",
"dgjjhgghggabggdedhgggggkggabggdedjjjjjhjhgabggdedgggggggggabggde",
"dgjjhgghggabhidedkgkhggkggabhidedjjjjjhjhgabhidedggggghhggabhide",
"dgjjhgghhhabahdedkgkhggkghabahdedjjjjjhjhhabahdedccggjhhchabahde",
"dgjjhgghhhabggdedkgkhggkghabggdedjjjjjhjhgabggdedccggjhhchabggde",
"dgjjhgghhhabggdedkgkhggkghabggdedjjjjjhjhhabggdedccggjhhchabggde",
"dgjjhgghhhabggdedkgkhggkghabggdedhhhhhhhhhabggdedccggjhhchabggde",
"dgjjhgghhhabggdedkgkhggkghabggdedhhhhhhhhhabggdedccggjhhchabggde",
"fffffffffffchidefffffffffffchidefffffffffffchidedffffffffffchide",
"dlllllllllllahdedlllllllllllahdedlllllllllllahdedlllllllllllahde",
"dmmmmmmmmmmmggdedmmmmmmmmmmmggdedmmmmmmmmmmmggdedmmmmmmmmmmmggde",
"dmmmmmmmmmmmggdedmmmmmmmmmmmggdedmmmmmmmmmmmggdedmmmmmmmmmmmggde",
"dmmmmmmmmmmmggdedmmmmmmmmmmmggdedmmmmmmmmmmmggdedmmmmmmmmmmmggde",
"dmmmmmmmmmmmggdedmmmmmmmmmmmggdedmmmmmmmmmmmggdedmmmmmmmmmmmggde",
"dmmmmmmmmmmmhidedmmmmmmmmmmmhidedmmmmmmmmmmmhidedmmmmmmmmmmmhide",
"dmmmmmmmmmmmahdedmmmmmmmmmmmahdedmmmmmmmmmmmahdedmmmmmmmmmmmahde",
"dmmmmmmmmmmmggdedmmmmmmmmmmmggdedmmmmmmmmmmmggdedmmmmmmmmmmmggde",
"dlllllllllllggdedlllllllllllggdedlllllllllllggdedlllllllllllggde",
"eeeeeeeeeeefggdeeeeeeeeeeeefggdeeeeeeeeeeeefggdeeeeeeeeeeeefggde",
"ddddddddddjbggdeddddddddddjbggdeddddddddddjbggdeddddddddddjbggde",
"dghjhghgjhabhidedkgkggggghabhidedgghjjhhhhabhidedjcjjchhchabhide",
"dghjhghgjhabahdedkgkggggghabahdedgghjjghhhabahdedjcjjchhchabahde",
"dghjhghgjhabggdedkgkhgghhhabggdedgghjjghhhabggdedjcjjchhchabggde",
"dghjhghgjhabggdedkgkhgghhhabggdedgghjjghhhabggdedjcjjjhhjhabggde",
"dghjhghgjhabggdedkgkhgghhhabggdedgghjjghhhabggdedjcjjjhhjhabggde",
"dghjhghgjhabggdedkgkhgghhhabggdedgghjjghhhabggdedghjjghhghabggde",
"dghjhghgjhabhidedgggggghhhabhidedgghjjghhhabhidedghjjghhghabhide",
"dghjhghgjhabahdedgggggghhhabahdedgghjjghhhabahdedghjjghhghabahde",
"dggjhghgjhabggdedkkkhgghhhabggdedgghjjghhhabggdedghjjghhghabggde",
"dggjhghgjhabggdedkkkhgghhhabggdedgghjjghhhabggdedghjjghhghabggde",
"dggjhghgjhabggdedkkkhgghhhabggdedgghjjghhhabggdedghjjghhghabggde",
"dggjhghgjhabggdedkkkhgghkhabggdedgghjjghhhabggdedghjjghhghabggde",
"dggjhghgjgabhidedhhhhgghkgabhidedgghjjghhgabhidedghjjghhggabhide",
"dggjhghgjgabahdedhhhhgghkgabahdedgghjjghhgabahdedghjjghhggabahde",
"dggjhghgjgabggdedhhhhgghkgabggdedgghjjghhgabggdedghjjghhggabggde",
"dggjhhhhjgabggdedhhhhgghkgabggdedgghjjghhgabggdedghjjgggggabggde",
"dggjhhhhjgabggdedhhhhgghkgabggdedgghjjghhgabggdedghjjgggggabggde",
"dggjhhhhjgabggdedhhkkggkkgabggdedgghjjghhgabggdedghjjgggggabggde",
"dggjhhhhjgabhidedhhkkggkkgabhidedgghjjghhgabhidedggjjgggggabhide",
"dggjhhhhjgabahdedhhkkggkkgabahdedgghjjghhgabahdedggjjgggggabahde",
"dggjhhhhjjabggdedhhkkggkkjabggdedghhhhghhjabggdedggjjggggjabggde",
"dggjhhhhjjabggdedhhkkggkkjabggdedghhhhghhjabggdedcccggcgcjabggde",
"dggjhhhhjjabggdedhhkkggkkjabggdedghhhhghhjabggdedcccggcgcjabggde",
"dggjhhhhjjabggdedhhkkggkkjabggdedghhhhghhjabggdedcccggcgcjabggde",
"dggjhhhhhjabhidedhhkkgkkkjabhidedghhhhghhjabhidedcccggcccjabhide",
"dgghhhhhhjabahdedhhkkgkkkjabahdedghhhhghhjabahdedjjjggcccjabahde",
"dgghhhhhhjabggdedhhkkgkkkjabggdedghhhhghhjabggdedjjjggcccjabggde",
"dgghhhhhhjabggdedhhkkgkkkjabggdedghhhhhhhjabggdedcccggcccjabggde",
"dgghhhhhhjabggdedhhkkgkkkjabggdedghhhhhhhjabggdedcccggcccjabggde",
"dgghhggghjabggdedhhkkgkkkjabggdedghhhhhhhjabggdedjjjgggggjabggde",
"dgghhggghjabhidedhhkkgkkkjabhidedghhhhhhhjabhidedjjjgggggjabhide",
"dgghhggghjabahdedhhkkkkkkjabahdedggggghhhjabahdedjjjgggggjabahde",
"dgghhggghjabggdedhhkkkkkkjabggdedggggghhhjabggdedjjjgggggjabggde",
"dgghhggghjabggdedhhkkkkkkjabggdedggggghhhjabggdedjjjggjjjjabggde",
"dgghhggghgabggdedhhkkkkkkgabggdedggggghhhgabggdedjjjggjjjgabggde",
"aaaaaaaaaaabccceaaaaaaaaaaabccceaaaaaaaaaaabccceaaaaaaaaaaabcccf"
};