/* XPM */
static char *wall_r07_c02[] = {
"64 64 15 1",
"a	c #244870",
"b	c #2C5480",
"c	c #183450",
"d	c #5884B0",
"e	c #6C90BC",
"f	c #94B0D0",
"g	c #A8BCD8",
"h	c #4C78A8",
"i	c #3C6CA0",
"j	c #346090",
"k	c #80A0C4",
"l	c #0C0C0C",
"m	c #98C0E4",
"n	c #142840",
"o	c #141414",
"abacdeeeeeefgeeeeeacdeeeeeefgeeeeeacdeeeeeefgeeeeeacdeeeeeefgeeg",
"abacbhhhhhhegiibbjacbhhhhhhegiibbiacbhhhhhhegiijbiacbhhhhhhegheg",
"abacbiiiiiiegiibbhacbiiiiiieghhbbiacbiiiiiiegiijbiacbiiiiiiegheg",
"abacbiiiiiiegijbbhacbiiiiiieghhbbiacbiiiiiiegiijbiacbiiiiiiegheg",
"abacbiiiiiiegijbbhacbiiiiiieghhbbiacbiiiiiiegiijbiacbiiiiiiegheg",
"abacbiiiiiiegijbbhacbiiiiiieghhbbiacbiiiiiiegiijbiacbiiiiiiegheg",
"abacbiiiiiiegijbbhacbiiiiiieghhbbjacbiiiiiiegiijbjacbiiiiiiegheg",
"abacbiiiiiiegijbbhacbiiiiiieghhbbjacbiiiiiiegiijjjacbiiiiiiegheg",
"abacbiiiiiiegijbbhacbiiiiiieghhbbjacbiiiiiieghhjjjacbiiiiiiegheg",
"abacbiiiiiiegijbbhacbiiiiiieghhbbbacbiiiiiieghhjjjacbiiiiiiegheg",
"abacbiiiiiiegijbbhacbiiiiiieghhbbbacbiiiiiieghhjjjacbiiiiiiegheg",
"abacbiiiiiiegijbbhacbiiiiiiegiibbbacbiiiiiieghhjjjacbiiiiiiegheg",
"abacbiiiiiiegiibbhacbiiiiiiegiihibacbiiiiiieghhjjjacbiiiiiiegheg",
"abacbiiiiiiegiibbhacbiiiiiiegiihibacbiiiiiieghhiiiacbiiiiiiegheg",
"abacbbbbbbbhgiibbhacbbbbbbbhgiihibacbbbbbbbhghhiiiacbbbbbbbhgheg",
"abacaaaaaaaakiibbhacaaaaaaaakiihibacaaaaaaaakhhiiiacaaaaaaaakheg",
"abaaaebjjjjjjjjjjjjjjjjjjjjjjjjjjjjjjjjjjjjjjjjjjjjjjjjjbclbiheg",
"abihegddddddddddddddddddddddddddddddddddddddddddddddddddddcbiheg",
"abihegmmmmmmmmmmmmmmmmmmmmmmmmmmmmmmmmmmmmmmmmmmmmmmmmmmmmdbiheg",
"abjgegddddddddddddddddddddddddddddddddddddddddddddddddddddabjgeg",
"abnjdgaaaaaaaaaaaaaaaaaaaaaaaaaaaaaaaaaaaaaaaaaaaaaaaaaaaalanjdg",
"abihdgllllllllloooooooooooooooooooooooooooooooooollllllllllbiheg",
"abihegcccccccccccccccccccccccccccccccccccccccccccccccccccclbiheg",
"abihegcbbbbbbbbbbbbbbbbbbbbbbbbbbbbbbbbbbbbbbbbbbbbbbbbbbclbiheg",
"abihegbjjjjjjjjjjjjjjjjjjjjjjjjjjjjjjjjjjjjjjjjjjjjjjjjjbclbiheg",
"abihegddddddddddddddddddddddddddddddddddddddddddddddddddddcbiheg",
"abihegmmmmmmmmmmmmmmmmmmmmmmmmmmmmmmmmmmmmmmmmmmmmmmmmmmmmdbiheg",
"abjgegddddddddddddddddddddddddddddddddddddddddddddddddddddabjgeg",
"abnjdgaaaaaaaaaaaaaaaaaaaaaaaaaaaaaaaaaaaaaaaaaaaaaaaaaaaalanjdg",
"abihdgllllllllloooooooooooooooooooooooooooooooooollllllllllbiheg",
"abihegcccccccccccccccccccccccccccccccccccccccccccccccccccclbiheg",
"abihegcbbbbbbbbbbbbbbbbbbbbbbbbbbbbbbbbbbbbbbbbbbbbbbbbbbclbiheg",
"abihegbjjjjjjjjjjjjjjjjjjjjjjjjjjjjjjjjjjjjjjjjjjjjjjjjjbclbiheg",
"abihegddddddddddddddddddddddddddddddddddddddddddddddddddddcbiheg",
"abihegmmmmmmmmmmmmmmmmmmmmmmmmmmmmmmmmmmmmmmmmmmmmmmmmmmmmdbiheg",
"abjgegddddddddddddddddddddddddddddddddddddddddddddddddddddabjgeg",
"abnjdgaaaaaaaaaaaaaaaaaaaaaaaaaaaaaaaaaaaaaaaaaaaaaaaaaaaalanjdg",
"abihdgllllllllloooooooooooooooooooooooooooooooooollllllllllbiheg",
"abihegcccccccccccccccccccccccccccccccccccccccccccccccccccclbiheg",
"abihegcbbbbbbbbbbbbbbbbbbbbbbbbbbbbbbbbbbbbbbbbbbbbbbbbbbclbiheg",
"abihegbjjjjjjjjjjjjjjjjjjjjjjjjjjjjjjjjjjjjjjjjjjjjjjjjjbclbiheg",
"abihegddddddddddddddddddddddddddddddddddddddddddddddddddddcbiheg",
"abihegmmmmmmmmmmmmmmmmmmmmmmmmmmmmmmmmmmmmmmmmmmmmmmmmmmmmdbiheg",
"abjgegddddddddddddddddddddddddddddddddddddddddddddddddddddabjgeg",
"abnjdgaaaaaaaaaaaaaaaaaaaaaaaaaaaaaaaaaaaaaaaaaaaaaaaaaaaalanjdg",
"abihdgllllllllloooooooooooooooooooooooooooooooooollllllllllbiheg",
"abihegcccccccccccccccccccccccccccccccccccccccccccccccccccclbiheg",
"abihegcbbbbbbbbbbbbbbbbbbbbbbbbbbbbbbbbbbbbbbbbbbbbbbbbbbclbiheg",
"abihegbjjjjjjjjjjjjjjjjjjjjjjjjjjjjjjjjjjjjjjjjjjjjjjjjjbclbiheg",
"abihegddddddddddddddddddddddddddddddddddddddddddddddddddddcbiheg",
"abihegmmmmmmmmmmmmmmmmmmmmmmmmmmmmmmmmmmmmmmmmmmmmmmmmmmmmdbiheg",
"abjgegddddddddddddddddddddddddddddddddddddddddddddddddddddabjgeg",
"abnjdgaaaaaaaaaaaaaaaaaaaaaaaaaaaaaaaaaaaaaaaaaaaaaaaaaaaalanjdg",
"abihdgllllllllloooooooooooooooooooooooooooooooooollllllllllbiheg",
"abihegcccccccccccccccccccccccccccccccccccccccccccccccccccclbiheg",
"abihegcbbbbbbbbbbbbbbbbbbbbbbbbbbbbbbbbbbbbbbbbbbbbbbbbbbclbiheg",
"abihegbjjjjjjjjjjjjjjjjjjjjjjjjjjjjjjjjjjjjjjjjjjjjjjjjjbclbiheg",
"abihegddddddddddddddddddddddddddddddddddddddddddddddddddddcbiheg",
"abihegmmmmmmmmmmmmmmmmmmmmmmmmmmmmmmmmmmmmmmmmmmmmmmmmmmmmdbiheg",
"abjgegddddddddddddddddddddddddddddddddddddddddddddddddddddabjgeg",
"abnjdgaaaaaaaaaaaaaaaaaaaaaaaaaaaaaaaaaaaaaaaaaaaaaaaaaaaalanjdg",
"abihdgllllllllloooooooooooooooooooooooooooooooooollllllllllbiheg",
"abihegcccccccccccccccccccccccccccccccccccccccccccccccccccclbiheg",
"abihegcjjjjjjjjjjjjjjjjjjjjjjjjjjjjjjjjjjjjjjjjjjjjjjjjjjclbiheg"
};