/* XPM */
static char *wall_r16_c02[] = {
"64 64 40 1",
"a	c #CCCCCC",
"b	c #7CACDC",
"c	c #BCBCBC",
"d	c #3884CC",
"e	c #0C5CAC",
"f	c #98C0E4",
"g	c #B0B0B0",
"h	c #A8A8A8",
"i	c #8C8C8C",
"j	c #A0A0A0",
"k	c #64A0D8",
"l	c #545454",
"m	c #848484",
"n	c #747474",
"o	c #6C6C6C",
"p	c #2C2C2C",
"q	c #3C3C3C",
"r	c #444444",
"s	c #989898",
"t	c #00A4A4",
"u	c #28C8C8",
"v	c #5CD8D8",
"w	c #78E0E0",
"x	c #98E4E4",
"y	c #646464",
"z	c #7C7C7C",
"A	c #60401C",
"B	c #805424",
"C	c #A06C3C",
"D	c #A8784C",
"E	c #B08458",
"F	c #402810",
"G	c #C4A080",
"H	c #D0B094",
"I	c #C01010",
"J	c #503418",
"K	c #BC906C",
"L	c #C4C4C4",
"M	c #343434",
"N	c #1068C0",
"aaaaaaaaaaaaaaaaaaaaaaaaaaaaaaaaaaaaaaaaaabbbbbbbbbbbbbbbbbbbbbb",
"cccccccccccccccccccccccccccccccccccccccccadedfdedfdedfdedfdedfde",
"ggggggggggggggggggggggggggggggggggggggggcadedbdedbdedbdedbdedbde",
"hhhhhhhhhhhhhhhhhhhhhhhhhhhhhhhhhhhhhhhgcadedbdedbdedbdedbdedbde",
"iiiiiiiiiiiiiiiiiiiiiiiijhhhhhhhhhhhhhhgcakkkkkkkkkkkkkkkkkkkkkk",
"lllllmmnnoooooooooooooooijhhhhhhhhhhhhhgcapppppppppppppppppppppp",
"lllmmnnnoooooooooooooooooijhhhhhhhhhhhhgcaqqqqqqqqqqqqqqqqqqqqqq",
"lmmnnnooooooooooooooooooooijhhhhhhhhhccccarrrrrrrrrrrrrrrrrrrrrr",
"mnnnoooooooooooooooooooooooijhhhhhhhhcaiiiiiiiiiiiiiiiiiiiiiiiii",
"nnooooooooooooooooooooooooooijhhhhhhhcamnnnnnnnnnnnnnngsiimnnngi",
"oooooooooooooooooooooooooooooijhhhhhhcamntttttttttttttgsiimnttgi",
"ooooooooooooooooooooooooooooooijhhhhhcamnuuuuuuuuuuuuugsiimnuugi",
"oooooooooooooooooooooooooooooooijhhhhcamnvvvvvvvvvvvvvgsiimnvvgi",
"ooooooooooooooooooooooooooooooooijhhhcamnwwwwwwwwwwwwwgsiimnwwgi",
"oooooooooooooooooooooooooooooooooijhhcamnxxxxxxxxxxxxxgsiimnxxgi",
"oooooooooooooooooooooooooooooonmmnahhcamnvvvvvvvvvvvvvgsiimnvvgi",
"oooooooooooooooooooooonmmmmmmmmylnachcamnuuuuuuuuuuuuugsiimnuugi",
"ooooooooooooooonmmmmmmmylqqqqqqqqnachcamnnnnnnnnnnnnnngsiimnnngi",
"oooooooonzzzzzzzylqqqqqqqqtwxvuqqnachcaiiiiiiiiiiiiiiiiiiiiiiiii",
"yzzzzzzzzylqqqqqqqqqqqqqtuvwxvuqqnachcaaaaAAAAAAAAAAAAAAAAAAAAAA",
"zylqqqqqqqqqqqtwxvqqqqqqtuvwxvuqqnachccccaBBBBBBBBBBBBBBBBBBBBBB",
"qqqqqqtwxqqqquvwxvqqqqqqtuvwxvuqqnachhhgcaCCCCCCCCCCCCCCCCCCCCCC",
"qtvqquvwxqqqquvwxvqqqqqqtuvwxvuqqnachhhgcaCCCCCCCCCCCCCCCCCCCCCC",
"tuvqquvwxqqqquvwxvqqqqqqtuvwxvuqqnachhhgcaCCCCCCCCCCCCCCCCCCCCCC",
"tuvqquvwxqqqquvwxvqqqqqqtuvwxvuqqnachhhgcaCDEEEEEEEEEEEEEEEEDCCC",
"tuvqquvwxqqqquvwxvqqqqqqtuvwxvuqqnachhhgcaDEFFFFFFFFFFFFFFFFDDCC",
"tuvqquvwxqqqquvwxvqqqqqqtuvwxvuqqnachhhgcaEFAAAAAAAAAAAAAAAAFECC",
"tuvqquvwxqqqquvwxvqqqqqqtuvwxvuqqnachhhgcaEGBBBBBBBBBBBBBBBBGECC",
"tuvqquvwxqqqquvwxvqqqqqqtuvwxvuqqnachhhgcaCEGGGGGGGGGGGGGGGHECCC",
"tuvIIuvwxIIIIuvwxvIIIIIItuvwxvuIInachhhgcaEEEEEEEEEEEEEEEEEEEEEE",
"tuvIIuvwxIIIIuvwxvIIIIIItuvwxvuIInachhhgcaJJJJJJJJJJJJJJJJJJJJJJ",
"tuvqquvwxqqqquvwxvqqqqqqtuvwxvuqqnachhhgcaAAAAAAAAAAAAAAAAAAAAAA",
"tuvqquvwxqqqquvwxvqqqqqqtuvwxvuqqnachhhgcaKKKKKKKKKKKKKKKKKKKKKK",
"tuvqquvwxqqqquvwxvqqqqqqtuvwxvuqqnachhhgcaCCCCCCCCCCCCCCCCCCCCCC",
"tuvqquvwxqqqquvwxvqqqqqqtuvwxvuqqnachhhgcaCDEEEEEEEEEEEEEEEEDCCC",
"tuvqquvwxqqqquvwxvqqqqqqtuvwxvuqqnachhhgcaDEFFFFFFFFFFFFFFFFDDCC",
"tuvqquvwxqqqquvwxvqqqqqqtuvwxvuqqnachhhgcaEFAAAAAAAAAAAAAAAAFECC",
"tuvqquvwxqqqquvwxvqqqqqqtuvwxvuqqnachhhgcaEGBBBBBBBBBBBBBBBBGECC",
"tuvqquvwxqqqquvwxvqqqqqqtuvwxvuqqnachhhgcaCEGGGGGGGGGGGGGGGHECCC",
"tuvqquvwxqqqquvwxvqqqqqqtuvwxvuqqnachhhgcaCDEEEEEEEEEEEEEEEEDCCC",
"tuvqquvwxqqqquvwxvqqqqqqtuvwxvuqqnachhhgcaDEFFFFFFFFFFFFFFFFDDCC",
"qtvqquvwxqqqquvwxvqqqqqqtuvwxvuqqnachhhgcaEFAAAAAAAAAAAAAAAAFECC",
"qqqqqqtwxqqqquvwxvqqqqqqtuvwxvuqqnachhhgcaEGBBBBBBBBBBBBBBBBGECC",
"zylqqqqqqqqqqqtwxvqqqqqqtuvwxvuqqnachhhgcaCEGGGGGGGGGGGGGGGHECCC",
"yzzzzzzzylqqqqqqqqqqqqqqqqtwxvuqqnachccccaCCCCCCCCCCCCCCCCCCCCCC",
"ooooooonzzzzzzzylqqqqqqqqqqqqqqqqnachcaiiiiiiiiiiiiiiiiiiiiiiiii",
"oooooooooooooonmmmmmmmmylqqqqqqqqnachcamnnnnnnnnnnnnnngsiimnnngi",
"oooooooooooooooooooooonmmmmmmmylqnachcamnuuuuuuuuuuuuugsiimnuugi",
"ooooooooooooooooooooooooooooonmmmjachcamnvvvvvvvvvvvvvgsiimnvvgi",
"oooooooooooooooooooooooooooooooojaLchcamnxxxxxxxxxxxxxgsiimnxxgi",
"ooooooooooooooooooooooooooooooojaLchhcamnwwwwwwwwwwwwwgsiimnwwgi",
"oooooooooooooooooooooooooooooojaLchhhcamnvvvvvvvvvvvvvgsiimnvvgi",
"ooooooooooooooooooooooooooooojaLchhhhcamnuuuuuuuuuuuuugsiimnuugi",
"oooooooooooooooooooooooooooojaLchhhhhcamntttttttttttttgsiimnttgi",
"ooooooooooooooooooooooooooojaLchhhhhhcamnnnnnnnnnnnnnngsiimnnngi",
"mnoooooooooooooooooooooooojaLchhhhhhhcaiiiiiiiiiiiiiiiiiiiiiiiii",
"nmmnooooooooooooooooooooojaLchhhhhhhhcaaaapppppppppppppppppppppp",
"llnmmnoooooooooooooooooojaLchhhhhhhhhccccaMMMMMMMMMMMMMMMMMMMMMM",
"llllnmmnooooooooooooooojaLchhhhhhhhhhhhgcaqqqqqqqqqqqqqqqqqqqqqq",
"llllllnmmnoooooooooooojaLchhhhhhhhhhhhhgcarrrrrrrrrrrrrrrrrrrrrr",
"llllllllnmmnooooooooojaLchhhhhhhhhhhhhhgcakkkkkkkkkkkkkkkkkkkkkk",
"llllllllllnmmnoooooojaLchhhhhhhhhhhhhhhgcaeeeeeeeeeeeeeeeeeeeeee",
"llllllllllllnmmnooojaLchhhhhhhhhhhhhhhhgcaNNNNNNNNNNNNNNNNNNNNNN",
"llllllllllllllnmmnjaLchhhhhhhhhhhhhhhhhgcadddddddddddddddddddddd"
};