/* XPM */
static char *wall_r06_c07[] = {
"64 64 16 1",
"a	c #0C1C30",
"b	c #081420",
"c	c #2C5480",
"d	c #346090",
"e	c #5884B0",
"f	c #3C6CA0",
"g	c #204060",
"h	c #183450",
"i	c #4C78A8",
"j	c #244870",
"k	c #142840",
"l	c #5C0000",
"m	c #700404",
"n	c #480000",
"o	c #840404",
"p	c #6C90BC",
"abcccccccdebfffeabcccccccdebfffeabcccccccdebfffeabcccccccdebfffe",
"abgggggggdebggdeabgggggggdebggdeabgggggggdebggdeabgggggggdebggde",
"abgggggggdebggdeabgggggggdebggdeabgggggggdebggdeabgggggggdebggde",
"abgggggggdebggdeabgggggggdebggdeabgggggggdebggdeabgggggggdebggde",
"abgggggggdebhideabgggggggdebhideabgggggggdebhideabgggggggdebhide",
"abgggggggdebahdeabgggggggdebahdeabgggggggdebahdeabgggggggdebahde",
"abaaaaaaaafbggdeabaaaaaaaafbggdeabaaaaaaaafbggdeabaaaaaaaafbggde",
"agjjhgghggabggdedhgggggkhgabggdedjjjjjgjggabggdedjcccccccgabggde",
"agjjhgghggabggdedhgggggkggabggdedjjjjjgjggabggdedjcccccccgabggde",
"agjjhgghggabggdedhgggggkggabggdedjjjjjhjhgabggdedgggggggggabggde",
"agjjhgghggabhidedkgkhggkggabhidedjjjjjhjhgabhidedggggghhggabhide",
"agjjhgghhhabahdedkgkhggkghabahdedjjjjjhjhhabahdedccggjhhchabahde",
"agjjhgghhhabggdedkgkhggkghabggdedhhhhhhhhhabggdedccggjhhchabggde",
"agjjhgghhhabggdedkgkhggkghabggdedhhhhhhhhhabggdedccggjhhchabggde",
"agjjhgjjhhabggdedkgkhggkghabggdedhhhhhhhhhabggdedccggjhhchabggde",
"agjjhgjjhhabggdedkgkhggkghabggdedhhhhhhhhhabggdedccggjhhghabggde",
"ffffffffffabhideffffffffffabhideffffffffffabhideffffffffffabhide",
"ddddddddddabahdeddddddddddabahdeddddddddddabahdeddddddddddabahde",
"ccccccccccabggdeccccccccccabggdeccccccccccabggdeccccccccccabggde",
"jjjjjjjjjjabggdejjjjjjjjjjabggdejjjjjjlljllbggdejjjjjjjjjjabggde",
"jjjjjjjjjjabggdejjjjjjjjjjabggdejjjlmjlljllbggdejjjjjjjjjjabggde",
"ccccccccccabggdeccccccccccabggdeccclmcclccllmgdeccccccccccabggde",
"jjjjjjjjjjabhidejjjjjjjjjjabhidejjjjljjjjjabmidejjjjjjjjjjabhide",
"ggggggggggabahdeggggggggggabahdegggggglllllbahdeggggggggggabahde",
"hhhhhhhhhhabggdehhhhhhhhhhabggdehhhhllllmmlnlgdehhhhhhhhhhabggde",
"kkkkkkkkkkabggdekkkkkkkkkkabggdekkkkklmllllnlgdekkkkkkkkkkabggde",
"aaaaaaaaaaabggdeaaaaaalaaaabggdeaaaaaaalaaanlgdeaaaaaaaaaaabggde",
"aghhhghgjhabggdedkgkgggglhabggdedmlhjjlllhanggdedjccgchhchabggde",
"aghjhghgjhabhidedkgkglgllhabhidedgmmmjlllllnhidedjcjjchhchabhide",
"aghjhghgjhabahdedkgkglgglhabahdedggmjjmmlllnahdedjcjjchhchabahde",
"aghjhghgjhabggdedkgkllgllhabggdedggmjjglmmanggdedjcjjchhchabggde",
"aghjhghgjhabggdedkgkllgllhmlggdedggmjjgmhhanggdedjcjjjhhjhabggde",
"aghjhghgjhabggdedkmllgglhhmlggdedggmjjgmhhanggdedjcjjjhhjhabggde",
"aghjhghgjhabggdedkmkhgghhhlbggdedggmjjgmhhanggdedghjjghhghabggde",
"aghjhghgjhabhidedggglllllhabhidedggmjjglhhanhidedghjjghhghabhide",
"aghjhghgjhabahdedglllmmllllbahdedgghjlghhhanahdedghjjghhghabahde",
"aggjhghgjhabggdedkllllllmlabggdedgghjjghhhabggdedghjjghhghabggde",
"aggjhghgjhabggdedkllhgglhhlbggdedglhjjghhhabmgdedghjjghhghabggde",
"aggjhghgjhabggdedkklhglllhlblmdldgghmmnhhmabggdedghjjghhghabggde",
"aggjhghgjhabggdedmkllllllhmnmgdedlglmlmlhhabggdedghjjghhghabggde",
"aggjhghgjgabhidedhhllllmmganhidedggmmlllhgabhidelghjjghhggabhide",
"aggjhghgjgabahdedhhlhmmlkganahdedggmlllnlgablhdedghjjghhggabahde",
"aggjhghgjgabggdedhhlhlgmkgmnlgdmdgghlllllgabggdedghjjghhggabggde",
"aggjhhhhjgabgmdedmhmmggmmlmnlloodggmljlhlgabggdedghjjgggggabggde",
"aggjhhhhjgabggdedhlmhlgmlmlnlmoomgghjjghhlabggdedghjjgggggabggde",
"aggjhhhhjgabggdedhhmkgglkmmnmmoodggmjjghhgabgldedghjjgggggabggde",
"aggjhhhhjgabhidedlmlkgmklmmnlmoooglhjjghhgabhidedggjjgggggabhide",
"aggjhhhhjgamallemllllggkklmnmhomdmghjjghhgabahdedggjjgggggabahde",
"aggjhhhhjjabggdolllllllkkjanmgoedgmmhhghhjabggdedggjjggggjabggde",
"aggjhhhhjjabggdelllllglkkjabmgoedghhhhghhjabggdedcccggcgcjabggde",
"ddddddddddddddddlmlldddmldddddoddddddddddddddddddddddddddddddddd",
"fffffffffffffffollllffffffffffofffffffffffffffffffffffffffffffff",
"dddkipiddddkipiodddliliddddkipoddddkipiddddkipiddddkipiddddkipid",
"dddkjiiddddkjiiddddkjilddddkjioddddkjiiddddkjiiddddkjiiddddkjiid",
"dddkkkiddddkkkmddddkkkildddkkkoddddkkkiddddkkkiddddkkkiddddkkkid",
"gggggggggggggggggggggggggggggggggggggggggggggggggggggggggggggggg",
"hhhhhhhhhhhhhhhhhhhhhhhhhhhhhhohhhhhhhhhhhhhhhhhhhhhhhhhhhhhhhhh",
"kkkkkkkkkkkkkkkkkkkkkkkkkkkkkkkkkkkkkkkkkkkkkkkkkkkkkkkkkkkkkkkk",
"agghhggghjabhidedhhkkgkkkjabhidedghhhhhhhjabhidedjjjgggggjabhide",
"agghhggghjabahdedhhkkkkkkjabahdedggggghhhjabahdedjjjgggggjabahde",
"agghhggghjabggdedhhkkkkkkjabggdedggggghhhjabggdedjjjgggggjabggde",
"agghhggghjabggdedhhkkkkkkjabggdedggggghhhjabggdedjjjggjjjjabggde",
"agghhggghgabggdedhhkkkkkkgabggdedggggghhhgabggdedjjjggjjjgabggde",
"aaaaaaaaaaabccceaaaaaaaaaaabccceaaaaaaaaaaabccceaaaaaaaaaaabcccf"
};