/* XPM */
static char *wall_r00_c08[] = {
"64 64 11 1",
"a	c #244870",
"b	c #183450",
"c	c #5884B0",
"d	c #6C90BC",
"e	c #94B0D0",
"f	c #A8BCD8",
"g	c #2C5480",
"h	c #4C78A8",
"i	c #3C6CA0",
"j	c #346090",
"k	c #80A0C4",
"abcddddddefdddddabcddddddefdddddabcddddddefdddddabcddddddefddddd",
"abghhhhhhdfiiggjabghhhhhhdfiiggiabghhhhhhdfiijgiabghhhhhhdfgghhi",
"abgiiiiiidfiigghabgiiiiiidfhhggiabgiiiiiidfiijgiabgiiiiiidfgghhi",
"abgiiiiiidfijgghabgiiiiiidfhhggiabgiiiiiidfiijgiabgiiiiiidfgghhi",
"abgiiiiiidfijgghabgiiiiiidfhhggiabgiiiiiidfiijgiabgiiiiiidfgghhi",
"abgiiiiiidfijgghabgiiiiiidfhhggiabgiiiiiidfiijgiabgiiiiiidfggjhi",
"abgiiiiiidfijgghabgiiiiiidfhhggjabgiiiiiidfiijgjabgiiiiiidfggjhi",
"abgiiiiiidfijgghabgiiiiiidfhhggjabgiiiiiidfiijjjabgiiiiiidfggjhi",
"abgiiiiiidfijgghabgiiiiiidfhhggjabgiiiiiidfhhjjjabgiiiiiidfggjhi",
"abgiiiiiidfijgghabgiiiiiidfhhgggabgiiiiiidfhhjjjabgiiiiiidfggjhi",
"abgiiiiiidfijgghabgiiiiiidfhhgggabgiiiiiidfhhjjjabgiiiiiidfggjhi",
"abgiiiiiidfijgghabgiiiiiidfiigggabgiiiiiidfhhjjjabgiiiiiidfgjjii",
"abgiiiiiidfiigghabgiiiiiidfiihigabgiiiiiidfhhjjjabgiiiiiidfgjjii",
"abgiiiiiidfiigghabgiiiiiidfiihigabgiiiiiidfhhiiiabgiiiiiidfgjjji",
"abggggggghfiigghabggggggghfiihigabggggggghfhhiiiabggggggghfgjjji",
"abaaaaaaaakiigghabaaaaaaaakiihigabaaaaaaaakhhiiiabaaaaaaaakgjjji",
"kkkkkkkkkkkkkkkkkkkkkkkkkkkkkkkkkkkkkkkkkkkkkkkkkkkkkkkkkkkkkkkk",
"dddddddddddddddddddddddddddddddddddddddddddddddddddddddddddddddd",
"cccccccccccccccccccccccccccccccccccccccccccccccccccccccccccccccc",
"hhhhhcchchhhhhhhhhhhhhhhhhhhhhhhhhhhhhhhhhchhchhhhhhchhhhhhchhhh",
"hhiiicchciichhihhihihiiihicccchiiihhcciiiichhchhicchcciihihchhih",
"chiiicchciichhihhihihiiihihhhchiiihhcciiiiccccchicchcciihihhhhic",
"hciiichiciiciiiiiihihiiihihhhchiiihhcciiiiccccchicchhciihihchich",
"ihciichiciiciiiiiihiiiiihihhhchiiihhcciiiiccccchihcchciihihchchi",
"jihcichiciichiiiiihiihhhhihhhchiiihhcciiiihcccchihcchciicihcchij",
"gjihcchiciichiciiihiihhhiihhhchiiihhcciiiihcccchihcchciicihchijg",
"agjihchhhiichhciiihiihhhiihhcchiiihhcciiiihcccchihcchciicichijga",
"iagjihchhiichhciiihihhhhhihhcchiiichcciiiihcccchihcchciicchijgag",
"igagjihchiichccchihihhhhhiihcchiiichcciiiihcccchihchhciichijgagi",
"hhgagjihciichccchihihhhhhiihcchiiichcchiiihhhchhihchhcichijgaghi",
"hhjgagjihcichccchihiihhiiiihcchiiichcchiiihhhchhihchhcchijgagjhi",
"hhjhgagjihcchccchihiihhiiiihcchiiichcchiiihhhchhihchhchijgagijhi",
"hhjhjgagjihchccchihiichiiiihciiiiichcchiiihhhchhihchchijgaghijhi",
"hhjhjigagjihcccchiiiichiiiihciiihhchcchiiihhhchhiiichijgagihijhi",
"hhjhjijgagjihccchhiicchiiiihciiihhchcchiiihhcchhiichijgagjihijhi",
"hhjhjijigagjihcchhiicchiiiihciiihhchcchiiihhcchhichijgagijihhjhi",
"hhihjijihgagjihcccccccccccccccccccccccccccccccccchijgagjijihhjhi",
"hhihjijihjgagjihhhhhhhhhhhhhhhhhhhhhhhhhhhhhhhhhhijgagjjijihhjhi",
"hhihjijihjjgagjiiiiiiiiiiiiiiiiiiiiiiiiiiiiiiiiiijgagijjijihhjhi",
"hhihjijihjjigagjjjjjjjjjjjjjjjjjjjjjjjjjjjjjjjjjjgaghijjijihhjhi",
"hhihjijihijiigaggggggggggggggggggggggggggggggggggaghhijjiiihhjhi",
"hhihjijihijiihgaaaaaaaaaaaaaaaaaaaaaaaaaaaaaaaaaagghhijjiiihhjhi",
"hhihjijihijjjiiabcdddefabcdddefabcdddefabcdddefiggjhhijjiiihhjhi",
"hhihjjjjhijjjiiabghhhdfabghhhdfabghhhdfabghhhdfiggjhhiiiiiihhjhi",
"hhihjjjjhijjjiiabgiiidfabgiiidfabgiiidfabgiiidfiggjhhiiiiiihhjhi",
"hhihjjjjhijjjiiabgiiidfabgiiidfabgiiidfabgiiidfigijhhiiiiiihhjhi",
"hhihjjjjhijjjiiabgiiidfabgiiidfabgiiidfabgiiidfighihhiiiiiihhjii",
"hhihjjjjhijjjiiabgiiidfabgiiidfabgiiidfabgiiidfighihhiiiiiihhjii",
"hhihjjjjhhjjjiiabgggghfabgggghfabgggghfabgggghfighihhiiiihihhjii",
"hhihjjjjhhjjjiiabaaaaakabaaaaakabaaaaakabaaaaakighcciicichihhjii",
"dddddddddddddddddddddddddddddddddddddddddddddddddddddddddddddddd",
"kkkkkkkkkkkkkkkkkkkkkkkkkkkkkkkkkkkkkkkkkkkkkkkkkkkkkkkkkkkkkkkk",
"dddgefeddddgefeddddgefeddddgefeddddgefeddddgefeddddgefeddddgefed",
"dddgheeddddgheeddddgheeddddgheeddddgheeddddgheeddddgheeddddgheed",
"dddgggeddddgggeddddgggeddddgggeddddgggeddddgggeddddgggeddddggged",
"iiiiiiiiiiiiiiiiiiiiiiiiiiiiiiiiiiiiiiiiiiiiiiiiiiiiiiiiiiiiiiii",
"jjjjjjjjjjjjjjjjjjjjjjjjjjjjjjjjjjjjjjjjjjjjjjjjjjjjjjjjjjjjjjjj",
"gggggggggggggggggggggggggggggggggggggggggggggggggggggggggggggggg",
"ihhjjiiijhijiiiccjjggiggghiiijjjicjjhjjjjijjihigghhhiiiiihihhjji",
"ihhjjiiijhijiiiccjjgggggghiiijjjiccihijjjijjihiggghhiiiiihihhjji",
"iihjjiiijhijiiiccjjgggggghiiijjjiccihijjjijjihiggghhiiiiihiiijji",
"iihjjiiijhijiiiccjjgggggghiiijjjiccihijjjijjihiggghhiihhhhiiijji",
"iihjjiiijiijiiiccjjggggggiiiijjjicciiijjjijjihiggghhiihhhiiiijji",
"aaaaaaaaaaaaaaaaaaaaaaaaaaaaaaaaaaaaaaaaaaaaaaaaaaaaaaaaaaaaaaaa"
};