/* XPM */
static char *wall_r12_c08[] = {
"64 64 22 1",
"a	c #301C0C",
"b	c #201408",
"c	c #402810",
"d	c #5C340C",
"e	c #684018",
"f	c #040404",
"g	c #805424",
"h	c #0C0C0C",
"i	c #94602C",
"j	c #A8784C",
"k	c #A06C3C",
"l	c #B08458",
"m	c #C4A080",
"n	c #D0B094",
"o	c #E4C098",
"p	c #840404",
"q	c #980808",
"r	c #700404",
"s	c #C01010",
"t	c #884404",
"u	c #5C0000",
"v	c #643000",
"abcdeeeeeeeedcaaaaaaaaaaaaaaaadecccaaaaafffcaaaacccccccccccccccc",
"aacdegggggedddccccccccccccccahaeigedccccccdedcccdiigedddddededcc",
"aaadegiiiiiigeddddddcccccccaaaagijjkigeddegigeegegkkigeeeeegeccc",
"aaaaegiikkkkkkkigedddddcccccccaagkljkigeegikigieeeiljkggggigdcca",
"cccccgikjjjkkjjjkigeedddddddcccccgjmjkigikjkiieccdejmljiikieacaa",
"cccdddikjlljjllljkigedddddddddddddgmnlkikjkiiecccddglomjkigcaccc",
"cdddeddeegggggggggedddeeeeedddeeeeegmnmljjkieccddeeegoomigdccccc",
"ddeeeeedddegiigedddegggggeeeeddegggggmomjkigcccceeeeeoomkddccddd",
"eeeiiiiiiklmnmljkiiiiiiiggeeddddegiiiioomigdddddgggggoomiddcceee",
"ggikkkklllmnnmljkkkkkiiggeedddddddgiikoomkdddeeeiiiiioomgddedgge",
"iikjjljjjlmmmlljjjkkiiggeedddddddeegiioomiddeeegiiiikooledceeige",
"kkjjljiiijlmmlljjkkiiggeeddddeedddeeggoomgdddeeikkkkknoldddgekig",
"jjjljigggjjllljjkkiiggeedddegiigeddeeeooledddeekjjjjjnolddeggkkg",
"jlljigiiiijjljjkkiiggeeddegipikigeddeenolddddeekjjjllnnjddeggjki",
"llljigijjjklljkkiiggeedegpqpigikigedddnolddeddekkjjjlnnjddggijki",
"lmljigijjlljljkiiggeedegpqqirgiikkgeeennjddecdeikkkjjmnkddggkjjk",
"mmmljiijlljjljiiggedderpqlsqprgikkkkkjnnjddgcddiikkjjmnkdeggjljj",
"mnnmmjjkljjljigggederpsssssqqpgiiiiijkmnkddidcdgiikkjmmidggglljl",
"nnmmmlllllljiggeedegpssmljssqiggggggikmnkddkededgiikklmidiggjllj",
"nmmllljjjjjiggeedegpsssmjkqskigeeeeegimmiddjeegeggiiilmgdkigklji",
"mllljjjkkiiggeedegpsssmlkiksjkigeddeeglmiddlgeigeggiijlgdkigijji",
"lljjjkkkiiggeeddgpslssljiikqjkigeddddelmgdeligkigegggkledkkigjjk",
"ljkkkkiigggeeddepqslssskggikskiggeeeedjlgdgjkgjkigeegileeiiigkkk",
"jjkkiigggeeedderpqjslskpggipjqpiigggggkledikjgljkigeegjdggiiiiii",
"kkiigggeeeedddrrppkssqigegiqjkqtktiiiiiledgikklljkigegkdggiggggg",
"iigggeeeeddddduerpkkqpgeegpqjkkkkkttkkkjddgkkllllqjigetdeggeeeee",
"ggggeedddeeedduergpkirrdegpqjjjjjjjjkkkkdegkjtjqlmljivdddeeddddd",
"eeeeedeeegggedudrgpigredrrpkjjjjjjjkkkkidegitigljlmltedddddddddd",
"eedddegggiiigeudrgirerderpqjslsslqqpiiigdegvigijjimijeddddddeeee",
"eeeeegiiikkigeudrggreduerpqjssmmljkipggdegpgigikkiiljedeeeeegggg",
"gggegikkkjkigeduugerddrgpqsslmiiljkiitiegvegigiititjkedeggggiiii",
"iigegikjlljkigeuudeuderpqsssliiiijkkktkgtgegiiggpppkiedegiiiikkk",
"kigegikjlljkigedudduegipqsjlllliitjpppqqqpvgkkjliitigedegiikkjjj",
"kkigegikjmljkigeudduegpqjqkjjiiillliitppppvvkjiiitiigedegikjjjll",
"jkigegikjlljkiigrddrgippqiikttiiiiiiitrrrpvvkkjiljkigedegiikjllm",
"jkigegikjlmljkigrddrggrppgipqtiiiliitttttvvvikktljkigedeggikjjln",
"jkkigegikjmljkigrdureerrgiitppjjjqttqjtkiveggiktljkigedeggikjjln",
"jkkigegikjlmjkigruuerrriiktttkkkkqkjtjkkkvgegikjljkigedeggikjjln",
"ljkigeggijlljkigeduerrpikktiiiiiitkktkkkkvgegiikljkieedeggikjlln",
"ljkigeegikjljkigedueripiiivggggggviiiiiiktgegiikjkigedeegikjjlmn",
"mjkigeeggijljkigedurrirgggveeeeeevggggggitgeggikjkigedegiikjllmo",
"mjkigeeegikjjkigedurrrreeeuddddeeveeeeeegvggeggiiigeedegikjjlmno",
"mjkigeeegikjjkigedurerreddeeeeedduddddeeeveeeeggggeddegikjjllmno",
"mjkigegegiijjjkigeurreddeegggggeeeeeeedddudddeeeegedeegikjllmnno",
"mjkiggigegikjjkigeuredeegggiiiggggggggeeevdddddddeddegikkjlmnnno",
"mjkiggigegikjjkigeureegggiiikiiiiiiiiiiggveeeeeeddddegikkjlmnnoo",
"mjkigiigegiikjkigeuregiiikkkkkkkikkkkkiiiigggggeeedddggikjlmmnno",
"mjkiiikigeggikkigeueegikkkjjjjjkikjjjkkkkkiiiiiggeeddegikkjlmmno",
"mjkkiikkigeegiiigeueegikkjjllljkkkjljjjjkkkkiiiiigeedegikjlmnnoo",
"mjjjkkkjkiggeggigeueegikkjllmljjjjjlllllllllljkkiigedegikjllmnoo",
"mjkkjjjjjkiggeeggeueegikjjlmmllllllmmmlligiklljkkigeddggikjlmnno",
"mjkikkjjljkiiggeeeueegikjljigiikjjmnnmmkgijlmnljkigeedegikjlmnno",
"mjkiikkjlmjkkiiggeuegiikjligiikikkjmmnmkgijjmnmjjiggedegikjllmnn",
"mjkiiikjllmljkkigedegikjljgiikjjljjlmnmligikmmlljkigedegikjjllmn",
"ljkigikjjjjlljkigedegikjljgiikjllljjlmnmmnnnmllljkigedegikjjjllm",
"ljkigikkkkkjjjkigedegikjljgiikkjmmnjlmnnnnnnnmlljiggedegikkjjjll",
"ljkigiiiiiikkkkigedegikjljigiikjjljjlmnmmnnmnmljjigeddegiikkkjjj",
"jjkigggggggiiiiigedegikjlmjiggiijjjlmnllmmmmmmljjigeddeggiiikkkj",
"kkkigeeeeeeggggggedegikjlmllllllllllmljjllllllljjigeddeegggiiiik",
"iiiggdddddeeeeeeeddegikjlllljjjjjjjjjjjjjjjjjjjjkigeddddeeggggii",
"gggeedeeeedddddddeedegikjjjjkkkkkkkkkkkkkkkkkkkkigeddccdddeeeggg",
"eeeddeggggeeeeeeeegedegikkkkkiiiiiiiiiiiiiiiiiiigeddcccccddddeee",
"dddeegiiiiggggggggigedegiiiiigggggggggggggggggggeddccdddcccddddd",
"eeeggikkkkiiiiiiiikigedegggggeeeeeeeeeeeeeeeeeeeddccdeeeddccccdd"
};