/* XPM */
static char *wall_r15_c00[] = {
"64 64 22 1",
"a	c #A8784C",
"b	c #B08458",
"c	c #C4A080",
"d	c #A06C3C",
"e	c #94602C",
"f	c #805424",
"g	c #684018",
"h	c #5C340C",
"i	c #3C3C3C",
"j	c #000000",
"k	c #A0A0A0",
"l	c #BCBCBC",
"m	c #CCCCCC",
"n	c #7C7C7C",
"o	c #6C6C6C",
"p	c #5C5C5C",
"q	c #8C8C8C",
"r	c #4C4C4C",
"s	c #141414",
"t	c #2474C4",
"u	c #301C0C",
"v	c #2C2C2C",
"abcbaddefgfdacadddddddddddfghiiiiiihgfddddddddddddfgfdacaddffggh",
"abcbadeeghgeabaeeeeeeeeeeefghjjjjjjhgfeeeeeeeeeeeeghgeabaeeffggh",
"abcbadeeghgeabaeklmllkkkkknopjjjjjjpklmllkkkkqnoeeghgeabaeeffggh",
"abcbadeeghgeabaeoklqqqqqqqnopjjjjjjpoklqqqqqqnopgfghgeabaeeffggh",
"abcbadeeghgeabaeoqkqqqqqqqnopjjjjjjpoqkqqqqqqnopgfghgeabaeeffggh",
"abcbadeeghgeabaeoqkqqqqqqqnopjjjjjjpoqkqqqqqqnopgfghgeabaeeffggh",
"abcbadeeghgeabaeponnnnnnnnoprjjjjjjrponnnnnnnoprgfghgeabaeeffggh",
"abcbadeeghgeabaeefgggggggggghjjjjjjhgggggggggggggfghgeabaeeffggh",
"abcbadeeghgeabaeeeffffffffgghjjjjjjhgfffffffffffffghgeabaeeffggh",
"abcbadeeghgeabaeeeeeeeeeeefghjjjjjjhgfeeeeeeeeeeeeghgeabaeeffggh",
"abcbadeeghgeabaeklmllkkkkknopjjjjjjpklmllkkkkqnoeeghgeabaeeffggh",
"abcbadeeghgeabaeoklqqqqqqqnopjjjjjjpoklqqqqqqnopgfghgeabaeeffggh",
"abcbadeeghgeabaeoqkqqqqqqqnopsjjjjspoqkqqqqqqnopgfghgeabaeeffggh",
"abcbadeeghgeabaeoqkqqqqqqqnopjjjjjjpoqkqqqqqqnopgfghgeabaeeffggh",
"abcbadeeghgeabaeponnnnnnnnoprsjjjjsrponnnnnnnoprgfghgeabaeeffggh",
"abcbadeeghgeabaeefgggggggggghjsjjsjhgggggggggggggfghgeabaeeffggh",
"abcbadeeghgeabaeeeffffffffgghjjjjjjhgfffffffffffffghgeabaeeffggh",
"abcbadeeghgeabaeeeeeeeeeeefghjjjjjjhgfeeeeeeeeeeeeghgeabaeeffggh",
"abcbadeeghgeabaeklmllkkkkknopjjjjjjpklmllkkkkqnoeeghgeabaeeffggh",
"abcbadeeghgeabaeoklqqqqqqqnopjjjjjjpoklqqqqqqnopgfghgeabaeeffggh",
"abcbadeeghgeabaeoqkqqqqqqqnopjjjjjjpoqkqqqqqqnopgfghgeabaeeffggh",
"abcbadeeghgeabaeoqkqqqqqqqnopjjjjjjpoqkqqqqqqnopgfghgeabaeeffggh",
"abcbadeeghgeabaeponnnnnnnnoprjjjjjjrponnnnnnnoprgfghgeabaeeffggh",
"abcbadeeghgeabaeefgggggggggghjjjjjjhgggggggggggggfghgeabaeeffggh",
"abcbadeeghgeabaeeeffffffffgghjjjjjjhgfffffffffffffghgeabaeeffggh",
"abcbadeeghgeabaeeeeeeeeeeefghjjjjjjhgfeeeeeeeeeeeeghgeabaeeffggh",
"abcbadeeghgeabaeklmllkkkkknopjjjjjjpklmllkkkkqnoeeghgeabaeeffggh",
"abcbadeeghgeabaeoklqqqqqqqnopjjjjjjpoklqqqqqqnopgfghgeabaeeffggh",
"abcbadeeghgeabaeoqkqqqqqqqnopjjjjjjpoqkqqqqqqnopgfghgeabaeeffggh",
"abcbadeeghgeabaeoqkqqqqqqqnopjjjjjjpoqkqqqqqqnopgfghgeabaeeffggh",
"abcbadeeghgeabaeoqkooooooqnopjjjjjjpoqkoooooonopgfghgeabaeeffggh",
"abcbadeeghgeabaeoqkoppppkqnopjjjjjjpoqkoppppknopgfghgeabaeeffggh",
"abcbadeeghgeabaeoqkoptttkqnopjjjjjjpoqkoptttknopgfghgeabaeeffggh",
"abcbadeeghgeabaeoqkoptttkqnopjjjjjjpoqkoptttknopgfghgeabaeeffggh",
"abcbadeeghgeabaeoqkokkkkkqnopjjjjjjpoqkokkkkknopgfghgeabaeeffggh",
"abcbadeeghgeabaeoqkqqqqqqqnopjjjjjjpoqkqqqqqqnopgfghgeabaeeffggh",
"abcbadeeghgeabaeoqkqqqqqqqnopjjjjjjpoqkqqqqqqnopgfghgeabaeeffggh",
"abcbadeeghgeabaeoqkqqqqqqqnopjjjjjjpoqkqqqqqqnopgfghgeabaeeffggh",
"abcbadeeghgeabaeponnnnnnnnoprjjjjjjrponnnnnnnoprgfghgeabaeeffggh",
"abcbadeeghgeabaeefgggggggggghjjjjjjhgggggggggggggfghgeabaeeffggh",
"abcbadeeghgeabaeeeffffffffgghjjjjjjhgfffffffffffffghgeabaeeffggh",
"abcbadeeghgeabaeeeeeeeeeeefghjjjjjjhgfeeeeeeeeeeeeghgeabaeeffggh",
"abcbadeeghgeabaeklmllkkkkknopjjjjjjpklmllkkkkqnoeeghgeabaeeffggh",
"abcbadeeghgeabaeoklqqqqqqqnopjjjjjjpoklqqqqqqnopgfghgeabaeeffggh",
"abcbadeeghgeabaeoqkqqqqqqqnopsjjjjspoqkqqqqqqnopgfghgeabaeeffggh",
"abcbadeeghgeabaeoqkqqqqqqqnopjjjjjjpoqkqqqqqqnopgfghgeabaeeffggh",
"abcbadeeghgeabaeponnnnnnnnoprsjjjjsrponnnnnnnoprgfghgeabaeeffggh",
"abcbadeeghgeabaeefgggggggggghjsjjsjhgggggggggggggfghgeabaeeffggh",
"abcbadeeghgeabaeeeffffffffgghjjjjjjhgfffffffffffffghgeabaeeffggh",
"abcbadeeghgeabaeeeeeeeeeeefghjjjjjjhgfeeeeeeeeeeeeghgeabaeeffggh",
"abcbadeeghgeabaeklmllkkkkknopjjjjjjpklmllkkkkqnoeeghgeabaeeffggh",
"abcbadeeghgeabaeoklqqqqqqqnopjjjjjjpoklqqqqqqnopgfghgeabaeeffggh",
"abcbadeeghgeabaeoqkqqqqqqqnopsjjjjspoqkqqqqqqnopgfghgeabaeeffggh",
"abcbadeeghgeabaeoqkqqqqqqqnopjjjjjjpoqkqqqqqqnopgfghgeabaeeffggh",
"abcbadeeghgeabaeponnnnnnnnoprjjjjjjrponnnnnnnoprgfghgeabaeeffggh",
"abcbadeeghgeabaeefgggggggggghjjjjjjhgggggggggggggfghgeabaeeffggh",
"abcbadeeghgeabaeeeffffffffgghjjjjjjhgfffffffffffffghgeabaeeffggh",
"abcbadeeghgeabaeeeeeeeeeeefghjjjjjjhgfeeeeeeeeeeeeghgeabaeeffggh",
"abcbadeeghgeabaeklmllkkkkknopjjjjjjpklmllkkkkqnoeeghgeabaeeffggh",
"abcbadeeghgeabaeoklqqqqqqqnopjjjjjjpoklqqqqqqnopgfghgeabaeeffggh",
"abcbadeeghgeabaeoqkqqqqqqqnopjjjjjjpoqkqqqqqqnopgfghgeabaeeffggh",
"abcbadeeghgeabaeoqkqqqqqqqnopjjjjjjpoqkqqqqqqnopgfghgeabaeeffggh",
"abcbadeeghgeabaeponnnnnnnnoprjjjjjjrponnnnnnnoprgfghgeabaeeffggh",
"ggggggggujugfefggggggggggggghvvvvvvhggggggggggggggujugfefggggggg"
};