/* XPM */
static char *wall_r03_c06[] = {
"64 64 13 1",
"a	c #884404",
"b	c #C06410",
"c	c #CC8038",
"d	c #5C5C5C",
"e	c #3C1800",
"f	c #984C08",
"g	c #2C2C2C",
"h	c #643000",
"i	c #502400",
"j	c #4C4C4C",
"k	c #AC580C",
"l	c #3C3C3C",
"m	c #141414",
"abbbbbbbbbbbbbbbbbbbbbbbbbbbbcddabbbbbbbbbbbbbbbbbbbbbbbbbbbbcdd",
"eafffffffffffffffffffffffffffbdgeafffffffffffffffffffffffffffbdg",
"ehaaaaaaaaaaaaaaaaaaaaaaahiafbjgehaaaaahaaaaaaaaaaaaaaahafaafbdg",
"ehaaaaaaaaaaahaaaaaaaafafahafbjgehaaaaaaaaaafaaaaaafaaaaaaaafbjg",
"ehaaaafaahaafaaaaahaaaaakfaafbdgehaaaaaaaaaaaaaaaaaaaaaaaaaafbjg",
"ehaaaaaafaaaaaafaaaaaafaaaaafbjgehaahaaaaaaahafaaaaaaaaaaaaafbjg",
"ehahaaaaaaaaaaaaaaaafaaaaaaafbjgehaaaaaaaaafaaaaahaaaaahaaaafbjg",
"ehaaaaaaaafaahaaaaaaaaaaaaaafbjgehaaaafaaafaaaaaaaaaaafaaahafbjl",
"ehaaafaaaaaaaaaaahaaaaaaaaaafbjlehafaaaaaaaaaaaaaaaaaaaaaaaafbjg",
"ehaaaaaaaaaaaaaaaaahaaaaafaafbjgehaaaafaaaaaahiaaaaaaaaahaaafbjg",
"ehaaaaaaaahaafaaaafaaahaaaaafbjgehaaaaaaaaaafahaaaafaaaaaaaafbjg",
"ehaaaaaaaaaaaaaaaaaaaaaaaaaafbjgehaaaaaaaaaakfaaaaaaaaaaaaaafbdg",
"ehhhhhhhhhhhhhhhhhhhhhhhhhhhabjmehhhhhhhhhhhhhhhhhhhhhhhhhhhabjg",
"eeeeeeeeeeeeeeeeeeeeeeeeeeeeeajgeeeeeeeeeeeeeeeeeeeeeeeeeeeeeajg",
"gmgggggggggggglgggggmgggggmggdjgglgggglglgggggggggglgggglggggdjg",
"jjjljjjjdjjjljjjjjjjjjjdjjjjddjjjjjjjjjjjjjjjjdjjjjjjdjjjjjjddjj",
"bbbbbbbbbbbbbcddabbbbbbbbbbbbbbbbbbbbbbbbbbbbcddabbbbbbbbbbbbbbb",
"fffffffffffffbdgeafffffffffffffffffffffffffffbdgeaffffffffffffff",
"aahiaaaaaaaafbjgehaaaaaaaaaaahaaaaaaaahaaafafbjgehaaaaaaaaahaaaa",
"afahfaaaahaafbjgehaaaaafaaaafaaaaaaaaaaaaaaafbjmehaafaafaaaaaaah",
"akfaaaaaaaaafbjgehaaafaaahaaaaaaaaahiaaaaaaafbjlehaaaaaaafaaaafa",
"aaaaaafaaafafbjmehaaaaaaaaaaaahaaafahaafaaaafbjgehaaaaahaaafaaaa",
"ahaaaaaaaaaafbjgehahaaahaaafaaaaaakfaaaaaahafblgehaaafaaaaaaaaaa",
"aaaafaafhaaafbjgehaaaafaaaaaaaafaaaaaaaaaaaafbjgehaaaaaahaaaaaaa",
"aaaaaaaaaaaafblgehaaaaaaaahaaaaaaaahaaaahaaafblgehahaaafaaaaaaha",
"afaaaaaaaaaafbjgehahafaahaaaaaaaaaaaaaafaaaafbjgehaahaaahiaaaaaa",
"aaaahaaaafaafbjgehfaaaafaaafaaaaaaaaaaaaaaaafbjgehafaaafahaafaaa",
"aaaaaaaaaaaafbjgehaaaaaaaaaaaaaaaafaaaaaaaaafbjmehaaaaakfaaaaaaa",
"hhhhhhhhhhhhabjgehhhhhhhhhhhhhhhhhhhhhhhhhhhabjgehhhhhhhhhhhhhhh",
"eeeeeeeeeeeeeajgeeeeeeeeeeeeeeeeeeeeeeeeeeeeeajgeeeeeeeeeeeeeeee",
"gglggggmgggggdjggggggmgggggggggglggggggggggggdjgggggggggmgglgggg",
"ljjjjdjjjjjjddjjjljjjjjjdjjjjjjjjjjjljjdjjjjddjjjjljjjdjjjjjjjjj",
"abbbbbbbbbbbbbbbbbbbbbbbbbbbbcddabbbbbbbbbbbbbbbbbbbbbbbbbbbbcdd",
"eafffffffffffffffffffffffffffbdgeafffffffffffffffffffffffffffbdg",
"ehaaaafaaaaaaaaaaaaaaaaaaaahfbjgehaaaahaaaaahaaaaaaaaahaaaaafbjg",
"ehaaaaaaaaafaaahaaaaaaafaafafbjgehaaafaafaaaaaahaaahaaaaaafafbjg",
"ehafaaaaafaaaafaaaaafaaaaaaafbjgehafaaaaaaaaaafaahaaahaaaaaafbjg",
"ehaaaahaaaaaaaaaafaahaaaaaaafbjgehaaaaahafaahaaafaafaaahiahafbdg",
"ehaaaaaaaafaaaaaaaaaaaaaahaafbjgehaafaaaaaafaaaaaaaaaafahaaafbjg",
"ehaaaaaaaaaaaaaafaaaaahaaaaafbjgehaaaahaaaaaaaaaaaaaaakfaaaafbjg",
"ehaaahaaaaaahiahaaahafaaaaaafbjgehaaafaafaahfahaafahaaaaaaaffbjl",
"ehaafaaahiafahaaaaaaaaaaafaafbjgehaaaaaaahaaaaaaaaaaaaaaafaafbjg",
"ehaaaaafahakfaaafaafaaaaaaaafbjgehahaaaafaaahaafahafaahaaaaafbjg",
"ehaaaaakfaaaaaaaaaaaafaaaaaafbjgehaaaaaaaaafaaaaaaaaaaaaaaaafbjg",
"ehhhhhhhhhhhhhhhhhhhhhhhhhhhabjgehhhhhhhhhhhhhhhhhhhhhhhhhhhabjg",
"eeeeeeeeeeeeeeeeeeeeeeeeeeeeeajgeeeeeeeeeeeeeeeeeeeeeeeeeeeeeajg",
"ggggggmgggggggggggggggggmgmggdjggggggggmgggggggggmgggmgggggggdjg",
"jjljjjjjjjdjjjjjjljjjjjjjjjjddjjjjjjljjjjjjjjjjjjjjjjjjjjjjjddjj",
"bbbbbbbbbbbbbcddabbbbbbbbbbbbbbbbbbbbbbbbbbbbcjdabbbbbbbbbbbbbbb",
"fffffffffffffbdgeafffffffffffffffffffffffffffbdgeaffffffffffffff",
"aaaaaaaaahaafbjgehaaaafaaaaaaaaaaaaaaaaaaaaafbjgehaaahaaaaahaaaa",
"ahaaafaaaaaafbjgehafaaaaaaaahaaaaaaaaahahaaafbjmehaafaaaaaaaaafa",
"faaaaaaaaafafbjlehaaaaaaaaafaaafaaaaafaaaafafbjgehaaahafaaaaaaaa",
"aahaaaahaaaafblgehaaahaahaaaaaaaaafaaaaaaaaafbjlehfaaaaaaafaaaaa",
"aaaaaafaaaaafbjgehfaaaafaaaaahiaaaaaaahaaaaafbjgehaaaaaaaaaaaaha",
"afaaaaaaaaaffbjgehaaaaaaafaafahaaahaaaaaaaaafbjgehaaafaahiafafaa",
"aaahaafaaaaafbdgehaaaahaaaaakfaaaaaaaaaaahaafbjgehhaaaafahaaaaaa",
"aafaaaaaahaafbjgehhaafaaaaaaaaaaaahafaaafaaafbdgehaafaakfaahaaaa",
"aaaaaaaafaaafbjgehaaaaaahaaaaafaafaaaaaaaaaafbjgehaaaaaaaaaaafaa",
"aaaaaahaaaaafbjmehaaaaaaaafaaaaaaaaaaaaaaahafblgehaahaaaaaaaaaaa",
"hhhhhhhhhhhhabjgehhhhhhhhhhhhhhhhhhhhhhhhhhhabjgehhhhhhhhhhhhhhh",
"eeeeeeeeeeeeealgeeeeeeeeeeeeeeeeeeeeeeeeeeeeeajgeeeeeeeeeeeeeeee",
"gmgggglggmgggdjgggggggmggggglgggggggggggggmggdjggmggggggglgggggg",
"jjjljjjjjjjjddjjjjjdjdjjjjljjjjjjjdjjjjjjjjjddjjjjjjjljdjjjljjjj"
};