/* XPM */
static char *wall_r08_c05[] = {
"64 64 38 1",
"a	c #7C7C7C",
"b	c #6C6C6C",
"c	c #A0A0A0",
"d	c #989898",
"e	c #A8A8A8",
"f	c #B0B0B0",
"g	c #048C58",
"h	c #007448",
"i	c #04A468",
"j	c #04BC78",
"k	c #30C890",
"l	c #18C084",
"m	c #5C5C5C",
"n	c #7CE0BC",
"o	c #60D8AC",
"p	c #9CE4C8",
"q	c #848484",
"r	c #8C8C8C",
"s	c #B8ECD8",
"t	c #1C1C1C",
"u	c #343434",
"v	c #242424",
"w	c #444444",
"x	c #747474",
"y	c #545454",
"z	c #3C3C3C",
"A	c #2C2C2C",
"B	c #4C4C4C",
"C	c #646464",
"D	c #00003C",
"E	c #000064",
"F	c #002850",
"G	c #2474C4",
"H	c #6C90BC",
"I	c #0C0C0C",
"J	c #80A0C4",
"K	c #A8BCD8",
"L	c #BCBCBC",
"abbbbbbbbbbbbbbbbbbbbbbbbbbbbbbbbbbbbbbbbbbbbbbbbbbbbbbbbbbbbbba",
"cddceffffffecddceffecdddddddddddddddddddddddddcefeffffffefecdddc",
"ghhhhhhhhhhhhhhhhhhhhhhgiiiiiiiiiiiiiiiighhhhhhhhhhhhhhhhhhhhhhg",
"igggggggggggggggggggggijjjjjjjjjjjjjjjjjjigggggggggggggggggggggi",
"kjjjjjjjjjjjjjjjjjjjlkammmmmmmmmmmmmmmmmmakljjjjjjjjjjjjjjjjjjjk",
"noooooooooooooooooonpamaaaaaqrddcdrqaaaaamapnoooooooooooooooooon",
"pnnpsssppnnnnnnppssnamattttfcctfftccfttttamapsspnnnnnnnnnpssspnp",
"nooooooooooooooooonpmauuuuuqbvfqqcvbquuuuuampnooooooooooooooooon",
"kjjjjjjjjjjjjjjjjjlkmawwwwwbvcqxxqfvbwwwwwamkljjjjjjjjjjjjjjjjjk",
"igggggggggggggggggijmayyyyyvcqxbbxqcvyyyyyamjigggggggggggggggggi",
"ghhhhhhhhhhhhhhhhhgimazzzzzvqxbbbbxqvzzzzzamighhhhhhhhhhhhhhhhhg",
"cdddddcefffecdddddddmaAAAAAcAaxbbxavfAAAAAamdddddddceffecddddddc",
"abbbbbbbbbbbbbbbbbbbmatttttqctaxxatcqtttttambbbbbbbbbbbbbbbbbbba",
"zzzzzzzzzzzzzzzzzzzzmauuuuuvqfvaavfqvuuuuuamzzzzzzzzzzzzzzzzzzzz",
"zwwwwwwwwwwwwwwwwwwwmawwwwwvqqfvvcqqvwwwwwamwwwwwwwwwwwwwwwwwwwz",
"zBBBBBByBBymCbbbCmyBmaBBBBBBvqrccrqvBBBBBBamBBBBBymyBmyBBBByBBBz",
"zBBaCrcBBymCbbbaCrcBmauuuuuuvqrddrqvuuuuuuamBcrCamyBmyBBBcrCaBBz",
"zBumxcrBymCbbbumxcrymaAAAAAAAvrddrvAAAAAAAamBrcxmuBmyBBBBrcxmuyz",
"zBuwbxCymCbbbCuwbxCmmattttttttrddrttttttttamBCbxwumyBBBByCbxwumz",
"zBuBwmCmCbbbCmuBwmCymauuuuuuuuvddvuuuuuuuuamBCmwBuyBBBByBCmwBuCz",
"zBuuuuuCbbbCmyuuuuuBmawwwwwwwwwvvwwwwwwwwwamyuuuuuBBBByBBuuuuumz",
"zyBBymCbbbCmyBBymyadddceffecddddddddceffecdddawmyBBBByBBBBymCmyz",
"zBBymCbbbCmyBBymyBqDDDDDDDDDDDDDDDDDDDDDDDDDDqwyBBBByBBBBymCmyBz",
"zBymCbbbCmyBBymyBBqDEEEEEEEEEEEEEEEEEEEEEEEEDqwBBBdddderemCmyByz",
"zymCbbbCmyBBymyBBBqDEEEEEEEEEEEEEEEEEEEEEEEEDqwBBBdFFFFFdCmyBymz",
"zmCbbbCmyBBymyBBBmqDEEEEEEEEEEEEEEEEEEEEEEEEDqwBBydFFFFFdmyBymCz",
"zCbbbCmyBBymyBBBmydqqqqrddrqqqqqqqqqqrddrqqqqdwByBdFGFGFdyBymCbz",
"zbbbCmyBBymyBBBmyyAAAAAAAAAAAAAAAAAAAAAAAAAAAAwyBBdFFFFFdBymCbCz",
"zbbaCrcBymyBBBmyyrrrrrrrrrrrrrrrrrrrrrrrrrrrdceBBBdFGFGFdcrCaCmz",
"zbumxcrymyBBBmyyBrHHHHHHHHHHHHHHHHHHHHHHHHHHHHcBBBdFFFFFdrcxmuyz",
"zCuwbxCmyBBBmyyBBrHIIIIIIIHIIIIIIIIIIIIIIIIIIHdBBBdFGFGFdCbxwuBz",
"zmuBwmCyBBBmyyBBBrJIIIIIIIJIIIIIIIIIIIIIIIIIIJrBBmdFFFFFdCmwBuBz",
"zyuuuuuBBBmyyBBBBrKIIIIIIIKIIIIIIIIIIIIIIIIIIKrBmCdFGFGFduuuuuyz",
"zBBymyBBBmyyBBBBBrKIIIIIIIKIIIIIIIIIIIIIIIIIIKrmCmdFFFFFdmyBBymz",
"zBymyBBBmyyBBBBBBrJIIIIIIIJIIIIIIIIIIIIIIIIIIJrCmydFGFGFdyBBymBz",
"zymyBBBmyyBBBBBBBrHIIIIIIIHIIIIIIIIIIIIIIIIIIHrmyBdFFFFFdBBymByz",
"zmyBBBmyyBBBBBBByrHHHHHHHHHHHHHHHHHHHHHHHHHHHHryByddeedddBymByBz",
"zyBBBmyyBBBBBBByBrrrrrrrrrrrrrrrrrrrrrrrrrrrrrrBymzzzzzzzymByBBz",
"zBBBmyyBBBBBBByBymCbmawrwrwrwrwrwrwrwrwrwrammyBymCbCmyBBymByBBBz",
"zBBmyyBBBBBBByBymCbCmamemememememememememeamyBymCbCmyBBymByBBByz",
"zBmaCrcBBBBByByaCrcmmamemememememememememeamBcrCaCmyBBymBcrCaymz",
"zmumxcrBBBByByumxcrymamemememememememememeamyrcxmuyBBymByrcxmuyz",
"zyuwbxCBBByBymuwbxCBmattttttttttttttttttttammCbxwuBBymByBCbxwuBz",
"zyuBwmCBByBymCuBwmCymauuuuuuuuuuuuuuuuuuuuamCCmwBuBymByBBCmwBuyz",
"zBuuuuuByBymCbuuuuuBmawwwwwwwwwwwwwwwwwwwwambuuuuuymByBBBuuuuumz",
"zBBBBBByBymCbCmyByBymaBBBBBBBBBBBBBBBBBBBBamCmyBBymByBBBymyBymCz",
"zBBBBByBymCbCmyByBymmauuuuuuuuuuuuuuuuuuuuammyBBymByBBBymyBymCbz",
"zBBBByBymCbCmyByBymymaAAAAAAAAAAAAAAAAAAAAamyBBymByBBBymyBymCbCz",
"zBBByBymCbCmyByBymyBmattttttttttttttttttttamBBymByBBBymyBymCbCmz",
"zBByBymCbCmyByBymyBBmauuuuuuuuuuuuuuuuuuuuamBymByBBBymyBymCbCmyz",
"zByBymCbCmyByBymyBBBmawwwwwwwwwwwwwwwwwwwwamymByBBBymyBymCbCmyBz",
"zyBymCbCmyByBymyBBBBmaBBBBBBBBBBBBBBBBBBBBammByBBBymyBymCbCmyBBz",
"zByaCrcmyByBymyaCrcBmauuuuuuuuuuuuuuuuuuuuamBcrCaymyBymCbcrCaByz",
"zyumxcryByBymyumxcrBmaAAAAAAAAAAAAAAAAAAAAamyrcxmuyBymCbCrcxmuBz",
"zmuwbxCByBymyBuwbxCBmattttttttttttttttttttamBCbxwuBymCbCmCbxwuBz",
"zCuBwmCyBymyBBuBwmCBmauuuuuuuuuuuuuuuuuuuuamBCmwBuymCbCmyCmwBuBz",
"zbuuuuuBymyBBBuuuuuBmaywwwwwwwwwwwwwwwwwwyamBuuuuumCbCmyBuuuuuBz",
"zCmyByBymyBBBBBBBBBBwmayBBBBBBBBBBBBBBBByamwymyBymCbCmyBByBBBBBz",
"zmyByBymyBBBBBBBBBBBBwmaaqrdcefLLfecdrqaamwBmyBymCbCmyBByBBBBBBz",
"AdmAdmAdmAdmAdmAdmAdmAwmmmmmmmmmmmmmmmmmmwAdmAdmAdmAdmAdmAdmAdmA",
"AamAamAamAamAamAamAamtzyvzyvzyvzyvzyvzyvzytamtamAamAamAamAamAamA",
"AqmAqmAqmAqmAqmAqmAqmAymAymAymAymAymAymAymAqmAqmAqmAqmAqmAqmAqmA",
"AamAamAamAamAamAamAamAamAamAamAamAamAamAamAamAamAamAamAamAamAamA",
"AamAamAamAamAamAamAamAamAamAamAamAamAamAamAamAamAamAamAamAamAamA"
};