/* XPM */
static char *wall_r13_c01[] = {
"64 64 11 1",
"a	c #301C0C",
"b	c #201408",
"c	c #402810",
"d	c #5C340C",
"e	c #684018",
"f	c #805424",
"g	c #94602C",
"h	c #A06C3C",
"i	c #A8784C",
"j	c #B08458",
"k	c #C4A080",
"aaaaaaaaabaaaaaaaaaaaaaaaaaaaacdcccaaaaabbbcaaaacccccccccccccccc",
"aaaaaaaaaccdeeeedcaaaaaaaaccaaadeedccccccccdccccceeedcccccdcdccc",
"aaaaaaaaccdeefgfedcccccccccaaaaeefffeedccdeeeddedeffeedddddedccc",
"aaaaaaaccdeefghgfedcccccccccccccefhffeeddeefeeedddehffeeeeeeccca",
"ccccccccdeefghhgfedccccccccccccccefiffeeefffeedcccdfihfeefedccaa",
"cccccccdeefghhhgfeddcccccccccccccceiihfefffeedcccccehjiffeecaccc",
"dddddddeefghhihgfeedddddddcccccddddeiiihfffedccdcccdejjieecccccc",
"dddeeeeefghhiihgffeeeeeeeddcccccddeeeijiffeeccdcccdddjjifccccccc",
"ddeeeeegghhijihgfffeeeeeddccaaaacddeeegggeeccdeddeeeejjieccccccc",
"deefffghhhijiihggffffeeddccaaaaaacddeeefffccdefffffffjjieccdcccc",
"eeffgghhiijiihhgggffeeddccaaccccaacddeeeeeeddggggggggjjhdccdcccc",
"effghhhiijiihhgggffeeddccaccccccccacdddeeeffgghhhhhhhijhcccedddd",
"efghhhiijjihhgggffeeddccaccddccdcccacdddeeeffgghhhiiiijhccdedddd",
"fghhhiijjiihggfffeeddccaccddddddddccacdddeeeffggghhhiiifccdedddd",
"ghhiiijjiihggffeeeddccaccddeeddeeedccaccdddeefffggghhiifcceedddd",
"hhiijjjiihggffeeeddccaccddeeedeeeeedccaaccddeeefffgghiifccefddeg",
"iiijjiiihggffeeeddcaaccddeffeeeeeeeeddccaacdddeeeffggiifcdefeefh",
"ijjiiihhggffeeeddcacccddefffeeeffffeeddcccaccddeeeffgiieceeffffh",
"iiiihhhggffeeddccaccdddeffgfeeffgffffedddccaacddeeeffhiecffghffi",
"iihhhgggffeeddccaccddeeffggffffgffeeeeeeddcccacddeeeehiecfghhffi",
"hhhgggfffeeddccaccddeeffgggggggffeeeeeeeedddccacdddeefhecfgggffi",
"ggggffffeeddccaccddeeffgggggggffeeddeeffeeeddccaccddefhdcfffgffh",
"fffffeeeeddccaacddeeffgghhhhgffeeddeeeeeffeeddccaacddehddefffgfg",
"eeeeeeedddccaaacdeeffgghhhhgffeeddeeeeeeeefeeddcccacddfceeefffff",
"eeeeedddcccaaaacdeffgghhihgffeeddeeeeefffeefeedddccaccfcdeeeeeee",
"dddddccccaaaaaacdeffghhihgffeeddeeefffgggfeefeeeddccaaecdddddddd",
"ccccccaaacccaaacdeffghiihgfeeddeeeffgggfffedeffeeddcccaccccccccc",
"cccaaacccccccaacdeffghhihgfeeddeeffgggffeeddeffeeeddcccaaaaaaaaa",
"ddccccccddddccacdeffgghihgfeeddeeffggffeeeeefffeeeedccaacccccccc",
"eedddddddeedccacdeeffghihgfeeddeeffggfefffeeeefeeddccacacddddddd",
"eeeeeeeeeeeddcacddeffgghhgfeeddeeffggfefgffffeeeddccacacddeeeeee",
"ffffffffffeedccacdeeffgggggfeeddeeffgfeefggggfeeddcaccacdeeeeffe",
"gggggggggffeddcacddeffffgggfeeddeeeeffedeeffggfeedccdcacdeefffff",
"hhhhhhhhggfeedccacdeeffffffgfeeddeeeeedeeeeffggfeddddcacdeffffgf",
"iiiiiiihhgffeddcacddeeeeeeffffeeddddddeeffeeefgfeededcacdeffgghg",
"ihhhhhiihggfeedccacdddddeeeefffeeeeeeeeffeddeefgfeeedcacdeffgghi",
"ihggghhihhgffeddccaccccdddeeeeffeeeeeeffeddddefgfffedcacdeffgghi",
"ihgggghiihggfeeddccaaacccdddeeeeffffffeeddccdeefgffedcacdefggghi",
"iihgfghhihhgffeeddccccaccccdddeeeeeeeeeddcccddefgfeedcacdefgghhi",
"jiihgfghiihggffeedddcccaaccccdddddddddddccacddefgfedcacddefgghii",
"jiihgfghhihhggffeeeddddccacccccccccccccccacddeeffeedcacdeefgghii",
"jiihgfgghiihhggfeeeedddcccaaaaacccccccccacddeeeeeedcacddeffghhii",
"jiihgffghhiihgffeedddcccaacccccaaaaaaacacccddddddddaacdeeffghiji",
"jiihgfegghhihgfeeddcccaaccdddddcacccccaaaacccccccdcacddeffghhiji",
"jiihgfefgghihgfeddccaaccddeeeeedcdddddccccaaaaaaaccacdeeffghijji",
"jiihgfeefghihgfedccaccddeeeefeedddeeeeddddccccccaaaacddefgghijjj",
"jiihgfeefghihgfedcacddeeeffffffeeeffeeeeeeddddddccccacdefgghijjj",
"jiihgfefgghihgfedcacddefffffffffefffffffeeeeeeeeddccacdeffghijjj",
"jiihgfefghhihgfedcacddeffffggggfffggffffffffeeeeeddcacdeefghijji",
"jiihggffghiihgfedcacddeffggghhggfggggggggggfffffeedcacddefgghiji",
"jjiihgggghihhgfedcacddeffghhihggggghhhhhhhhgggfffedcaacdefgghiih",
"jjjihhgghhihggfedcacddeffghiihhhhhhhiiiiiihhhhgffeedcacdefgghiih",
"iiiihhhhhiihgffedcacddefgghiiiiiiiiiiijjjiiiihgffeedcacdeffghhih",
"iiiiiiiiiihhgffedcacddefgghhijjjjjjijjjjjjjjihggffedcacdeffgghhh",
"iiiiihhhhhhggffedcacddeffgghijjjkkjjjkkkkkjiihggffedcacdeffggghh",
"hhhhhhggggggfffedcacddeffgghiijjjjjjjjjjjjjiihggfeedcacdefffgggh",
"gggggggfffffffeedcacddeefgghhiiiiiiiiiiiiiiihhgffeedcacdeeffffgg",
"ffffffffffffeeeddcacddeefggghhhhhhhhhhhhhhhhhggffeedcacddeeeffff",
"ffffffeeeeeeeeddccacddeefggggggggggggggggggggggffeedcaacdddeeeef",
"eeeeeeeeeeeedddcccacddeeefffffffffffffffffffffffeedccacaccddddee",
"eeeeeddddddddcccccdacddeeeeeeeeeeeeeeeeeeeeeeeeeeddcacccaacccddd",
"ddddddcccccccccccdedacddddddddddddddddddddddddddddcaccccccaaaccc",
"cccccccccccccccddeeedacddddddddddddddddddddddddddccacccccccccccc",
"ccccccccccccccdeeefeedacccccccccccccccccccccccccccaccdccccccdddd"
};