/* XPM */
static char *wall_r06_c01[] = {
"64 64 23 1",
"a	c #94B0D0",
"b	c #80A0C4",
"c	c #6C90BC",
"d	c #4C78A8",
"e	c #0C1C30",
"f	c #3C6CA0",
"g	c #2C5480",
"h	c #142840",
"i	c #244870",
"j	c #204060",
"k	c #183450",
"l	c #346090",
"m	c #4C4C4C",
"n	c #5C5C5C",
"o	c #3C3C3C",
"p	c #343434",
"q	c #6C6C6C",
"r	c #7C7C7C",
"s	c #5884B0",
"t	c #0C0C0C",
"u	c #A8BCD8",
"v	c #081420",
"w	c #28CC28",
"aabcccccccccccccccccccccccccccdeedcccccccccccccccccccccccccccccf",
"addddddddddddddddddddddfgfheidjeekddfgfhegddddddddddddddddddddfj",
"bdkkkkkkkkkkkfdghhekklkfgfheigjeekgifgfheeifihedgihekklkhgikkfgj",
"cdkgiklkheiiifdghhehflkeeeeefgjeekgieeeeeeffihedgihekilkhgikifgj",
"cdkgikdgieiiifgiihhhflkeeeeefgjeekgieeeeeeifihdgiijheklkhgikifgj",
"cdkgggdgihgggfdghhehflkmnmopfgjeekgipomnmhefihdgiijheklkhgikifgj",
"cdkiiilkhhiiifgiihehflkqrnmofgjeekgiomnrqeifihedgihekklkhgikifgj",
"cdkkkklkhhkkkfgiihehflkqrnmofgjeekgiomnrqeifihdgiijheklkhgikifgj",
"cdkeeedgieeeefdghhehflkqrnmofgjeekgiomnrqeffihdgiijheklkhgikifgj",
"cdkkkkdgiehlhfgiihehfddqrnmofgjeekgiomnrqddfihedgihekklkhgikifgj",
"cdkgiklkhehlifgiiheldsssrnmgffjeekffgmnrsssdlhedgihekilkhgikifgj",
"cdkgiklkhehlifdghheddsssssssfgjeekgfsssssssddhedgihekilkhgikhfgj",
"cdkgiklkhehlifgiihhllffddddfgkjeekigfddddffllhedgihekidgiiihefgj",
"cdkgiklkhehlifdghhegllfffddfkkjeekikfddfffllghedgihekidgiiihefgj",
"cdkgiklkhehlifdghheglllffdddkkjeekikdddfflllghedgihekilkhgikhfgj",
"cdkgiklkhehlifgiiheeehhhhhhhhkjeekihhhhhheeeehedgihekilkhgikifgj",
"cdkgiklkhehlifdghhethhhheeieiijeekgiiiihhehhjhedgihekilkhgikifgj",
"cdkllllkhjlllfgiihhhflkheklifgjeekgidgiiheifihdgiijheklkhgikifgj",
"cdkkkklkhkkkkfdghhehflkheklifgjeekgidgiiheifihdgiijheklkhgikifgj",
"cdkhhhlkhhhhhfdghhehflkheklifgjeekgiiiiijeifihedgihekklkhgikifgj",
"cdkgiklkheeeefdghhefgiijhekifgjeekgiddghheifihedgihekilkhgikifgj",
"cdkgiklkhehhhfdghhefgiijhekifgjeekgidgiihefiijedgihegggggggggggj",
"cdkgiklkhehiifdghhehflkheekifgjeekgiddghhefiijedgiheiiiiiiiiiigj",
"cdkgiklkhehiifdghhehflkhekkifgjeekgiddghheifihedgihekkkkkkkkkkgj",
"cdkgiklkhehifgiijheeflkheklifgjeekgidgijhefiijedgiheeeeeeeeeeegj",
"cdkgiklkhehifgiijheeflkheklifgjeekgidgijhefiijedgihekhfkhgikhfgj",
"cdkgiklkhehifgiijheeflkheklifgjeekgidgijheifihedflgekifkhgikifgj",
"cdkgiklkhehifgiijheeflkheklifgjeekgidgijhefiijedgihekifkhgikifgj",
"cdkgiklkhehifgiijheeflkheklifgjeekgidgijheifihedgihekifkhgikifgj",
"cdcccccccccbauabcccccccccccccgjeefdccccccccbauabcccccccccccccfgj",
"cdddddddddddscbcsddddscsdddddgjeejgddscsddddscbcsddddddddddddfgj",
"cdffffffffffdscbcsdffdscsdfffgjeejgffdscsdffdscbcsdfffffffffffgj",
"cdfffffffffffdscbcsdffdscsdffgjeejgfffdscsdffdscbcsdffffffffffgj",
"cdffffffffffffdscbcsdffdscsdfgjeejgffffdscsdffdscbcsdfffffffffgj",
"cdfffffffffffffdscbcsdffdscsdgjeejgfffffdscsdffdscbcsdffffffffgj",
"cdiiiiiiiiiiiiiiiiiiiiiiiiiiigjeejiiiiiiiiiiiiiiiiiiiiiiiiiiifgj",
"cdhhhhhhhhhhhhhhhhhhhhhhhhhhhhheehhhhhhhhhhhhhhhhhhhhhhhhhhhhfgj",
"cdkkkkkkkkkkkkkkkkkkkkkkkkkkkkkeekkkkkkkkkkkkkkkkkkkkkkkkkkkkfgj",
"cdiiiiiiiiiiiijevvvvvewwwwwwoijeejiowwwwwwvvvvvvegiiiiiiiiiiifgj",
"cdiiiiiiiiiiiijonnnnnewwwwwwnijeejinwwwwwwennnnnogiiiiiiiiiiifgj",
"cdcccccccccccccccccccccccccccgjeefdccccccccccccccccccccccccccfgj",
"cdddddddddddddddddddddscccsddgjeejgdddddddddddddscsddddscccsdfgj",
"cdffffffffffffffffffffdscccsdgjeejgfffffffffffffdscsdffdscccsfgj",
"cdiiiiiiiiiiiiiiiiiiiiiiiiiiigjeejiiiiiiiiiiiiiiiiiiiiiiiiiiifgj",
"cdhhhhhhhhhhhhhhhhhhhhhhhhhhhhheehhhhhhhhhhhhhhhhhhhhhhhhhhhhfgj",
"cdkllkhkklkhekkfikkkkkkkkkkkfgjeejgfgiijhelkhfkdliihekkhgikekfgj",
"cdkllkhiilkhefffikggggggggggfgjeejgfgiijhelkhfldliiheiihgikeifgj",
"cdkllkhiilkheiifikiiiiiiiiiifgjeejgefgiheklkhflddlhheihgiieeifgj",
"cdkllkhiilkhekkfikkkkkkkkkkkfgjeejgfglkhhelkhfldlijheihgiiehifgj",
"cdklkhhfgiijheefikeeefgihehefgjeejgfflkhfilkhfldlijheihfihehifgj",
"cdklkhifgiijheifikiiifgihekifgjeejgfflkhfilkhfldlijheihgiiehifgj",
"cdklkhiefgiheklfiklllfgiheklfgjeejgfflkhfilkhfldlijheihgiiehifgj",
"cdklkhifgiijhekfikkkkfgihekkfgjeejgfgiijhelkhfliiiiieihlkhlllfgj",
"cdklkhifgiijhehfikhhhfgihekhfgjeejgfgiijhelkhflddlhheihlkhffffgj",
"cdklkhiefgihekifiklkhfgihekifgjeejgefgiheklkhfldliiheihlkhllllgj",
"cdklkhifgiijheifiklkhfgihekifgjeejgfgiijhelkhflddlhheihlkhkkkkgj",
"cdkiiiifgiijheifiklkhfgihekifgjeejgffffffflkhflddlhheihlkhhhhhgj",
"cdklkhiefgihekifiklkhfgihekifgjeejgggggggggggggdliiheihlkhehhfgj",
"cdklkhifgiijheifiklkhfgihekifgjeejgiiiiiiiiiiiidliiheihlkheiifgj",
"cdklkhifgiijheifiklkhfgihekifgjeejgkkkkkkkkkkkkfiiiieihlkheiifgj",
"cdklkhiefgihekifiklkhfgihekifgjeejgeeeeeeeeeeeeliiiieihlkheiifgj",
"cdfffffffffffffffffffffffffffgjeejgfffffffffffffffffffffffffffgj",
"cfggggggggggggggggggggggggggggjeejgggggggggggggggggggggggggggggj",
"fjjjjjjjjjjjjjjjjjjjjjjjjjjjjjjeejjjjjjjjjjjjjjjjjjjjjjjjjjjjjjj"
};