/* XPM */
static char *wall_r09_c01[] = {
"64 64 20 1",
"a	c #00A4A4",
"b	c #5CD8D8",
"c	c #78E0E0",
"d	c #005C5C",
"e	c #40D0D0",
"f	c #98E4E4",
"g	c #007474",
"h	c #008C8C",
"i	c #00BCBC",
"j	c #002C2C",
"k	c #004444",
"l	c #28C8C8",
"m	c #747804",
"n	c #840404",
"o	c #10C0C0",
"p	c #94980C",
"q	c #AC0C0C",
"r	c #A4A814",
"s	c #C42424",
"t	c #0C0C0C",
"abbbbbbbbbbbbbbbbbbbbbbbbbbbbbbbbbbbbbbbbbbbbbbbbbbbbbbbbbbbbbbc",
"daeeeeeeeeeeeeeeeeeeebecbccfffffffffffccbbbebeeeeeeeeeeeeeeeeecb",
"dghhhhhhhhhhhhhahaiahahhhhhhhhhhhhhhhhhhhhhhhhhhhhhhhhhhhhhhhheb",
"dghhhhhhhhhhhhahaiahahhhhhhhhhhhhhhhhhhhhhhhhhhhhhhhhhhhhhhhhheb",
"dghhhhhhhhhhhahaiahahhhhhhhhhhhhhhhhhhhhhhhhhhhhhhhhhhhhhhhhhheb",
"dghhhhhhhhhhahaiahahhhhhhhhhhhhhhhhhhhhhhhhhhhhhhhhhhhhhhhhhhheb",
"dghhhhhhhhhahaiahahhhhhhhhhhhhhhhhhhhhhhhhhhhhhhhhhhhhhhhhhhhheb",
"dghhhhhiggggggggggggggggggggggggggggggggggggggggggggggggghhhhheb",
"dghhhhhbaggggggggggggggggdjgkkkkkkklggggggggggggggggggggghhhhheb",
"dghhhhhblmmmnnnnnmmmmmnnnnjgdghhiolbnnmmmmmnnnnnmmmmmnngghhhhheb",
"dghhhhhblppqqqqqpppppqqqqnjgkkkkkkklqpppppqqqqqpppppqqngghhhhheb",
"dghhhhhblrsssssprrrpssssqmjgdghhiolbprrrpsssssprrrpssqngghhhhheb",
"dghhhhhblsssssprrrpsssqnmmjgdghhiolbrrrpsssssprrrpsssqngghhhhheb",
"dghhhhhblssssprrrpssssqmjgdghooooooobbpsssssprrrpssssqmgghhhhheb",
"dghhhhhblsssprrrpssssspmjgdghhhhhhhilbsssssprrrpssssspmgghhhhheb",
"dghhhhhblssprrrpsssssprmjgdggggggggglbssssprrrpsssssrpmgghhhhheb",
"dghhhhhblbbbbbbbbbbbbbbdjjjgddddddddlbbbbbbbbbbbbbbbbbbgghhhhheb",
"dghhhhhbliiiiiiiiiiiiiidddjgdgggggiliiiiiiiiiiiiiiiiiiigghhhhheb",
"dghhhhhblhdlbhdlbhdlbhdbjgdghhhhhhhilbdbbhdbbhdbbhdbbhhgghhhhheb",
"dghhhhhblhdlbhdlbhdlbhdljjjgdddddddlhhdlbhdlbhdlbhdlbhhgghhhhheb",
"dglllllblhdlbhdlbhdlbhdleddgdghhiolbhhdlbhdlbhdlbhdlbhhggllllleb",
"dgbbbbbblhdlbhdlbhdlbhdlbhdlbbbbbbbblidlbhdlbhdlbhdlbhhggbbbbbeb",
"dgllllbblhdlbhdlbhdlbhdlbilbliiiiiilbldlbhdlbhdlbhdlbhhggllllbeb",
"dgdddddblbbbbbbbbbbbbbbbbblliailliailbbbbbbbbbbbbbbbbbbggdddddec",
"dhbbbbbbllllllllllllllllllliahlttlhailbllllllllllllllllggbbbbbeb",
"dgllllbblhhhhhhhhhhhhhilbliahhlttlhhailblihhhhhhhhhhhhhggllllbec",
"dhdddddblhhhhhhhhhhhhilbliahhhlttlhhhailblihhhhhhhhhhhhhgdddddec",
"dabbbbbblhhhhhhhhhhhilbliahhhhlttlhhhhailblihhhhhhhhhhhagbbbbbef",
"dillllbblhhhhhbcfhhilbliahhhhilttlihhhhailblihhbcfhhhhhigllllbef",
"doghhhlblhhhhhlhchilbliahhhhhlttttlhhhhhailblihlhchhhhhogghhhlef",
"doghhhlblbbbbblhblbbliahhhilllttttlllihhhailbbllhbbbbbbogghhhlef",
"doghhhlblllllllhbdibiilllllttttttttttllllliibidlhblllllogghhhlef",
"doghhhlblhhhhhlhbdibilttttttttttttttttttttlibidlhbhhhhhogghhhlef",
"doghhhlblggggglhbdibiibbbbbttttttttttbbbbbiibidlhbgggggogghhhlef",
"doghhhlbldddddlhbddbghhhhhlbbbttttbbblhhhhhgbddlhbdddddogghhhlef",
"doghhhlbljjjjjllbjjjdghhhhhhhlttttlhhhhhhhgdjjjllbjjjjjogghhhlef",
"digggglblddddjdddjdjgdghhhhhhhbttbhhhhhhhgdgjdjdddjddddiggggglef",
"dajjjjjblhhhdjjjjjddjgdghhhhhhlttlhhhhhhgdgjddjjjjjdhhhagjjjjjef",
"dhdddddblhhhddddddhhdjgdghhhhhlttlhhhhhgdgjdhhddddddhhhhgdddddec",
"dgbbbbbblhhhhhhhhhhhhdjgdghhhhlttlhhhhgdgjdhhhhhhhhhhhhggbbbbbec",
"dhllllbblhhhhhhhhhhhhhdjgdghhhlttlhhhgdgjdhhhhhhhhhhhhhggllllbeb",
"dgdddddbldddddddddddddddjddghhibbihhgddjdddddddddddddddggdddddec",
"dgbbbbbbljjjjjjjjjjjjjjjjjjdghhhhhhgdjjjjjjjjjjjjjjjjjjggbbbbbeb",
"dgllllbbldddddddddddddddddjjdddddddddddddddddddddddddddggllllbeb",
"dgdddddblhhhhhhhhhhhhhhhhdjgkkkkkkklhhhhhhhhhhhhhhhhhhhggdddddeb",
"dggggggblhhhhhhhhhhhhhhhhdjgdghhiolbhhhhhhhhhhhhhhhhhhhgggggggeb",
"dghhhhhblggggggggggggggdddjgdghhiolbggggggggggggggggggggghhhhheb",
"dghhhhhbldddddddddddddddjgdghooooooibbdddddddddddddddddgghhhhheb",
"dghhhhhblmmmnnnnnmmmmmnnjgdghhhhhhhilbmmmmmnnnnnmmmmmnngghhhhheb",
"dghhhhhblppqqqqqpppppqqnjgdggggggggglbppppqqqqqpppppqqngghhhhheb",
"dghhhhhblrsssssprrrpssqnjjjgddddddddprrrpsssssprrrpsssngghhhhheb",
"dghhhhhblsssssprrrpsssqnmmjgdgggggilprrpsssssprrrpssssngghhhhheb",
"dghhhhhblssssprrrpssssqpjgdghhhhhhhilbpsssssprrrpsssssmgghhhhheb",
"dghhhhhblsssprrrpssssspmjjjgdddddddlrpsssssprrrpssssspmgghhhhheb",
"dghhhhhblssprrrpsssssrpmmmmgdghhiollpsssssprrrpsssssrpmgghhhhheb",
"dghhhhhbcbbbbbbbbbbbbbbbbbbbbbbbbbbbbbbbbbbbbbbbbbbbbbbaghhhhheb",
"dghhhhhcllllllllllllllclccfffffffffffcclclllllllllllllllahhhhheb",
"dghhhhhhhhhhhhhhhhhhhhhhhhhhhhhhhhhhhhhhhhhhhhahaiahahhhhhhhhheb",
"dghhhhhhhhhhhhhhhhhhhhhhhhhhhhhhhhhhhhhhhhhhhahaiahahhhhhhhhhheb",
"dghhhhhhhhhhhhhhhhhhhhhhhhhhhhhhhhhhhhhhhhhhahaiahahhhhhhhhhhheb",
"dghhhhhhhhhhhhhhhhhhhhhhhhhhhhhhhhhhhhhhhhhahaiahahhhhhhhhhhhheb",
"dghhhhhhhhhhhhhhhhhhhhhhhhhhhhhhhhhhhhhhhhahaiahahhhhhhhhhhhhheb",
"ddddddddddddddddddddddddddddddddddddddddddddddddddddddddddddddob",
"dkkkkkkkkkkkkkkkkkkkkkkkkkkkkkkkkkkkkkkkkkkkkkkkkkkkkkkkkkkkkkko"
};