/* XPM */
static char *wall_r11_c00[] = {
"64 64 29 1",
"a	c #A0A0A0",
"b	c #848484",
"c	c #5C5C5C",
"d	c #4C4C4C",
"e	c #3C3C3C",
"f	c #2C2C2C",
"g	c #141414",
"h	c #747474",
"i	c #989898",
"j	c #A8A8A8",
"k	c #BCBCBC",
"l	c #444444",
"m	c #6C6C6C",
"n	c #7C7C7C",
"o	c #8C8C8C",
"p	c #1010C0",
"q	c #2828C8",
"r	c #4040D0",
"s	c #5C5CD8",
"t	c #646464",
"u	c #545454",
"v	c #040404",
"w	c #343434",
"x	c #242424",
"y	c #1C1C1C",
"z	c #2C2C00",
"A	c #3C3C00",
"B	c #505000",
"C	c #646400",
"abccccdefghbijkkkkkkkkkkghbijkkkkkkkkkkghbijkkkkkkkkkkccccccdlba",
"abccccdefgdcmnnnnnnnnoakgdcmnnnnnnnnoakgdcmnnnnnnnnoakccccccdlba",
"abccccdefgdcmmmmmmmmmoakgdcmmmmmmmmmoakgdcmmmmmmmmmoakccccccdlba",
"abccccdefgdcmopqrrrqpoakgdcmopqrrrqpoakgdcmopqrrrqpoakccccccdlba",
"abccccdefgdcmopqrsrqpoakgdcmopqrsrqpoakgdcmopqrsrqpoakccccccdlba",
"abccccdefgdcmopqrsrqpoakgdcmopqrsrqpoakgdcmopqrsrqpoakccccccdlba",
"abccccdefgdcmopqrsrqpoakgdcmopqrsrqpoakgdcmopqrsrqpoakccccccdlba",
"abccccdefgdcmopqrsrqpoakgdcmopqrsrqpoakgdcmopqrsrqpoakccccccdlba",
"abccccdefgdcmopqrsrqpoakgdcmopqrsrqpoakgdcmopqrsrqpoakccccccdlba",
"abccccdefgdcmopqrsrqpoakgdcmopqrsrqpoakgdcmopqrsrqpoakccccccdlba",
"abccccdefgdcmopqrsrqpoakgdcmopqrsrqpoakgdcmopqrsrqpoakccccccdlba",
"abccccdefgdcmopqrsrqpoakgdcmopqrsrqpoakgdcmopqrsrqpoakccccccdlba",
"abccccdefgdcmopqrsrqpoakgdcmopqrsrqpoakgdcmopqrsrqpoakccccccdlba",
"abccccdefgdcmopqrsrqpoakgdcmopqrsrqpoakgdcmopqrsrqpoakccccccdlba",
"abccccdefgdcmopqrsrqpoakgdcmopqrsrqpoakgdcmopqrsrqpoakccccccdlba",
"abccccdefgdcmopqrsrqpoakgdcmopqrsrqpoakgdcmopqrsrqpoakccccccdlba",
"abccccdefgdcmopqrsrqpoakgdcmopqrsrqpoakgdcmopqrsrqpoakccccccdlba",
"abccccdefgdcmopqrsrqpoakgdcmopqrsrqpoakgdcmopqrsrqpoakccccccdlba",
"abccccdefgdcmopqrsrqpoakgdcmopqrsrqpoakgdcmopqrsrqpoakccccccdlba",
"abccccdefgdcmopqrsrqpoakgdcmopqrsrqpoakgdcmopqrsrqpoakccccccdlba",
"abccccdefgdcmopqrsrqpoakgdcmopqrsrqpoakgdcmopqrsrqpoakccccccdlba",
"abccccdefgdcmopqrsrqpoakgdcmopqrsrqpoakgdcmopqrsrqpoakccccccdlba",
"abccccdefgdcmopqrsrqpoakgdcmopqrsrqpoakgdcmopqrsrqpoakccccccdlba",
"abccccdefgdcmopqrsrqpoakgdcmopqrsrqpoakgdcmopqrsrqpoakccccccdlba",
"abccccdefgdcmopqrsrqpoakgdcmopqrsrqpoakgdcmopqrsrqpoakccccccdlba",
"abccccdefgdcmopqrsrqpoakgdcmopqrsrqpoakgdcmopqrsrqpoakccccccdlba",
"abccccdefgdcmopqrsrqpoakgdcmopqrsrqpoakgdcmopqrsrqpoakccccccdlba",
"abccccdefgdcmopqrsrqpoakgdcmopqrsrqpoakgdcmopqrsrqpoakccccccdlba",
"abccccdefgdcmopqrsrqpoakgdcmopqrsrqpoakgdcmopqrsrqpoakccccccdlba",
"abccccdefgdcmopqrsrqpoakgdcmopqrsrqpoakgdcmopqrsrqpoakccccccdlba",
"abccccdefgdcmopqrsrqpoakgdcmopqrsrqpoakgdcmopqrsrqpoakccccccdlba",
"abccccdefgdcmopqrsrqpoakgdcmopqrsrqpoakgdcmopqrsrqpoakccccccdlba",
"abccccdefgdcmopqrsrqpoakgdcmopqrsrqpoakgdcmopqrsrqpoakccccccdlba",
"abccccdefgdcmopqrsrqpoakgdcmopqrsrqpoakgdcmopqrsrqpoakccccccdlba",
"abccccdefgdcmopqrsrqpoakgdcmopqrsrqpoakgdcmopqrsrqpoakccccccdlba",
"bhdddddefgdcmopqrsrqpoakgdcmopqrsrqpoakgdcmopqrsrqpoakddddddddhb",
"tueeeeeefgdcmopqrsrqpoakgdcmopqrsrqpoakgdcmopqrsrqpoakeeeeeeeeut",
"vvvvvvggggdcmopqrsrqpoakgdcmopqrsrqpoakgdcmopqrsrqpoakvvvvvvvvvv",
"vvvvvvggggdcmopqrsrqpoakgdcmopqrsrqpoakgdcmopqrsrqpoakvvvvvvvvvv",
"iiiiiiibtwdcmopqrsrqpoakgdcmopqrsrqpoakgdcmopqrsrqpoakiiiiiiiiii",
"bbbbbbbhtedcmopqrsrqpoakgdcmopqrsrqpoakgdcmopqrsrqpoakbbbbbbbbbb",
"ccccccccdxdcmopqrsrqpoakgdcmopqrsrqpoakgdcmopqrsrqpoakcccccccccc",
"ccccccccdxdcmopqrsrqpoakgdcmopqrsrqpoakgdcmopqrsrqpoakcccccccccc",
"mmmmmmmmcedcmopqrsrqpoakgdcmopqrsrqpoakgdcmopqrsrqpoakmmmmmmmmmm",
"wwwwwwwwwwdcmopqrsrqpoakgdcmopqrsrqpoakgdcmopqrsrqpoakwwwwwwwwww",
"xxxxxxxxxxdcmopqrsrqpoakgdcmopqrsrqpoakgdcmopqrsrqpoakxxxxxxxxxx",
"yyyyyyyyyydcmopqrsrqpoakgdcmopqrsrqpoakgdcmopqrsrqpoakyyyyyyyyyy",
"ggggggggggdcmopqrsrqpoakgdcmopqrsrqpoakgdcmopqrsrqpoakgggggggggg",
"zzzzzzzzzzdcmopqrsrqpoakgdcmopqrsrqpoakgdcmopqrsrqpoakzzzzzzzzzz",
"AAAAAAAAAAdcmopqrsrqpoakgdcmopqrsrqpoakgdcmopqrsrqpoakAAAAAAAAAA",
"BBBBBBBBBBdcmopqrsrqpoakgdcmopqrsrqpoakgdcmopqrsrqpoakBBBBBBBBBB",
"CCCCCCCCCCdcmopqrsrqpoakgdcmopqrsrqpoakgdcmopqrsrqpoakCCCCCCCCCC",
"BBBBBBBBBBdcmopqrsrqpoakgdcmopqrsrqpoakgdcmopqrsrqpoakBBBBBBBBBB",
"AAAAAAAAAAdcmopqrsrqpoakgdcmopqrsrqpoakgdcmopqrsrqpoakAAAAAAAAAA",
"zzzzzzzzzzdcmopqrsrqpoakgdcmopqrsrqpoakgdcmopqrsrqpoakzzzzzzzzzz",
"vvvvvvvvvvdcmopqrsrqpoakgdcmopqrsrqpoakgdcmopqrsrqpoakvvvvvvvvvv",
"ggggggggggdcmopqrsrqpoakgdcmopqrsrqpoakgdcmopqrsrqpoakgggggggggg",
"yyyyyyyyyydcmopqrsrqpoakgdcmopqrsrqpoakgdcmopqrsrqpoakyyyyyyyyyy",
"xxxxxxxxxxdcmopqrsrqpoakgdcmopqrsrqpoakgdcmopqrsrqpoakxxxxxxxxxx",
"wwwwwwwwwwdcmopqrsrqpoakgdcmopqrsrqpoakgdcmopqrsrqpoakwwwwwwwwww",
"iiiiiiiitwdcmopqrrrqpoakgdcmopqrrrqpoakgdcmopqrrrqpoakiiiiiiiiii",
"bbbbbbbbtedcmoiiiiiiioakgdcmoiiiiiiioakgdcmoiiiiiiioakbbbbbbbbbb",
"ccccccccdxdcmnnnnnnnnoakgdcmnnnnnnnnoakgdcmnnnnnnnnoakcccccccccc",
"ccccccccdxdcmnnnnnnnnoakgdcmnnnnnnnnoakgdcmnnnnnnnnoakcccccccccc"
};