/* XPM */
static char *wall_r13_c00[] = {
"64 64 16 1",
"a	c #301C0C",
"b	c #5C340C",
"c	c #684018",
"d	c #402810",
"e	c #040404",
"f	c #142840",
"g	c #94602C",
"h	c #805424",
"i	c #A8784C",
"j	c #A06C3C",
"k	c #0C0C0C",
"l	c #B08458",
"m	c #0C1C30",
"n	c #C4A080",
"o	c #D0B094",
"p	c #E4C098",
"aaabcddaaaaaaaaaaaaaaadddaaaaaacdddddeeeeeededdddddddddddddddddf",
"aaaacghcbddddddbcbdddbbbaaaaaddcghcbddddddbcbdddbgghcbbbbbcbcbdf",
"aaaaagiijghcbbchghcchbbddddddddhgiijghcbbchghcchchjjghccccchcddk",
"aaaaaajlijghcchgjghgcbddddddddddhjlijghcchgjghgcccglijhhhhghbddm",
"aadddddinijghgjijggcbbbbbbbbdddddhinijghgjijggcdddcinliggjgcddmf",
"dddddddbnoljgjijggcdbbbbcccbbbbbbbhnoljgjijggcdddddhlpnijghddddd",
"ddddddbbcnonliijgcdbbbbcccccbbccccchnonliijgcdddddbbhppnghbddddd",
"bbbbbbbcchnpnijghdbbbchhhhccbbbchhhhhnpnijghddddddbccppnjbbdddbb",
"ccccccccchgppnghbbccccghhccbbbbbchggggppnghbbbbbbcchhppngbbdddbc",
"chhhhhhhhggppnjbbccccghhccbbccbbbbhggjppnjbbbccccchggppnhbbcbbcc",
"hhggggggggjppngbbcccchhccbbchhcbbcchggppngbbccccchggjpplcbcccccc",
"hjjjjjjjjjjppnhbbcccchccbbchghhcbbcchhppnhbbhccchgjjjoplbbhhccch",
"gjiiiiiijjipplcbcccchccbchgjjghhcbbcccpplcbbhccchiiiioplbbghhchh",
"jillllliiiioplbbhcccccbchgjjjgghhcbbccoplbbbhcccgiillooibbjhhhhg",
"jiliiiilllloplbbgccccbchiiijjjggghcbbboplbbchbccjiiilooibbihhhhg",
"jlijjjjiiiiooibbhcbbbchilliijjggjghcccooibbccbchjjjiinojbblhhhhj",
"llihhhgjjjjooibbhbbchginlliijjjjjjghhhooibbhcbbhgjjiinojbclhhhhi",
"lihcchhggggnojbbcbbcginnlliijjjjjjjjjjnojbbghdbhggjjjnngbhihhhgl",
"ihcbbchhhhhnojbbbbccinnnlliijjjiiiijjjnojbbjgbdchgggglngbgihhhjn",
"hcbbbbcchhhnngbbccchlnonlliijjiiiliiiinngbbjgcbchhhhhlnhbjighhio",
"hcbbbbbbccclngbbhchilnonlliiiiillliijglngbbighchcccchilhbjjghhln",
"hcbbccccbbblnhbcghhjlnonnlliiillnlijghlnhbcllhhijghhcjlcbjjjhhnl",
"gcbbcccccccilhbccchhlnoonnlllllnlijghcilhbchgjhllighcglccggjgcji",
"ghcbccchhhhjlcchhcchilnonnnlllnlijghcbclcbhgjiiilligchibhhgggccg",
"hhcbbcchhhgglchggggcgllnoonnnnlijghcbcclcbggjjjilligchjbhhghhhbh",
"chcbbccchhgjibgjjjjjjillnoonolijghcbcchibgjjjjjilllghcgbchhccccc",
"bchcbbcchhhjjbiiiiiiijilnnoolijghcbccchjbjjjjjillljgghhbccccbbbb",
"bbchcbbcchhggciiiilllljilnnoljghhcbcchggbjjjjiiiljgjighccbbbbbbb",
"ccccccbbcchhhhjiiiiiiigjlnnoijhhcbcchhghgjjjiillgjiiighbbbbbcccc",
"hhcchccbccchhggjjjjjjjgjlnnonjghcbcchhhbgggjjigjiiliigbccccchhhh",
"gghchhccbbcchhhhgggggggjlnnollghcbcchhhchhgghgjilllighbchhhhgggg",
"jghchghcccccchhhhhhhggjinnonillghcbcchhhccchgjiliiihhhbchggggjjj",
"jghcchghhhhhhhhggjjjjjilnoniiiiihcbbcccccchgjilijjhhhcbchggjjiii",
"ijghchgggggggggjillllllnllijjjiiijhbbbcchgjillijghgghcbchgjiiill",
"ljghchgjjillnnnnnnnnnnnligggggjjiijjjjjjjiilijjghggghcbchggjilln",
"njghcchgilnnnlllllllnijjghhhhhgjjjiiiiiiijjijjghggjghcbchhgjiilo",
"nijghchgilllijjggggilijghccccchgggjjjjjjjgggjghggjjghcbchhgjiilo",
"nijghchgjiiiiggghhgjijghccccccchggggggggggjjghggjijghcbchhgjiilo",
"nijghcchggggghhhhhgjjjhccbbbbcchhhhhhhggjjjghggjiijghcbchhgjillo",
"nlijghchhhhhccccchggjghccbchcbbcchghchhgjjghggjilijghbcchgjiilno",
"plijghchcccchgghcchgjghcbchhggjjjllljchgjghggjiiijghcbchggjillnp",
"plijhccccbbcchgjhchgjghcbchgjjiiiiijhhgjghggjiijjghccbchgjiilnop",
"pljhccbbbccchgjghchgjghbchggjjjjggjhggjghggjiijgghcbbchgjiillnop",
"pngcbbcccchhgjhcchgjghcbchhggggghghgjjghggjiijghhhcbcchgjillnoop",
"pngcbccchhhgjgchhgjghcbchhhhhhhhghgjjghhgjilijghccbbchgjjilnooop",
"pnjcbcchhggjihchgjghcbccchhhcbchhgjjghhhgjilijghcbbbchgjjilnoopp",
"pnjhbcchhgjiichgjjghcbccccccbcchgjjghhchgjilijghccbbbhhgjilnnoop",
"pnijhbcchggjichggjjghcbccccbchhjjjjjhhchgjilijghhhcbbchgjjilnnop",
"ponighbcchhgjhchhhgjghcbbbbchjjjjjjghcchgjillijgghhcbchgjilnoopp",
"ponljghbccchgjhccchgjghcccchjggggjjghcchgjilnlijghhcbchgjillnopp",
"ponlijghbbbchhgjghchgjghchhjghhgjjjghcchgjilnlijghhcbbhhgjilnoop",
"ponliijghhhbbchhggchgjghhhhhchhgjijghcchgjilnnlijgghcbchgjilnoop",
"oonlliijggghhhhhhhhggjgghhhccchgjijghcchgjilllllijghcbchgjillnoo",
"onlnnliijjjgggggggggjjjjgghhcchgjijghcchgjjiiiiiijghcbchgjiillno",
"nlnoonliiijjjjjjjjjjjiijjgghcchgjijghcchggjjjjjijjghcbchgjiiilln",
"lnnnnnnllllllllllllliiiijgghcchgjijghcchhggggggjgghccbchgjjiiill",
"llllllllllighggjiinllliijgghcchgjijjghcchhhhhhgggghcbbchggjjjiii",
"iiiiiillllghggjgjjinlllijgghcchgjiijjghcccccchhggghcbbchhgggjjji",
"jjjjjiillihggjiiliilnllijgghcchgjiiijjghhhhhcchhgghcbbcchhhggggj",
"ggggjjiilihggjillliilllijgghcchgjjiiijjgggghhcchhhhcbbbbcchhhhgg",
"hhhggjjilihggjjinnoilliijgghcchggjjjjjjjjjjghhhcccccbddbbbccchhh",
"cchhggjjlighggjiiliiliijjgghcchhggggggggggggghhhhhhcdddddbbbbccc",
"bbchhggjjlighhggiiiliijjgghhcchhhhhhhhhhhhhhhhcccccbdbbbdddbbbbb",
"bbbchhggjjjjiilllllljjjgghhccbccccccccccccccccbbbbbddbccbbddddbb"
};