/* XPM */
static char *wall_r05_c07[] = {
"64 64 36 1",
"a	c #A8A8A8",
"b	c #848484",
"c	c #242424",
"d	c #7C7C7C",
"e	c #747474",
"f	c #646464",
"g	c #545454",
"h	c #3C3C3C",
"i	c #444444",
"j	c #4C4C4C",
"k	c #000000",
"l	c #081420",
"m	c #2C2C2C",
"n	c #A8BCD8",
"o	c #C0D0E4",
"p	c #94B0D0",
"q	c #6C90BC",
"r	c #183450",
"s	c #80A0C4",
"t	c #E8E8E8",
"u	c #4C78A8",
"v	c #5884B0",
"w	c #346090",
"x	c #3C6CA0",
"y	c #244870",
"z	c #204060",
"A	c #1C1C1C",
"B	c #0C0C0C",
"C	c #343434",
"D	c #2C5480",
"E	c #5C5C5C",
"F	c #D8D8D8",
"G	c #28CC28",
"H	c #142840",
"I	c #141414",
"J	c #6C6C6C",
"aaaaaaaaaaaaaaaaaaaaaaaaaaaaaabccdaaaaaaaaaaaaaaaaaaaaaaaaaaaaaa",
"ddddddddddddddddddddddddddddddeccedddddddddddddddddddddddddddddd",
"fffffffffffffffffffffffffffffghccigfffffffffffffffffffffffffffff",
"jjjjjjjjjjjjjjjjjjjjjjjjjjjjjhcklmhjjjjjjjjjjjjjjjjjjjjjjjjjjjjj",
"noooooooooooooooooooooooooooopqrrspoooooooooooooooooooooooooooot",
"qnnnnonnnnonnnnonnnnonnnnonnnsqrrqsonnnnonnnnonnnnonnnnonnnnonno",
"qspsnonpsnonpsnonpsnonpsnonpssqrrusonpsnonpsnonpsnonpsnonpsnonno",
"qspsnonpsnonpsnonpsnonpsnonpssqrrusonpsnonpsnonpsnonpsnonpsnonno",
"qspsnonpsnonpsnonpsnonpsnonpssqrrusonpsnonpsnonpsnonpsnonpsnonno",
"qspsnonpsnonpsnonpsnonpsnonpssqrrusonpsnonpsnonpsnonpsnonpsnonno",
"qspsnonpsnonpsnonpsnonpsnonpssqrrusonpsnonpsnonpsnonpsnonpsnonno",
"qsssspsssspsssspsssspsssspsssvurruvpsssspsssspsssspsssspsssspsno",
"qqqqqqqqqqqqqqqqqqqqqqqqqqqqquwrrxuqqqqqqqqqqqqqqqqqqqqqqqqqqqqn",
"fgjjjjjmvsojmwwwwwwwwwwwwwwwwyrklzywwwwwwwwwwwwwwwwjmvsojjjjjjig",
"fgAcmmmBvsomBonnnnnnnnnnnnonopqrrspononnnnnnnnnnnnomBvsommmmcBig",
"fgiiiiicvsoicpsssssssssssssssvxrruvssssssssssssssspicvsoiiiiicig",
"fggggggCvsogCqvvvvvvvvvvvvvvvxDrrwxvvvvvvvvvvvvvvvqgCvsogggggCig",
"fgEEEEEivsofiwwwwwwwwwwwwwwwwyrklzywwwwwwwwwwwwwwwwfivsoEEEEEiig",
"fgjjjjjmvsojmonnnnnnnnnnnnonopqrrspononnnnnnnnnnnnojmvsojjjjjcig",
"fghhhhhAvsohApsssssssssssssssvxrruvsssssssssssssssphAvsohhhhhAig",
"fgAcmmmBvsomBqvvvvvvvvvvvvvvvxDrrwxvvvvvvvvvvvvvvvqmBvsommmmcBig",
"fgiiiiicvsoicwwwwwwwwwwwwwwwwyrklzywwwwwwwwwwwwwwwwicvsoiiiiicig",
"fggggggCvsogConnnnnnnnnnnnonopqrrspononnnnnnnnnnnnogCvsogggggCig",
"fgEEEEEivsofipsssssssssssssssvxrruvssssssssssssssspfivsoEEEEEiig",
"fgiiiiicvsoicqvvvvvvvvvvvvvvvxDrrwxvvvvvvvvvvvvvvvqicvsoiiiiicig",
"fghhhhhAvsohAwwwwwwwwwwwwwwwwyrklzywwwwwwwwwwwwwwwwhAvsohhhhhAig",
"fgAcmmmBvsomBnooooooooooFwnoooqklsoooFwnooooooooooFmBvsommmmcBig",
"fgiiiiicvsoicvnnnnnnnnnoowvnnnvklqnnoowvnnnnnnnnnooicvsoiiiiicig",
"fggggggCvsogCvqssssssssnowvqssxklussnowvqssssssssnogCvsogggggCig",
"fgEEEEEivsofivqssssssssnowvqssxklussnowvqssssssssnofivsoEEEEEiig",
"fgjjjjjcvsojmvqssssssssnowvsssxklussnowvqssssssssnoicvsoiiiiicig",
"fghhhhhAvsohAvqssssssssnowvGGGxkluGGGowvqssssssssnohAvsohhhhhAig",
"fgAcmmmBvsomBvqssssssssnowvGGGxkluGGGowvqssssssssnomBvsommmmcBig",
"fgiiiiiBvsoicvqssssssssnowvsvvxkluvvnowvqssssssssnoicvsoiiiiicig",
"fggggggcvsogCvqssssssssnowvsHHxkluHHnowvqssssssssnogCvsogggggCig",
"fgEEEEECvsofivqssssssssnowvsHHxkluHHnowvqssssssssnofivsoEEEEEiig",
"fgiiiiiivsoicvqssssssssnowvsHHxkluHHnowvqssssssssnoicvsoiiiiicig",
"fghhhhhcvsohAvqssssssssnowvsHHxkluHHnowvqssssssssnohAvsohhhhhAig",
"fgAcmmmAvsomBvsqqqqqqqqqpwvsnpwklxnpqpwvsqqqqqqqqqpmBvsommmmcBig",
"fgiiiiiBvsoicqvvvvvvvvvvvwsvvvDklwvvvvwqvvvvvvvvvvvicvsoiiiiicig",
"fggggggCvsogCwwwwwwwwwwwwwwwwwrklzwwwwwwwwwwwwwwwwwgCvsogggggCig",
"fgEEEEEivsofioooooooooooooFooFqrrsFooFooooooooooooofivsoEEEEEiig",
"fgiiiiicvsoicopppppppppppppppqurrvqpppppppppppppppoicvsoiiiiicig",
"fghhhhhAvsohhmopsssssssssssssvxrruvssssssssssssspohhAvsohhhhhAig",
"fgAcmmmmAvsommAnpssssssssssssvxrruvsssssssssssspommAvsommmmmcBig",
"fgiiiiiiiCvsoiiCnpsssssssssssvxrruvssssssssssspniiCvsoiiiiiiicig",
"fgggggggggivsogginpssssssssssvxrruvsssssssssspnggivsoggggggggCig",
"fgEEEEEEEfEjvsoEEjnpsssssssssvxrruvssssssssspnEEjvsofEfEEEEEEiig",
"fgiiiiiiiiiiCvsoiiCnpssssssssvxrruvsssssssspniiCvsoiiiiiiiiiicig",
"fghhhhhhhhhhhAvsohhAnpqvvvvvvxDrrwxvvvvvvqpnhhAvsohhhhhhhhhhhAig",
"fgAcmmmmmmmmmmmmmmmmmmmmmmmmmmkklBmmmmmmmmmmmmmmmmmmmmmmmmmmcAig",
"fgsnnnnnnnnnnnnnnnnnnnnnnnnnnsvrrqsnnnnnnnnnnnnnnnnnnnnnnnnnnnig",
"fgqssssssssssssssssssssssssssvxrruvssssssssssssssssssssssssssnig",
"fgvqqqqqqqqqqqqqqqqqqqqqqqqqquwrrxuqqqqqqqqqqqqqqqqqqqqqqqqqqsig",
"fghhhhhhhhhhhhhhhhhhhhhhhhhhhmIklAChhhhhhhhhhhhhhhhhhhhhhhhhhhig",
"fgjjjjjjjjjjjjjjjjjjjjjjjjjjjhcklmhjjjjjjjjjjjjjjjjjjjjjjjjjjjig",
"bbbbbbbbbbbbbbbbbbbbbbbbbbbbbbeccebbbbbbbbbbbbbbbbbbbbbbbbbbbbbb",
"eeeeeeeeeeeeeeeeeeeeeeeeeeeeefjccgfeeeeeeeeeeeeeeeeeeeeeeeeeeeee",
"eeJfEEEEEfEEEEEfEfefJfEEEEfEfEiccijfEEEEEEfEffJfEEEEfffEEEEffJee",
"eeJfEEEEfEEEEEfEfefJfEEEEfEfJEjcchgEEEEEEfEffJfEEEEfffEEEEfEfJee",
"eeJfEEEfEEEEEfEfefJfEEEEfEfJJficcijEEEEEfEffJfEEEEfffEEEEfEEfJee",
"eeJfEEfEEEEEfEfefJfEEEEfEfJJeEhcchjEEEEfEffJfEEEEfffEEEEfEEffJee",
"eeJfEfEEEEEfEfefJfEEEEfEfJJeJgCcchjEEEfEffJfEEEEfffEEEEfEEfEfJee",
"eJfEgjjjjjjjjjjjjjjjjjjjjjjjjhcklmhjjjjjjjjjjjjjjjjjjjjjjjjgEfJe"
};