/* XPM */
static char *wall_r15_c04[] = {
"64 64 15 1",
"a	c #6C6C6C",
"b	c #2C2C2C",
"c	c #3C3C3C",
"d	c #5C5C5C",
"e	c #4C4C4C",
"f	c #141414",
"g	c #747474",
"h	c #000000",
"i	c #7C7C7C",
"j	c #8C8C8C",
"k	c #646464",
"l	c #848484",
"m	c #C01010",
"n	c #700404",
"o	c #444444",
"aaaaaaaaaaaaaaaaaaaaaaaaaaaaaaaaaaaaaaaaaaaaaaaaaaaaaaaaaaaaaaaa",
"bcddddecfbcedaaaaaaaaaagdecbchhhhhhecbfbcedaaaaaaaaaaiiiaaaaaaai",
"bceeeecbfbceaaaaaaaaaagidcbcehhhhhhecbfbccedaaaaaaaaaijiadddddki",
"bceeecbfbcedaaaaaaaaagiaecbcehhhhhhdecbfbcceaaaaaaaaaaijiaddddki",
"bceeecbfbceaaaaaaaaagiidcbcedhhhhhhdecbfbccedaaaaaaaaaijiaddddki",
"bceecbfbcedaaaaaaaaaijaecbcedhhhhhhddecbfbcceaaaaaaaaaaijiadddki",
"bceecbfbceaaaaaaaaagijdcbcedahhhhhhddecbfbccedaaaaaaaaaijiadddki",
"bcecbfbcedaaaaaaaaaijadcbcedahhhhhhkddecbfbcceaaaaaaaaaaijiaddki",
"bcecbfbceaaaaaaaaagijdcbcedaihhhhhhakdecbfbccedaaaaaaaaaijiaddki",
"bccbfbcedaaaaaaaaaijadcbcedalhhhhhhdaddecbfbcceaaaaaaaaaaijiadki",
"bccbfbceaaaaaaaaagijdcbcedailhhhhhhdakdecbfbccedaaaaaaaaaijiadki",
"bcbfbcedaaaaaaaaaijadcbcedaljhhhhhhedaddecbfbcceaaaaaaaaaaijiaki",
"bcbfbceaaaaaaaaagijdcbcedailjfhhhhfedakdecbfbccedaaaaaaaaaijiaki",
"bcfbcedaaaaaaaaaijadcbcedaljihhhhhhcedaddecbfbcceaaaaaaaaaaijiai",
"bcfbceaaaaaaaaagijdcbcedailjifhhhhfcedakdecbfbccedaaaaaaaaaijiai",
"bcbcedaaaaaaaaaijadcbcedaljdihfhhfhccedaddecbfbcceaaaaaaaaaaijii",
"bcbceaaaaaaaaagijdcbcedailjdihhhhhhccedakdecbfbccedaaaaaaaaaijii",
"bcbedaaaaaaaaaijadcbcedaljddihhhhhhcecedaddecbfbcceaaaaaaaaaaiji",
"bceeaaaaaaaaagijdcbcedailjddihhhhhhcecedakdecbfbccedaaaaaaaaaiji",
"bcedaaaaaaaaaijadcbcedaljdedihhhhhhcdecedaddecbfbcceaaaaaaaaaiji",
"bceaaaaaaaaagijdcbcedailjdedihhhhhhcdecedakdecbfbccedaaaaaaaaiji",
"bceaaaaaaaaaijadcbcedaljdeedihhhhhhcddecedaddecbfbcceaaaaaaaaiji",
"bceaaaaaaaagijdcbcedaijideedihhhhhhcddecedakdecbfbccedaaaaaaaiji",
"bceaaaaaaaaijaecbcedaijideedihhhhhhcdeeecedadeccbfbcceaaaaaaaiji",
"bceaaaaaaagijdcbcedaijiaeeedihhhhhhcdeeecedaadecbfbccedaaaaaaiji",
"bceaaaaaaaijaecbcedaijidcccedhhhhhhcecccecedadeccbfbcceaaaaaaiji",
"bceaaaaaagijdcbcedaijiaehhhhhhhhhhhhhhhhecedaadecbfbccedaaaaaiji",
"bceaaaaaaijaecbcedaijidccddaihhhhhhciiidcecedadeccbfbcceaaaaaiji",
"bceaaaaagijdcbcedaijiadhceedihhhhhhceddihccedaadecbfbccedaaaaiji",
"bceaaaaaijaecbcedaijaddhcmmdihhhhhhcmmdihcecedadeccbfbcceaaaaiji",
"bceaaaaaijacbccedaaadedhceedihhhhhhceedihceceddeeccbfbcceaaaaiji",
"bceaaaaaijacbhhhhbceeedhcnndihhhhhhcnndihceeccbfhhhhhbcceaaaaiji",
"bceaaaaaijacbhhhhbceeedhceedihhhhhhceedihceeccbfhhhhhbcceaaaaiji",
"bceaaaaaijacbcedaijiaedhcmmdihhhhhhcmmdihcecedaadecbfbcceaaaaiji",
"bceaaaaaijaecbcedaijiddhceedihhhhhhceedihcecedadeccbfbcceaaaaiji",
"bceaaaaagijdcbcedaijiadhceedihhhhhhceedihccoedadecbfbccedaaaaiji",
"bceaaaaaaijaecbcedaijidccccedhhhhhhccccdcecoeadeccbfbcceaaaaaiji",
"bceaaaaaagijdcbcedaijiaehhhhhhhhhhhhhhhhecoedadecbfbccedaaaaaiji",
"bceaaaaaaaijaecbcedaijidcccedhhhhhhcecccecoeadeccbfbcceaaaaaaiji",
"bceaaaaaaagijdcbcedaijiaeeedihhhhhhcdeeecoedadecbfbccedaaaaaaiji",
"bceaaaaaaaaijaecbcedaijideedihhhhhhcdeeecoeadeccbfbcceaaaaaaaiji",
"bceaaaaaaaagijecbcedaijideedihhhhhhoddocoedadecbfbccedaaaaaaaiji",
"bceaaaaaaaaaijaecbcedaijidedihhhhhhoddocoeaddecbfbcceaaaaaaaaiji",
"bceaaaaaaaaagijecbcedaijidedihhhhhhodocoedadecbfbccedaaaaaaaaiji",
"bcedaaaaaaaaaijaecbcedaijiddihhhhhhodocoeaddecbfbcceaaaaaaaaaiji",
"bceeaaaaaaaaagijecbcedaijiddihhhhhhoocoedadecbfbccedaaaaaaaaaiji",
"bccedaaaaaaaaaijaecbcedaijidihhhhhhoocoeaddecbfbcceaaaaaaaaaaiji",
"bcbceaaaaaaaaagijecbcedaijidihhhhhhocoedadecbfbccedaaaaaaaaaijii",
"bcbcedaaaaaaaaaijaecbcedaijilhhhhhhocoeaddecbfbcceaaaaaaaaaaijii",
"bcfbceaaaaaaaaagijecbcedaijilhhhhhhcoedadecbfbccedaaaaaaaaaijiai",
"bcfbcedaaaaaaaaaijaecbcedaijjfhhhhfcoeaddecbfbcceaaaaaaaaaaijiai",
"bcbfbceaaaaaaaaagijecbcedaijjhfhhfhoedadecbfbccedaaaaaaaaaijiaki",
"bcbfbcedaaaaaaaaaijaecbcedaiifhhhhfoeaddecbfbcceaaaaaaaaaaijiaki",
"bccbfbceaaaaaaaaagijecbcedaiihhhhhhedadecbfbccedaaaaaaaaaijiadki",
"bccbfbcedaaaaaaaaaijaecbcedaihhhhhheaddecbfbcceaaaaaaaaaaijiadki",
"bcecbfbceaaaaaaaaagijecbcedaihhhhhhdadecbfbccedaaaaaaaaaijiaddki",
"bcecbfbcedaaaaaaaaaijaecbcedahhhhhhaddecbfbcceaaaaaaaaaaijiaddki",
"bcdecbfbceaaaaaaaaagijdcbceddhhhhhhddecbfbccedaaaaaaaaaijiadddki",
"bcdecbfbcedaaaaaaaaaijaecbcedhhhhhhddecbfbcceaaaaaaaaaaijiadddki",
"bcddecbfbceaaaaaaaaagijdcbcedhhhhhhdecbfbccedaaaaaaaaaijiaddddki",
"bcddecbfbcedaaaaaaaaaijaecbcehhhhhhdecbfbcceaaaaaaaaaaijiaddddki",
"bcdddecbfbceaaaaaaaaagijacbcehhhhhhecbfbccedaaaaaaaaaijiadddddki",
"bcdddecbfbceeeeeeeeeeeeeeecbchhhhhhecbfbceeeeeeeeeedaiiiaeeeeeda",
"bccccccccccccccccccccccccccccbbbbbbccccccccccccccccccccccccccccc"
};