/* XPM */
static char *wall_r12_c00[] = {
"64 64 51 1",
"a	c #C0D0E4",
"b	c #94B0D0",
"c	c #6C90BC",
"d	c #A8BCD8",
"e	c #80A0C4",
"f	c #5884B0",
"g	c #4C78A8",
"h	c #008C00",
"i	c #00A400",
"j	c #5CD85C",
"k	c #98E898",
"l	c #B8ECB8",
"m	c #D8F4D8",
"n	c #78E078",
"o	c #00C000",
"p	c #3C6CA0",
"q	c #346090",
"r	c #643000",
"s	c #743804",
"t	c #502400",
"u	c #0C5CAC",
"v	c #2474C4",
"w	c #989898",
"x	c #848484",
"y	c #A0A0A0",
"z	c #A8A8A8",
"A	c #C4C4C4",
"B	c #884404",
"C	c #AC580C",
"D	c #CCCCCC",
"E	c #984C08",
"F	c #C06410",
"G	c #C47024",
"H	c #CC8038",
"I	c #BCBCBC",
"J	c #D8D8D8",
"K	c #E8E8E8",
"L	c #D09050",
"M	c #00BCBC",
"N	c #5CD8D8",
"O	c #98E4E4",
"P	c #D8F4F4",
"Q	c #D89C64",
"R	c #1068C0",
"S	c #3884CC",
"T	c #5090D0",
"U	c #64A0D8",
"V	c #7CACDC",
"W	c #98C0E4",
"X	c #B4D0EC",
"Y	c #E0E0E0",
"aaaaaaaaaaaaaabcaaaaaaaaaaaaaaaaaaaaaaaaaaaaaaaaaaaaaaaaaaaaaaaa",
"ddddddddddddddefebddddddddddddddddddddddddddddddaddddddddddddddd",
"bbbbbbbbbbbbbbcgcebbbbdbbbbbbbbbdbbbbbbbbbdbbbbdabbbbbbbbbbbbbbb",
"hhhhhhhhhhhhhhhicebbcbdbebbbbbcbdbebbbbbcbdbebbdahhhhhhhhhhhhhhh",
"jjjjjjjjjjjjjjjkcebfcbdbecbbbfcbdbecbbbfcbdbecbdajjjjjjjjjjjjjjj",
"lllllllllllllllmcebfcbdbecbbbfcbdbecbbbfcbdbecbdalllllllllllllll",
"nnnnnnnnnnnnnnnkcebfcbdbecbbbfcbdbecbbbfcbdbecbdannnnnnnnnnnnnnn",
"iiiiiiiiiiiiiiiocebfcbdbecbbbfcbdbecbbbfcbdbecbdaiiiiiiiiiiiiiii",
"bbbbbbbbbbbbbbcgcebfcbdbecbbbfcbdbecbbbfcbdbecbdabbbbbbbbbbbbbbb",
"eeeeeeeeeeeeeefpceffcbdbeceeffcbdbeceeffcbdbecedaeeeeeeeeeeeeeee",
"ccccccccccccccgqcegfcbdbecccgfcbdbecccgfcbdbeccdaccccccccccccccc",
"rsssssssssssssstuvuwxwyzAzvuvwxwyzAzvuvwxwyzAzuvusssssssssssssss",
"tsBBBBBBBBBBBBCtuvuwxwyzDzvuvwxwyzDzvuvwxwyzDzuvutsBBBBBBBBBBBBC",
"trBEEEEEEEEEEFGtuvuwxwyzDzvuvwxwyzDzvuvwxwyzDzuvutrBEEEEEEEEEEFG",
"trsECCCCCCCCGHGtuvuIADJJJKvuvIADJJJKvuvIADJJJKuvutrsECCCCCCCCGHG",
"trsBFFFFFFFHLHGtuvuMNOPONMvuvMNOPONMvuvMNOPONMuvutrsBFFFFFFFHLHG",
"trsBGGGGGGGQLHGtuvuMNOPONMvuvMNOPONMvuvMNOPONMuvutrsBGGGGGGGQLHG",
"trsBHHHHHHHQLHGtuvuMNOPONMvuvMNOPONMvuvMNOPONMuvutrsBHHHHHHHQLHG",
"trsBLLLLLLLQLHGtuvuMNOPONMvuvMNOPONMvuvMNOPONMuvutrsBLLLLLLLQLHG",
"trsBQQQQQQQQLHGtuvuMNOPONMvuvMNOPONMvuvMNOPONMuvutrsBQQQQQQQQLHG",
"trsBLLLLLLLQLHGtuvuMNOPONMvuvMNOPONMvuvMNOPONMuvutrsBLLLLLLLQLHG",
"trsBHHHHHHHQLHGtuvuMNOPONMvuvMNOPONMvuvMNOPONMuvutrsBHHHHHHHQLHG",
"trsBGGGGGGGQLHGtuvuMNOPONMvuvMNOPONMvuvMNOPONMuvutrsBGGGGGGGQLHG",
"trsBFFFFFFFHLHGtuvuMNOPONMvuvMNOPONMvuvMNOPONMuvutrsBFFFFFFFHLHG",
"trsECCCCCCCCGHGtuvuMNOPONMvuvMNOPONMvuvMNOPONMuvutrsECCCCCCCCGHG",
"trBEEEEEEEEEEFGtuvuMNOPONMvuvMNOPONMvuvMNOPONMuvutrBEEEEEEEEEEFG",
"tsBBBBBBBBBBBBCtuvuMNOPONMvuvMNOPONMvuvMNOPONMuvutsBBBBBBBBBBBBC",
"rsssssssssssssstRvuMNOPONMvRvMNOPONMvRvMNOPONMuvRsssssssssssssss",
"tsBBBBBBBBBBBBCtvvuMNOPONMvvvMNOPONMvvvMNOPONMuvvtsBBBBBBBBBBBBC",
"trBEEEEEEEEEEFGtSvuMNOPONMvSvMNOPONMvSvMNOPONMuvStrBEEEEEEEEEEFG",
"trsECCCCCCCCGHGtTvuMNOPONMvTvMNOPONMvTvMNOPONMuvTtrsECCCCCCCCGHG",
"trsBFFFFFFFHLHGtUvuMNOPONMvUvMNOPONMvUvMNOPONMuvUtrsBFFFFFFFHLHG",
"trsBGGGGGGGQLHGtVvuMNOPONMvVvMNOPONMvVvMNOPONMuvVtrsBGGGGGGGQLHG",
"trsBHHHHHHHQLHGtWvuMNOPONMvWvMNOPONMvWvMNOPONMuvWtrsBHHHHHHHQLHG",
"trsBLLLLLLLQLHGtXvuMNOPONMvXvMNOPONMvXvMNOPONMuvXtrsBLLLLLLLQLHG",
"trsBQQQQQQQQLHGtXvuMNOPONMvXvMNOPONMvXvMNOPONMuvXtrsBQQQQQQQQLHG",
"trsBLLLLLLLQLHGtXvuMNOPONMvXvMNOPONMvXvMNOPONMuvXtrsBLLLLLLLQLHG",
"trsBHHHHHHHQLHGtXvuMNOPONMvXvMNOPONMvXvMNOPONMuvXtrsBHHHHHHHQLHG",
"trsBGGGGGGGQLHGtXvuMNOPONMvXvMNOPONMvXvMNOPONMuvXtrsBGGGGGGGQLHG",
"trsBFFFFFFFHLHGtWvuMNOPONMvWvMNOPONMvWvMNOPONMuvWtrsBFFFFFFFHLHG",
"trsECCCCCCCCGHGtVvuMNOPONMvVvMNOPONMvVvMNOPONMuvVtrsECCCCCCCCGHG",
"trBEEEEEEEEEEFGtUvuMNOPONMvUvMNOPONMvUvMNOPONMuvUtrBEEEEEEEEEEFG",
"tsBBBBBBBBBBBBCtTvuMNOPONMvTvMNOPONMvTvMNOPONMuvTtsBBBBBBBBBBBBC",
"rsssssssssssssstSvuMNOPONMvSvMNOPONMvSvMNOPONMuvSsssssssssssssss",
"tsBBBBBBBBBBBBCtvvuMNOPONMvvvMNOPONMvvvMNOPONMuvvtsBBBBBBBBBBBBC",
"trBEEEEEEEEEEFGtRvuMNOPONMvRvMNOPONMvRvMNOPONMuvRtrBEEEEEEEEEEFG",
"trsECCCCCCCCGHGtuvuMNOPONMvuvMNOPONMvuvMNOPONMuvutrsECCCCCCCCGHG",
"trsBFFFFFFFHLHGtuvuMNOPONMvuvMNOPONMvuvMNOPONMuvutrsBFFFFFFFHLHG",
"trsBGGGGGGGQLHGtuvuMNOPONMvuvMNOPONMvuvMNOPONMuvutrsBGGGGGGGQLHG",
"trsBHHHHHHHQLHGtuvuMNOPONMvuvMNOPONMvuvMNOPONMuvutrsBHHHHHHHQLHG",
"trsBLLLLLLLQLHGtuvuMNOPONMvuvMNOPONMvuvMNOPONMuvutrsBLLLLLLLQLHG",
"trsBQQQQQQQQLHGtuvuMNOPONMvuvMNOPONMvuvMNOPONMuvutrsBQQQQQQQQLHG",
"trsBLLLLLLLQLHGtuvuMNOPONMvuvMNOPONMvuvMNOPONMuvutrsBLLLLLLLQLHG",
"trsBHHHHHHHQLHGtuvuMNOPONMvuvMNOPONMvuvMNOPONMuvutrsBHHHHHHHQLHG",
"trsBGGGGGGGQLHGtuvuMNOPONMvuvMNOPONMvuvMNOPONMuvutrsBGGGGGGGQLHG",
"trsBFFFFFFFHLHGtuvuMNOPONMvuvMNOPONMvuvMNOPONMuvutrsBFFFFFFFHLHG",
"trsECCCCCCCCGHGtuvuIADJJJKvuvIADJJJKvuvIADJJJKuvutrsECCCCCCCCGHG",
"trBEEEEEEEEEEFGtuvuwxwyzDzvuvwxwyzDzvuvwxwyzDzuvutrBEEEEEEEEEEFG",
"tsBBBBBBBBBBBBCtuvuwxwyzDzvuvwxwyzDzvuvwxwyzDzuvutsBBBBBBBBBBBBC",
"rsssssssssssssstuvuwxwyzAzvuvwxwyzAzvuvwxwyzAzuvusssssssssssssss",
"aaaaaaaaaaaaaaaaaaaaDJYJDaaaaaDJYJDaaaaaDJYJDaaaaaaaaaaaaaaaaaaa",
"bbbbbbbbbbbbbbbbbbbbbbbbbbbbbbbbbbbbbbbbbbbbbbbbbbbbbbbbbbbbbbbb",
"bbbbbbbbbbbbbbbbbbbbbbbbbbbbbbbbbbbbbbbbbbbbbbbbbbbbbbbbbbbbbbbb",
"gggggggggggggggggggggggggggggggggggggggggggggggggggggggggggggggg"
};