/* XPM */
static char *wall_r10_c01[] = {
"64 64 31 1",
"a	c #545454",
"b	c #444444",
"c	c #343434",
"d	c #242424",
"e	c #000000",
"f	c #747474",
"g	c #7C7C7C",
"h	c #8C8C8C",
"i	c #A0A0A0",
"j	c #2C2C2C",
"k	c #1C1C1C",
"l	c #3C3C3C",
"m	c #4C4C4C",
"n	c #6C6C6C",
"o	c #848484",
"p	c #141414",
"q	c #0C0C0C",
"r	c #5C5C5C",
"s	c #884404",
"t	c #984C08",
"u	c #AC580C",
"v	c #C06410",
"w	c #C47024",
"x	c #CC8038",
"y	c #D09050",
"z	c #D89C64",
"A	c #DCAC7C",
"B	c #2C2C00",
"C	c #3C3C00",
"D	c #505000",
"E	c #646400",
"aaaaaaaaaaaabcdeffghiiiiiiiiiiiiiiiiiiiiiiiiiiiiijaaaaaaaaaaaajk",
"lllllllllllljdkejlmnnnnnnnnnnnnnnnnnnnnnnnnnnnfoijlllllllllllljk",
"ddddddddddddkpqejlmnnnlllllllllllllllllllllnnnfoijddddddddddddjk",
"llllrrrrrllljkqejlmnnnomjjjjjjjjjjjjjjjjjmonnnfoijlllrrrrrlllljk",
"aaaaolllfaaabcdejlmnnnoflbmbljlbmbljlbmblfonnnfoijaaaolllfaaaajk",
"llllfsssallljdkejlmnnnoflbmbljlbmbljlbmblfonnnfoijlllfsssalllljk",
"ddddltttldddkpqejlmnnnoflbmbljlbmbljlbmblfonnnfoijdddltttlddddjk",
"llllfuuuallljkqejlmnnnoflbmbljlbmbljlbmblfonnnfoijlllfuuualllljk",
"aaaaovvvfaaabcdejlmnnnoflbmbljlbmbljlbmblfonnnfoijaaaovvvfaaaajk",
"llllfwwwallljdkejlmnnnoflbmbljlbmbljlbmblfonnnfoijlllfwwwalllljk",
"ddddlxxxldddkpqejlmnnnoflbmbljlbmbljlbmblfonnnfoijdddlxxxlddddjk",
"llllfyyyallljkqejlmnnnoflbmbljlbmbljlbmblfonnnfoijlllfyyyalllljk",
"aaaaozzzfaaabcdejlmnnnoflbmbljlbmbljlbmblfonnnfoijaaaozzzfaaaajk",
"llllfAAAallljdkejlmnnnoflbmbljlbmbljlbmblfonnnfoijlllfAAAalllljk",
"ddddlzzzldddkpqejlmnnnoflbmbljlbmbljlbmblfonnnfoijdddlzzzlddddjk",
"llllfyyyallljkqejlmnnnoflbmbljlbmbljlbmblfonnnfoijlllfyyyalllljk",
"aaaaoxxxfaaabcdejlmnnnoflbmbljlbmbljlbmblfonnnfoijaaaoxxxfaaaajk",
"llllfwwwallljdkejlmnnnoflbmbljlbmbljlbmblfonnnfoijlllfwwwalllljk",
"ddddlvvvldddkpqejlmnnnoflbmbljlbmbljlbmblfonnnfoijdddlvvvlddddjk",
"llllfuuuallljkqejlmnnnoflbmbljlbmbljlbmblfonnnfoijlllfuuualllljk",
"aaaaotttfaaabcdejlmnnnoflbmbljlbmbljlbmblfonnnfoijaaaotttfaaaajk",
"llllfsssallljdkejlmnnnoflbmbljlbmbljlbmblfonnnfoijlllfsssalllljk",
"ddddltttldddkpqejlmnnnoflbmbljlbmbljlbmblfonnnfoijdddltttlddddjk",
"llllfuuuallljkqejlmnnnoflbmbljlbmbljlbmblfonnnfoijlllfuuualllljk",
"aaaaovvvfaaabcdejlmnnnoiiiiiiiiiiiiiiiiiiionnnfoijaaaovvvfaaaajk",
"llllfwwwallljdkejlmnnnooooooooooooooooooooonnnfoijlllfwwwalllljk",
"ddddlxxxldddkpqejlmnnnnnnnnnnnnnnnnnnnnnnnnnnnfoijdddlxxxlddddjk",
"llaoyyyyydbljkqejlmnnnnnnnnnnnnnnnnnnnnnnnnnnnfoijlaoyyyyydblljk",
"laozzzzzzzdbjkqejlmnnnlllllllllllllllllllllnnnfoijaozzzzzzzdbljk",
"loAAAAAAAAAdjkqejlmnnnomjjjjjjjjjjjjjjjjjmonnnfoijoAAAAAAAAAdljk",
"lozzzzzzzzzdjkqejlmnnnoflbmbljlbmbljlbmblfonnnfoijozzzzzzzzzdljk",
"loyyyyyyyyydjkqejlmnnnoflbmbljlbmbljlbmblfonnnfoijoyyyyyyyyydljk",
"lffffffffffajkqejlmnnnoflbmbljlbmbljlbmblfonnnfoijffffffffffaljk",
"lrrrrrrrrrrrjkqejlmnnnoflbmbljlbmbljlbmblfonnnfoijrrrrrrrrrrrljk",
"lllllllllllljkqejlmnnnoflbmbljlbmbljlbmblfonnnfoijlllllllllllljk",
"jjjjjjjjjjjjjkqejlmnnnoiiiiiiiiiiiiiiiiiiionnnfoijjjjjjjjjjjjjjk",
"kkkkkkkkkkkkkkqejlmnnnooooooooooooooooooooonnnfoikkkkkkkkkkkkkkk",
"eeeeeeeeeeeeeeeejlmnnnnnnnnnnnnnnnnnnnnnnnnnnnfoieeeeeeeeeeeeeee",
"eeeeeeeeeeeeeeeejlmnnnnnnnnnnnnnnnnnnnnnnnnnnnfoieeeeeeeeeeeeeee",
"ffffffffffffffbpjlmnnnlllllllllllllllllllllnnnfoifffffffffffffff",
"aaaaaaaaaaaaaabkjlmnnnomjjjjjjjjjjjjjjjjjmonnnfoiaaaaaaaaaaaaaaa",
"lllllllllllllljejlmnnnoflbmbljlbmbljlbmblfonnnfoilllllllllllllll",
"lllllllllllllljejlmnnnoflbmbljlbmbljlbmblfonnnfoilllllllllllllll",
"aaaaaaaaaaaaaalkjlmnnnoflbmbljlbmbljlbmblfonnnfoiaaaaaaaaaaaaaaa",
"ccccccccccccccppjlmnnnoflbmbljlbmbljlbmblfonnnfoiccccccccccccccc",
"ddddddddddddddeejlmnnnoflbmbljlbmbljlbmblfonnnfoiddddddddddddddd",
"kkkkkkkkkkkkkkeejlmnnnoflbmbljlbmbljlbmblfonnnfoikkkkkkkkkkkkkkk",
"ppppppppppppppeejlmnnnoflbmbljlbmbljlbmblfonnnfoippppppppppppppp",
"BBBBBBBBBBBBBBBBjlmnnnoflbmbljlbmbljlbmblfonnnfoiBBBBBBBBBBBBBBB",
"CCCCCCCCCCCCCCCCjlmnnnoflbmbljlbmbljlbmblfonnnfoiCCCCCCCCCCCCCCC",
"DDDDDDDDDDDDDDDDjlmnnnoflbmbljlbmbljlbmblfonnnfoiDDDDDDDDDDDDDDD",
"EEEEEEEEEEEEEEEEjlmnnnoflbmbljlbmbljlbmblfonnnfoiEEEEEEEEEEEEEEE",
"DDDDDDDDDDDDDDDDjlmnnnoflbmbljlbmbljlbmblfonnnfoiDDDDDDDDDDDDDDD",
"CCCCCCCCCCCCCCCCjlmnnnoflbmbljlbmbljlbmblfonnnfoiCCCCCCCCCCCCCCC",
"BBBBBBBBBBBBBBBBjlmnnnoflbmbljlbmbljlbmblfonnnfoiBBBBBBBBBBBBBBB",
"eeeeeeeeeeeeeeeejlmnnnoflbmbljlbmbljlbmblfonnnfoieeeeeeeeeeeeeee",
"ppppppppppppppeejlmnnnoiiiiiiiiiiiiiiiiiiionnnfoippppppppppppppp",
"kkkkkkkkkkkkkkeejlmnnnooooooooooooooooooooonnnfoikkkkkkkkkkkkkkk",
"ddddddddddddddeejlmnnnnnnnnnnnnnnnnnnnnnnnnnnnfoiddddddddddddddd",
"ccccccccccccccppjlmnnnnnnnnnnnnnnnnnnnnnnnnnnnfoiccccccccccccccc",
"ffffffffffffffbpjlmnnnnnnnnnnnnnnnnnnnnnnnnnnnfoifffffffffffffff",
"aaaaaaaaaaaaaabkjlmnnnnnnnnnnnnnnnnnnnnnnnnnnnfoiaaaaaaaaaaaaaaa",
"lllllllllllllljejlmnnnnnnnnnnnnnnnnnnnnnnnnnnnfoilllllllllllllll",
"llllllllllllllcqcbannnnnnnnnnnnnnnnnnnnnnnnnnnfoilllllllllllllll"
};