/* XPM */
static char *wall_r07_c00[] = {
"64 64 26 1",
"a	c #747474",
"b	c #848484",
"c	c #989898",
"d	c #A0A0A0",
"e	c #5C5C5C",
"f	c #BCBCBC",
"g	c #C4C4C4",
"h	c #CCCCCC",
"i	c #D8D8D8",
"j	c #E0E0E0",
"k	c #4C4C4C",
"l	c #7C7C7C",
"m	c #8C8C8C",
"n	c #2C2C2C",
"o	c #6C6C6C",
"p	c #B0B0B0",
"q	c #646464",
"r	c #3C3C3C",
"s	c #545454",
"t	c #A8A8A8",
"u	c #343434",
"v	c #242424",
"w	c #1C1C1C",
"x	c #444444",
"y	c #0C0C0C",
"z	c #000000",
"abccdccdcdcccdcdcdcdcccddcdcddeedfgghhgfgghghgghghghfghgfghiijee",
"kablmblblbmalblbbmmbmlmbmlbmcdenodfhfpfhgfhfgpfgfgffpfpfgfhgjiqn",
"rebaeresekseekeqeearebeaeaeemcknecdtcaccddccdcfddfmdccbdqbmtgieu",
"nksqsqeseeqeqesesesqaaeaaaeabckvsbtdddcdcpcbcddddadcmccmacddfhkn",
"nkkeesaqsqeskeeaeaesereoereoldenkadmcdtddctcdcdccbdpddcdbtdcfgeu",
"wkssqeqeoeseaqqeoeaoaebeaebemckvkodcmcdccmdccddcdccccactbccdhhsn",
"wrkqekaqqeaeqekaqqeaeqeaeqeabcensapdcddctccdmcmdpdtbdcfcddtdfgkn",
"wkxeoqeoeaoaebeqeoeseaqqeaqqldknkadccdtdcdbmdcddbdcdcdcdcdcdpgeu",
"wrkkqeaeaeseresaqsqeskeaskeamceuxocbcmdcdcddtpdcccmbtdctmcmdfhsn",
"wrxeosesesqaaeqeseeqeqeqeqeqldknkaccdctdcbcddcddcmdbcmcdctdpfgku",
"wrxqqbqeqeeqeeskessaqqabkeeqmckvxotdcmdtddddmccbddtaccdcpdtdpgsn",
"wrkeaceaeeaeekaaksbqabeaeeaembenrqbcdtcddcdcdcfcadctcmbcmqbcpfen",
"ynrururuurrururrrrururrrrrrkkakwukqoalalalaalaalaaoalaalaaabtdku",
"zywwwwwwwwwwwwwwwwwwwwwwwwwwnrevnuuxkkxkxkkxkkskxkskkxrxkkkkemsn",
"nnnnnnnwnnnnnnnnnwnnnwnnnnnnnekwvnvnvunwnnvnnvnwnwnnnwnvnvnvneku",
"rxkrkeakekekrkkekksekekekkskeekkekrksskekskrkssxkkxkkkekkxkeeesk",
"ggggggfgggghijeedfgggggfghhgghgghghhggfgghghijeedfghgfggggghhghg",
"gfpfpffffffhjienodfhfpfpfhfpfhfppffhfpffpffhjienotffgffpfpfgfpfg",
"ddccbdcbmdcthiknecdtcatcdqcfdcbdcbmfddftcdcthikneadmbcdbccdqcdcc",
"ccmccmbcdctdfhkvsbtddddtdabcfdcmbcdaddddtctdfhkvsetdcbmccmcaccdc",
"cpddcddtdpmcfgsnkadmcdtdmbdddccddtdbccdtdpmcfgknkqddtddcddpbbccd",
"cccacttccccdhhkvkodcmccmcbcdddcttcccdcdcmccdhhkvkqdccttcaccbdcdc",
"cbdcfcmdtbddfgsnsapdcddcddddbcfcmdtdpdmdcbddfgrnsqptdmcfcdbddcdd",
"cdcdcdcdcdcdpgknkadccddtdpdmdccdcdcdbdddtdcdpgknkedcdcdcdcddcfcc",
"cbtdctmcmbcdfhruxocbcmcccdcdddctmcmcccdcdcddfhruxocmcmtcdtbcacdd",
"cbcmcdctdbcpfgknkaccdctdbccddfcdctdmcddmtcdpfgsnkecdtcdcmcbddcdd",
"daccdcpdtacdpgkvxotdcmcdaddddcdcpdtddbccdcmdpgkvxottdpcdccacdcbb",
"dddbdcbmfqbcpfsnrqbcdtbmfddfdcbmctcdacfpcdccpfknrebcdtcddcdccbdd",
"afddfmbcdaabtdkwukqoalaaaaaaaaaaaaaaaaaaaaabtdswukeoaqalaqaooaoa",
"rrrrrrrrrkkkemsvnuuxkkkkkkkkkkkkkkkkkkkkkkkkemkvnuuxkkxkxxkrkxxk",
"rwnvvwnvnvnvnxkwvnvnvnnwnnnnnnnnnwnnnwnnnvnvneswvnvnvvnwvnvwvnvn",
"rkkxkekskkxksxkkrkkrkeakekekrkkekkkekekekkkkeskkskrkskekkkskksks",
"dfggfggggfggggggggfgggfgggggiieeabccdccdcdcccdcdcdcdcccddcdcddee",
"bdfffgfpffgfpfpfpfffffffpfpfgienkablmblblbmalblbbmmbmlmbmlbmcden",
"acdccddcccddcdccbdcbmbcdbccdfgknrebaeresekseekeqeearebeaeaeemckn",
"ebccdcpccdcpccmccmbcdcbmccmcpgxnnksqsqeseeqeqesesesqaaeaaaeabckv",
"ebctddcttddctpddcddtdtddcddpfgkvnkkeesaqsqeskeeaeaesereoereoldev",
"kbbdccmddccmdccacttcccttcaccfgxnwkssqeqeoeseaqqeoeaoaebeaebemckn",
"kacdctccdctccbdcfcmdtdmcfcdbpgxwwrkqekaqqeaeqekaqqeaeqeaeqeabcev",
"kactdcdbtdcdbdcdcdcdcdcdcdcdfgkvwkxeoqeoeaoaebeqeoeseaqqeaqqldkn",
"kafdcdcddcdcdbtdctmcmcmtcdtbghxwwrkkqeaeaeseresaqsqeskeaskeamcev",
"kabtdcbctdcbcbcmcdctdtcdcmcbpgknwrxeosesesqaaeqeseeqeqeqeqeqldkn",
"kaddtddddtdddaccdcpdtdpcdccaggkvwrxqqbqeqeeqeeskessaqqabkeeqmckv",
"kaccddcdcddcdcdcfcadctcmbcmqpfrnwrkeaceaeeaeekaaksbqabeaeeaembev",
"reaalalaalalaalaalaaoalaalaabdkwynrururuurrururrrrururrrrrrkkakw",
"nrkxkxkkxkxkkxkkskxkskkxrxkkeakvzywwwwwwwwwwwwwwwwwwwwwwwwwwnrev",
"nnnnwnnvnwnnvnnvnwnwnnnwnvnvnexwnnnnnnnwnnnnnnnnnwnnnwnnnnnnnekn",
"rkkrkeakekekrkkekkkekekxkxkkkxkkekrksxkekskxkxsxkkxkkkekkxkeeesk",
"hghghgggghhihixxdfghgggfghgghgghggggfgggggghijeedfhgghgfghghghgg",
"gfgggfgfgfhhiixnodfhfpffgfpfgpfgfpffffpfpffhjiqnodfhfpffgfpfgfgf",
"bdcbmfddfqtphiknecdtcaccddccdcfddfmbcdbccdcthienecdtcadcddcacbdc",
"cmbcdadddatphhxvsbtdddcdcpcbcddddadcbmccmctdfhkvsbtddtcdcpccdcct",
"cddtdbccdbmcfgknkadmcdtddctcdcdccbdtddcddpmcfgenkadmcdtddctcbccd",
"cttcccdcdbcdhhrvkodcmcdccmdccddcdcccttcacccdhhsvkodcmcddcmdcdctd",
"fcmdtdpdmdddfgknsapdcddctccdmcmdpdtdmcfcdbddfgknsapdcddctcccdcdc",
"cdcdcdbdddcdpgknkadccdtdcdbmdcddbdcdcdcdcdcdpgenkadccdtdcdbdcfcc",
"ctmcmcccdbcdfheuxocbcmdcdcddtpdcccmcmtmcdcddfhsuxocbcmdcdcdcacdd",
"cdctdmcddbcpfgknkaccdctdcbcddcddcmdtcdcmtcdpfgknkaccdctdcbcddcdd",
"dcpdtddbcacdpgxvxotdcmdtddddmccbddtdpcpcdcmdpgsvxotdcmdtdddcacbb",
"bmctcdacfqbcpfknrqbcdtcddcdcdcfcadctcmbpcdccpfenrqbcdtcddcdccbdd",
"aaaaaaaaaaabtdkwukqoalalalaalaalaaoalaalaaabtdkwukqoalalalaoeaoa",
"srururuurkskemrvnuuxkkxkxkkxkkskxkskkxrxkkxkemsvnuuxkkxkxkxkxkrk",
"nwnvwwvvnvnvnekwvnvnvnvwnnvnnvnwnwnnnwnvnvnvnekwvnvnvnnunnunnunn",
"rkxrkxxrxkxkexxkekrksskxkskrksxxkkxkkkekkxkeseskskskkrkekksesksk"
};