/* XPM */
static char *wall_r11_c01[] = {
"64 64 24 1",
"a	c #848484",
"b	c #747474",
"c	c #3C3C3C",
"d	c #2C2C2C",
"e	c #1C1C1C",
"f	c #0C0C0C",
"g	c #7C7C7C",
"h	c #8C8C8C",
"i	c #A0A0A0",
"j	c #000000",
"k	c #343434",
"l	c #444444",
"m	c #545454",
"n	c #1010C0",
"o	c #2828C8",
"p	c #4040D0",
"q	c #5C5CD8",
"r	c #4C4C4C",
"s	c #242424",
"t	c #141414",
"u	c #2C2C00",
"v	c #3C3C00",
"w	c #505000",
"x	c #646400",
"abcccccdefbbghiiiiiiiiiijbbghiiiiiiiiiijbbghiiiiiiiiiikccccccdba",
"abcccccdefklmbbbbbbbbbaijklmbbbbbbbbbaijklmbbbbbbbbbaikccccccdba",
"abcccccdefklmmmmmmmmmbaijklmmmmmmmmmbaijklmmmmmmmmmbaikccccccdba",
"abcccccdefklmbnoppponbaijklmbnoppponbaijklmbnoppponbaikccccccdba",
"abcccccdefklmbnopqponbaijklmbnopqponbaijklmbnopqponbaikccccccdba",
"abcccccdefklmbnopqponbaijklmbnopqponbaijklmbnopqponbaikccccccdba",
"abcccccdefklmbnopqponbaijklmbnopqponbaijklmbnopqponbaikccccccdba",
"abcccccdefklmbnopqponbaijklmbnopqponbaijklmbnopqponbaikccccccdba",
"abcccccdefklmbnopqponbaijklmbnopqponbaijklmbnopqponbaikccccccdba",
"abcccccdefklmbnopqponbaijklmbnopqponbaijklmbnopqponbaikccccccdba",
"abcccccdefklmbnopqponbaijklmbnopqponbaijklmbnopqponbaikccccccdba",
"abcccccdefklmbnopqponbaijklmbnopqponbaijklmbnopqponbaikccccccdba",
"abcccccdefklmbnopqponbaijklmbnopqponbaijklmbnopqponbaikccccccdba",
"abcccccdefklmbnopqponbaijklmbnopqponbaijklmbnopqponbaikccccccdba",
"abcccccdefklmbnopqponbaijklmbnopqponbaijklmbnopqponbaikccccccdba",
"abcccccdefklmbnopqponbaijklmbnopqponbaijklmbnopqponbaikccccccdba",
"abcccccdefklmbnopqponbaijklmbnopqponbaijklmbnopqponbaikccccccdba",
"abcccccdefklmbnopqponbaijklmbnopqponbaijklmbnopqponbaikccccccdba",
"abcccccdefklmbnopqponbaijklmbnopqponbaijklmbnopqponbaikccccccdba",
"abcccccdefklmbnopqponbaijklmbnopqponbaijklmbnopqponbaikccccccdba",
"abcccccdefklmbnopqponbaijklmbnopqponbaijklmbnopqponbaikccccccdba",
"abcccccdefklmbnopqponbaijklmbnopqponbaijklmbnopqponbaikccccccdba",
"abcccccdefklmbnopqponbaijklmbnopqponbaijklmbnopqponbaikccccccdba",
"abcccccdefklmbnopqponbaijklmbnopqponbaijklmbnopqponbaikccccccdba",
"abcccccdefklmbnopqponbaijklmbnopqponbaijklmbnopqponbaikccccccdba",
"abcccccdefklmbnopqponbaijklmbnopqponbaijklmbnopqponbaikccccccdba",
"abcccccdefklmbnopqponbaijklmbnopqponbaijklmbnopqponbaikccccccdba",
"abcccccdefklmbnopqponbaijklmbnopqponbaijklmbnopqponbaikccccccdba",
"abcccccdefklmbnopqponbaijklmbnopqponbaijklmbnopqponbaikccccccdba",
"abcccccdefklmbnopqponbaijklmbnopqponbaijklmbnopqponbaikccccccdba",
"abcccccdefklmbnopqponbaijklmbnopqponbaijklmbnopqponbaikccccccdba",
"abcccccdefklmbnopqponbaijklmbnopqponbaijklmbnopqponbaikccccccdba",
"abcccccdefklmbnopqponbaijklmbnopqponbaijklmbnopqponbaikccccccdba",
"abcccccdefklmbnopqponbaijklmbnopqponbaijklmbnopqponbaikccccccdba",
"abcccccdefklmbnopqponbaijklmbnopqponbaijklmbnopqponbaikccccccdba",
"bbkkkkkdefklmbnopqponbaijklmbnopqponbaijklmbnopqponbaikkkkkkkkbb",
"rcssssseefklmbnopqponbaijklmbnopqponbaijklmbnopqponbaisssssssscr",
"jjjjjjjjjjklmbnopqponbaijklmbnopqponbaijklmbnopqponbaijjjjjjjjjj",
"jjjjjjjjjjklmbnopqponbaijklmbnopqponbaijklmbnopqponbaijjjjjjjjjj",
"bbbbbbbbltklmbnopqponbaijklmbnopqponbaijklmbnopqponbaibbbbbbbbbb",
"mmmmmmmmleklmbnopqponbaijklmbnopqponbaijklmbnopqponbaimmmmmmmmmm",
"ccccccccdjklmbnopqponbaijklmbnopqponbaijklmbnopqponbaikccccccccc",
"ccccccccdjklmbnopqponbaijklmbnopqponbaijklmbnopqponbaikccccccccc",
"mmmmmmmmceklmbnopqponbaijklmbnopqponbaijklmbnopqponbaimmmmmmmmmm",
"kkkkkkkkttklmbnopqponbaijklmbnopqponbaijklmbnopqponbaikkkkkkkkkk",
"ssssssssjjklmbnopqponbaijklmbnopqponbaijklmbnopqponbaissssssssss",
"eeeeeeeeejklmbnopqponbaijklmbnopqponbaijklmbnopqponbaieeeeeeeeee",
"ttttttttttklmbnopqponbaijklmbnopqponbaijklmbnopqponbaitttttttttt",
"uuuuuuuuuuklmbnopqponbaijklmbnopqponbaijklmbnopqponbaiuuuuuuuuuu",
"vvvvvvvvvvklmbnopqponbaijklmbnopqponbaijklmbnopqponbaivvvvvvvvvv",
"wwwwwwwwwwklmbnopqponbaijklmbnopqponbaijklmbnopqponbaiwwwwwwwwww",
"xxxxxxxxxxklmbnopqponbaijklmbnopqponbaijklmbnopqponbaixxxxxxxxxx",
"wwwwwwwwwwklmbnopqponbaijklmbnopqponbaijklmbnopqponbaiwwwwwwwwww",
"vvvvvvvvvvklmbnopqponbaijklmbnopqponbaijklmbnopqponbaivvvvvvvvvv",
"uuuuuuuuuuklmbnopqponbaijklmbnopqponbaijklmbnopqponbaiuuuuuuuuuu",
"jjjjjjjjjjklmbnopqponbaijklmbnopqponbaijklmbnopqponbaijjjjjjjjjj",
"ttttttttttklmbnopqponbaijklmbnopqponbaijklmbnopqponbaitttttttttt",
"eeeeeeeeejklmbnopqponbaijklmbnopqponbaijklmbnopqponbaieeeeeeeeee",
"ssssssssjjklmbnopqponbaijklmbnopqponbaijklmbnopqponbaissssssssss",
"kkkkkkkkttklmbnopqponbaijklmbnopqponbaijklmbnopqponbaikkkkkkkkkk",
"bbbbbbbbltklmbnoppponbaijklmbnoppponbaijklmbnoppponbaibbbbbbbbbb",
"mmmmmmmmleklmbgggggggbaijklmbgggggggbaijklmbgggggggbaimmmmmmmmmm",
"ccccccccdjklmbbbbbbbbbaijklmbbbbbbbbbaijklmbbbbbbbbbaikccccccccc",
"cccccccckfklmbbbbbbbbbaijklmbbbbbbbbbaijklmbbbbbbbbbaikccccccccc"
};