/* XPM */
static char *wall_r03_c09[] = {
"64 64 23 1",
"a	c #80A0C4",
"b	c #6C90BC",
"c	c #4C78A8",
"d	c #008C00",
"e	c #5CD85C",
"f	c #B8ECB8",
"g	c #78E078",
"h	c #00A400",
"i	c #3C6CA0",
"j	c #2C5480",
"k	c #2C1400",
"l	c #142840",
"m	c #346090",
"n	c #3C1C00",
"o	c #643000",
"p	c #502400",
"q	c #204060",
"r	c #743804",
"s	c #884404",
"t	c #984C08",
"u	c #AC580C",
"v	c #C06410",
"w	c #244870",
"aaaaaaaaaaaaaaaaaaaaaaaaaaaaaaaaaaaaaaaaaaaaaaaaaaaaaaaaaaaaaaaa",
"bbbbbbbbbbbbbbbbbbbbbbbbbbbbbbbbbbbbbbbbbbbbbbbbbbbbbbbbbbbbbbbb",
"cccccccccccccccccccccccccccccccccccccccccccccccccccccccccccccccc",
"dddddddddddddddddddddddddddddddddddddddddddddddddddddddddddddddd",
"eeeeeeeeeeeeeeeeeeeeeeeeeeeeeeeeeeeeeeeeeeeeeeeeeeeeeeeeeeeeeeee",
"ffffffffffffffffffffffffffffffffffffffffffffffffffffffffffffffff",
"gggggggggggggggggggggggggggggggggggggggggggggggggggggggggggggggg",
"hhhhhhhhhhhhhhhhhhhhhhhhhhhhhhhhhhhhhhhhhhhhhhhhhhhhhhhhhhhhhhhh",
"bbbbbbbbbbbbbbbbbbbbbbbbbbbbbbbbbbbbbbbbbbbbbbbbbbbbbbbbbbbbbbbb",
"iiiiiiiiiiiiiiiiiiiiiiiiiiiiiiiiiiiiiiiiiiiiiiiiiiiiiiiiiiiiiiii",
"jjjjjjjjjjjjjjjjjjjjjjjjjjjjjjjjjjjjjjjjjjjjjjjjjjjjjjjjjjjjjjjj",
"kkkkkkkkkkkkkkkkkkkkkkkkkkkkkkljmckkkkkkkkkkkkkkkkkkkkkkkkkkkkkk",
"kknnnnnnnnnnnnokknnnnnnnnnnnnpqicbkknnnnnnnnnnnnokknnnnnnnnnnnno",
"kknpppppppppprskknpppppppppprkqicbkknpppppppppprskknpppppppppprs",
"kkkpoooooooostskkkpoooooooostkqicbkkkpoooooooostskkkpoooooooosts",
"kkknrrrrrrrtutskkknrrrrrrrtutkqicbkkknrrrrrrrtutskkknrrrrrrrtuts",
"kkknsssssssvutskkknsssssssvutkqicbkkknsssssssvutskkknsssssssvuts",
"kkkntttttttvutskkkntttttttvutkqicbkkkntttttttvutskkkntttttttvuts",
"kkknuuuuuuuvutskkknuuuuuuuvutkqicbkkknuuuuuuuvutskkknuuuuuuuvuts",
"kkknvvvvvvvvutskkknvvvvvvvvutkqicbkkknvvvvvvvvutskkknvvvvvvvvuts",
"kkknuuuuuuuvutskkknuuuuuuuvutkqicbkkknuuuuuuuvutskkknuuuuuuuvuts",
"kkkntttttttvutskkkntttttttvutkqicbkkkntttttttvutskkkntttttttvuts",
"kkknsssssssvutskkknsssssssvutkqicbkkknsssssssvutskkknsssssssvuts",
"kkknrrrrrrrtutskkknrrrrrrrtutkqicbkkknrrrrrrrtutskkknrrrrrrrtuts",
"kkkpoooooooostskkkpoooooooostkqicbkkkpoooooooostskkkpoooooooosts",
"kknpppppppppprskknpppppppppprkqicbkknpppppppppprskknpppppppppprs",
"kknnnnnnnnnnnnokknnnnnnnnnnnnpqicbkknnnnnnnnnnnnokknnnnnnnnnnnno",
"kkkkkkkkkkkkkkkkkkkkkkkkkkkkkkqicbkkkkkkkkkkkkkkkkkkkkkkkkkkkkkk",
"kknnnnnnnnnnnnnnnnnnnnnnnnnnnpqicbkknnnnnnnnnnnnnnnnnnnnnnnnnnno",
"kknppppppppppppppppppppppppprkqicbkknppppppppppppppppppppppppprs",
"kkkpooooooooooooooooooooooostkqicbkkkpooooooooooooooooooooooosts",
"kkknrrrrrrrrrrrrrrrrrrrrrrtutkqicbkkknrrrrrrrrrrrrrrrrrrrrrrtuts",
"kkknssssssssssssssssssssssvutkqicbkkknssssssssssssssssssssssvuts",
"kkknttttttttttttttttttttttvutkqicbkkknttttttttttttttttttttttvuts",
"kkknuuuuuuuuuuuuuuuuuuuuuuvutkqicbkkknuuuuuuuuuuuuuuuuuuuuuuvuts",
"kkknvvvvvvvvvvvvvvvvvvvvvvvutkqicbkkknvvvvvvvvvvvvvvvvvvvvvvvuts",
"kkknuuuuuuuuuuuuuuuuuuuuuuvutkqicbkkknuuuuuuuuuuuuuuuuuuuuuuvuts",
"kkknttttttttttttttttttttttvutkqicbkkknttttttttttttttttttttttvuts",
"kkknssssssssssssssssssssssvutkqicbkkknssssssssssssssssssssssvuts",
"kkknrrrrrrrrrrrrrrrrrrrrrrtutkqicbkkknrrrrrrrrrrrrrrrrrrrrrrtuts",
"kkkpooooooooooooooooooooooostkqicbkkkpooooooooooooooooooooooosts",
"kknppppppppppppppppppppppppprkqicbkknppppppppppppppppppppppppprs",
"kknnnnnnnnnnnnnnnnnnnnnnnnnnnpqicbkknnnnnnnnnnnnnnnnnnnnnnnnnnno",
"kkkkkkkkkkkkkkkkkkkkkkkkkkkkkkqicbkkkkkkkkkkkkkkkkkkkkkkkkkkkkkk",
"kknnnnnnnnnnnnnnnnnnnnnnnnnnnpqicbkknnnnnnnnnnnnnnnnnnnnnnnnnnno",
"kknppppppppppppppppppppppppprkqicbkknppppppppppppppppppppppppprs",
"kkkpooooooooooooooooooooooostkqicbkkkpooooooooooooooooooooooosts",
"kkknrrrrrrrrrrrrrrrrrrrrrrtutkqicbkkknrrrrrrrrrrrrrrrrrrrrrrtuts",
"kkknssssssssssssssssssssssvutkqicbkkknssssssssssssssssssssssvuts",
"kkknttttttttttttttttttttttvutkqicbkkknttttttttttttttttttttttvuts",
"kkknuuuuuuuuuuuuuuuuuuuuuuvutkqicbkkknuuuuuuuuuuuuuuuuuuuuuuvuts",
"kkknvvvvvvvvvvvvvvvvvvvvvvvutkqicbkkknvvvvvvvvvvvvvvvvvvvvvvvuts",
"kkknuuuuuuuuuuuuuuuuuuuuuuvutkqicbkkknuuuuuuuuuuuuuuuuuuuuuuvuts",
"kkknttttttttttttttttttttttvutkqicbkkknttttttttttttttttttttttvuts",
"kkknssssssssssssssssssssssvutkqicbkkknssssssssssssssssssssssvuts",
"kkknrrrrrrrrrrrrrrrrrrrrrrtutkqicbkkknrrrrrrrrrrrrrrrrrrrrrrtuts",
"kkkpooooooooooooooooooooooostkqicbkkkpooooooooooooooooooooooosts",
"kknppppppppppppppppppppppppprkqicbkknppppppppppppppppppppppppprs",
"kknnnnnnnnnnnnnnnnnnnnnnnnnnnpqicbkknnnnnnnnnnnnnnnnnnnnnnnnnnno",
"kkkkkkkkkkkkkkkkkkkkkkkkkkkkkkqicbkkkkkkkkkkkkkkkkkkkkkkkkkkkkkk",
"bbbbbbbbbbbbbbbbbbbbbbbbbbbbcmqicbbbbbbbbbbbbbbbbbbbbbbbbbbbbbbb",
"cccccccccccccccccccccccccccccmqicbcccccccccccccccccccccccccccccc",
"cccccccccccccccccccccccccccccmqicbcccccccccccccccccccccccccccccc",
"wwwwwwwwwwwwwwwwwwwwwwwwwwwwwwlqbwwwwwwwwwwwwwwwwwwwwwwwwwwwwwww"
};