/* XPM */
static char *wall_r14_c07[] = {
"64 64 17 1",
"a	c #98C0E4",
"b	c #7CACDC",
"c	c #6C90BC",
"d	c #5884B0",
"e	c #346090",
"f	c #040404",
"g	c #244870",
"h	c #3C6CA0",
"i	c #4C78A8",
"j	c #2C5480",
"k	c #204060",
"l	c #142840",
"m	c #183450",
"n	c #0C1C30",
"o	c #081420",
"p	c #0C0C0C",
"q	c #80A0C4",
"aabbbccccccddddddddddddddddddeeffghddccccccccbbaabbccccccccddddd",
"addiiiihheheeeeeeeeeejejjjjejkkfflgeeeehehhiiiiddddiiiihheheeeee",
"bdihhheeeeejjggmmmlllnfffffffffffoollmmggjjeeehhhiihhheeeeejjggm",
"bdiiihheeeejegjggmmllnfffffffffffoollmmgmjgjjeehhiiiihheeeejegjg",
"ciiiiihhheeeejjgggmlmlfffffffffffoofnlmmmggjjjehhhiiiihhheeeejjg",
"cihiiiihheeeejegjggmmlnffffffffffffnnllmmgmjgjjeehhiiiihheeeejeg",
"cihhhiihhheeeeejjggmmmnnnffffffffffnnnlllmmggjjeeehhhiihhhheeeej",
"ciehhiiljmmmmllllnlnnnmfffffffffffffffnnnnnnnnnnnllllgggmmheeeej",
"ciehhhijnppppppnnnnnnnfffffffffffffffffffffffffffpppppnnpchhheee",
"cheeehhjpljmmmmllllnlnmllnnppfpffffpfppnnllmmgmjgjjeehhidcihheee",
"cheeeehmpjihhheeejjggmmlllnnnppffffffppnnnlllmmggjjeeehhdbihhhee",
"dhjeeeempjiiihheejjgjmgmmllnnppffffffpfppnnllmmgmjgjjeehdaiiihhe",
"dejeeeempmiiiihhhejjjggmmmlnlooffffffffppnnlnlmmmggjjjehdbhiiihh",
"degejeempmhiiiihheejjgjmddddddmffdddddddfppnnllmmgmjgjjedbhiiiih",
"degjjeempmhhhiihhheeejjddjjgggmffdmllllldppnnnlllmmggjjeichhhiih",
"degjgejlnmehhiiiihheejddjjhjjgmffdmlmlllldfppnnllmmgmjgjicehhiii",
"demggjjlnmehhhiiiihhhddhihhjjjmffdmmmllllldpppnlllmmmggjidehhhii",
"demggjglnleeehhiiiihdddiihijhjmffdkmmlmlllldfppnnllmmgmjhdeeehhi",
"demmmgglnleeeehhhiiddcdddiihhjmffdkkkmmllllldppnnnlllmmghdeeeehh",
"delmmgglnljeeeehhiddqccddiihijmffdgkkmmlmlllldfppnnllmmghdeeeeeh",
"delmlmgnnljeeeehhddqqqcccdiiihmffdgkgkkmmllllldppnnlnlmmhdjeeeeh",
"denllmmnnlgejeeeedddqqqccddiihmffdjggkkmmlmllldpfppnnllmhdjejeee",
"denlllmnnngjjeeeeddccqqcccdddimffdjgggkkkmmllldffppnnnlleigjjeee",
"depnnllnnngjgejejdddcqqqqccddimffdhjjggkkmmlmldffpfppnnleigjgeje",
"djppnnlnnnmggjjejddcccqqqqcccdmffdhjjjgggkmmmldffffpppnleimggjje",
"djpppnnppnmmmjgegddddccqqqqccdmffiijhjjggkkmmldffffpfppneimggjge",
"djppppnppplmmggjgddiddcccqqcccmffiihhjjgggkkkmdffffffppneimmmggj",
"cefffpfpfnnllmmggddiiddccqqqqcmffiihijhjjggkkmdfpffffpfpeilmmggj",
"chfffffpfpnlllmmgddiiddcccqqqqmffdiiihhjjjgkgkdppffffffpehlmlmgg",
"cefffffpfppnnllmmmddiiiddccqqqmffddiihijhjjggdnppfpffffpehnllmmg",
"cepffffffppnnnllmmmddiidddcccqmffcdddiihhjjgdlnnnppfffffehnlllmm",
"cepfpffffpfppnnllmmgddiiiddccqmffccddiihijhdmllnnppfpfffehnnnllm",
"cepppffffffppnnlllmmmddiiddcccmffqcccddiihdmmmlllnpppfffehpnnnlm",
"chnppfpffffpfppnnllmmgddiiiddcmffqqccddiidmmmmmllnnppfpfehpnpnnl",
"chnnoppffffffppnnnlllmmddiidddmffqqcccdddmmkmmmlllnnnppfehpppnnl",
"cimnnppffffffpfpnnnllmmgddddddmffdddddddmmkgjmgmmllnnppfehpppnpn",
"cimllnppfffffffpppnlllmmmggjmnnffngjjjgggkjjjggmmmlnlnnpehpppppn",
"bimllnnpffpffffpfppnnllmmgmjgkmffkeiiiihheejjgjmgmmllnnpehpppppn",
"bimmllnpfppffffffppnnnlllmmggkmffmehhiihhheeejjggmmlllnnehnppppp",
"bdgmmllofppffffffpfppnnllmmgmklffmjhhiiiihheejjgjmgmmllnehnpnppp",
"bdgmmmlofnpfpffffffppnnlllmmmmlffmjhhhiiiihhheejjggmmmllehlnnppp",
"bdjmgmmnffppppfffffpfppnnllmmmofflgeehhiiiihheejjgjmgmmleilnnpnp",
"chejjgmmnnnpppfpfffffppnnnlllnofflgeeehhhiihhheeejjggmmleilllnnp",
"chejegjmnnnnnpppfffffpfppnnllnofflkjjeehhiiiihheejjgjmgmeimllnnp",
"cieeejjmnnlnnnppfffffffppnnlnooffnkjjjehhhiiiihhhejjjggmeimlmlln",
"cieeejeglnlnlnnnpfpffffpfppnnooffnljgjjeehhiiiihheejjgjmeigmmlln",
"bieeeeejlnmlllnnpppffffffppnnooffolggjjeeehhhiihhheeejjgeigmmmll",
"biheeeejlnlgmlnlnppfpffffpfppooffolgmjgjjeehhiiiihheejjgedgggmml",
"bdhhheeelnlgmmllnnpppffffffpppoffolmmggjjeehhhiiiihhheejhdjgggmm",
"bdihheeelnlgjgmllnnppfpffffpfppffonmmgmjgjjeehhiiiihheejhdjgjggm",
"bdihhheemnljjggmllnnnppffffffppffonllmmggjjeeehhhiihhheehdejjggm",
"bdiiihhemnljegjgmllnnppfpffffpfffoollmmgmjgjjeehhiiiihhehdejegjg",
"ciiiiihhmpleejjgmmlnlnnppffffffffoolnlmmmggjjjehhhiiiihhideeejjg",
"cihiiiihmpmeejeggmmllnnppfpffffffppnnllmmgmjgjjeehhiiiihideeejeg",
"cihhhiihmpmeeeejgmmlllnnnppffffffppnnnlllmmggjjeeehhhiihddheeeej",
"ciehhiiijddiihhhheheeeeeeeeeegkffmjeeeeeeeehehhhhiiddddddcheeeej",
"ciehhhiibaabcddddddiiiiiiihhhjgffkehhhiiiiiiiccccccbbbaabchhheee",
"cheeehhiiiihheeeejegjggmmllnnpoffppnpnnllmmggjgejeeeehhiiiihheee",
"cheeeehhhiihhheeeeejjggmmmlllooffppppnnlllmmmggjjeeeeehhhiihhhee",
"dhjeeeehhiiiihheeeejegjggmmllooffppppnpnnllmmggjgejeeeehhiiiihhe",
"dejeeeehhhiiiihhheeeejjgggmlmooffppppppnnllmlmgggjjeeeehhhiiiihh",
"degejeeeehhiiiihheeeejegjggmmooffpoppppnpnnllmmggjgejeeeehhiiiih",
"denllllmmmmmmjjmmmmmmllllnnnnopffppnnnnnnpppppnnnnnllllmmmmmmjjm",
"dnpppppppnnnnllllnnnnppppppppppffoopnppppnpnnnnppppppppppnnnnlll"
};