/* XPM */
static char *wall_r02_c05[] = {
"64 64 12 1",
"a	c #0C1C30",
"b	c #081420",
"c	c #2C5480",
"d	c #346090",
"e	c #5884B0",
"f	c #3C6CA0",
"g	c #6C90BC",
"h	c #204060",
"i	c #183450",
"j	c #4C78A8",
"k	c #244870",
"l	c #142840",
"abcccccccdebfffeabcccccccdebfffeabcccccccdebfffeabcccccccdebfffg",
"abhhhhhhhdebhhdeabhhhhhhhdebhhdeabhhhhhhhdebhhdeabhhhhhhhdebhhdg",
"abhhhhhhhdebhhdeabhhhhhhhdebhhdeabhhhhhhhdebhhdeabhhhhhhhdebhhdg",
"abhhhhhhhdebhhdeabhhhhhhhdebhhdeabhhhhhhhdebhhdeabhhhhhhhdebhhdg",
"abhhhhhhhdebijdeabhhhhhhhdebijdeabhhhhhhhdebijdeabhhhhhhhdebijdg",
"abhhhhhhhdebaideabhhhhhhhdebaideabhhhhhhhdebaideabhhhhhhhdebaidg",
"abaaaaaaaafbhhdeabaaaaaaaafbhhdeabaaaaaaaafbhhdeabaaaaaaaafbhhdg",
"dhkkihhihhabhhdedihhhhhlihabhhdedkkkkkhkhhabhhdedkccccccchabhhdg",
"dhkkihhihhabhhdedihhhhhlhhabhhdedkkkkkhkhhabhhdedkccccccchabhhdg",
"dhkkihhihhabhhdedihhhhhlhhabhhdedkkkkkikihabhhdedhhhhhhhhhabhhdg",
"dhkkihhihhabijdedlhlihhlhhabijdedkkkkkikihabijdedhhhhhiihhabijdg",
"dhkkihhiiiabaidedlhlihhlhiabaidedkkkkkikiiabaidedcchhkiiciabaidg",
"dhkkihhiiiabhhdedlhlihhlhiabhhdedkkkkkikihabhhdedcchhkiiciabhhdg",
"dhkkihhiiiabhhdedlhlihhlhiabhhdedkkkkkikiiabhhdedcchhkiiciabhhdg",
"dhkkihhiiiabhhdedlhlihhlhiabhhdediiiiiiiiiabhhdedcchhkiiciabhhdg",
"dhkkihhiiiabhhdedlhlihhlhiabhhdediiiiiiiiiabhhdedcchhkiiciabhhdg",
"fffffffffffcijdefffffffffffcijdefffffffffffcijdedffffffffffcijdg",
"dbbbbbbbbbbbaidedbbbbbbbbbbbaidedbbbbbbbbbbbaidedbbbbbbbbbbbaidg",
"dbbbbbbbbbbbhhdedbbbbbbbbbbbhhdedbbbbbbbbbbbhhdedbbbbbbbbbbbhhdg",
"dbbbbbbbbbbbhhdedbbbbbbbbbbbhhdedbbbbbbbbbbbhhdedbbbbbbbbbbbhhdg",
"dbbbbbbbbbbbhhdedbbbbbbbbbbbhhdedbbbbbbbbbbbhhdedbbbbbbbbbbbhhdg",
"dbbbbbbbbbbbhhdedbbbbbbbbbbbhhdedbbbbbbbbbbbhhdedbbbbbbbbbbbhhdg",
"dbbbbbbbbbbbijdedbbbbbbbbbbbijdedbbbbbbbbbbbijdedbbbbbbbbbbbijdg",
"dbbbbbbbbbbbaidedbbbbbbbbbbbaidedbbbbbbbbbbbaidedbbbbbbbbbbbaidg",
"dbbbbbbbbbbbhhdedbbbbbbbbbbbhhdedbbbbbbbbbbbhhdedbbbbbbbbbbbhhdg",
"dbbbbbbbbbbbhhdedbbbbbbbbbbbhhdedbbbbbbbbbbbhhdedbbbbbbbbbbbhhdg",
"eeeeeeeeeeefhhdeeeeeeeeeeeefhhdeeeeeeeeeeeefhhdeeeeeeeeeeeefhhdg",
"ddddddddddkbhhdeddddddddddkbhhdeddddddddddkbhhdeddddddddddkbhhdg",
"dhikihihkiabijdedlhlhhhhhiabijdedhhikkiiiiabijdedkckkciiciabijdg",
"dhikihihkiabaidedlhlhhhhhiabaidedhhikkhiiiabaidedkckkciiciabaidg",
"dhikihihkiabhhdedlhlihhiiiabhhdedhhikkhiiiabhhdedkckkciiciabhhdg",
"dhikihihkiabhhdedlhlihhiiiabhhdedhhikkhiiiabhhdedkckkkiikiabhhdg",
"dhikihihkiabhhdedlhlihhiiiabhhdedhhikkhiiiabhhdedkckkkiikiabhhdg",
"dhikihihkiabhhdedlhlihhiiiabhhdedhhikkhiiiabhhdedhikkhiihiabhhdg",
"dhikihihkiabijdedhhhhhhiiiabijdedhhikkhiiiabijdedhikkhiihiabijdg",
"dhikihihkiabaidedhhhhhhiiiabaidedhhikkhiiiabaidedhikkhiihiabaidg",
"dhhkihihkiabhhdedlllihhiiiabhhdedhhikkhiiiabhhdedhikkhiihiabhhdg",
"dhhkihihkiabhhdedlllihhiiiabhhdedhhikkhiiiabhhdedhikkhiihiabhhdg",
"dhhkihihkiabhhdedlllihhiiiabhhdedhhikkhiiiabhhdedhikkhiihiabhhdg",
"dhhkihihkiabhhdedlllihhiliabhhdedhhikkhiiiabhhdedhikkhiihiabhhdg",
"dhhkihihkhabijdediiiihhilhabijdedhhikkhiihabijdedhikkhiihhabijdg",
"dhhkihihkhabaidediiiihhilhabaidedhhikkhiihabaidedhikkhiihhabaidg",
"dhhkihihkhabhhdediiiihhilhabhhdedhhikkhiihabhhdedhikkhiihhabhhdg",
"dhhkiiiikhabhhdediiiihhilhabhhdedhhikkhiihabhhdedhikkhhhhhabhhdg",
"dhhkiiiikhabhhdediiiihhilhabhhdedhhikkhiihabhhdedhikkhhhhhabhhdg",
"dhhkiiiikhabhhdediillhhllhabhhdedhhikkhiihabhhdedhikkhhhhhabhhdg",
"dhhkiiiikhabijdediillhhllhabijdedhhikkhiihabijdedhhkkhhhhhabijdg",
"dhhkiiiikhabaidediillhhllhabaidedhhikkhiihabaidedhhkkhhhhhabaidg",
"dhhkiiiikkabhhdediillhhllkabhhdedhiiiihiikabhhdedhhkkhhhhkabhhdg",
"dhhkiiiikkabhhdediillhhllkabhhdedhiiiihiikabhhdedccchhchckabhhdg",
"dhhkiiiikkabhhdediillhhllkabhhdedhiiiihiikabhhdedccchhchckabhhdg",
"dhhkiiiikkabhhdediillhhllkabhhdedhiiiihiikabhhdedccchhchckabhhdg",
"dhhkiiiiikabijdediillhlllkabijdedhiiiihiikabijdedccchhccckabijdg",
"dhhiiiiiikabaidediillhlllkabaidedhiiiihiikabaidedkkkhhccckabaidg",
"dhhiiiiiikabhhdediillhlllkabhhdedhiiiihiikabhhdedkkkhhccckabhhdg",
"dhhiiiiiikabhhdediillhlllkabhhdedhiiiiiiikabhhdedccchhccckabhhdg",
"dhhiiiiiikabhhdediillhlllkabhhdedhiiiiiiikabhhdedccchhccckabhhdg",
"dhhiihhhikabhhdediillhlllkabhhdedhiiiiiiikabhhdedkkkhhhhhkabhhdg",
"dhhiihhhikabijdediillhlllkabijdedhiiiiiiikabijdedkkkhhhhhkabijdg",
"dhhiihhhikabaidediillllllkabaidedhhhhhiiikabaidedkkkhhhhhkabaidg",
"dhhiihhhikabhhdediillllllkabhhdedhhhhhiiikabhhdedkkkhhhhhkabhhdg",
"dhhiihhhikabhhdediillllllkabhhdedhhhhhiiikabhhdedkkkhhkkkkabhhdg",
"dhhiihhhihabhhdediillllllhabhhdedhhhhhiiihabhhdedkkkhhkkkhabhhdg",
"aaaaaaaaaaabccceaaaaaaaaaaabccceaaaaaaaaaaabccceaaaaaaaaaaabcccj"
};