/* XPM */
static char *wall_r10_c00[] = {
"64 64 33 1",
"a	c #848484",
"b	c #747474",
"c	c #5C5C5C",
"d	c #4C4C4C",
"e	c #141414",
"f	c #989898",
"g	c #A8A8A8",
"h	c #BCBCBC",
"i	c #3C3C3C",
"j	c #545454",
"k	c #6C6C6C",
"l	c #7C7C7C",
"m	c #8C8C8C",
"n	c #A0A0A0",
"o	c #343434",
"p	c #2C2C2C",
"q	c #242424",
"r	c #646464",
"s	c #884404",
"t	c #984C08",
"u	c #AC580C",
"v	c #C06410",
"w	c #C47024",
"x	c #CC8038",
"y	c #D09050",
"z	c #D89C64",
"A	c #DCAC7C",
"B	c #1C1C1C",
"C	c #2C2C00",
"D	c #3C3C00",
"E	c #505000",
"F	c #646400",
"G	c #040404",
"aaaaaaaaaaaabcdebafghhhhhhhhhhhhhhhhhhhhhhhhhhhhhdaaaaaaaaaaaadi",
"ccccccccccccjdiedcklllllllllllllllllllllllllllmnhdccccccccccccdi",
"iiiiiiiiiiiiopqedcklllccccccccccccccccccccclllmnhdiiiiiiiiiiiidi",
"ccccbbbbbcccdipedcklllnkdddddddddddddddddknlllmnhdcccbbbbbccccdi",
"aaaagiiifaaabcdedcklllnmcrkrcdcrkrcdcrkrcmnlllmnhdaaagiiifaaaadi",
"ccccfsssbcccjdiedcklllnmcrkrcdcrkrcdcrkrcmnlllmnhdcccfsssbccccdi",
"iiiiitttiiiiopqedcklllnmcrkrcdcrkrcdcrkrcmnlllmnhdiiiitttiiiiidi",
"ccccfuuubcccdipedcklllnmcrkrcdcrkrcdcrkrcmnlllmnhdcccfuuubccccdi",
"aaaagvvvfaaabcdedcklllnmcrkrcdcrkrcdcrkrcmnlllmnhdaaagvvvfaaaadi",
"ccccfwwwbcccjdiedcklllnmcrkrcdcrkrcdcrkrcmnlllmnhdcccfwwwbccccdi",
"iiiiixxxiiiiopqedcklllnmcrkrcdcrkrcdcrkrcmnlllmnhdiiiixxxiiiiidi",
"ccccfyyybcccdipedcklllnmcrkrcdcrkrcdcrkrcmnlllmnhdcccfyyybccccdi",
"aaaagzzzfaaabcdedcklllnmcrkrcdcrkrcdcrkrcmnlllmnhdaaagzzzfaaaadi",
"ccccfAAAbcccjdiedcklllnmcrkrcdcrkrcdcrkrcmnlllmnhdcccfAAAbccccdi",
"iiiiizzziiiiopqedcklllnmcrkrcdcrkrcdcrkrcmnlllmnhdiiiizzziiiiidi",
"ccccfyyybcccdipedcklllnmcrkrcdcrkrcdcrkrcmnlllmnhdcccfyyybccccdi",
"aaaagxxxfaaabcdedcklllnmcrkrcdcrkrcdcrkrcmnlllmnhdaaagxxxfaaaadi",
"ccccfwwwbcccjdiedcklllnmcrkrcdcrkrcdcrkrcmnlllmnhdcccfwwwbccccdi",
"iiiiivvviiiiopqedcklllnmcrkrcdcrkrcdcrkrcmnlllmnhdiiiivvviiiiidi",
"ccccfuuubcccdipedcklllnmcrkrcdcrkrcdcrkrcmnlllmnhdcccfuuubccccdi",
"aaaagtttfaaabcdedcklllnmcrkrcdcrkrcdcrkrcmnlllmnhdaaagtttfaaaadi",
"ccccfsssbcccjdiedcklllnmcrkrcdcrkrcdcrkrcmnlllmnhdcccfsssbccccdi",
"iiiiitttiiiiopqedcklllnmcrkrcdcrkrcdcrkrcmnlllmnhdiiiitttiiiiidi",
"ccccfuuubcccdipedcklllnmcrkrcdcrkrcdcrkrcmnlllmnhdcccfuuubccccdi",
"aaaagvvvfaaabcdedcklllnhhhhhhhhhhhhhhhhhhhnlllmnhdaaagvvvfaaaadi",
"ccccfwwwbcccjdiedcklllnnnnnnnnnnnnnnnnnnnnnlllmnhdcccfwwwbccccdi",
"iiiiixxxiiiiopqedcklllllllllllllllllllllllllllmnhdiiiixxxiiiiidi",
"cckayyyyyidcdipedcklllllllllllllllllllllllllllmnhdckayyyyyidccdi",
"ckazzzzzzziddipedcklllccccccccccccccccccccclllmnhdkazzzzzzzidcdi",
"caAAAAAAAAAidipedcklllnkdddddddddddddddddknlllmnhdaAAAAAAAAAicdi",
"cazzzzzzzzzidipedcklllnmcrkrcdcrkrcdcrkrcmnlllmnhdazzzzzzzzzicdi",
"cayyyyyyyyyidipedcklllnmcrkrcdcrkrcdcrkrcmnlllmnhdayyyyyyyyyicdi",
"caaaaaaaaaaldipedcklllnmcrkrcdcrkrcdcrkrcmnlllmnhdaaaaaaaaaalcdi",
"cbbbbbbbbbbbdipedcklllnmcrkrcdcrkrcdcrkrcmnlllmnhdbbbbbbbbbbbcdi",
"ccccccccccccdipedcklllnmcrkrcdcrkrcdcrkrcmnlllmnhdccccccccccccdi",
"dddddddddddddipedcklllnhhhhhhhhhhhhhhhhhhhnlllmnhddddddddddddddi",
"iiiiiiiiiiiiiipedcklllnnnnnnnnnnnnnnnnnnnnnlllmnhiiiiiiiiiiiiiii",
"eeeeeeeeeeeeeeeedcklllllllllllllllllllllllllllmnheeeeeeeeeeeeeee",
"eeeeeeeeeeeeeeeedcklllllllllllllllllllllllllllmnheeeeeeeeeeeeeee",
"fffffffffffffarodcklllccccccccccccccccccccclllmnhfffffffffffffff",
"aaaaaaaaaaaaabridcklllnkdddddddddddddddddknlllmnhaaaaaaaaaaaaaaa",
"ccccccccccccccdqdcklllnmcrkrcdcrkrcdcrkrcmnlllmnhccccccccccccccc",
"ccccccccccccccdqdcklllnmcrkrcdcrkrcdcrkrcmnlllmnhccccccccccccccc",
"kkkkkkkkkkkkkkcidcklllnmcrkrcdcrkrcdcrkrcmnlllmnhkkkkkkkkkkkkkkk",
"oooooooooooooooodcklllnmcrkrcdcrkrcdcrkrcmnlllmnhooooooooooooooo",
"qqqqqqqqqqqqqqqqdcklllnmcrkrcdcrkrcdcrkrcmnlllmnhqqqqqqqqqqqqqqq",
"BBBBBBBBBBBBBBBBdcklllnmcrkrcdcrkrcdcrkrcmnlllmnhBBBBBBBBBBBBBBB",
"eeeeeeeeeeeeeeeedcklllnmcrkrcdcrkrcdcrkrcmnlllmnheeeeeeeeeeeeeee",
"CCCCCCCCCCCCCCCCdcklllnmcrkrcdcrkrcdcrkrcmnlllmnhCCCCCCCCCCCCCCC",
"DDDDDDDDDDDDDDDDdcklllnmcrkrcdcrkrcdcrkrcmnlllmnhDDDDDDDDDDDDDDD",
"EEEEEEEEEEEEEEEEdcklllnmcrkrcdcrkrcdcrkrcmnlllmnhEEEEEEEEEEEEEEE",
"FFFFFFFFFFFFFFFFdcklllnmcrkrcdcrkrcdcrkrcmnlllmnhFFFFFFFFFFFFFFF",
"EEEEEEEEEEEEEEEEdcklllnmcrkrcdcrkrcdcrkrcmnlllmnhEEEEEEEEEEEEEEE",
"DDDDDDDDDDDDDDDDdcklllnmcrkrcdcrkrcdcrkrcmnlllmnhDDDDDDDDDDDDDDD",
"CCCCCCCCCCCCCCCCdcklllnmcrkrcdcrkrcdcrkrcmnlllmnhCCCCCCCCCCCCCCC",
"GGGGGGGGGGGGGGGGdcklllnmcrkrcdcrkrcdcrkrcmnlllmnhGGGGGGGGGGGGGGG",
"eeeeeeeeeeeeeeeedcklllnhhhhhhhhhhhhhhhhhhhnlllmnheeeeeeeeeeeeeee",
"BBBBBBBBBBBBBBBBdcklllnnnnnnnnnnnnnnnnnnnnnlllmnhBBBBBBBBBBBBBBB",
"qqqqqqqqqqqqqqqqdcklllllllllllllllllllllllllllmnhqqqqqqqqqqqqqqq",
"oooooooooooooooodcklllllllllllllllllllllllllllmnhooooooooooooooo",
"ffffffffffffffrodcklllllllllllllllllllllllllllmnhfffffffffffffff",
"aaaaaaaaaaaaaaridcklllllllllllllllllllllllllllmnhaaaaaaaaaaaaaaa",
"ccccccccccccccdqdcklllllllllllllllllllllllllllmnhccccccccccccccc",
"ccccccccccccccdqdcklllllllllllllllllllllllllllmnhccccccccccccccc"
};