/* XPM */
static char *wall_r13_c09[] = {
"64 64 27 1",
"a	c #98C0E4",
"b	c #7CACDC",
"c	c #6C90BC",
"d	c #5884B0",
"e	c #346090",
"f	c #244870",
"g	c #040404",
"h	c #4C78A8",
"i	c #3C6CA0",
"j	c #2C5480",
"k	c #204060",
"l	c #142840",
"m	c #183450",
"n	c #0C1C30",
"o	c #081420",
"p	c #0C0C0C",
"q	c #980808",
"r	c #AC0C0C",
"s	c #C03014",
"t	c #C4701C",
"u	c #AC580C",
"v	c #884404",
"w	c #C01010",
"x	c #80A0C4",
"y	c #94B0D0",
"z	c #28CC28",
"A	c #A8BCD8",
"aabbbccccccddddddddddddddddddefggfeddccccccccbbaabbccccccccddddd",
"addhhhhiieieeeeeeeeeejejjjjejklgglkeeeeieiihhhhddddhhhhiieieeeee",
"bdhiiieeeeejjffmmmlllngggggggggggoollmmffjjeeeiiihhiiieeeeejjffm",
"bdhhhiieeeejefjffmmllngggggggggggoollmmfmjfjjeeiihhhhiieeeejefjf",
"chhhhhiiieeeejjfffmlmlgggggggggggoognlmmmffjjjeiiihhhhiiieeeejjf",
"chihhhhiieeeejefjffmmlnggggggggggggnnllmmfmjfjjeeiihhhhiieeeejef",
"chiiihhiiieeeeejjffmmmnnnggggggggggnnnlllmmffjjeeeiiihhiiiieeeej",
"cheiihhljmmmmllllnlnnnmgggggggggggggggnnnnnnnnnnnllllfffmmieeeej",
"cheiiihjnppppppnnnnnnngggggggggggggggggggggggggggpppppnnpciiieee",
"cieeeiijqrsttttsrrrrsttttsrrruvggvuttttsrrrrsttttsrrrrstdchiieee",
"cieeeeimqsttttsrrrrsttttsrrrruvggvutttsrrrrsttttsrrrrsttdbhiiiee",
"dijeeeemsttttsrrrrsttttsrrrrsuvggvuttsrrrrsttttsrrrrstttdahhhiie",
"dejeeeemutttsrrrrsttttsrrrrstuvggvutsrrrrsttttsrrrrsttttdbihhhii",
"defejeemuttsrrrrsttttsrrrrsttuvggvusrrrrsttttsrrrrsttttsdbihhhhi",
"defjjeemutsrrrrsttttsrrrrstttuvggvsrrrrsttttsrrrrsttttsrhciiihhi",
"defjfejlnmeiihhhhiieejjfjmfmmooggppgpggggpgppnnllmmfmjfjhceiihhh",
"demffjjlnmeiikkkkhkkikkkkffmmooggopppggggggpppnoooommffjhdeiiihh",
"demffjflnleeekwwwhwwiwwwcfjmfooggooppgpgwwwpwwpwwwfmmfmjideeeiih",
"demmmfflnleeekwwiwwwwiwwcjjffooggoonnppgwwgwwwwnwwfllmmfideeeeii",
"delmmfflnljeekwiwwwwwwiwcjjfjooggoonnppgwgwwwwwwpwfllmmfideeeeei",
"delmlmfnnljeeeewwwwwwwwiiejjjloggoonlnnppwwwwwwwwnnlnlmmidjeeeei",
"denllmmnnlfejeewwwwwwwwiieejjlnggoollnnppwwwwwwwwppnnllmidjejeee",
"denlllmnnnfjjlwewwwwwwhwxieeemnggoolllnowpwwwwwwgwfnnnllehfjjeee",
"depnnllnnnfjflwwjwwwwhwwciieemnggolmmllowwpwwwwgwwmppnnlehfjfeje",
"djppnnlnnnmffjmwwewwiwwxhhiiiklggolmmmllowwpwwgwwfgpppnlehmffjje",
"djpppnnppnmmmjmwwwjewwwchhhiiklggommfmmlowwwpgwwwmgpgppnehmffjfe",
"djppppnppplmmfflwwwwwwxiihhiiflggnmffmmllowwwwwwfggggppnehmmmffj",
"cegggpgpgnnllmmlwwwwwwciihhhhfmggnmfjmfmmowwwwwwmggggpgpehlmmffj",
"cigggggpgpnlllmmlwwwwxeiiihhhjmgglmjjffmmmowwwwfpggggggpeilmlmff",
"cegggggpgppnnllmlwwwwcjeeiihhjkgglkjjfjmfmowwwwmpgpggggpeinllmmf",
"cepggggggppnnnllmlwwcjjeeeiiijkggmkeejjffmmowwfnnppgggggeinlllmm",
"cepgpggggpgppnnllmccmjfjjeeiijkggmfeejjfjmfmfflnnppgpgggeinnnllm",
"cepppggggggppnnlllmmmffjjeeiifkggkfiieejjffmmmlllnpppgggeipnnnlm",
"cinppgpggggpgppnnllmmfmjfyxcdfmggkjyxcdojfjmfmmllnnppgpgeipnpnnl",
"cinnoppggggggppnnnlllmmffxzzeomggkjxzzeoljjffmmlllnnnppgeipppnnl",
"chmnnppggggggpgpnnnllmmfmczzeolggkjczzeoljjfjmfmmllnnppgeipppnpn",
"chmllnppgggggggpppnlllmmmdzzeolggmjdzzeolejjjffmmmlnlnnpeipppppn",
"bhmllnnpggpggggpgppnnllmmdcceonggmfdcceoleejjfjmfmmllnnpeipppppn",
"bhmmllnpgppggggggppnnnllldeceongglfdeceolieeejjffmmlllnneinppppp",
"bdfmmllogppggggggpgppnnlldobeoogglkdobeoliieejjfjmfmmllneinpnppp",
"bdfmmmlognpgpggggggppnnlldobeoogglkdobeolhiiieejjffmmmlleilnnppp",
"bdjmfmmnggppppgggggpgppnndobeooggnmdobeolhhiieejjfjmfmmlehlnnpnp",
"ciejjfmmnnnpppgpgggggppnndobeooggnmdobeolhhiiieeejjffmmlehlllnnp",
"ciejefjmnnnnnpppgggggpgppdAbeooggnldAbeolhhhhiieejjfjmfmehmllnnp",
"cheeejjmnnlnnnppgggggggppdeeeooggoldeeeolihhhhiiiejjjffmehmlmlln",
"cheeejeflnlnlnnnpgpggggpgppnnooggoooooooliihhhhiieejjfjmehfmmlln",
"bheeeeejlnmlllnnpppggggggppnnooggoolllllleiiihhiiieeejjfehfmmmll",
"bhieeeejlnlfmlnlnppgpggggpgppooggoofmjfjjeeiihhhhiieejjfedfffmml",
"bdiiieeelnlfmmllnnpppggggggpppoggoommffjjeeiiihhhhiiieejidjfffmm",
"bdhiieeelnlfjfmllnnppgpggggpgppggoommfmjfjjeeiihhhhiieejidjfjffm",
"bdhiiieemnljjffmllnnnppggggggppggoollmmffjjeeeiiihhiiieeidejjffm",
"bdhhhiiemnljefjfmllnnppgpggggpgggoollmmfmjfjjeeiihhhhiieidejefjf",
"chhhhhiimpleejjfmmlnlnnppggggggggoolnlmmmffjjjeiiihhhhiihdeeejjf",
"chihhhhimpmeejeffmmllnnppgpggggggppnnllmmfmjfjjeeiihhhhihdeeejef",
"chiiihhimpmeeeejfmmlllnnnppggggggppnnnlllmmffjjeeeiiihhiddieeeej",
"cheiihhhjddhhiiiieieeeeeeeeeeklgglkeeeeeeeeieiiiihhddddddcieeeej",
"cheiiihhbaabcddddddhhhhhhhiiifmggmfiiihhhhhhhccccccbbbaabciiieee",
"cieeeiihhhhiieeeejefjffmmllnnpoggppnpnnllmmffjfejeeeeiihhhhiieee",
"cieeeeiiihhiiieeeeejjffmmmlllooggppppnnlllmmmffjjeeeeeiiihhiiiee",
"dijeeeeiihhhhiieeeejefjffmmllooggppppnpnnllmmffjfejeeeeiihhhhiie",
"dejeeeeiiihhhhiiieeeejjfffmlmooggppppppnnllmlmfffjjeeeeiiihhhhii",
"defejeeeeiihhhhiieeeejefjffmmooggpoppppnpnnllmmffjfejeeeeiihhhhi",
"denllllmmmmmmjjmmmmmmllllnnnnopggppnnnnnnpppppnnnnnllllmmmmmmjjm",
"dnpppppppnnnnllllnnnnppppppppppogoopnppppnpnnnnppppppppppnnnnlll"
};