/* XPM */
static char *wall_r07_c04[] = {
"64 64 33 1",
"a	c #5884B0",
"b	c #346090",
"c	c #204060",
"d	c #A8A8A8",
"e	c #E8E8E8",
"f	c #04A468",
"g	c #E0E0E0",
"h	c #CCCCCC",
"i	c #D8D8D8",
"j	c #C4C4C4",
"k	c #04BC78",
"l	c #B0B0B0",
"m	c #BCBCBC",
"n	c #30C890",
"o	c #60D8AC",
"p	c #3C6CA0",
"q	c #4C78A8",
"r	c #244870",
"s	c #2C5480",
"t	c #142840",
"u	c #183450",
"v	c #A0A0A0",
"w	c #989898",
"x	c #8C8C8C",
"y	c #747474",
"z	c #7C7C7C",
"A	c #646464",
"B	c #6C6C6C",
"C	c #848484",
"D	c #081420",
"E	c #0C1C30",
"F	c #6C90BC",
"G	c #80A0C4",
"aaaaaaaaaaaaaaaaaaaaaaaaaaaaaaaaaaaaaaaaaaaaaaaaaaaaaaaaaaaaaaaa",
"bbbbbbbbbbbbbbbbbbbbbbbbbbbbbbbbbbbbbbbbbbbbbbbbbbbbbbbbbbbbbbbb",
"cccccdeeeeeeedccccccccccccccccccccccccccccccccccccdeeeeeeedccccc",
"fffffeghhhhhijffffffffffffffffffffffffffffffffffffeihhhhhijfffff",
"kkkkkehlllllmjkkkkkkkkkkkkkkkkkkkkkkkkkkkkkkkkkkkkehlllllmjkkkkk",
"nnnnnehlllllmjnnnnnnnnnnnnnnnnnnnnnnnnnnnnnnnnnnnnehlllllmjnnnnn",
"oooooehlllllmjooooooooooooooooooooooooooooooooooooehlllllmjooooo",
"nnnnnehlllllmjnnnnnnnnnnnnnnnnnnnnnnnnnnnnnnnnnnnnehlllllmjnnnnn",
"kkkkkehlllllmjkkkkkkkkkkkkkkkkkkkkkkkkkkkkkkkkkkkkehlllllmjkkkkk",
"fffffehlllllmjffffffffffffffffffffffffffffffffffffehlllllmjfffff",
"aaaaaehlllllmjaaaaaaaaaaaaaaaaaaaaaaaaaaaaaaaaaaaaehlllllmjpqaaa",
"bbbbbehlllllmjdbbbbbbbbbbbbbbbbbbbbbbbbbbbbbbbbbblehlllllmjrsbbb",
"cccccehlllllmhjdcccccccccccccccccccccccccccccccclehmlllllmjtuccc",
"iiiiiehllllllmheeeeeeeeeeeeeeeeeeeeeeeeeeeeeeeeeehmllllllmjvdiii",
"jjjjhehlllllllmhhhhhhhhhhhhhhhhhhhhhhhhhhhhhhhhhhmlllllllmjwwjjj",
"iiiieehllllllllllllllllllllllllllllllllllllllllllllllllllmjldiii",
"eeeeeehllllllllllllllllllllllllllllllllllllllllllllllllllmjlmeee",
"iiiiiehllllllllllllllllllllllllllllllllllllllllllllllllllmjvdiii",
"jjjjjehlllvxxxxxmllllllllllllllllllllllllllllllvxxxxxmlllmjxwjjj",
"vvvvlehllvxyyyyyhmllljjjllljjjjjjjjjjllljjjlllvxyyyyyhmllmjzyvvv",
"xxxxvehllxyAByxxehllliiiClliiiiiiiiiiClliiiCllxyAByxvehllmjyyxxx",
"zzzzxehllxyAByzzehllleeeClleeeeeeeeeeClleeeCllxyAByzxehllmjyyzzz",
"yyyyyehllxyAByyyehllliiiClliiiiiiiiiiClliiiCllxyAByyyehllmjyyyyy",
"zzzyyehllxyAByzzehllljjjClljjjjjjjjjjClljjjCllxyAByyyehllmjyyzzz",
"xxxxzehllxyAByxxehlllvvvCllvvvvvvvvvvCllvvvCllxyAyyxzehllmjyyxxx",
"vvvvvehllxyByzvvehlllxxxCllxxxxxxxxxxCllxxxCllxyByzvvehllmjyyvvv",
"lllllehllxyyzxllehllllCCClllCCCCCCCCCClllCCCllxyyzxllehllmjzClll",
"jjjjjehllxyyxvjjehllllllllllllllllllllllllllllxyzxvjjehllmjxwjjj",
"iiiieehllxyCvliiehllllllllllllllllllllllllllllxyxvlieehllmjldiii",
"eeeeeehllxywljeeehllljjjjjjjjjjjjjjjjjjjjjjlllxyvljeeehllmjlmeee",
"iiiiiehllxyCvliiehllliiiiiiiiiiiiiiiiiiiiiiCllxyxvliiehllmjvdiii",
"jjjjjehllxyyxvjjehllleeeeeeeeeeeeeeeeeeeeeeCllxyzxvjjehllmjxwjjj",
"vvvvlehllxyByzvvehllliiiiiiiiiiiiiiiiiiiiiiCllxyByzvlehllmjzyvvv",
"xxxxvehllxyAByxxehllljjjjjjjjjjjjjjjjjjjjjjCllxyAByxvehllmjyyxxx",
"zzzzxehllxyAByzzehlllvvvvvvvvvvvvvvvvvvvvvvCllxyAByzxehllmjyyzzz",
"yyyyyehllxyAByyyehlllxxxxxxxxxxxxxxxxxxxxxxCllxyAByyyehllmjyyyyy",
"zzzyyehllxyAByzzehllllCCCCCCCCCCCCCCCCCCCCCCllxyAByyyehllmjyyzzz",
"xxxxzehllxyAByxxehllllllllllllllllllllllllllllxyAByxzehllmjyyxxx",
"vvvvvehllxyABzvvehllllllllllllllllllllllllllllxyAyzvvehllmjyyvvv",
"tttttehllxytttttehllljjjllljjjjjjjjjjllljjjlllxytttttehllmjttttt",
"DDDDDehllxyDDDDDehllliiiClliiiiiiiiiiClliiiCllxyDDDDDehllmjDDDDD",
"uuutEehllxyuuuuuehllleeeClleeeeeeeeeeClleeeCllxyuuutEehllmjuuuuu",
"ttttEehllxytttttehllliiiClliiiiiiiiiiClliiiCllxyttttEehllmjttttt",
"DDDDDehllxyDDDDDehllljjjClljjjjjjjjjjClljjjCllxyDDDDDehllmjDDDDD",
"uuuuuehllxyuuuuuehlllvvvCllvvvvvvvvvvCllvvvCllxyuuuuuehllmjuuuuu",
"pssssehllvxeeeeehmlllxxxCllxxxxxxxxxxCllxxxCllvxeeeeehmllmjsssss",
"FpbbbehlllvhhhhhmlllllCCClllCCCCCCCCCClllCCClllvhhhhhmlllmjbbbbc",
"aFqppehllllllllllllllllllllllllllllllllllllllllllllllllllmjpppru",
"qaGFFehllllllllllllllllllllllllllllllllllllllllllllllllllmjFFscu",
"qaFFaehlllllllmmmmmmmmmmmmmmmmmmmmmmmmmmmmmmmmmmmmlllllllmjaarcu",
"qaFaqehllllllmmjjjjjjjjjjjjjjjjjjjjjjjjjjjjjjjjjjhmllllllmjqarcu",
"qaFaqehlllllmmjwqqpbbbbbbbbbbbbbbbbbbbbbbbbbbputdehmlllllmjqarcu",
"qaFaqehlllllmjwpqaqppppppppppppppppppppppppppqcuudehlllllmjqarcu",
"qaFaqehlllllmjuqaFaqqqqqqqqqqqqqqqqqqqqqqqqqqarctqehlllllmjqarcu",
"qaFaqehlllllmjuqaFaqqqqqqqqqqqqqqqqqqqqqqqqqqarcuqehlllllmjqarcu",
"qaFaqehlllllmjuqaFaqqqqqqqqqqqqqqqqqqqqqqqqqqarcuqehlllllmjqarcu",
"qaFaaehlllllmjuqaFaaaaaaaaaaaaaaaaaaaaaaaaaaaarcuqehlllllmjaarcu",
"qaqppehlllllmjuqaqpppppppppppppppppppppppppppprcuqehlllllmjpprcu",
"qpbbbehlllllmjuqpbbbbbbbbbbbbbbbbbbbbbbbbbbbbbpcuqehlllllmjbbpcu",
"pssssehlllllmjupsssssssssssssssssssssssssssssssbupehlllllmjsssbu",
"rrrrrehlllllmjsrrrrrrrrrrrrrrrrrrrrrrrrrrrrrrrrrsrehlllllmjrrrrs",
"aaaaaaaaaaaaaaaaaaaaaaaaaaaaaaaaaaaaaaaaaaaaaaaaaaaaaaaaaaaaaaaa",
"bbbbbbbbbbbbbbbbbbbbbbbbbbbbbbbbbbbbbbbbbbbbbbbbbbbbbbbbbbbbbbbb",
"cccccccccccccccccccccccccccccccccccccccccccccccccccccccccccccccc"
};