/* XPM */
static char *wall_r10_c08[] = {
"64 64 32 1",
"a	c #5884B0",
"b	c #346090",
"c	c #F0F0F0",
"d	c #E8E8E8",
"e	c #204060",
"f	c #E0E0E0",
"g	c #04A468",
"h	c #D8D8D8",
"i	c #C4C4C4",
"j	c #CCCCCC",
"k	c #989898",
"l	c #04BC78",
"m	c #B0B0B0",
"n	c #BCBCBC",
"o	c #30C890",
"p	c #60D8AC",
"q	c #183450",
"r	c #747474",
"s	c #848484",
"t	c #A0A0A0",
"u	c #A8A8A8",
"v	c #7C7C7C",
"w	c #8C8C8C",
"x	c #142840",
"y	c #081420",
"z	c #0C1C30",
"A	c #3C6CA0",
"B	c #2C5480",
"C	c #6C90BC",
"D	c #4C78A8",
"E	c #244870",
"F	c #80A0C4",
"aaaaaaaaaaaaaaaaaaaaaaaaaaaaaaaaaaaaaaaaaaaaaaaaaaaaaaaaaaaaaaaa",
"bbbbbbbbbbbbbbbbbbbccccccccccccccccccccccccdbbbbbbbbbbbbbbbbbbbb",
"eeeeeeeeeeeeeeeeeecdfffffffffffffffffffffffffeeeeeeeeeeeeeeeeeee",
"gggggggggggggggggchiiiiiiiiiiiiiiiiiiiiiiiiijkgggggggggggggggggg",
"llllllllllllllllldimmmmmnmninmmninmnmmmmmmmmmkllllllllllllllllll",
"ooooooooooooooooofimmmmnmninmmninmnmmmmmmmmmmkoooooooooooooooooo",
"pppppppppppppppppfimmmnmninmmninmnmmmmmmmmmmmkpppppppppppppppppp",
"ooooooooooooooooofimmnmninmmninmnmmmmmmmmmmmmkoooooooooooooooooo",
"lllllllllllllllllfimnmninmmninmnmmmmmmmmmmmmmkllllllllllllllllll",
"gggggggggggggggggfinmninmmninmnmmmmmmmmmmmmmnkgggggggggggggggggg",
"aaaaaaaaaaaaaaaaafimninmmninmnmmmmmmmmmmmmmnikaaaaaaaaaaaaaaaaaa",
"bbbbbbbbbbbbbbbbbfiijjimninmnmmmmmmmmmmmijjinkbbbbbbbbbbbbbbbbbb",
"eeeeeeeeeeeeeeeeefikeqfiinmdddddddddmmmnkeefmkeeeeeeeeeeeeeeeeee",
"hhhhhhhhhhhhhhhhhfikrsfinmdhhhhhhhhhimmnkrkfmkhhhhhhhhhhhhhhhhhh",
"iiiijdhiihdjiiiiifikrtfimnhiiiiiiiiiummnkvufmkiiiiiijdhiihdjiiii",
"hhhhddhiihddhhhhhfikrtfinmntttttttttkmnnkwufmkhhhhhhddhiihddhhhh",
"dddddhimmihddddddfikrwfimmtwwwwwwwwwsninkvkfmkdddddddhimmihddddd",
"hhhhhimmmmihhhhhhfikrvfimmmvvvvvvvvvninnkrsfmkhhhhhhhimmmmihhhhh",
"iiiiimmmmmmiiiiiifikrrfimmmmmmmmmmmninmnkrrfmkiiiiiiimmmmmmiiiii",
"ttttmmmmmmmmtttttfikrrfimmmdddddddddnmmnkrrfmkttttttmmmmmmmmtttt",
"wwwwtmmmmmmtwwwwwfikrrfimmdhhhhhhhhhimmnkrrfmkwwwwwwtmmmmmmtwwww",
"vvvvwtmmmmtwvvvvvfikrrfimmhiiiiiiiiiumnnkrrfmkvvvvvvwtmmmmtwvvvv",
"rrrrrwtmmtwrrrrrrfikrrfimmntttttttttknmnkrrfmkrrrrrrrwtmmtwrrrrr",
"vvvrrrwttwrrrvvvvfikrrfimmtwwwwwwwwwsmmnkrrfmkvvvvvrrrwttwrrrvvv",
"wwwwvvrttrvvwwwwwfikrrfimmmvvvvvvvvvmmmnkrrfmkwwwwwwvvrttrvvwwww",
"tttttwvttvwttttttfikrrfimmmmninmmmnmmmmnkrrfmktttttttwvttvwttttt",
"mmmmmitiitimmmmmmfikrvfimmmdddddddddmmmnkrsfmkmmmmmmmitiitimmmmm",
"iiiiihiiiihiiiiiifikrwfimmdhhhhhhhhhimmnkvkfmkiiiiiiihiiiihiiiii",
"hhhhddhiihddhhhhhfikrtfimnhiiiiiiiiiummnkwufmkhhhhhhddhiihddhhhh",
"dddddhimmihddddddfikrwfinintttttttttkmmnkvkfmkdddddddhimmihddddd",
"hhhhhimmmmihhhhhhfikrvfiintwwwwwwwwwsmnnkrsfmkhhhhhhhimmmmihhhhh",
"iiiiimmmmmmiiiiiifikrrfinmmvvvvvvvvvmnmnkrrfmkiiiiiiimmmmmmiiiii",
"ttttmmmmmmmmtttttfikrrfimmmnmmmmmmmmnmnnkrrfmkttttttmmmmmmmmtttt",
"wwwwtmmmmmmtwwwwwfikrrfimmnmmmmmmmmnmninkrrfmkwwwwwwtmmmmmmtwwww",
"vvvvwtmmmmtwvvvvvfikrrfimnmmmmmmmmnmninnkrrfmkvvvvvvwtmmmmtwvvvv",
"rrrrrwtmmtwrrrrrrfikrrfinmmmmmmmmnmninmnkrrfmkrrrrrrrwtmmtwrrrrr",
"vvvrrrwtmwrrrvvvvfikrrfimmmmmmmmnmninmmnkrrfmkvvvvvrrrwtmwrrrvvv",
"wwwwvvrtmrvvwwwwwfikrrfimmmmmmmnmninmmmnkrrfmkwwwwwwvvrtmrvvwwww",
"tttttwvtnvwttttttfikrrfimmmmmmnmninmmmmnkrrfmktttttttwvtnvwttttt",
"xxxxxxvtivqxxxxxxfikxxfimmmmmnmninmmmmmnkxxfmkxxxxxxxxvtivqxxxxx",
"yyyyyxvtjvqyyyyyyfikyyfimmmdddddddddmmmnkyyfmkyyyyyyyxvtjvqyyyyy",
"qqqxzxvthvqqqqqqqfikqqfimmdhhhhhhhhhimmnkqqfmkqqqqqxzxvthvqqqqqq",
"xxxxzxvtjvqxxxxxxfikxxfimmhiiiiiiiiiummnkxxfmkxxxxxxzxvtjvqxxxxx",
"yyyyyxvtivqyyyyyyfikyyfimnntttttttttkmmnkyyfmkyyyyyyyxvtivqyyyyy",
"qqqqqxvtnveqqqqqqfikqqfinmtwwwwwwwwwsmmnkqqfmkqqqqqqqxvtnveqqqqq",
"ABBBBBBBBBBBBBBABfikBBfimnivvvvvvvvvmmmnkBBfmkBBBABBBBBBBBBBBBBB",
"CAbbbbbbbbbbbbeCAfikbbfininmmmmmmmmmmmmnkbbfmkbbeCAbbbbbbbbbbbbe",
"aCDAAAAAAAAAAEqaCfikAAfiinmdddddddddmmmnkAAfmkAEqaCDAAAAAAAAAAEq",
"DaFCCCCCCCCCBeqDafikCCfinmdhhhhhhhhhimmnkCCfmkBeqDaFCCCCCCCCCBeq",
"DaCCaaaaaaaaEeqDafikaafimmhiiiiiiiiiummnkaafmkEeqDaCCaaaaaaaaEeq",
"DaCaDDDDDDDaEeqDafikDDfimmntttttttttkmmnkDDfmkEeqDaCaDDDDDDDaEeq",
"DaCaDDDDDDDaEeqDafikDDfimmtwwwwwwwwwsmmnkDDfmkEeqDaCaDDDDDDDaEeq",
"DaCaDDDDDDDaEeqDafikDDfimmmvvvvvvvvvmmmnkDDfmkEeqDaCaDDDDDDDaEeq",
"DaCaDDDDDDDaEeqDafikDDfimmmmmmmmmmmmmmmnkDDfmkEeqDaCaDDDDDDDaEeq",
"DaCaDDDDDDDaEeqDafikDDfimmmmmmmmmmmmmmmnkDDfmkEeqDaCaDDDDDDDaEeq",
"DaCaDDDDDDDaEeqDafikDDfimmmmmmmmmmmmmmmnkDDfmkEeqDaCaDDDDDDDaEeq",
"DaCaaaaaaaaaEeqDafikaafimmmmmmmmmmmmmmmnkaafmkEeqDaCaaaaaaaaaEeq",
"DaDAAAAAAAAAEeqDafiiffimmmmmmmmmmmmmmmmmiffimkEeqDaDAAAAAAAAAEeq",
"DAbbbbbbbbbbAeqDAfimmmmmmmmmmmmmmmmmmmmmmmmmmkAeqDAbbbbbbbbbbAeq",
"ABBBBBBBBBBBBbqABfimmmmmmmmmmmmmmmmmmmmmmmmmmkBbqABBBBBBBBBBBBbq",
"EEEEEEEEEEEEEEBEEnttttttttttttttttttttttttttttEEBEEEEEEEEEEEEEEB",
"aaaaaaaaaaaaaaaaaaaaaaaaaaaaaaaaaaaaaaaaaaaaaaaaaaaaaaaaaaaaaaaa",
"bbbbbbbbbbbbbbbbbbbbbbbbbbbbbbbbbbbbbbbbbbbbbbbbbbbbbbbbbbbbbbbb",
"eeeeeeeeeeeeeeeeeeeeeeeeeeeeeeeeeeeeeeeeeeeeeeeeeeeeeeeeeeeeeeee"
};