/* XPM */
static char *wall_r11_c06[] = {
"64 64 29 1",
"a	c #A0A0A0",
"b	c #848484",
"c	c #5C5C5C",
"d	c #BCBCBC",
"e	c #545454",
"f	c #989898",
"g	c #A8A8A8",
"h	c #343434",
"i	c #7C7C7C",
"j	c #D8D8D8",
"k	c #4C4C4C",
"l	c #6C6C6C",
"m	c #3C3C3C",
"n	c #747474",
"o	c #B0B0B0",
"p	c #A4A814",
"q	c #646464",
"r	c #C42424",
"s	c #444444",
"t	c #C4C4C4",
"u	c #8C8C8C",
"v	c #040404",
"w	c #242424",
"x	c #1C1C1C",
"y	c #141414",
"z	c #2C2C00",
"A	c #3C3C00",
"B	c #505000",
"C	c #646400",
"abcddddccddddccddddccddddccddddccddddccddddccddddccddddccddddcba",
"abefdgdcefdgdcefdgdcefdgdcefdgdcefdgdcefdgdcefdgdcefdgdcefdgdcba",
"abefcgdcefcgdcefcgdcefcgdcefcgdcefcgdcefcgdcefcgdcefcgdcefcgdcba",
"abecccdcecccdcecccdcecccdcecccdcecccdcecccdcecccdcecccdcecccdcba",
"abhhhhhchhhhhchhhhhchhhhhchhhhhchhhhhchhhhhchhhhhchhhhhchhhhhcba",
"abccccccciiiiiiiiiiiiiiiiiiiiiiiiiiiiiiiiiiiiiiiiiiiiiicccccccba",
"abcccccciddddddddddddddddddddddddddddddddddddddddddddddiccccccba",
"abcccccidjjjjjjjjjjjjjjjjjjjjjjjjjjjjjjjjjjjjjjjjjjjjjjdicccccba",
"abccccidjddddddddddddddddddddddddddddddddddddddddddddddjdiccccba",
"abcccidjddaaaaaaaaaaaaaaaaaaaaaaaaaaaaaaaaaaaaaaaaaaaaddjdicccba",
"abccidjddaiiiiiiiiiiiiiiiiiiiiiiiiiiiiiiiiiiiiiiiiiiiiaddjdiccba",
"abcidjddaiikcifffffffffffffffffffffffffffffffffffflkkiiaddjdicba",
"abcidjddaikmlfbbbbbbbbbbbbbbbbbbbbbbbbbbbbbbbbbbbbalmkiaddjdicba",
"abcidjddaikmfbnnnnnnnnnnnnnnnnnnnnnnnnnnnnnnnnnnnbbomkiaddjdicba",
"abcidjddaikmbnlllppplllppllppllpllppplpppplpppllllbamkiaddjdicba",
"abcidjddaikmbnllllllplpllplplplplpllllllllllllplllbamkiaddjdicba",
"abcidjddaikmbnlllpllplpllplplplplplpplpppllpppllllbamkiaddjdicba",
"abcidjddaikmbnlllpllplplpplplplplpllplpllllpllplllbamkiaddjdicba",
"abcidjddaikmbnlllpppllpllplpllppllppplpppplpllplllbamkiaddjdicba",
"abcidjddaikmbnllllllllllllllllllllllllllllllllllllbamkiaddjdicba",
"abiiiiiiiiihfbnnnnnnnnnnllllbeeeeeeelllllllllllllbboiiiiiiiiiiba",
"abqqqqqqqqqhhfbbbbbbbbbbnlllbrrrmebellnbbbbbbbbbbbakqqqqqqqqqqba",
"absmmmmmmmmmhhhhhhhhhhhhbnllbrrmebrelnbahhhhhhhhhhmmmmmmmmmmmsba",
"abkssssssssssssssssssssmhbnlbrmebrrelbahssssssssssssssssssssskba",
"abkkkkkkkkkkkkkkkkkkkkkkhbnlbmebrrrelbakkkkkkkkkkkkkkkkkkkkkkkba",
"abcccccccccccccccccccccchbnlbebrrrrelbacccccccccccccccccccccccba",
"abctttttttestttttttttttthbnlbbrrrrmelbatttttttttttttestttttttcba",
"abcagggggaesgggggggggggghbnlbrrrrmeelbagggggggggggggesagggggacba",
"abcbcccccbescccccccccccchbnlbrrrmebelbacccccccccccccesbcccccbcba",
"abcblllllbesllllllllllllhbnlbrrmebrelballlllllllllllesblllllbcba",
"abcuiiiiiuesiiiiiiiiiiiihbnlbrmebrrelbaiiiiiiiiiiiiiesuiiiiiucba",
"abcssssssssssssssssssssshbnlbmebrrrelbasssssssssssssssssssssscba",
"abckkkkkkkkkkkkkkkkkkkkkhfbnbebrrrrebbakkkkkkkkkkkkkkkkkkkkkkcba",
"abceeeeeeeeeeeeeeeeeeeeeemfbbbbbbbbbbaheeeeeeeeeeeeeeeeeeeeeecba",
"abcccccccccccccccccccccccchhhhhhhhhhhhccccccccccccccccccccccccba",
"bnkkkkkkkkkkkkkkkkkkkkkkkkkkkkkkkkkkkkkkkkkkkkkkkkkkkkkkkkkkkknb",
"qemmmmmmmmmmmmmmmmmmmmmmmmmmmmmmmmmmmmmmmmmmmmmmmmmmmmmmmmmmmmeq",
"vvvvvvvvvvvvvvvvvvvvvvvvvvvvvvvvvvvvvvvvvvvvvvvvvvvvvvvvvvvvvvvv",
"vvvvvvvvvvvvvvvvvvvvvvvvvvvvvvvvvvvvvvvvvvvvvvvvvvvvvvvvvvvvvvvv",
"ffffffffffffffffffffffffffffffffffffffffffffffffffffffffffffffff",
"bbbbbbbbfbbbbbbbbbbbbbbbbbbbbbbbbbbbbbbbbbbbbbbbbbbbbbbfbbbbbbbb",
"ccccccccbfccccccccccccccccccccccccccccccccccccccccccccfbcccccccc",
"cccccccccbfccccccccccccccccccccccccccccccccccccccccccfbccccccccc",
"llllllccccbfllllllllllllllllllllllllllllllllllllllllfbccccllllll",
"hhhhhelccccbfehhhhhhhhhhhhhhhhhhhhhhhhhhhhhhhhhhhhhfbcccclehhhhh",
"wwwwwwelccccbfewwwwwwwwwwwwwwwwwwwwwwwwwwwwwwwwwwwfbcccclewwwwww",
"xxxxxxxelccccbfexxxxxxxxxxxxxxxxxxxxxxxxxxxxxxxxxfbcccclexxxxxxx",
"yyyyyyyyelccccbfeyyyyyyyyyyyyyyyyyyyyyyyyyyyyyyyfbccccleyyyyyyyy",
"zzzzzzzzzelccccbfezzzzzzzzzzzzzzzzzzzzzzzzzzzzzfbcccclezzzzzzzzz",
"AAAAAAAAAAelccccbfeAAAAAAAAAAAAAAAAAAAAAAAAAAAfbccccleAAAAAAAAAA",
"BBBBBBBBBBBelccccbfeBBBBBBBBBBBBBBBBBBBBBBBBBfbccccleBBBBBBBBBBB",
"CCCCCCCCCCCCelccccbfeCCCCCCCCCCCCCCCCCCCCCCCfbccccleCCCCCCCCCCCC",
"BBBBBBBBBBBBnfccccbneBBBBBBBBBBBBBBBBBBBBBBBnbccccfnBBBBBBBBBBBB",
"AAAAAAAAAAAnfccccbneAAAAAAAAAAAAAAAAAAAAAAAAAnbccccfnAAAAAAAAAAA",
"zzzzzzzzzznfccccbnezzzzzzzzzzzzzzzzzzzzzzzzzzznbccccfnzzzzzzzzzz",
"vvvvvvvvvnfccccbnevvvvvvvvvvvvvvvvvvvvvvvvvvvvvnbccccfnvvvvvvvvv",
"yyyyyyyynfccccbneyyyyyyyyyyyyyyyyyyyyyyyyyyyyyyynbccccfnyyyyyyyy",
"xxxxxxxnfccccbnexxxxxxxxxxxxxxxxxxxxxxxxxxxxxxxxxnbccccfnxxxxxxx",
"wwwwwwnfccccbnewwwwwwwwwwwwwwwwwwwwwwwwwwwwwwwwwwwnbccccfnwwwwww",
"hhhhhnfccccbnehhhhhhhhhhhhhhhhhhhhhhhhhhhhhhhhhhhhhnbccccfnhhhhh",
"ffffffccccbnffffffffffffffffffffffffffffffffffffffffnbccccffffff",
"bbbbbccccbbbbbbbbbbbbbbbbbbbbbbbbbbbbbbbbbbbbbbbbbbbbbbccccbbbbb",
"cccccccccccccccccccccccccccccccccccccccccccccccccccccccccccccccc",
"cccccccccccccccccccccccccccccccccccccccccccccccccccccccccccccccc"
};