/* XPM */
static char *wall_r00_c06[] = {
"64 64 12 1",
"a	c #0C5CAC",
"b	c #003064",
"c	c #1068C0",
"d	c #043C74",
"e	c #2828C8",
"f	c #085098",
"g	c #2474C4",
"h	c #7878E0",
"i	c #044488",
"j	c #D8D8F4",
"k	c #C42424",
"l	c #44D444",
"aaaaaaaabaaaaacbddeddbcaaaacbdeddedbcaaaacbddeddbcaaaaabaaaaaaaa",
"affffffabaffffgbddhddbgffffgbdhddhdbgffffgbddhddbgffffabaffffffa",
"afiddifabafiifgbddjddbgfiifgbdjddjdbgfiifgbddjddbgfiifabafiddifa",
"afiddifabafiifcbddhddbcfiifcbdhddhdbcfiifcbddhddbcfiifabafiddifa",
"afiddifabafiifabhdedhbafiifabdeddedbafiifabhdedhbafiifabafiddifa",
"afiddifabafiifcbjdedjbcfiifcbdeddedbcfiifcbjdedjbcfiifabafiddifa",
"afiddifabafiifgbhdhdhbgfiifgbdhddhdbgfiifgbhdhdhbgfiifabafiddifa",
"afiddifabafiifgbedjdebgfiifgbdjddjdbgfiifgbedjdebgfiifabafiddifa",
"afiddifabafiifcbedhdebcfiifcbdhddhdbcfiifcbedhdebcfiifabafiddifa",
"afiddifabafiifabhdedhbafiifabdeddedbafiifabhdedhbafiifabafiddifa",
"afiddifabafiifcbjdedjbcfiifcbdeddedbcfiifcbjdedjbcfiifabafiddifa",
"afiddifabafiifgbhdhdhbgfiifgbdhddhdbgfiifgbhdhdhbgfiifabafiddifa",
"afiddifabafiifgbedjdebgfiifgbdjddjdbgfiifgbedjdebgfiifabafiddifa",
"afiddifabafiifcbedhdebcfiifcbdhddhdbcfiifcbedhdebcfiifabafiddifa",
"afiddifabafiifabhdedhbafiifabdeddedbafiifabhdedhbafiifabafiddifa",
"afiddifabafiifcbjdedjbcfiifcbdeddedbcfiifcbjdedjbcfiifabafiddifa",
"afiddifabafiifgbhdhdhbgfiifgbdhddhdbgfiifgbhdhdhbgfiifabafiddifa",
"afiddifabafiifgbedjdebgfiifgbdjddjdbgfiifgbedjdebgfiifabafiddifa",
"afiddifabafiifcbedhdebcfiifcbdhddhdbcfiifcbedhdebcfiifabafiddifa",
"afiddifabafiifabhdedhbafiifabdeddedbafiifabhdedhbafiifabafiddifa",
"afiddifabafiifcbjdedjbcfiifcbdeddedbcfiifcbjdedjbcfiifabafiddifa",
"afiddifabafiifgbhdhdhbgfiifgbdhddhdbgfiifgbhdhdhbgfiifabafiddifa",
"afiddifabafiifgbedjdebgfiifgbdjddjdbgfiifgbedjdebgfiifabafiddifa",
"afiddifabafiifcbedhdebcfiifcbdhddhdbcfiifcbedhdebcfiifabafiddifa",
"afiddifabafiifabhdedhbafiifabdeddedbafiifabhdedhbafiifabafiddifa",
"afiddifabafiifcbjdedjbcfiifcbdeddedbcfiifcbjdedjbcfiifabafiddifa",
"afiddifabafiifgbhdhdhbgfiifgbdhddhdbgfiifgbhdhdhbgfiifabafiddifa",
"afiddifabafiifgbedjdebgfiifgbdjddjdbgfiifgbedjdebgfiifabafiddifa",
"aaaaaaaabafiifcbedhdebcfiifcbdhddhdbcfiifcbedhdebcfiifabaaaaaaaa",
"affffffabafiifabhdedhbafiifabdeddedbafiifabhdedhbafiifabaffffffa",
"afddfkfabafiifcbjdedjbcfiifcbdeddedbcfiifcbjdedjbcfiifabafkfddfa",
"affffffabafiifgbhdhdhbgfiifgbdhddhdbgfiifgbhdhdhbgfiifabaffffffa",
"afddflfabafiifgbedjdebgfiifgbdjddjdbgfiifgbedjdebgfiifabaflfddfa",
"afffflfabafiifcbedhdebcfiifcbdhddhdbcfiifcbedhdebcfiifabaflffffa",
"affffffabafiifabhdedhbafiifabdeddedbafiifabhdedhbafiifabaffffffa",
"aiddddiabafiifcbjdedjbcfiifcbdeddedbcfiifcbjdedjbcfiifabaiddddia",
"afiddifabafiifgbhdhdhbgfiifgbdhddhdbgfiifgbhdhdhbgfiifabafiddifa",
"afiddifabafiifgbedjdebgfiifgbdjddjdbgfiifgbedjdebgfiifabafiddifa",
"afiddifabafiifcbedhdebcfiifcbdhddhdbcfiifcbedhdebcfiifabafiddifa",
"afiddifabafiifabhdedhbafiifabdeddedbafiifabhdedhbafiifabafiddifa",
"afiddifabafiifcbjdedjbcfiifcbdeddedbcfiifcbjdedjbcfiifabafiddifa",
"afiddifabafiifgbhdhdhbgfiifgbdhddhdbgfiifgbhdhdhbgfiifabafiddifa",
"afiddifabafiifgbedjdebgfiifgbdjddjdbgfiifgbedjdebgfiifabafiddifa",
"afiddifabafiifcbedhdebcfiifcbdhddhdbcfiifcbedhdebcfiifabafiddifa",
"afiddifabafiifabhdedhbafiifabdeddedbafiifabhdedhbafiifabafiddifa",
"afiddifabafiifcbjdedjbcfiifcbdeddedbcfiifcbjdedjbcfiifabafiddifa",
"afiddifabafiifgbhdhdhbgfiifgbdhddhdbgfiifgbhdhdhbgfiifabafiddifa",
"afiddifabafiifgbedjdebgfiifgbdjddjdbgfiifgbedjdebgfiifabafiddifa",
"afiddifabafiifcbedhdebcfiifcbdhddhdbcfiifcbedhdebcfiifabafiddifa",
"afiddifabafiifabhdedhbafiifabdeddedbafiifabhdedhbafiifabafiddifa",
"afiddifabafiifcbjdedjbcfiifcbdeddedbcfiifcbjdedjbcfiifabafiddifa",
"afiddifabafiifgbhdhdhbgfiifgbdhddhdbgfiifgbhdhdhbgfiifabafiddifa",
"afiddifabafiifgbedjdebgfiifgbdjddjdbgfiifgbedjdebgfiifabafiddifa",
"afiddifabafiifcbedhdebcfiifcbdhddhdbcfiifcbedhdebcfiifabafiddifa",
"afiddifabafiifabhdedhbafiifabdeddedbafiifabhdedhbafiifabafiddifa",
"afiddifabafiifcbjdedjbcfiifcbdeddedbcfiifcbjdedjbcfiifabafiddifa",
"afiddifabafiifgbhdhdhbgfiifgbdhddhdbgfiifgbhdhdhbgfiifabafiddifa",
"afiddifabafiifgbddjddbgfiifgbdjddjdbgfiifgbddjddbgfiifabafiddifa",
"afiddifabafiifcbddhddbcfiifcbdhddhdbcfiifcbddhddbcfiifabafiddifa",
"afiddifabafiifabddeddbafiifabdeddedbafiifabddeddbafiifabafiddifa",
"afiddifabafiifcbddeddbcfiifcbdeddedbcfiifcbddeddbcfiifabafiddifa",
"affffffabaffffgbddhddbgffffgbdhddhdbgffffgbddhddbgffffabaffffffa",
"affffffabaffffgbddjddbgffffgbdjddjdbgffffgbddjddbgffffabaffffffa",
"affffffabaffffcbddhddbcffffcbdhddhdbcffffcbddhddbcffffabaffffffa"
};