/* XPM */
static char *wall_r12_c09[] = {
"64 64 24 1",
"a	c #301C0C",
"b	c #402810",
"c	c #5C340C",
"d	c #201408",
"e	c #2C2C2C",
"f	c #684018",
"g	c #805424",
"h	c #141414",
"i	c #A06C3C",
"j	c #A8784C",
"k	c #94602C",
"l	c #B08458",
"m	c #884404",
"n	c #700404",
"o	c #502400",
"p	c #643000",
"q	c #3C1800",
"r	c #840404",
"s	c #980808",
"t	c #AC0C0C",
"u	c #C01010",
"v	c #5C0000",
"w	c #480000",
"x	c #200000",
"aaabcbbaaaaaaaaaaaaaaabbbaaaaaacbbbbbddddddbdbbbbbbbbbbbbbbbbbbe",
"aaaacffcbbbbbbbbcbbbbbbbaaaaabbcffcbbbbbbbbcbbbbbfffcbbbbbcbcbbe",
"aaaaafgggffcbbcfffccfbbbbcbbbbbffgggffcbbcfffccfcfggffcccccfcbbh",
"aaaaabgiggffccffgfffcbbcfbbbbbbbfgiggffccffggffcccfiggffffffbbbh",
"aabbbbfgjggfffgggffcbcfgcbbbbbbbbfgjggfffgggffcbbbcgjigffgfcbbhe",
"bbbbbbfkjjigfgggffcffgkfccbbbbbbbbgjjigfgkgffcbbbbbfiljggffbbbbb",
"bbbbbbbfkjjjigccccfgkigccccbbbccccckjjjikggfcbbbbbbbflljffbbbbbb",
"bbbcccccccccccffffgkigffffcbbbccfffgkjljkgffbbbbbbbcclljgbbbbbbb",
"cccccccccffffffgggkikgfffccbbbbccfgggklljffbbbbbbcccfjljfbbbbbbc",
"cffffffffffffggkkkikgfffccbbccbbccfggglljgbbbbbbccfffjljfbbcbbcc",
"ffggggggggggggkiiikggffccbbcffcbbccfgflljfbbbbbccfffgjjicbcccccc",
"fgkkkkkkgggkkkiikkggffccbbcffgfcbbccffjljfbbcbbcffgggjjibbffcccf",
"gkiiiiiikkkiiiikgggffccbcfffgkgfcbbcccjlicbbcbccfggkkjjibbfffcff",
"kikkkkkiiiikkkkggfffccbcffggkkkgfcbbccjjibbbcbcffgkiiijgbbgfffff",
"iikggggkkkkgggggffcccbcffgkkiikkgfcbbbjjibbbcbcffgkiiijgbbgfffff",
"ikggffgggggggffffccbbcffgmkkkkggggfcccijgbbbbbcfggkiiiigbbiffffg",
"kkgfffffnfffffffccbccffgmkkgggffffffffijgbbcbbcffggkkiigbciffffg",
"kgfcccffffccococcbbcffgpgggfffccccccccijgbbccbbcffgggkifbfkffffi",
"gfcbbccccccbbbbbbcocffofffffccbbbbbbbbkjgbbccbbccffffkifbgkfffgj",
"fcbbbbcccbqbbcbbcccccoccccccbbbcooccbbgjfbbcfcbbcccccgkfbggfffgj",
"fcbbbbbbbbqnccccbbbbbqbbbbbbcccooccccbfjfbbcffccbbbbcfkfbfffffij",
"fcbbbcccccccfofcccccocccoccccfooffcbbbbjfbcfggffccccbcgcbcccffff",
"fcbbccccffffgppggpgggggpgggggpoffcbbbbbifbcfffffffffccfccbfccccc",
"gfcbccfffffppkmmmmmkkkmkkkkgpoffcbbbbbbkbbccccccccffffffcbfffccf",
"ffcbbcfffgpmmmmrrrmmmkkikkppooocbbaaaaagaabbbbbbbccccffccbffffbf",
"cfcbbcffgnkkmrrrsrrrmmmmkgpooocbaabbbbbbbbaaaaaaabbbbccbbcfccccc",
"bcfcbbffgnmmrrsssssrrrmmppoooobabbccccccccbbbbbbbaaaabbbccccbbbb",
"bbcfcbfgnmmrrssttsssrrrppffooqqbcccfffffccccccbbbbbbaaabcbbbbbbb",
"ccbbccfgmmrrrrssssrrrisrrgpfoooccfffffffffffccccccccbbbabbbbcccc",
"fccbccfgmmrrkrsrrrriiruirrrggfocffggfffgggfffffffffcccbbaccccfff",
"ffcbccfgpmrrkkrrkkskklujksskkgpffggggggggggggggffffffccbbaccffff",
"gfcbccffpgrkiiriimrkijjuljjssrrngggkrrrrkkkgggggggffffccbacfffgg",
"gfccbcffpgrkiirkkkprkiijukrrrrrrnnrrsrrrssrrkkkggggffffcbabcfggg",
"gffcbcffggrkikkkggpngkkirkkiljkssrrssssssssssrkkkgggfffcbbabcgii",
"kgfcbcffggskkkkggfffnggkknkkikljjiisurngggkkisssrkgggffccbabcgij",
"kgfcbbcfggskkgggfffcvffggkgggjjlljjuknkijjjjjjiisrkggffccbabcgij",
"kgffcbcfggmkkgffffccwccffggkkiijjlusnnksijllujiiiirgggfccbabcgij",
"kkgfcbcfggpgkgffcccbbbbcffggkkiijjuinnrrrsuuukijiirnggfccbabcgij",
"ikgfcbbcfffgkgfccbbbabbbcfggkkijjjuinnnnrrnrkijjiikrggfcccbbcgij",
"ikggfcbccffgkgfcbbaaaabbcfggkkijjjuurnngggiiijjikkisrkgffccbcgij",
"ikkgfcbbccfgkgfcbaaaaabbcfggkkiiisusskkrkkiiiiiikkkrssrggffcfkjl",
"ikkgfcbbcccfgkgfcbbbaaabcfgggkkksusrkkkrkkkkkkkkkggnkksrkggffkjl",
"jikgfcbbcbcfgkgfccccbbabcffgggkiuirggkkrkkkkkkkkgggnggksskkggkjl",
"jikgffcbbbcfgkgfffffccabbcffgkiusrnggggngggggggggggnffgrksskkijl",
"jikggfcbbbccfgkgfffffccabcfgkiusrnfffggnggggggggfffnccfngkrsiijl",
"jiikgfcbabcffgkgfgffffcccfgkiusrnffffffnfffffffffffvcccfnggrrijl",
"ljikgfcbbcfffgkggggggffccfgksuirgccccffvcccccccccccvbbbcvffnrijl",
"ljikgffcccffgggkggggggfffgksuiknfcbbcffvbbbbbbbbbbbbwabbvfgrsjjl",
"ljikkggffcffgggkkkkggggfgkiuikgncbbbcfcwaaaaaaaaaaaaxabcvfgrsjll",
"ljiiikkggfffgggkkikkkgggkiuikgfvcccccfcccbabbbbbbbbbwcccnggrsjll",
"ljikkiikkggfgggkiiiiikkkiuskgfffffffffffcbabccccccccbbcffggrsjll",
"ljikgkkiikkgggkkijjjiiksuskggggggggggfffccabccfffffccbcffgnksjjl",
"jjikgggkkiikkgkkijljjssuikkrrkkkkkkkggfffcabcffgggffcbcffgnkiujj",
"jjikgffggkkiikkiijlljuussssssssiiiikkggffcabcffgkggfcbcffggkisjj",
"jiikgfcffggkkiiiijlluuujjjuuuujuujiikggffcabcfggkggfcbcffggkksij",
"iikkgfcccffggkkiijluululllullullujikkgfffcabcfgkkgfccbcffgngkrii",
"kkkggfcbcffggkkijjjujjjujjujjujjujikggffcbabcfgkkgfcbbcfffnggrkk",
"gggggfcbcffggkkiiiisiiisiisiisiiisikggffcbabcfgkkgfcbbccffffgngg",
"ggggffcbcffggkkkkkkrkkkrkkrkkrkkkkkkggffcbabcfgkkgfcbbccccfffnfg",
"ffffffcbcffgggkkkggngggngggggnggggggggffcbabcfggkgfcbbbbccccffff",
"fffffcccbcffgggggggggggnggnggngggggggffcbbabcffgggfcbbbbbbccccff",
"ccffccbfcbcffgggggfffffnfffffnffffffffcbbbabccfffffcbbbbbbbbbccc",
"bbcccbfffcbcfffffffffffffffffnfffffffcbbbbabbbcccccbbbbbbbbbbbbb",
"bbbcbffgffcbcfffffcccccccccccccccccccbbbbaccccbbbbbbbbccbbbbbbbb"
};