/* XPM */
static char *wall_r10_c06[] = {
"64 64 30 1",
"a	c #5884B0",
"b	c #346090",
"c	c #204060",
"d	c #A8A8A8",
"e	c #CCCCCC",
"f	c #04A468",
"g	c #18C084",
"h	c #8C8C8C",
"i	c #A0A0A0",
"j	c #C4C4C4",
"k	c #7C7C7C",
"l	c #04BC78",
"m	c #30C890",
"n	c #60D8AC",
"o	c #9CE4C8",
"p	c #D8D8D8",
"q	c #244870",
"r	c #183450",
"s	c #B0B0B0",
"t	c #BCBCBC",
"u	c #E8E8E8",
"v	c #747474",
"w	c #142840",
"x	c #081420",
"y	c #0C1C30",
"z	c #3C6CA0",
"A	c #2C5480",
"B	c #6C90BC",
"C	c #4C78A8",
"D	c #80A0C4",
"aaaaaaaaaaaaaaaaaaaaaaaaaaaaaaaaaaaaaaaaaaaaaaaaaaaaaaaaaaaaaaaa",
"bbbbbbbbbbbbbbbbbbbbbbbbbbbbbbbbbbbbbbbbbbbbbbbbbbbbbbbbbbbbbbbb",
"cccccccccccccccccccccccdeccccccccccccccdeccccccccccccccccccccccc",
"fffffffffffffffffffffghijkgffffffffffghijkgfffffffffffffffffffff",
"lllllllllllllllllllllmhijkmllllllllllmhijkmlllllllllllllllllllll",
"mmmmmmmmmmmmmmmmmmmmmnhijknmmmmmmmmmmnhijknmmmmmmmmmmmmmmmmmmmmm",
"nnnnnnnnnnnnnnnnnnnnnohijkonnnnnnnnnnohijkonnnnnnnnnnnnnnnnnnnnn",
"mmmmmmmmmmmmmmmmmmmmmnhijknmmmmmmmmmmnhijknmmmmmmmmmmmmmmmmmmmmm",
"lllllllllllllllllllllmhiekmllllllllllmhiekmlllllllllllllllllllll",
"fffffffffffffffffffffghipkgffffffffffghipkgfffffffffffffffffffff",
"aaaaaaaaaaaaaaaaaaaaabhiekaaaaaaaaaaabhiekaaaaaaaaaaaaaaaaaaaaaa",
"bbbbbbbbbbbbbbbbbbbbbqhdjkbbbbbbbbbbbqhdjkbbbbbbbbbbbbbbbbbbbbbb",
"cccccccccccccccccccccrhstkcccccccccccrhstkcccccccccccccccccccccc",
"pppppppppppppppppppppjittipppppppppppjittipppppppppppppppppppppp",
"jjjjeupjjpuejjjjjjjjeujjjjuejjjjjjjjjujjjjujjjjjjjjjeupjjpuejjjj",
"ppppuupjjpuuppppppppuupjjpuuppppppppuupjjpuuppppppppuupjjpuupppp",
"uuuuupjssjpuuuuuuuuuupjssjpuuuuuuuuuupjssjpuuuuuuuuuupjssjpuuuuu",
"pppppjssssjppppppppppjssssjppppppppppjssssjppppppppppjssssjppppp",
"jjjjjssssssjjjjjjjjjjssssssjjjjjjjjjjssssssjjjjjjjjjjssssssjjjjj",
"iiiissssssssiiiiiiiissssssssiiiiiiiissssssssiiiiiiiissssssssiiii",
"hhhhissssssihhhhhhhhissssssihhhhhhhhissssssihhhhhhhhissssssihhhh",
"kkkkhissssihkkkkkkkkhissssihkkkkkkkkhissssihkkkkkkkkhissssihkkkk",
"vvvvvhissihvvvvvvvvvvhissihvvvvvvvvvvhissihvvvvvvvvvvhissihvvvvv",
"kkkvvvhiihvvvkkkkkkvvvhiihvvvkkkkkkvvvhiihvvvkkkkkkvvvhiihvvvkkk",
"hhhhkkviivkkhhhhhhhhkkviivkkhhhhhhhhkkviivkkhhhhhhhhkkviivkkhhhh",
"iiiiihkiikhiiiiiiiiiihkiikhiiiiiiiiiihkiikhiiiiiiiiiihkiikhiiiii",
"sssssjijjijssssssssssjijjijssssssssssjijjijssssssssssjijjijsssss",
"jjjjjpjjjjpjjjjjjjjjjpjjjjpjjjjjjjjjjpjjjjpjjjjjjjjjjpjjjjpjjjjj",
"ppppuupjjpuuppppppppuupjjpuuppppppppuupjjpuuppppppppuupjjpuupppp",
"uuuuupjssjpuuuuuuuuuupjssjpuuuuuuuuuupjssjpuuuuuuuuuupjssjpuuuuu",
"pppppjssssjppppppppppjssssjppppppppppjssssjppppppppppjssssjppppp",
"jjjjjssssssjjjjjjjjjjssssssjjjjjjjjjjssssssjjjjjjjjjjssssssjjjjj",
"iiiissssssssiiiiiiiissssssssiiiiiiiissssssssiiiiiiiissssssssiiii",
"hhhhissssssihhhhhhhhissssssihhhhhhhhissssssihhhhhhhhissssssihhhh",
"kkkkhissssihkkkkkkkkhissssihkkkkkkkkhissssihkkkkkkkkhissssihkkkk",
"vvvvvhissihvvvvvvvvvvhissihvvvvvvvvvvhissihvvvvvvvvvvhissihvvvvv",
"kkkvvvhishvvvkkkkkkvvvhishvvvkkkkkkvvvhishvvvkkkkkkvvvhishvvvkkk",
"hhhhkkvisvkkhhhhhhhhkkvisvkkhhhhhhhhkkvisvkkhhhhhhhhkkvisvkkhhhh",
"iiiiihkitkhiiiiiiiiiihkitkhiiiiiiiiiihkitkhiiiiiiiiiihkitkhiiiii",
"wwwwwwkijkrwwwwwwwwwwwkijkrwwwwwwwwwwwkijkrwwwwwwwwwwwkijkrwwwww",
"xxxxxwkiekrxxxxxxxxxxwkiekrxxxxxxxxxxwkiekrxxxxxxxxxxwkiekrxxxxx",
"rrrwywkipkrrrrrrrrrwywkipkrrrrrrrrrwywkipkrrrrrrrrrwywkipkrrrrrr",
"wwwwywkiekrwwwwwwwwwywkiekrwwwwwwwwwywkiekrwwwwwwwwwywkiekrwwwww",
"xxxxxwkijkrxxxxxxxxxxwkijkrxxxxxxxxxxwkijkrxxxxxxxxxxwkijkrxxxxx",
"rrrrrwkitkcrrrrrrrrrrwkitkcrrrrrrrrrrwkitkcrrrrrrrrrrwkitkcrrrrr",
"zAAAAAAAAAAAAAAzAAAAAAAAAAAAAAAAAAAAAAAAAAAAAAAAAzAAAAAAAAAAAAAA",
"BzbbbbbbbbbbbbcBzbbbbbbbbbbbbbbbbbbbbbbbbbbbbbbbcBzbbbbbbbbbbbbc",
"aBCzzzzzzzzzzqraBCzzzzzzzzzzzzzzzzzzzzzzzzzzzzzqraBCzzzzzzzzzzqr",
"CaDBBBBBBBBBAcrCaDBBBBBBBBBBBBBBBBBBBBBBBBBBBBAcrCaDBBBBBBBBBAcr",
"CaBBaaaaaaaaqcrCaBBaaaaaaaaaaaaaaaaaaaaaaaaaaaqcrCaBBaaaaaaaaqcr",
"CaBaCCCCCCCaqcrCaBaCCCCCCCCCCCCCCCCCCCCCCCCCCaqcrCaBaCCCCCCCaqcr",
"CaBaCCCCCCCaqcrCaBaCCCCCCCCCCCCCCCCCCCCCCCCCCaqcrCaBaCCCCCCCaqcr",
"CaBaCCCCCCCaqcrCaBaCCCCCCCCCCCCCCCCCCCCCCCCCCaqcrCaBaCCCCCCCaqcr",
"CaBaCCCCCCCaqcrCaBaCCCCCCCCCCCCCCCCCCCCCCCCCCaqcrCaBaCCCCCCCaqcr",
"CaBaCCCCCCCaqcrCaBaCCCCCCCCCCCCCCCCCCCCCCCCCCaqcrCaBaCCCCCCCaqcr",
"CaBaCCCCCCCaqcrCaBaCCCCCCCCCCCCCCCCCCCCCCCCCCaqcrCaBaCCCCCCCaqcr",
"CaBaaaaaaaaaqcrCaBaaaaaaaaaaaaaaaaaaaaaaaaaaaaqcrCaBaaaaaaaaaqcr",
"CaCzzzzzzzzzqcrCaCzzzzzzzzzzzzzzzzzzzzzzzzzzzzqcrCaCzzzzzzzzzqcr",
"CzbbbbbbbbbbzcrCzbbbbbbbbbbbbbbbbbbbbbbbbbbbbbzcrCzbbbbbbbbbbzcr",
"zAAAAAAAAAAAAbrzAAAAAAAAAAAAAAAAAAAAAAAAAAAAAAAbrzAAAAAAAAAAAAbr",
"qqqqqqqqqqqqqqAqqqqqqqqqqqqqqqqqqqqqqqqqqqqqqqqqAqqqqqqqqqqqqqqA",
"aaaaaaaaaaaaaaaaaaaaaaaaaaaaaaaaaaaaaaaaaaaaaaaaaaaaaaaaaaaaaaaa",
"bbbbbbbbbbbbbbbbbbbbbbbbbbbbbbbbbbbbbbbbbbbbbbbbbbbbbbbbbbbbbbbb",
"cccccccccccccccccccccccccccccccccccccccccccccccccccccccccccccccc"
};