/* XPM */
static char *wall_r12_c05[] = {
"64 64 23 1",
"a	c #80A0C4",
"b	c #6C90BC",
"c	c #4C78A8",
"d	c #008C00",
"e	c #5CD85C",
"f	c #B8ECB8",
"g	c #78E078",
"h	c #00A400",
"i	c #3C6CA0",
"j	c #2C5480",
"k	c #2C1400",
"l	c #3C1C00",
"m	c #643000",
"n	c #502400",
"o	c #743804",
"p	c #884404",
"q	c #984C08",
"r	c #AC580C",
"s	c #C06410",
"t	c #94B0D0",
"u	c #C0D0E4",
"v	c #5884B0",
"w	c #244870",
"aaaaaaaaaaaaaaaaaaaaaaaaaaaaaaaaaaaaaaaaaaaaaaaaaaaaaaaaaaaaaaaa",
"bbbbbbbbbbbbbbbbbbbbbbbbbbbbbbbbbbbbbbbbbbbbbbbbbbbbbbbbbbbbbbbb",
"cccccccccccccccccccccccccccccccccccccccccccccccccccccccccccccccc",
"dddddddddddddddddddddddddddddddddddddddddddddddddddddddddddddddd",
"eeeeeeeeeeeeeeeeeeeeeeeeeeeeeeeeeeeeeeeeeeeeeeeeeeeeeeeeeeeeeeee",
"ffffffffffffffffffffffffffffffffffffffffffffffffffffffffffffffff",
"gggggggggggggggggggggggggggggggggggggggggggggggggggggggggggggggg",
"hhhhhhhhhhhhhhhhhhhhhhhhhhhhhhhhhhhhhhhhhhhhhhhhhhhhhhhhhhhhhhhh",
"bbbbbbbbbbbbbbbbbbbbbbbbbbbbbbbbbbbbbbbbbbbbbbbbbbbbbbbbbbbbbbbb",
"iiiiiiiiiiiiiiiiiiiiiiiiiiiiiiiiiiiiiiiiiiiiiiiiiiiiiiiiiiiiiiii",
"jjjjjjjjjjjjjjjjjjjjjjjjjjjjjjjjjjjjjjjjjjjjjjjjjjjjjjjjjjjjjjjj",
"kkkkkkkkkkkkkkkkkkkkkkkkkkkkkkkkkkkkkkkkkkkkkkkkkkkkkkkkkkkkkkkk",
"kklllllllllllllllllllllllllllllllllllllllllllllllllllllllllllllm",
"kklnnnnnnnnnnnnnnnnnnnnnnnnnnnnnnnnnnnnnnnnnnnnnnnnnnnnnnnnnnnop",
"kkknmmmmmmmmmmmmmmmmmmmmmmmmmmmmmmmmmmmmmmmmmmmmmmmmmmmmmmmmmpqp",
"kkklooooooooooooooooooooooooooooooooooooooooooooooooooooooooqrqp",
"kkklppppppppppppppppppppppppppppppppppppppppppppppppppppppppsrqp",
"kkklqqqqqqqqqqqqqqqqqqqqqqqqqqqqqqqqqqqqqqqqqqqqqqqqqqqqqqqqsrqp",
"kkklrrrrrrrrrrrrrrrrrrrrrrrrrrrrrrrrrrrrrrrrrrrrrrrrrrrrrrrrsrqp",
"kkklsssssssssssssssssssssssssssssssssssssssssssssssssssssssssrqp",
"kkklrrrrrrrrrrrrrrrrrrrrrrrrrrrrrrrrrrrrrrrrrrrrrrrrrrrrrrrrsrqp",
"kkklqqqqqqqqqqqqqqqqqqqqqqqqqqqqqqqqqqqqqqqqqqqqqqqqqqqqqqqqsrqp",
"kkklppppppppppppppppppppppppppppppppppppppppppppppppppppppppsrqp",
"kkklooooooooooooooooooooooooooooooooooooooooooooooooooooooooqrqp",
"kkknmmmmmmmmmmmmmmmmmmmmmmmmmmmmmmmmmmmmmmmmmmmmmmmmmmmmmmmmmpqp",
"kklnnnnnnnnnnnnnnnnnnnnnnnnnnnnnnnnnnnnnnnnnnnnnnnnnnnnnnnnnnnop",
"kklllllllllllllllllllllllllllllllllllllllllllllllllllllllllllllm",
"kkkkkkkkkkkkkkkkkkkkkkkkkkkkkkkkkkkkkkkkkkkkkkkkkkkkkkkkkkkkkkkk",
"attttttttttttttttttttttttttttttttttttttttttttttttttttttttttttttu",
"caaaataaaataaaataaaataaaataaaataaaataaaataaaataaaataaaataaaataat",
"cvbvatabvatabvatabvatabvatabvatabvatabvatabvatabvatabvatabvataat",
"cvbvatabvatabvatabvatabvatabvatabvatabvatabvatabvatabvatabvataat",
"cvbvatabvatabvatabvatabvatabvatabvatabvatabvatabvatabvatabvataat",
"cvbvatabvatabvatabvatabvatabvatabvatabvatabvatabvatabvatabvataat",
"cvbvatabvatabvatabvatabvatabvatabvatabvatabvatabvatabvatabvataat",
"cvbvatabvatabvatabvatabvatabvatabvatabvatabvatabvatabvatabvataat",
"cvbvatabvatabvatabvatabvatabvatabvatabvatabvatabvatabvatabvataat",
"cvbvatabvatabvatabvatabvatabvatabvatabvatabvatabvatabvatabvataat",
"cvbvatabvatabvatabvatabvatabvatabvatabvatabvatabvatabvatabvataat",
"cvbvatabvatabvatabvatabvatabvatabvatabvatabvatabvatabvatabvataat",
"cvbvatabvatabvatabvatabvatabvatabvatabvatabvatabvatabvatabvataat",
"cvvvvbvvvvbvvvvbvvvvbvvvvbvvvvbvvvvbvvvvbvvvvbvvvvbvvvvbvvvvbvat",
"ccccccccccccccccccccccccccccccccccccccccccccccccccccccccccccccca",
"kkkkkkkkkkkkkkkkkkkkkkkkkkkkkkkkkkkkkkkkkkkkkkkkkkkkkkkkkkkkkkkk",
"kklllllllllllllllllllllllllllllllllllllllllllllllllllllllllllllm",
"kklnnnnnnnnnnnnnnnnnnnnnnnnnnnnnnnnnnnnnnnnnnnnnnnnnnnnnnnnnnnop",
"kkknmmmmmmmmmmmmmmmmmmmmmmmmmmmmmmmmmmmmmmmmmmmmmmmmmmmmmmmmmpqp",
"kkklooooooooooooooooooooooooooooooooooooooooooooooooooooooooqrqp",
"kkklppppppppppppppppppppppppppppppppppppppppppppppppppppppppsrqp",
"kkklqqqqqqqqqqqqqqqqqqqqqqqqqqqqqqqqqqqqqqqqqqqqqqqqqqqqqqqqsrqp",
"kkklrrrrrrrrrrrrrrrrrrrrrrrrrrrrrrrrrrrrrrrrrrrrrrrrrrrrrrrrsrqp",
"kkklsssssssssssssssssssssssssssssssssssssssssssssssssssssssssrqp",
"kkklrrrrrrrrrrrrrrrrrrrrrrrrrrrrrrrrrrrrrrrrrrrrrrrrrrrrrrrrsrqp",
"kkklqqqqqqqqqqqqqqqqqqqqqqqqqqqqqqqqqqqqqqqqqqqqqqqqqqqqqqqqsrqp",
"kkklppppppppppppppppppppppppppppppppppppppppppppppppppppppppsrqp",
"kkklooooooooooooooooooooooooooooooooooooooooooooooooooooooooqrqp",
"kkknmmmmmmmmmmmmmmmmmmmmmmmmmmmmmmmmmmmmmmmmmmmmmmmmmmmmmmmmmpqp",
"kklnnnnnnnnnnnnnnnnnnnnnnnnnnnnnnnnnnnnnnnnnnnnnnnnnnnnnnnnnnnop",
"kklllllllllllllllllllllllllllllllllllllllllllllllllllllllllllllm",
"kkkkkkkkkkkkkkkkkkkkkkkkkkkkkkkkkkkkkkkkkkkkkkkkkkkkkkkkkkkkkkkk",
"bbbbbbbbbbbbbbbbbbbbbbbbbbbbbbbbbbbbbbbbbbbbbbbbbbbbbbbbbbbbbbbb",
"cccccccccccccccccccccccccccccccccccccccccccccccccccccccccccccccc",
"cccccccccccccccccccccccccccccccccccccccccccccccccccccccccccccccc",
"wwwwwwwwwwwwwwwwwwwwwwwwwwwwwwwwwwwwwwwwwwwwwwwwwwwwwwwwwwwwwwww"
};