/* XPM */
static char *wall_r12_c04[] = {
"64 64 23 1",
"a	c #C0D0E4",
"b	c #A8BCD8",
"c	c #94B0D0",
"d	c #008C00",
"e	c #5CD85C",
"f	c #B8ECB8",
"g	c #78E078",
"h	c #00A400",
"i	c #80A0C4",
"j	c #6C90BC",
"k	c #643000",
"l	c #743804",
"m	c #502400",
"n	c #884404",
"o	c #AC580C",
"p	c #984C08",
"q	c #C06410",
"r	c #C47024",
"s	c #CC8038",
"t	c #D09050",
"u	c #D89C64",
"v	c #E8E8E8",
"w	c #4C78A8",
"aaaaaaaaaaaaaaaaaaaaaaaaaaaaaaaaaaaaaaaaaaaaaaaaaaaaaaaaaaaaaaaa",
"bbbbbbbbbbbbbbbbbbbbbbbbbbbbbbbbbbbbbbbbbbbbbbbbbbbbbbbbbbbbbbbb",
"cccccccccccccccccccccccccccccccccccccccccccccccccccccccccccccccc",
"dddddddddddddddddddddddddddddddddddddddddddddddddddddddddddddddd",
"eeeeeeeeeeeeeeeeeeeeeeeeeeeeeeeeeeeeeeeeeeeeeeeeeeeeeeeeeeeeeeee",
"ffffffffffffffffffffffffffffffffffffffffffffffffffffffffffffffff",
"gggggggggggggggggggggggggggggggggggggggggggggggggggggggggggggggg",
"hhhhhhhhhhhhhhhhhhhhhhhhhhhhhhhhhhhhhhhhhhhhhhhhhhhhhhhhhhhhhhhh",
"cccccccccccccccccccccccccccccccccccccccccccccccccccccccccccccccc",
"iiiiiiiiiiiiiiiiiiiiiiiiiiiiiiiiiiiiiiiiiiiiiiiiiiiiiiiiiiiiiiii",
"jjjjjjjjjjjjjjjjjjjjjjjjjjjjjjjjjjjjjjjjjjjjjjjjjjjjjjjjjjjjjjjj",
"klllllllllllllllllllllllllllllllllllllllllllllllllllllllllllllll",
"mlnnnnnnnnnnnnnnnnnnnnnnnnnnnnnnnnnnnnnnnnnnnnnnnnnnnnnnnnnnnnno",
"mknpppppppppppppppppppppppppppppppppppppppppppppppppppppppppppqr",
"mklpooooooooooooooooooooooooooooooooooooooooooooooooooooooooorsr",
"mklnqqqqqqqqqqqqqqqqqqqqqqqqqqqqqqqqqqqqqqqqqqqqqqqqqqqqqqqqstsr",
"mklnrrrrrrrrrrrrrrrrrrrrrrrrrrrrrrrrrrrrrrrrrrrrrrrrrrrrrrrrutsr",
"mklnssssssssssssssssssssssssssssssssssssssssssssssssssssssssutsr",
"mklnttttttttttttttttttttttttttttttttttttttttttttttttttttttttutsr",
"mklnuuuuuuuuuuuuuuuuuuuuuuuuuuuuuuuuuuuuuuuuuuuuuuuuuuuuuuuuutsr",
"mklnttttttttttttttttttttttttttttttttttttttttttttttttttttttttutsr",
"mklnssssssssssssssssssssssssssssssssssssssssssssssssssssssssutsr",
"mklnrrrrrrrrrrrrrrrrrrrrrrrrrrrrrrrrrrrrrrrrrrrrrrrrrrrrrrrrutsr",
"mklnqqqqqqqqqqqqqqqqqqqqqqqqqqqqqqqqqqqqqqqqqqqqqqqqqqqqqqqqstsr",
"mklpooooooooooooooooooooooooooooooooooooooooooooooooooooooooorsr",
"mknpppppppppppppppppppppppppppppppppppppppppppppppppppppppppppqr",
"mlnnnnnnnnnnnnnnnnnnnnnnnnnnnnnnnnnnnnnnnnnnnnnnnnnnnnnnnnnnnnno",
"klllllllllllllllllllllllllllllllllllllllllllllllllllllllllllllll",
"baaaaaaaaaaaaaaaaaaaaaaaaaaaaaaaaaaaaaaaaaaaaaaaaaaaaaaaaaaaaaav",
"jbbbbabbbbabbbbabbbbabbbbabbbbabbbbabbbbabbbbabbbbabbbbabbbbabba",
"jicibabcibabcibabcibabcibabcibabcibabcibabcibabcibabcibabcibabba",
"jicibabcibabcibabcibabcibabcibabcibabcibabcibabcibabcibabcibabba",
"jicibabcibabcibabcibabcibabcibabcibabcibabcibabcibabcibabcibabba",
"jicibabcibabcibabcibabcibabcibabcibabcibabcibabcibabcibabcibabba",
"jicibabcibabcibabcibabcibabcibabcibabcibabcibabcibabcibabcibabba",
"jicibabcibabcibabcibabcibabcibabcibabcibabcibabcibabcibabcibabba",
"jicibabcibabcibabcibabcibabcibabcibabcibabcibabcibabcibabcibabba",
"jicibabcibabcibabcibabcibabcibabcibabcibabcibabcibabcibabcibabba",
"jicibabcibabcibabcibabcibabcibabcibabcibabcibabcibabcibabcibabba",
"jicibabcibabcibabcibabcibabcibabcibabcibabcibabcibabcibabcibabba",
"jicibabcibabcibabcibabcibabcibabcibabcibabcibabcibabcibabcibabba",
"jiiiiciiiiciiiiciiiiciiiiciiiiciiiiciiiiciiiiciiiiciiiiciiiiciba",
"jjjjjjjjjjjjjjjjjjjjjjjjjjjjjjjjjjjjjjjjjjjjjjjjjjjjjjjjjjjjjjjb",
"klllllllllllllllllllllllllllllllllllllllllllllllllllllllllllllll",
"mlnnnnnnnnnnnnnnnnnnnnnnnnnnnnnnnnnnnnnnnnnnnnnnnnnnnnnnnnnnnnno",
"mknpppppppppppppppppppppppppppppppppppppppppppppppppppppppppppqr",
"mklpooooooooooooooooooooooooooooooooooooooooooooooooooooooooorsr",
"mklnqqqqqqqqqqqqqqqqqqqqqqqqqqqqqqqqqqqqqqqqqqqqqqqqqqqqqqqqstsr",
"mklnrrrrrrrrrrrrrrrrrrrrrrrrrrrrrrrrrrrrrrrrrrrrrrrrrrrrrrrrutsr",
"mklnssssssssssssssssssssssssssssssssssssssssssssssssssssssssutsr",
"mklnttttttttttttttttttttttttttttttttttttttttttttttttttttttttutsr",
"mklnuuuuuuuuuuuuuuuuuuuuuuuuuuuuuuuuuuuuuuuuuuuuuuuuuuuuuuuuutsr",
"mklnttttttttttttttttttttttttttttttttttttttttttttttttttttttttutsr",
"mklnssssssssssssssssssssssssssssssssssssssssssssssssssssssssutsr",
"mklnrrrrrrrrrrrrrrrrrrrrrrrrrrrrrrrrrrrrrrrrrrrrrrrrrrrrrrrrutsr",
"mklnqqqqqqqqqqqqqqqqqqqqqqqqqqqqqqqqqqqqqqqqqqqqqqqqqqqqqqqqstsr",
"mklpooooooooooooooooooooooooooooooooooooooooooooooooooooooooorsr",
"mknpppppppppppppppppppppppppppppppppppppppppppppppppppppppppppqr",
"mlnnnnnnnnnnnnnnnnnnnnnnnnnnnnnnnnnnnnnnnnnnnnnnnnnnnnnnnnnnnnno",
"klllllllllllllllllllllllllllllllllllllllllllllllllllllllllllllll",
"aaaaaaaaaaaaaaaaaaaaaaaaaaaaaaaaaaaaaaaaaaaaaaaaaaaaaaaaaaaaaaaa",
"cccccccccccccccccccccccccccccccccccccccccccccccccccccccccccccccc",
"cccccccccccccccccccccccccccccccccccccccccccccccccccccccccccccccc",
"wwwwwwwwwwwwwwwwwwwwwwwwwwwwwwwwwwwwwwwwwwwwwwwwwwwwwwwwwwwwwwww"
};