/* XPM */
static char *wall_r15_c06[] = {
"64 64 13 1",
"a	c #646464",
"b	c #545454",
"c	c #2C2C2C",
"d	c #242424",
"e	c #343434",
"f	c #444444",
"g	c #000000",
"h	c #141414",
"i	c #4C4C4C",
"j	c #6C6C6C",
"k	c #747474",
"l	c #C01010",
"m	c #700404",
"abbbbbbbbbbbbbbbbbbbbbbbbbbbbbbbbbbbbbbbbbbbbbbbbbbbbbbbbbbbbbbb",
"cdefffedghdefbbbbbbbbbbbfedhdggggggedhghdefbbbbbbbbbbaaabbbbbbba",
"cdeeeedhghdefffffffffbbabdhdeggggggedhghddefffffffffbaaabfffffia",
"cdeeedhghdefffffffffbbabedhdeggggggfedhghddefffffffffbaaabffffia",
"cdeeedhghdefffffffffbjafdhdefggggggfedhghddefffffffffbaaabffffia",
"cdeedhghdefffffffffbjabedhdefggggggffedhghddefffffffffbaaabfffia",
"cdeedhghdefffffffffbjafdhdefbggggggffedhghddefffffffffbaaabfffia",
"cdedhghdefffffffffbjabfdhdefbggggggiffedhghddefffffffffbaaabffia",
"cdedhghdefffffffffbjafdhdefbaggggggbifedhghddefffffffffbaaabffia",
"cddhghdefffffffffbjabfdhdefbaggggggfbffedhghddefffffffffbaaabfia",
"cddhghdefffffffffbjafdhdefbaaggggggfbifedhghddefffffffffbaaabfia",
"cdhghdefffffffffbjabfdhdefbaaggggggefbffedhghddefffffffffbaaabia",
"cdhghdefffffffffbjafdhdefbajaggggggefbifedhghddefffffffffbaaabia",
"cdghdefffffffffbjabfdhdefbajaggggggdefbffedhghddefffffffffbaaaba",
"cdghdefffffffffbjafdhdefbajaaggggggdefbifedhghddefffffffffbaaaba",
"cdhdefffffffffbjabfdhdefbajfaggggggddefbffedhghddefffffffffbaaaa",
"cdhdefffffffffbjafdhdefbajafaggggggddefbifedhghddefffffffffbaaaa",
"cdeefffffffffbjabfdhdefbajffaggggggdedefbffedhghddefffffffffbaaa",
"cdeefffffffffbjafdhdefbajaffaggggggdedefbifedhghddefffffffffbaaa",
"cdefffffffffbjabfdhdefbajfefaggggggdfedefbffedhghddeffffffffiaaa",
"cdefffffffffbjafdhdefbajafefaggggggdfedefbifedhghddefffffffffbaa",
"cdeffffffffbjabfdhdefbajfeefaggggggdffedefbffedhghddeffffffffbaa",
"cdeffffffffbjafdhdefbajafeefaggggggdffedefbifedhghddeffffffffbaa",
"cdefffffffbjabedhdefbajbfeefaggggggdfeeedefbfeddhghddefffffffbaa",
"cdefffffffbjafdhdefbajabeeefaggggggdfeeedefbbfedhghddefffffffbaa",
"cdeffffffbjabedhdefbajbfdddefggggggdedddedefbfeddhghddeffffffbaa",
"cdeffffffbjafdhdefbajabeggggggggggggggggedefbbfedhghddeffffffbaa",
"cdefffffbjabedhdefbajbfddffbkggggggdkkkadedefbfeddhghddefffffbaa",
"cdefffffbjafdhdefbajabfgdeefkggggggdeffkgddefbbfedhghddefffffbaa",
"cdeffffbjabedhdefbajbffgdllfkggggggdllfkgdedefbfeddhghddeffffbaa",
"cdeffffbjabdhddefbbbfefgdeefkggggggdeefkgdedeffeeddhghddeffffbaa",
"cdeffffbjabdhgggghdeeefgdmmfkggggggdmmfkgdeeddhgggggghddeffffbaa",
"cdeffffbjabdhgggghdefefgdeefkggggggdeefkgdeeddhgggggghddeffffbaa",
"cdeffffbjabdhdefbajabefgdllfkggggggdllfkgdedefbbfedhghddeffffbaa",
"cdeffffbjabedhdefbajaffgdeefkggggggdeefkgdedefbfeddhghddeffffbaa",
"cdefffffbjafdhdefbajabfgdeefkggggggdeefkgddefbbfedhghddefffffbaa",
"cdefffffbjabedhdefbajafddddefggggggddddfdedefbfeddhghddefffffbaa",
"cdeffffffbjafdhdefbajabeggggggggggggggggedefbbfedhghddeffffffbaa",
"cdeffffffbjabedhdefbajafdddefggggggdedddedefbfeddhghddeffffffbaa",
"cdefffffffbjafdhdefbajabeeefaggggggdfeeedefbbfedhghddefffffffbaa",
"cdefffffffbjabedhdefbajafeefaggggggdfeeedefbfeddhghddefffffffbaa",
"cdeffffffffajbedhdefbajafeefaggggggcffcdcefbfedhghddeffffffffbaa",
"cdeffffffffbjabedhdefbajafefaggggggcffcdcebffedhghddeffffffffbaa",
"cdefffffffffajbedhdefbajafefaggggggcfcdcefbfedhghddefffffffffbaa",
"cdefffffffffbjabedhdefbajaffaggggggcfcdcebffedhghddeffffffffibaa",
"cdeefffffffffajbedhdefbajaffaggggggccdcefbfedhghddefffffffffbaaa",
"cddefffffffffbjabedhdefbajafaggggggccdcebffedhghddefffffffffbaaa",
"cdhdefffffffffajbedhdefbajafaggggggcdcefbfedhghddefffffffffbaaaa",
"cdhdefffffffffbjabedhdefbajaaggggggcdcebffedhghddefffffffffbaaaa",
"cdghdefffffffffajbedhdefbajaaggggggdcefbfedhghddefffffffffbaaaba",
"cdghdefffffffffbjabedhdefbajaggggggdcebffedhghddefffffffffbaaaba",
"cdhghdefffffffffajbedhdefbajaggggggcefbfedhghddefffffffffbaaabia",
"cdhghdefffffffffbjabedhdefbajggggggcebffedhghddefffffffffbaaabia",
"cddhghdefffffffffajbedhdefbaaggggggefbfedhghddefffffffffbaaabfia",
"cddhghdefffffffffbjabedhdefbaggggggebffedhghddefffffffffbaaabfia",
"cdedhghdefffffffffajbedhdefbaggggggfbfedhghddefffffffffbaaabffia",
"cdedhghdefffffffffbjabedhdefbggggggbffedhghddefffffffffbaaabffia",
"cdfedhghdefffffffffbjafdhdeffggggggffedghhddefffffffffbaaabfffia",
"cdfedhghdefffffffffbjabedhdefggggggfedgghhddefffffffffbaaabfffia",
"cdffedhghdefffffffffbjafdhdefggggggfedghhddefffffffffbaaabffffia",
"cdffedhghdeffffffffffbbbedhdeggggggedgghdddefffffffffbaaabffffia",
"cdfffedhghdefffffffffffffdhdeggggggedghhddefffffffffbaaabfffffia",
"cdfffedhghdeeeeeeeeeeeeeeedhdggggggdgghddeeeeeeeeeeebaaabeeeeeeb",
"cddddddddddddddddddddddddddddhhhhhhddddddddddddddddddddddddddddd"
};