/* XPM */
static char *wall_r00_c07[] = {
"64 64 12 1",
"a	c #044488",
"b	c #001C3C",
"c	c #085098",
"d	c #002850",
"e	c #2828C8",
"f	c #043C74",
"g	c #0C5CAC",
"h	c #7878E0",
"i	c #003064",
"j	c #D8D8F4",
"k	c #C42424",
"l	c #44D444",
"aaaaaaaabaaaaacbddeddbcaaaacbdeddedbcaaaacbddeddbcaaaaabaaaaaaaa",
"affffffabaffffgbddhddbgffffgbdhddhdbgffffgbddhddbgffffabaffffffa",
"afiddifabafiifgbddjddbgfiifgbdjddjdbgfiifgbddjddbgfiifabafiddifa",
"afiddifabafiifcbddhddbcfiifcbdhddhdbcfiifcbddhddbcfiifabafiddifa",
"afiddifabafiifabhdedhbafiifabdeddedbafiifabhdedhbafiifabafiddifa",
"afiddifabafiifcbjdedjbcfiifcbdeddedbcfiifcbjdedjbcfiifabafiddifa",
"afiddifabafiifgbhdhdhbgfiifgbdhddhdbgfiifgbhdhdhbgfiifabafiddifa",
"afiddifabafiifgbedjdebgfiifgbdjddjdbgfiifgbedjdebgfiifabafiddifa",
"afiddifabafiifcbedhdebcfiifcbdhddhdbcfiifcbedhdebcfiifabafiddifa",
"afiddifabafiifabhdedhbafiifabdeddedbafiifabhdedhbafiifabafiddifa",
"afiddifabafiifcbjdedjbcfiifcbdeddedbcfiifcbjdedjbcfiifabafiddifa",
"afiddifabafiifgbhdhdhbgfiifgbdhddhdbgfiifgbhdhdhbgfiifabafiddifa",
"afiddifabafiifgbedjdebgfiifgbdjddjdbgfiifgbedjdebgfiifabafiddifa",
"afiddifabafiifcbedhdebcfiifcbdhddhdbcfiifcbedhdebcfiifabafiddifa",
"afiddifabafiifabhdedhbafiifabdeddedbafiifabhdedhbafiifabafiddifa",
"afiddifabafiifcbjdedjbcfiifcbdeddedbcfiifcbjdedjbcfiifabafiddifa",
"afiddifabafiifgbhdhdhbgfiifgbdhddhdbgfiifgbhdhdhbgfiifabafiddifa",
"afiddifabafiifgbedjdebgfiifgbdjddjdbgfiifgbedjdebgfiifabafiddifa",
"afiddifabafiifcbedhdebcfiifcbdhddhdbcfiifcbedhdebcfiifabafiddifa",
"afiddifabafiifabhdedhbafiifabdeddedbafiifabhdedhbafiifabafiddifa",
"afiddifabafiifcbjdedjbcfiifcbdeddedbcfiifcbjdedjbcfiifabafiddifa",
"afiddifabafiifgbhdhdhbgfiifgbdhddhdbgfiifgbhdhdhbgfiifabafiddifa",
"afiddifabafiifgbedjdebgfiifgbdjddjdbgfiifgbedjdebgfiifabafiddifa",
"afiddifabafiifcbedhdebcfiifcbdhddhdbcfiifcbedhdebcfiifabafiddifa",
"afiddifabafiifabhdedhbafiifabdeddedbafiifabhdedhbafiifabafiddifa",
"afiddifabafiifcbjdedjbcfiifcbdeddedbcfiifcbjdedjbcfiifabafiddifa",
"afiddifabafiifgbhdhdhbgfiifgbdhddhdbgfiifgbhdhdhbgfiifabafiddifa",
"afiddifabafiifgbedjdebgfiifgbdjddjdbgfiifgbedjdebgfiifabafiddifa",
"aaaaaaaabafiifcbedhdebcfiifcbdhddhdbcfiifcbedhdebcfiifabaaaaaaaa",
"affffffabafiifabhdedhbafiifabdeddedbafiifabhdedhbafiifabaffffffa",
"afddfkfabafiifcbjdedjbcfiifcbdeddedbcfiifcbjdedjbcfiifabafkfddfa",
"affffffabafiifgbhdhdhbgfiifgbdhddhdbgfiifgbhdhdhbgfiifabaffffffa",
"afddflfabafiifgbedjdebgfiifgbdjddjdbgfiifgbedjdebgfiifabaflfddfa",
"afffflfabafiifcbedhdebcfiifcbdhddhdbcfiifcbedhdebcfiifabaflffffa",
"affffffabafiifabhdedhbafiifabdeddedbafiifabhdedhbafiifabaffffffa",
"aiddddiabafiifcbjdedjbcfiifcbdeddedbcfiifcbjdedjbcfiifabaiddddia",
"afiddifabafiifgbhdhdhbgfiifgbdhddhdbgfiifgbhdhdhbgfiifabafiddifa",
"afiddifabafiifgbedjdebgfiifgbdjddjdbgfiifgbedjdebgfiifabafiddifa",
"afiddifabafiifcbedhdebcfiifcbdhddhdbcfiifcbedhdebcfiifabafiddifa",
"afiddifabafiifabhdedhbafiifabdeddedbafiifabhdedhbafiifabafiddifa",
"afiddifabafiifcbjdedjbcfiifcbdeddedbcfiifcbjdedjbcfiifabafiddifa",
"afiddifabafiifgbhdhdhbgfiifgbdhddhdbgfiifgbhdhdhbgfiifabafiddifa",
"afiddifabafiifgbedjdebgfiifgbdjddjdbgfiifgbedjdebgfiifabafiddifa",
"afiddifabafiifcbedhdebcfiifcbdhddhdbcfiifcbedhdebcfiifabafiddifa",
"afiddifabafiifabhdedhbafiifabdeddedbafiifabhdedhbafiifabafiddifa",
"afiddifabafiifcbjdedjbcfiifcbdeddedbcfiifcbjdedjbcfiifabafiddifa",
"afiddifabafiifgbhdhdhbgfiifgbdhddhdbgfiifgbhdhdhbgfiifabafiddifa",
"afiddifabafiifgbedjdebgfiifgbdjddjdbgfiifgbedjdebgfiifabafiddifa",
"afiddifabafiifcbedhdebcfiifcbdhddhdbcfiifcbedhdebcfiifabafiddifa",
"afiddifabafiifabhdedhbafiifabdeddedbafiifabhdedhbafiifabafiddifa",
"afiddifabafiifcbjdedjbcfiifcbdeddedbcfiifcbjdedjbcfiifabafiddifa",
"afiddifabafiifgbhdhdhbgfiifgbdhddhdbgfiifgbhdhdhbgfiifabafiddifa",
"afiddifabafiifgbedjdebgfiifgbdjddjdbgfiifgbedjdebgfiifabafiddifa",
"afiddifabafiifcbedhdebcfiifcbdhddhdbcfiifcbedhdebcfiifabafiddifa",
"afiddifabafiifabhdedhbafiifabdeddedbafiifabhdedhbafiifabafiddifa",
"afiddifabafiifcbjdedjbcfiifcbdeddedbcfiifcbjdedjbcfiifabafiddifa",
"afiddifabafiifgbhdhdhbgfiifgbdhddhdbgfiifgbhdhdhbgfiifabafiddifa",
"afiddifabafiifgbddjddbgfiifgbdjddjdbgfiifgbddjddbgfiifabafiddifa",
"afiddifabafiifcbddhddbcfiifcbdhddhdbcfiifcbddhddbcfiifabafiddifa",
"afiddifabafiifabddeddbafiifabdeddedbafiifabddeddbafiifabafiddifa",
"afiddifabafiifcbddeddbcfiifcbdeddedbcfiifcbddeddbcfiifabafiddifa",
"affffffabaffffgbddhddbgffffgbdhddhdbgffffgbddhddbgffffabaffffffa",
"affffffabaffffgbddjddbgffffgbdjddjdbgffffgbddjddbgffffabaffffffa",
"affffffabaffffcbddhddbcffffcbdhddhdbcffffcbddhddbcffffabaffffffa"
};