/* XPM */
static char *wall_r13_c07[] = {
"64 64 36 1",
"a	c #BCBCBC",
"b	c #A8A8A8",
"c	c #8C8C8C",
"d	c #747474",
"e	c #4C4C4C",
"f	c #989898",
"g	c #848484",
"h	c #646464",
"i	c #444444",
"j	c #D0B094",
"k	c #C4A080",
"l	c #E0E0E0",
"m	c #C4C4C4",
"n	c #A8784C",
"o	c #502400",
"p	c #343434",
"q	c #94602C",
"r	c #B08458",
"s	c #A06C3C",
"t	c #B0B0B0",
"u	c #805424",
"v	c #704820",
"w	c #60401C",
"x	c #503418",
"y	c #5C5C5C",
"z	c #6C6C6C",
"A	c #D8D8D8",
"B	c #CCCCCC",
"C	c #A0A0A0",
"D	c #7C7C7C",
"E	c #3C3C3C",
"F	c #1C1C1C",
"G	c #2C2C2C",
"H	c #000000",
"I	c #28CC28",
"J	c #545454",
"abbbbbbbbbbbbbbbbbbbbbbbbbbbbcdeedcbbbbbbbbbbbbbbbbbbbbbbbbbbbba",
"bfgggggggggggggggggggggggggggddeeddgggggggggggggggggggggggggggfb",
"bghhhhhhhhhhhhhhhhhhhhhhhhhhhhieeehhhhhhhhhhhhhhhhhhhhhhhhhhhhgb",
"bgjkkkkkkkkkkkkkjllmbdkkkkkkknopponkkkkkkkllmbdqjkkkkkkkkkkkkqgb",
"bgkrrrrrrrrrrrrsklmtfdrrrrrrrqoppoqrrrrrrrlmtfdukrrrrrrrrrrrsugb",
"bgkrsssssssssssqklmtfdsssssssvoppovssssssslmtfdukrssssssssssqugb",
"bgkrsssssssssssqklmtfdsssssssvoppovssssssslmtfdukrssssssssssqugb",
"bgksqqqqqqqqqqqqklmtfdqqqqqqqwoppowqqqqqqqlmtfduksqqqqqqqqqqqugb",
"bgquuuuuuuuuuuuuqlmtfduuuuuuuwoppoxuuuuuuulmtfduquuuuuuuuuuuuugb",
"bgdddddddddddddydlmtfddddddddddeedddddddddlmtfdyddddddddddddddgb",
"bgmfzfmtfffffffzAlmtfddftmfzfaceecbfzfmtfflmtfdzAafffffftmfzfmgb",
"bgBBCdCBatttttCglllllfDaBCdCltgeeDCBCdCBatllllfglmtttttaBCdClagb",
"bgBaBCdCBattttCgllmmmcgBCdClBCDeeDfaBCdCBalmmmcglmttttaBCdClBbgb",
"bgBtaBCdCBatttCglltttgfCdClBafDeeDftaBCdCBltttgglmtttaBCdClBacgb",
"bgBttaBCdCBattCgllfffDddClBatfDeeDfttaBCdClfffDglmttaBCdClBatcgb",
"bgBtttaBCdCBatCglddddddClBattfDeeDftttaBCddddddglmtaBCdClBattcgb",
"bgBttttaBCdCBaCgllmtfddlBatttfDeeDfttttaBClmtfdglmaBCdClBatttcgb",
"bgBtttttaBCdCBBbblmtfdbBattttfDeeDftttttaBlmtfdbbBBCdClBattttcgb",
"bgCCCCCCCBCddCCddlmtfdbCCCCCCgdeedgCCCCCCBlmtfdddCCddClCCCCCCcgb",
"bggggggggbdyyyyddlmtfddggggggddppddggggggblmtfdddyyyydbggggggdgb",
"bglllllllmdhhhhddlmtfdbllllllmbeebmllllllllmtfdddhhhhdlllllllBgb",
"bgBCCCCCCBCddCCddlmtfddCCCCCCgdeedgCCCCCCClmtfdddCCddClCCCCCCcgb",
"bgBtttttaBCdCllbbllllfdttttttfDeeDftttttttllllfbbllCdClBtttttcgb",
"bgBttttaBCdClBCgllmmmcdttttttfDeeDftttttttlmmmcglmBlCdClBttttcgb",
"bgBtttaBCdClBaCglltttgdttttttfDeeDftttttttltttgglmaBlCdClBtttcgb",
"bgBttaBCdClBatCgllfffDdttttttfDeeDftttttttlfffDglmtaBlCdClBttcgb",
"bgBtaBCdClBattCgldddddippppppiDeeDippppppidddddglmttaBlCdClBtcgb",
"bgBaBCdClBatttCglllllfEFFFFFFEDeeDEFFFFFFEllllfglmtttaBlCdClBcgb",
"bgBBCdClBattttCgllmmmcEGGGGGGEDeeDEGGGGGGElmmmcglmttttaBlCdClagb",
"bgBCdClBatttttCglltttgEGEEEEGEDeeDEGEEEEGEltttgglmtttttaBlCdCBgb",
"bgCdClBattttttCgllfffDEGEHeIGEDeeDEGIeHEGElfffDglmttttttaBlCdcgb",
"bgdCllBtttttttCgldddddEGEHdIGEDeeDEGIdHEGEdddddglmtttttttBllCdgb",
"bgcdcBBtttttttCglllllfEGEHdEGEDeeDEGEdHEGEllllfglmtttttttBlCdcgb",
"bgtCdCBattttttCgllmmmcEGEHdEGEDeeDEGEdHEGElmmmcglmttttttaBCdCBgb",
"bgBlCdCBatttttCglltttgEGEHdEGEDeeDEGEdHEGEltttgglmtttttaBCdClagb",
"bgBBlCdCBattttCgllfffDEGEHeEGEDeeDEGEeHEGElfffDglmttttaBCdClBbgb",
"bgBaBlCdCBatttCgldddddEGEEEEGEDeeDEGEEEEGEdddddglmtttaBCdClBacgb",
"bgBtaBlCdCBattCglllllfEGGGGGGEDeeDEGGGGGGEllllfglmttaBCdClBatcgb",
"bgBttaBlCdCBatCgllmmmceddddddeDeeDeddddddelmmmcglmtaBCdClBattcgb",
"bgBtttaBlCdCBaCglltttgdttttttfDeeDftttttttltttgglmaBCdClBatttcgb",
"bgBttttaBlCdCBCbblfffDdttttttfDeeDftttttttlfffDbbBBCdClBattttcgb",
"bgCCCCCCClCddCCddddddddCCCCCCgdeedgCCCCCCCdddddddCCddClCCCCCCcgb",
"bggggggggbdyyyyddlmtfddggggggddppddggggggglmtfdddyyyydbggggggdgb",
"bglllllllldhhhhddlmtfdbllllllmbeebmllllllmlmtfdddhhhhdlllllllBgb",
"bgBCCCCCClCddCCddlmtfdbCCCCCCgdeedgCCCCCCBlmtfdddCCddClCCCCCCcgb",
"bgBtttttBlCdCllbblmtfdbBtttttfDeeDftttttaBlmtfdbbllCdClBtttttcgb",
"bgBttttBlCdClBCgllmtfddlBttttfDeeDfttttaBClmtfdglmBlCdClBttttcgb",
"bgBtttBlCdClBaCgllmtfddClBtttfDeeDftttaBCdlmtfdglmaBlCdClBtttcgb",
"bgBttaBCdClBatCglllllfddClBttfDeeDfttaBCdCllllfglmtaBlCdClBttcgb",
"bgBtaBCdClBattCgllmmmcbCdClBtfDeeDftaBCdCllmmmcglmttaBlCdClBtcgb",
"bgBaBCdClBatttCglltttgflCdClBfDeeDfaBCdClBltttgglmtttaBlCdClBcgb",
"bgBBCdClBattttCgllfffDgBlCdCltDeeDCBCdClBalfffDglmttttaBlCdClagb",
"bgBCdClBatttttCgldddddDaBlCdCmfeeftCdClBatdddddglmtttttaBlCdCBgb",
"bgCdClBattttttCgllmtfdDtaBlCdgbeebgdClBattlmtfdglmttttttaBlCdcgb",
"bgdCllBtttttttCgllmtfdDttBllCddppddCllBtttlmtfdglmtttttttBllCdgb",
"bgCdClBtttttttCgllmtfdDttBlCdgbeebgdClBtttlmtfdglmtttttttBlCdcgb",
"bgBCdCBattttttCgllmtfdDtaBCdCmfeeftCdCBattlmtfdglmttttttaBCdCBgb",
"bgaacdcabCCCCCcdBlmtfddbacdcBCdeedcacdcabClmtfddBtCCCCCbacdcBbgb",
"bDbfbDdDbfccccDdalmtfddbDdDabDdeeddfbDdDbflmtfddaCccccfbDdDabdgb",
"bglllllllllllllllllllllllllllmbppbmlllllllllllllllllllllllllllgb",
"bgBDyyyyyyyyyyyyyyyyyyyyyyyyyyEppiyyyyyyyyyyyyyyyyyyyyyyyyyyyBgb",
"bgBfgggggggggggggggggggggggggddppddgggggggggggggggggggggggggdBgb",
"bztttttttttttttttttttttttttttfDppDftttttttttttttttttttttttttttzb",
"zJJJJJJJJJJJJJJJJJJJJJJJJJJJJJpppEJJJJJJJJJJJJJJJJJJJJJJJJJJJJJz"
};