/* XPM */
static char *wall_r14_c03[] = {
"64 64 20 1",
"a	c #98C0E4",
"b	c #7CACDC",
"c	c #6C90BC",
"d	c #5884B0",
"e	c #3C6CA0",
"f	c #244870",
"g	c #040404",
"h	c #4C78A8",
"i	c #346090",
"j	c #2C5480",
"k	c #142840",
"l	c #183450",
"m	c #0C1C30",
"n	c #081420",
"o	c #0C0C0C",
"p	c #204060",
"q	c #80A0C4",
"r	c #94B0D0",
"s	c #A8BCD8",
"t	c #28CC28",
"aabbbccccccddddddddddddddddddefggfeddccccccccbbaabbccccccccddddd",
"addhhhheeieiiiiiiiiiijijjjjijfkggkfiiiieieehhhhddddhhhheeieiiiii",
"bdheeeiiiiijjfflllkkkmgggggggggggnnkkllffjjiiieeehheeeiiiiijjffl",
"bdhhheeiiiijifjffllkkmgggggggggggnnkkllfljfjjiieehhhheeiiiijifjf",
"chhhhheeeiiiijjffflklkgggggggggggnngmklllffjjjieeehhhheeeiiiijjf",
"chehhhheeiiiijifjffllkmggggggggggggnmkkllfljfjjiieehhhheeiiiijif",
"cheeehheeeiiiiijjfflllmmnggggggggggnmmkkkllffjjiiieeehheeeiiiiij",
"chieehhkjllllkkkkmkmmmlgggggggggggggggmmmmmmmmmmmkkkkfffflliiiij",
"chieeehjmoooooommmmmmmgggggggggggggggggggggggggggooooommmoceeiii",
"ceiiieejokjllllkkkkmkmlkkmmoogoggggogoommkkllfljfjjiieehhdceeiii",
"ceiiiielojheeeiiijjffllkkkmmmooggggggoommmkkkllffjjiiieeedbeeeii",
"dejiiiilojhhheeiijjfjlfllkkmmodggipggogoommkkllfljfjjiieedahheei",
"dijiiiilolhhhheeeijjjfflllkmkdfggiipgggoommkmklllffjjjieedbhhhee",
"difijiilolehhhheeiijjfjlfllkdhfggifipggogoommkkllfljfjjiidbhhhhe",
"difjjiiloleeehheeeiiijjfflldhcfggipfipgggoommmkkkllffjjiihceehhe",
"difjfijkmlieehhhheeiijjfjldhcefggippfipggogoommkkllfljfjjhceehhh",
"difffjjkmlieeehhhheeeiijjdhchifggipppfipgggooomkkklllffjjhdeeehh",
"dilffjfkmkiiieehhhheeiijdhchhifggifpppfipggogoommkkllfljfediieeh",
"dilllffkmkiiiieeehheeeidhchhhifggifffppfipgggoommmkkkllffediiiee",
"dikllffkmkjiiiieehhhhedhccdhdifggijffpppfipggogoommkkllflediiiie",
"diklklfmmkjiiiieeehhhdhcqcdddhfggijfjffppfipgggoommkmklllediiiie",
"dimkkllmmkfijiiiieehdhcrqccddhfggiijjffpppfipggogoommkklledijiii",
"dimkkklmmmfjjiiiiiedhcrqqqcccdfggiijjjfffppfipgggoommmkkkihjjiii",
"diommkkmmmfjfijijidhcrrrrqqccdfggihiijjffpppfipggogoommkkihjfiji",
"djommmkmmmfffjjijdhcrqrrrrqqqcfgghhiiijjjfpppfipgggooomkkihffjji",
"djomommoomlffjfidhcrqrrssssrrqfggdcedeeiijjfffjipggogoommihffjfi",
"djooommooolllffddiiiiiiiehdheifggiiiiiiiiiiiiiiiiggggoommihllffj",
"dmmmmommmokllffjljffpllppffffknggnnmknmnnnnnnoogoggggogooihmmmmm",
"diiiiiiiiiiiiiiiieegplpfffjjjpnggnmllkknnnnnnniiiiiiiiiiiiiiiiee",
"dddcccbaabcccdddiiogkjjiieehhipggkfjjfjlfllkkmddcccbaabcccdddiio",
"demklllkmmooooooologkkjiiieeeipgglfiijjffllkkkelooooooommklllkmo",
"demklggoomooooomologkkfjjiieeipggljiijjfjlfllkelomooooomoogglkmo",
"demkgttgoooooooomkogkkfjjiieejpggpjeeiijjfflllekmoooooooogttgkmo",
"dekmoggooojiieiimkogokljfjjiijlggpieeiijjfjlflekmiieiijoooggomko",
"dhkmkoooooooommkkmogoklffjjiiflggpieeeiiijjfflhmkkmmooooooookmko",
"dhmoooomommmmomoggggoklfljfjjfkggpihheeiijjfjlhmoooomommmmomoggg",
"domomooooooooooogggggklllffjjpkgglihhheeeijjjfomomoooooooooooggg",
"ciiiiiiiogommmmogggggkkllfljfpmggljhhhheeiijjfjnnnnnnnnnnieoooom",
"ciflllkkooommmmmgggggkkkkllffpmggkjeehheeeiiijjffllkkkmmmieooooo",
"cijffllkoooomooogogoommkkllflpnggkfeehhhheeiijjfjlfllkkmmieomooo",
"cijfffllmoommooogggooomkkkllllnggkfeeehhhheeeiijjfflllkkkiemmooo",
"ciifjfflmoommomogggogoommkklllnggmpiieehhhheeiijjfjlfllkkihmmomo",
"ceijjfflmmokkmmogggggoommmkkkmnggmpiiieeehheeeiiijjffllkkihkkmmo",
"ceijifjfmmmkkmmooggggogoommkkmnggmljjiieehhhheeiijjfjlfllihkkmmo",
"chiiijjfmmmklkkmoggggggoommkmnnggnljjjieeehhhheeeijjjffllihklkkm",
"chiiijifkmmllkkmogoggggogoommnnggnmjfjjiieehhhheeiijjfjlfihllkkm",
"bhiiiiijkmmlllkkmooggggggoommnnggnmffjjiiieeehheeeiiijjffihlllkk",
"bheiiiijkmkffllkmoogoggggogoonnggnmfljfjjiieehhhheeiijjfjidffllk",
"bdeeeiiikmkfffllkmoooggggggooonggnmllffjjiieeehhhheeeiijjedfffll",
"bdheeiiikmkfjfflkmmoogoggggogooggnnllfljfjjiieehhhheeiijjedfjffl",
"bdheeeiilmkjjfflkkmmmooggggggooggnnkkllffjjiiieeehheeeiiiedjjffl",
"bdhhheeilmkjifjflkkmmoogoggggogggnnkkllfljfjjiieehhhheeiiedjifjf",
"chhhhheelokiijjfllkmkmmooggggggggnnkmklllffjjjieeehhhheeehdiijjf",
"chehhhheloliijiffllkkmmoogoggggggoommkkllfljfjjiieehhhheehdiijif",
"cheeehheloliiiijfllkkkmmmooggggggoommmkkkllffjjiiieeehheeddiiiij",
"chieehhhjddhheeeeieiiiiiiiiiifkggkfiiiiiiiieieeeehhdddddddciiiij",
"chieeehhbaabcddddddhhhhhhheeejlggljeeehhhhhhhccccccbbbaaabceeiii",
"ceiiieehhhheeiiiijifjffllkkmmonggoomommkkllffjfijiiiieehhhheeiii",
"ceiiiieeehheeeiiiiijjfflllkkknnggoooommkkklllffjjiiiiieeehheeeii",
"dejiiiieehhhheeiiiijifjffllkknnggoooomommkkllffjfijiiiieehhhheei",
"dijiiiieeehhhheeeiiiijjffflklnnggoooooommkklklfffjjiiiieeehhhhee",
"difijiiiieehhhheeiiiijifjffllnnggonoooomommkkllffjfijiiiieehhhhe",
"dimkkkklllllljjllllllkkkkmmmmnoggoommmmmmooooommmmmkkkklllllljjl",
"dmooooooommmmkkkkmmmmooooooooooggnnomoooomommmmoooooooooommmmkkk"
};