/* XPM */
static char *wall_r07_c01[] = {
"64 64 19 1",
"a	c #444444",
"b	c #545454",
"c	c #6C6C6C",
"d	c #747474",
"e	c #2C2C2C",
"f	c #989898",
"g	c #A8A8A8",
"h	c #B0B0B0",
"i	c #BCBCBC",
"j	c #1C1C1C",
"k	c #4C4C4C",
"l	c #5C5C5C",
"m	c #000000",
"n	c #3C3C3C",
"o	c #848484",
"p	c #343434",
"q	c #0C0C0C",
"r	c #242424",
"s	c #141414",
"abccdccdcdcccdcdcdcdcccddcdcddeedfffggffffgfgffgfgfgffgfffghhiee",
"jabklbkbkblakbkbbllblklblkblcdemndfgfofgffgffoffffffofofffgfihpm",
"qebaeqerejreejepeeaqebeaeaeelcjmecdocaccddccdcfddfldccbdpblofhem",
"mjrprpereepeperererpaaeaaaeabcjmrbodddcdcocbcddddadclcclacddfgjm",
"mjjeeraprperjeeaeaereqeneqenkdemjadlcdoddcocdcdccbdoddcdbodcffem",
"mjrrpepenereappeneanaebeaebelcjmjndclcdccldccddcdccccacobccdggrm",
"mqjpejappeaepejappeaepeaepeabcemraodcddcoccdlcldodobdcfcddodffjm",
"mjsenpeneanaebepenereappeappkdjmjadccdodcdbldcddbdcdcdcdcdcdofem",
"mqjjpeaeaereqeraprperjearjealcemsncbcldcdcddoodccclbodcolcldfgrm",
"mqsenrererpaaepereepepepepepkdjmjaccdcodcbcddcddcldbclcdcodoffjm",
"mqsppbpepeepeerjerrappabjeeplcjmsnodcldoddddlccbddoaccdcododofrm",
"mqjeaceaeeaeejaajrbpabeaeeaelbemqpbcdocddcdcdcfcadcoclbclpbcofem",
"mmqmqmqmmqqmqmqqqqmqmqqqqqqjjajmmjpnakakakaakaakaanakaakaaabodjm",
"mmmmmmmmmmmmmmmmmmmmmmmmmmmmmqemmmmsjjsjsjjsjjrjsjrjjsqsjjjjelrm",
"mmmmmmmmmmmmmmmmmmmmmmmmmmmmmejmmmmmmmmmmmmmmmmmmmmmmmmmmmmmmejm",
"qsjqjeajejejqjjejjrejejejjrjeejjejqjrrjejrjqjrrsjjsjjjejjsjeeerj",
"fffffffffffghieedffffffffggffgffgfggfffffgfghieedffgfffffffggfgf",
"ffofoffffffgihemndfgfofofgfofgfooffgfoffoffgihemnofffffofofffoff",
"ddccbdcbldcoghjmecdocaocdpcfdcbdcblfddfocdcoghjmeadlbcdbccdpcdcc",
"cclcclbcdcodfgjmrboddddodabcfdclbcdaddddocodfgjmreodcblcclcaccdc",
"coddcddodolcffrmjadlcdodlbdddccddodbccdodolcffjmjpddoddcddobbccd",
"cccacooccccdggjmjndclcclcbcdddcoocccdcdclccdggjmjpdccoocaccbdcdc",
"cbdcfcldobddffrmraodcddcddddbcfcldododldcbddffqmrpoodlcfcdbddcdd",
"cdcdcdcdcdcdofjmjadccddododldccdcdcdbdddodcdofjmjedcdcdcdcddcfcc",
"cbodcolclbcdfgqmsncbclcccdcdddcolclcccdcdcddfgqmsnclclocdobcacdd",
"cbclcdcodbcoffjmjaccdcodbccddfcdcodlcddlocdoffrmjecdocdclcbddcdd",
"daccdcodoacdofjmsnodclcdaddddcdcododdbccdcldofjmsnoodocdccacdcbb",
"dddbdcblfpbcofrmqpbcdoblfddfdcblcocdacfocdccofjmqebcdocddcdccbdd",
"afddflbcdaabodjmmjpnakaaaaaaaaaaaaaaaaaaaaabodrmmjenapakapannana",
"qqqqqqqqqjjjelrmmmmsjjjjjjjjjjjjjjjjjjjjjjjjeljmmmmsjjsjssjqjssj",
"qmmmmmmmmmmmmsjmmmmmmmmmmmmmmmmmmmmmmmmmmmmmmermmmmmmmmmmmmmmmmm",
"qjjsjejrjjsjrsjjqjjqjeajejejqjjejjjejejejjjjerjjrjqjrjejjjrjjrjr",
"dfffffffffffffffffffffffffffhheeabccdccdcdcccdcdcdcdcccddcdcddee",
"bdfffffoffffofofofffffffofoffhemjabklbkbkblakbkbbllblklblkblcdem",
"acdccddcccddcdccbdcblbcdbccdffjmqebaeqerejreejepeeaqebeaeaeelcjm",
"ebccdcoccdcocclcclbcdcblcclcofsmmjrprpereepeperererpaaeaaaeabcjm",
"ebcoddcooddcooddcddododdcddoffjmmjjeeraprperjeeaeaereqeneqenkdem",
"jbbdcclddccldccacoocccoocaccffsmmjrrpepenereappeneanaebeaebelcjm",
"jacdcoccdcoccbdcfcldodlcfcdbofsmmqjpejappeaepejappeaepeaepeabcem",
"jacodcdbodcdbdcdcdcdcdcdcdcdffjmmjsenpeneanaebepenereappeappkdjm",
"jafdcdcddcdcdbodcolclclocdobfgsmmqjjpeaeaereqeraprperjearjealcem",
"jabodcbcodcbcbclcdcodocdclcbofjmmqsenrererpaaepereepepepepepkdjm",
"jaddoddddodddaccdcododocdccaffjmmqsppbpepeepeerjerrappabjeeplcjm",
"jaccddcdcddcdcdcfcadcoclbclpofqmmqjeaceaeeaeejaajrbpabeaeeaelbem",
"qeaakakaakakaakaakaanakaakaabdjmmmqmqmqmmqqmqmqqqqmqmqqqqqqjjajm",
"mqjsjsjjsjsjjsjjrjsjrjjsqsjjeajmmmmmmmmmmmmmmmmmmmmmmmmmmmmmmqem",
"mmmmmmmmmmmmmmmmmmmmmmmmmmmmmesmmmmmmmmmmmmmmmmmmmmmmmmmmmmmmejm",
"qjjqjeajejejqjjejjjejejsjsjjjsjjejqjrsjejrjsjsrsjjsjjjejjsjeeerj",
"gfgfgffffgghghssdffgfffffgffgffgfffffffffffghieedfgffgfffgfgfgff",
"ffffffffffgghhsmndfgfoffffoffofffoffffofoffgihpmndfgfoffffofffff",
"bdcblfddfpooghjmecdocaccddccdcfddflbcdbccdcoghemecdocadcddcacbdc",
"clbcdadddaooggsmrbodddcdcocbcddddadcblcclcodfgjmrboddocdcoccdcco",
"cddodbccdblcffjmjadlcdoddcocdcdccbdoddcddolcffemjadlcdoddcocbccd",
"coocccdcdbcdggqmjndclcdccldccddcdcccoocacccdggrmjndclcddcldcdcod",
"fcldododldddffjmraodcddcoccdlcldododlcfcdbddffjmraodcddcocccdcdc",
"cdcdcdbdddcdofjmjadccdodcdbldcddbdcdcdcdcdcdofemjadccdodcdbdcfcc",
"colclcccdbcdfgemsncbcldcdcddoodccclclolcdcddfgrmsncbcldcdcdcacdd",
"cdcodlcddbcoffjmjaccdcodcbcddcddcldocdclocdoffjmjaccdcodcbcddcdd",
"dcododdbcacdofsmsnodcldoddddlccbddodococdcldofrmsnodcldodddcacbb",
"blcocdacfpbcofjmqpbcdocddcdcdcfcadcoclbocdccofemqpbcdocddcdccbdd",
"aaaaaaaaaaabodjmmjpnakakakaakaakaanakaakaaabodjmmjpnakakakaneana",
"rqmqmqmmqjrjelqmmmmsjjsjsjjsjjrjsjrjjsqsjjsjelrmmmmsjjsjsjsjsjqj",
"mmmmmmmmmmmmmejmmmmmmmmmmmmmmmmmmmmmmmmmmmmmmejmmmmmmmmmmmmmmmmm",
"qjsqjssqsjsjessjejqjrrjsjrjqjrssjjsjjjejjsjererjrjrjjqjejjrerjrj"
};