/* XPM */
static char *wall_r12_c01[] = {
"64 64 50 1",
"a	c #80A0C4",
"b	c #5884B0",
"c	c #4C78A8",
"d	c #A8BCD8",
"e	c #6C90BC",
"f	c #3C6CA0",
"g	c #94B0D0",
"h	c #346090",
"i	c #2C5480",
"j	c #008C00",
"k	c #00A400",
"l	c #5CD85C",
"m	c #98E898",
"n	c #B8ECB8",
"o	c #D8F4D8",
"p	c #78E078",
"q	c #00C000",
"r	c #244870",
"s	c #204060",
"t	c #2C1400",
"u	c #0C5CAC",
"v	c #2474C4",
"w	c #989898",
"x	c #848484",
"y	c #A0A0A0",
"z	c #A8A8A8",
"A	c #C4C4C4",
"B	c #3C1C00",
"C	c #643000",
"D	c #CCCCCC",
"E	c #502400",
"F	c #743804",
"G	c #884404",
"H	c #984C08",
"I	c #BCBCBC",
"J	c #D8D8D8",
"K	c #E8E8E8",
"L	c #AC580C",
"M	c #00BCBC",
"N	c #5CD8D8",
"O	c #98E4E4",
"P	c #D8F4F4",
"Q	c #C06410",
"R	c #1068C0",
"S	c #3884CC",
"T	c #5090D0",
"U	c #64A0D8",
"V	c #7CACDC",
"W	c #98C0E4",
"X	c #B4D0EC",
"aaaaaaaaaaaaaabcdddddddddddddddddddddddddddddddddaaaaaaaaaaaaaaa",
"eeeeeeeeeeeeeecfagggggggggggggggggggggggggggggggdeeeeeeeeeeeeeee",
"cccccccccccccchieaeeeeaeeeeeeeeeaeeeeeeeeeaeeeegdccccccccccccccc",
"jjjjjjjjjjjjjjjkeaeeceaebeeeeeceaebeeeeeceaebeegdjjjjjjjjjjjjjjj",
"lllllllllllllllmeaehceaebceeehceaebceeehceaebcegdlllllllllllllll",
"nnnnnnnnnnnnnnnoeaehceaebceeehceaebceeehceaebcegdnnnnnnnnnnnnnnn",
"pppppppppppppppmeaehceaebceeehceaebceeehceaebcegdppppppppppppppp",
"kkkkkkkkkkkkkkkqeaehceaebceeehceaebceeehceaebcegdkkkkkkkkkkkkkkk",
"eeeeeeeeeeeeeebceaehceaebceeehceaebceeehceaebcegdeeeeeeeeeeeeeee",
"ffffffffffffffhieabhceaebcaabhceaebcaabhceaebcagdfffffffffffffff",
"iiiiiiiiiiiiiirseashceaebciishceaebciishceaebcigdiiiiiiiiiiiiiii",
"ttttttttttttttttuvuwxwyzAzvuvwxwyzAzvuvwxwyzAzuvuttttttttttttttt",
"ttBBBBBBBBBBBBCtuvuwxwyzDzvuvwxwyzDzvuvwxwyzDzuvuttBBBBBBBBBBBBC",
"ttBEEEEEEEEEEFGtuvuwxwyzDzvuvwxwyzDzvuvwxwyzDzuvuttBEEEEEEEEEEFG",
"tttECCCCCCCCGHGtuvuIADJJJKvuvIADJJJKvuvIADJJJKuvutttECCCCCCCCGHG",
"tttBFFFFFFFHLHGtuvuMNOPONMvuvMNOPONMvuvMNOPONMuvutttBFFFFFFFHLHG",
"tttBGGGGGGGQLHGtuvuMNOPONMvuvMNOPONMvuvMNOPONMuvutttBGGGGGGGQLHG",
"tttBHHHHHHHQLHGtuvuMNOPONMvuvMNOPONMvuvMNOPONMuvutttBHHHHHHHQLHG",
"tttBLLLLLLLQLHGtuvuMNOPONMvuvMNOPONMvuvMNOPONMuvutttBLLLLLLLQLHG",
"tttBQQQQQQQQLHGtuvuMNOPONMvuvMNOPONMvuvMNOPONMuvutttBQQQQQQQQLHG",
"tttBLLLLLLLQLHGtuvuMNOPONMvuvMNOPONMvuvMNOPONMuvutttBLLLLLLLQLHG",
"tttBHHHHHHHQLHGtuvuMNOPONMvuvMNOPONMvuvMNOPONMuvutttBHHHHHHHQLHG",
"tttBGGGGGGGQLHGtuvuMNOPONMvuvMNOPONMvuvMNOPONMuvutttBGGGGGGGQLHG",
"tttBFFFFFFFHLHGtuvuMNOPONMvuvMNOPONMvuvMNOPONMuvutttBFFFFFFFHLHG",
"tttECCCCCCCCGHGtuvuMNOPONMvuvMNOPONMvuvMNOPONMuvutttECCCCCCCCGHG",
"ttBEEEEEEEEEEFGtuvuMNOPONMvuvMNOPONMvuvMNOPONMuvuttBEEEEEEEEEEFG",
"ttBBBBBBBBBBBBCtuvuMNOPONMvuvMNOPONMvuvMNOPONMuvuttBBBBBBBBBBBBC",
"ttttttttttttttttRvuMNOPONMvRvMNOPONMvRvMNOPONMuvRttttttttttttttt",
"ttBBBBBBBBBBBBCtvvuMNOPONMvvvMNOPONMvvvMNOPONMuvvttBBBBBBBBBBBBC",
"ttBEEEEEEEEEEFGtSvuMNOPONMvSvMNOPONMvSvMNOPONMuvSttBEEEEEEEEEEFG",
"tttECCCCCCCCGHGtTvuMNOPONMvTvMNOPONMvTvMNOPONMuvTtttECCCCCCCCGHG",
"tttBFFFFFFFHLHGtUvuMNOPONMvUvMNOPONMvUvMNOPONMuvUtttBFFFFFFFHLHG",
"tttBGGGGGGGQLHGtVvuMNOPONMvVvMNOPONMvVvMNOPONMuvVtttBGGGGGGGQLHG",
"tttBHHHHHHHQLHGtWvuMNOPONMvWvMNOPONMvWvMNOPONMuvWtttBHHHHHHHQLHG",
"tttBLLLLLLLQLHGtXvuMNOPONMvXvMNOPONMvXvMNOPONMuvXtttBLLLLLLLQLHG",
"tttBQQQQQQQQLHGtXvuMNOPONMvXvMNOPONMvXvMNOPONMuvXtttBQQQQQQQQLHG",
"tttBLLLLLLLQLHGtXvuMNOPONMvXvMNOPONMvXvMNOPONMuvXtttBLLLLLLLQLHG",
"tttBHHHHHHHQLHGtXvuMNOPONMvXvMNOPONMvXvMNOPONMuvXtttBHHHHHHHQLHG",
"tttBGGGGGGGQLHGtXvuMNOPONMvXvMNOPONMvXvMNOPONMuvXtttBGGGGGGGQLHG",
"tttBFFFFFFFHLHGtWvuMNOPONMvWvMNOPONMvWvMNOPONMuvWtttBFFFFFFFHLHG",
"tttECCCCCCCCGHGtVvuMNOPONMvVvMNOPONMvVvMNOPONMuvVtttECCCCCCCCGHG",
"ttBEEEEEEEEEEFGtUvuMNOPONMvUvMNOPONMvUvMNOPONMuvUttBEEEEEEEEEEFG",
"ttBBBBBBBBBBBBCtTvuMNOPONMvTvMNOPONMvTvMNOPONMuvTttBBBBBBBBBBBBC",
"ttttttttttttttttSvuMNOPONMvSvMNOPONMvSvMNOPONMuvSttttttttttttttt",
"ttBBBBBBBBBBBBCtvvuMNOPONMvvvMNOPONMvvvMNOPONMuvvttBBBBBBBBBBBBC",
"ttBEEEEEEEEEEFGtRvuMNOPONMvRvMNOPONMvRvMNOPONMuvRttBEEEEEEEEEEFG",
"tttECCCCCCCCGHGtuvuMNOPONMvuvMNOPONMvuvMNOPONMuvutttECCCCCCCCGHG",
"tttBFFFFFFFHLHGtuvuMNOPONMvuvMNOPONMvuvMNOPONMuvutttBFFFFFFFHLHG",
"tttBGGGGGGGQLHGtuvuMNOPONMvuvMNOPONMvuvMNOPONMuvutttBGGGGGGGQLHG",
"tttBHHHHHHHQLHGtuvuMNOPONMvuvMNOPONMvuvMNOPONMuvutttBHHHHHHHQLHG",
"tttBLLLLLLLQLHGtuvuMNOPONMvuvMNOPONMvuvMNOPONMuvutttBLLLLLLLQLHG",
"tttBQQQQQQQQLHGtuvuMNOPONMvuvMNOPONMvuvMNOPONMuvutttBQQQQQQQQLHG",
"tttBLLLLLLLQLHGtuvuMNOPONMvuvMNOPONMvuvMNOPONMuvutttBLLLLLLLQLHG",
"tttBHHHHHHHQLHGtuvuMNOPONMvuvMNOPONMvuvMNOPONMuvutttBHHHHHHHQLHG",
"tttBGGGGGGGQLHGtuvuMNOPONMvuvMNOPONMvuvMNOPONMuvutttBGGGGGGGQLHG",
"tttBFFFFFFFHLHGtuvuMNOPONMvuvMNOPONMvuvMNOPONMuvutttBFFFFFFFHLHG",
"tttECCCCCCCCGHGtuvuIADJJJKvuvIADJJJKvuvIADJJJKuvutttECCCCCCCCGHG",
"ttBEEEEEEEEEEFGtuvuwxwyzDzvuvwxwyzDzvuvwxwyzDzuvuttBEEEEEEEEEEFG",
"ttBBBBBBBBBBBBCtuvuwxwyzDzvuvwxwyzDzvuvwxwyzDzuvuttBBBBBBBBBBBBC",
"ttttttttttttttttuvuwxwyzAzvuvwxwyzAzvuvwxwyzAzuvuttttttttttttttt",
"eeeeeeeeeeeeeeeeeeeeagdgaeeeeeagdgaeeeeeagdgaeeeeeeeeeeeeeeeeeee",
"cccccccccccccccccccccccccccccccccccccccccccccccccccccccccccccccc",
"cccccccccccccccccccccccccccccccccccccccccccccccccccccccccccccccc",
"rrrrrrrrrrrrrrrrrrrrrrrrrrrrrrrrrrrrrrrrrrrrrrrrrrrrrrrrrrrrrrrr"
};