/* XPM */
static char *wall_r08_c09[] = {
"64 64 19 1",
"a	c #7C7C7C",
"b	c #8C8C8C",
"c	c #A0A0A0",
"d	c #BCBCBC",
"e	c #3C3C3C",
"f	c #5C5C5C",
"g	c #040404",
"h	c #4C4C4C",
"i	c #6C6C6C",
"j	c #2C2C2C",
"k	c #840404",
"l	c #141414",
"m	c #5C0000",
"n	c #700404",
"o	c #480000",
"p	c #CCCCCC",
"q	c #980808",
"r	c #200000",
"s	c #AC0C0C",
"abccccccccccccccccccccccccccddeeabccccccccccccccccccccccccccddee",
"fabbbbbbbbbbbbbbbbbbbbbbbbbbcdegfabbbbbbbbbbbbbbbbbbbbbbbbbbcdeg",
"hibaihiiifhhifiiiiahibiaiaiibcjghibaihiiaaiiaibaabffaafiiaiibceg",
"efaaaaiaiihiiiiiaaaafiiaaaaaacjgefaaaaiaiiifbaaaahaaffiiiiiaacjg",
"efaiiiaaiififiaiaahiaabaaifiacegefaiiiaaiiiiaiaibfaaaaiaaiiiacjg",
"jfaihiaiiifiaiaiiiiibaaaaabaacjgjfaihiaiifiiaaaiafiiaaihiiiaacjg",
"jhbbifaiiiaiaiaiiiafaaiaafiabcegjhbbifaiiiiafiaabaaaiibiaaaabcjg",
"jhbiiiiaaaaaibiiaaabaaifaiiibcjgjhbiiiiaiifaaiaafakkiakkiaiibcjl",
"jhifiiaiaiiihiaaiifaiaaaiifiiceljhifiiaiibaaaaabiiiiiaiaifiiicjg",
"jhiiiiaaiiiaaiaaaafbiaiaiiiiicjgjhiiiiaaifiaabaaihaaiaififiiicjg",
"jhfiibaaaiiiiiffaahaaaabfiiifcjgjhfiibaaaaaaaiifaaaaiiiiihiifcjg",
"jhfiaciaiiaiifaaffbaabiaiiaifbegjhfiaciaaiaiaibikkiiiifihhfifbeg",
"lehhhhhhhhhhhhhhhhhhhhhhhhhffajglehhhhhhhhhhhhhhhhhhhhhhhhhffajg",
"gljjjjjjjjjjjjjjjjjjjjjjjjjjeheggljjjjjjjjjmmjmmjmmjmjmnmmjjehjg",
"gggggggggggggggggggggggggggggejgggggggggggggognggggggooggggggejg",
"ljjljehjejejljjejjjejejejjjjeejjejljejjejjjmnmjjjjmmjjejjjjeeejj",
"ccccccccccdcdpeeabccccccccccccccccccccccccqqddeeabcqqqqcqqcccccc",
"cbbbbbcbbbbbcdegfabbbbbbbbbbbbbbbbbbbbbbbbbqkqngmabbbbbbbbbbbbbb",
"aiiiiaaiihiabcjghibaihiiaaiiaibaabffaafiiaqkkqjomnkkihiiifhhifii",
"iaifiiiaiaaabdjgefaaaaiaiiifbaaaahaafqkkiqkqkcmnmnkkkkiaiihiiiii",
"iaaiiiiaaiiibcjgefaiiiaaiiiiaiaibfaaqkkaqkkqkqmonnkkiiaaiififiaa",
"iiaiifiiaihibcjgjfaihiaiifiiaaaiafiknaikkkkkkcmmnnknkkniiifiaiaa",
"iiaaiiiiafibbcjgjhbbifaiiiiafiaabaaaiibqkknnbqomnnkkknaiiiaiaiaa",
"iaiafiiaiiiicdjgjhbiiiiaiifaaiaafaiiiaikknkibqmmnnkniiiaaaaaibii",
"iiaaabiiaiifbclgjhifiiaiibaaaaabiikniakknnniiqnmnnkfiiaiaiiihiaa",
"iaaaifiaaiiibdjgjhiiiiaaifiaabaaihakkkifknikkqmmnniiiiaaiiiaaiaa",
"aaaaaaaaabiibcjgjhfiibaaaaaaaiifaakkkiiikniifqmmnhfiibaaaiiiiiff",
"aaiiaiaaicaiacjgjhfiaciaaiqkaibihaiikkkkknfifqnmnhfiaciaiiaiifaa",
"hhhhhhhhhhffacjglehhhhhhhhhhnnhhhhhhnnnnnhnnkqnnmehhhhhhhhhhhhhh",
"lllllllllllljjjggljmmjjjjmjmmmjmnjnnmnnnnjmmmknggljjjjjjjjjjjjjj",
"lggggggggggggejgggggggogngooogomoomommoogggonnnggggggggggggggggg",
"ljjjjejjjjjjeejjlojljnmmejnmnnnmnnmnmnjmjnmnnmmjjjljjjejjjjjjjjj",
"abccccccccccccccccqqqcccqqqqqqmmkqqqqqcqqqqcccccccccccccccccddee",
"fabbbbbbbbbbbbbbbbbbbkkkkkkkkdmmnkkkkbbbbbkkkkkbbbbbbbbbbbbbcdeg",
"hiaiiaibaabffaafqkaikkfiikknkqnmnnkkkknkkkknnkiiiiahibiaiaiibcjg",
"efiifbaaaahaqkfiiiikkkkikkkkkqnmnkkkaakknnnnnkkiaaaafiiaaaaaacjg",
"efiiiaiaibfaaqqkkqkkkkikkkkqkqmnnnkkkkknnnniniaiaahiaabaaifiacjg",
"jffiiaaaiafiiqkkkkkknnkknkkkkqmmnfaihiknnnniniaiiiiibaaaaabaaceg",
"jhiiafiaabaaakkkkkknnnnnnnkkkqmnnnkbifkknkniniaiiiafaaiaafiabcjg",
"jhifaaiaafaikkkkkkknnnnnknqkkqmomnkiiknkkanaibiiaaabaaifaiiibcjg",
"jhbaaaaabiiknnkikkknnnnnnnkkkqjnmhifiikkkinihiaaiifaiaaaiifiicjl",
"jhfiaabaaihkknkkkkknnkknkkkkkqmonnkikkkkninaaiaaaafbiaiaiiiiicjg",
"jhaaaaiifnkqkkkiiiknkkknkqkqkcmomhfiikkaainiiiffaahaaaabfiiifcjg",
"jhiaiaibihaiikkfkknnkkknkkkkkbjgjhfkkciaiiniifaaffbaabiaiiaifbjg",
"lehhhhhhhhhhnnhhnnnnnnnnnnnnfajglennnnhhhhhhhhhhhhhhhhhhhhhffajg",
"gljjjjjjjjmmnjmnmmmmmnmmmmnmehjggljnmmjjjjjjjjjjjjjjjjjjjjjjehjg",
"ggggggggggoogoooggromoomoonggejggooggggggggggggggggggggggggggejg",
"ljjljehmejejmmmnjonmmnmmmnjjeejjjjjjljjjjjjjjjjjjjjjjjjjjjjjeejj",
"cccccccccqqcdsnnkqqqqqqqqcccccccccccccccccccddjeabcccccccccccccc",
"cbbbbbcbbbbbqqnnfkknnnnbbbbbbbbbbbbbbbbbbbbbcdegfabbbbbbbbbbbbbb",
"aiiiiakkihikkqngmnkknnnnkaibaabffaafiiaiiaiibcjghibaihiiifhhifii",
"iaifiiiaiaqqkqngefkknnnnnbaaaahaaffiiiiiaiiaacjgefaaaaiaiihiiiii",
"iaaiiiiaaikkkqnoenkkkiiniaiaibfaaaaiaaiiiiiiacjgefaiiiaaiififiaa",
"iiaiifiikkkkkqlgjnkkkifniaaaiafiiaaihiiiaiiaacjgjfaihiaiiifiaiaa",
"iiaaiiikkkkkkqjgnnkkkfinafiaabaaaiibiaaaaaaabcjgjhbbifaiiiaiaiaa",
"iaiafiikkkkikqmomnbiiiinaaiaafaiiiaiaiaiiaiibcjgjhbiiiiaaaaaibii",
"iiaaaqkkkkikkcegmnkkiibnaaaabiiiiiaiaifiifiiicjgjhifiiaiaiiihiaa",
"iaaaikkkkiikkdjojhnkiifiaabaaihaaiaififiifiiicegjhiiiiaaiiiaaiaa",
"aaaaakkkkbiibcjomhfiibaaaaiifaaaaiiiiihiihiifcjgjhfiibaaaiiiiiff",
"aaiikknkicaiacjonhfiaciaiaibihaiiiifihhfihfifblgjhfiaciaiiaiifaa",
"hhhhhhhnnhffacmonehhhhhhhhhhhhhhhhhhhhhhhhhffajglehhhhhhhhhhhhhh",
"llllmmnllllljjoogljjjjjjjjjjjjjjjjjjjjjjjjjjehjggljjjjjjjjjjjjjj",
"lgggoogggggggejggggggggggggggggggggggggggggggejggggggggggggggggg",
"ljjljjjjjjjjeejjljjljehjejejljjejjjejejejjjjeejjjjjjjljejjjljjjj"
};