/* XPM */
static char *wall_r07_c08[] = {
"64 64 59 1",
"a	c #4C78A8",
"b	c #346090",
"c	c #80A0C4",
"d	c #A8BCD8",
"e	c #5884B0",
"f	c #94B0D0",
"g	c #C0D0E4",
"h	c #E0E0E0",
"i	c #FCFCFC",
"j	c #747474",
"k	c #6C6C6C",
"l	c #646464",
"m	c #5C5C5C",
"n	c #545454",
"o	c #4C4C4C",
"p	c #444444",
"q	c #3C3C3C",
"r	c #343434",
"s	c #2C2C2C",
"t	c #242424",
"u	c #1C1C1C",
"v	c #000000",
"w	c #141414",
"x	c #502400",
"y	c #884404",
"z	c #C06410",
"A	c #6C90BC",
"B	c #44D444",
"C	c #28CC28",
"D	c #00C000",
"E	c #008C00",
"F	c #643000",
"G	c #984C08",
"H	c #C47024",
"I	c #743804",
"J	c #AC580C",
"K	c #CC8038",
"L	c #D09050",
"M	c #D89C64",
"N	c #DCAC7C",
"O	c #E4C098",
"P	c #ECD0B4",
"Q	c #007400",
"R	c #CCCCCC",
"S	c #D8D8D8",
"T	c #D8F4F4",
"U	c #F0F0F0",
"V	c #244870",
"W	c #00A4A4",
"X	c #C42424",
"Y	c #007448",
"Z	c #005C38",
"0	c #004428",
"1	c #048C58",
"2	c #04A468",
"3	c #002C1C",
"4	c #0C0C0C",
"5	c #BCBCBC",
"6	c #848484",
"abaaaaaaaaaaaaaaaaaaaaaaaaaaaaaaaaaaaaaaaaaaaaaaaaaaaaaaaaaaaacd",
"abedfghigfccccccccccccccccccccccccccccccccccccccccccccedfghigfcd",
"abedfghigfbjklmnopqrstuvutsrqponmnopqrstuwvvvvvvvvvtsbedfghigfcd",
"abedfghigfbklmnopqrstuvutsrqponmnopqrstuwvvvvvvvvvtsrbedfghigfcd",
"abegxyyzAfblmnoBCDDDDDutEDDDDDEnoECDDDDEvvDDDDDDEtsrsbegxyyzAfcd",
"abegFGGHAfbmnopqrstuvutsDqponmDopCrstuwDvvvvvvvvDsrswbegFGGHAfcd",
"abegIJJKAfbnopqBCDDDutsrDponmnDpqDstuwvDvvDvvvvtDrswtbegIJJKAfcd",
"abegyzzLAfbopqrDtuvutsrqDonmnoDqrDtuwvvDvvDvvvtsDswtsbegyzzLAfcd",
"abegGHHMAfbpqrsDuvutsrqpECBCDDErsEDDDDDEvvDDDDDDEwtsrbegGHHMAfcd",
"abegJKKNAfbqrstuvutsrqponmnopqrstuwvvvvvvvvvtsrswtsrqbegJKKNAfcd",
"abegzLLOAfbrstuvutsrqponmnopqrstuwvvvvvvvvvtsrswtsrqpbegzLLOAfcd",
"abegHMMPAfbstuvutsDqponmCopCDQtuwDvvDvvDDDDDDDwtsrqpqbegHMMPAfcd",
"abegKNNPcfbtuvutsrDponmnDpqDQDQwvDvvDvvvvtDrswtsrqpqrbegKNNPcfcd",
"abeRLOOPffbuvutsrqDonmnoDqrDtQDQvDvvDvvvtsDswtsrqpqrsbeRLOOPffcd",
"abeSMPPPdfbvutsrqpCnmnopDrsDwwQDQDvvDvvtsrDwtsrqpqrstbeSMPPPdfcd",
"abehTUUigfbutsrqpoEBCDDDEstDwvvQDDvvDvtsrsDtsrqpqrstvbehTUUigfcd",
"abehTUUigfbtsrqponmnopqrstuwvvvvvvvvvtsrswtsrqpqrstvvbehTUUigfcd",
"abeSMPPPdfbsrqponmnopqrstuwvvvvvvvvvtsrswtsrqpqrstvvvbeSMPPPdfcd",
"abeRLOOPffbrqponmnopqrstuwvvvvvvvvvtsrswtsrqpqrstvvvvbeRLOOPffcd",
"abegKNNPcfbqponmnopqrstuwvvvvvvvvvtsrswtsrqpqrstvvvvvbegKNNPcfcd",
"abegHMMPAffffffffffffffffffffffffffffffffffffffffffffAegHMMPAfcd",
"abegzLLOAfcccccccccccccccccccccccccccccccccccccccccccAegzLLOAfcd",
"abegJKKNAfceeeeeeeeeeeeeeacAeacAeacAeacAeacAeacAeacAeaegJKKNAfcd",
"abegGHHMAfceVTWTVVXVVVeeeacAeacAeacAeacAeacAeacAeacAeaegGHHMAfcd",
"abegyzzLAfceVVVVVVVVVVeeeacAeacAeacAeacAeacAeacAeacAeaegyzzLAfcd",
"abegIJJKAfceeeeeeeeeeeeeeacAeacAeacAeacAeacAeacAeacAeaegIJJKAfcd",
"abegFGGHAfcccccccccccccccccccccccccccccccccccccccccccAegFGGHAfcd",
"abegxyyzAffffffffffffffffffffffffffffffffffffffffffffAegxyyzAfcd",
"abegxyyzAfYZ0000ZY12221YZ00ZY122221YZ00ZY12221YZ0000ZYegxyyzAfcd",
"abegFGGHAfZYZ000ZY12221YZ00ZY122221YZ00ZY12221YZ000ZYZegFGGHAfcd",
"abegIJJKAf0ZYZ00ZY12221YZ00ZY122221YZ00ZY12221YZ00ZYZ0egIJJKAfcd",
"abegyzzLAf00ZYZ0ZY12221YZ00ZY122221YZ00ZY12221YZ0ZYZ00egyzzLAfcd",
"abegGHHMAf000ZYZZY12221YZ00ZY122221YZ00ZY12221YZZYZ000egGHHMAfcd",
"abegJKKNAf0000ZYY1122211YZZY11222211YZZY1122211YYZ0000egJKKNAfcd",
"abegzLLOAf000ZYZZY12221YZ00ZY122221YZ00ZY12221YZZYZ000egzLLOAfcd",
"abegHMMPAf00ZYZ0ZY12221YZ00ZY122221YZ00ZY12221YZ0ZYZ00egHMMPAfcd",
"abegKNNPcf0ZYZ00ZY12221YZZZZY122221YZZZZY12221YZ00ZYZ0eRKNNPcfcd",
"abeRLOOPffZYZ0000ZYYYYYZ0000ZYYYYYYZ0000ZYYYYYZ0000ZYZeSLOOPffcd",
"abeSMPPPdfYZ0000000000000000000000000000000000000000ZYehMPPPdfcd",
"abehTUUigfZ000ZZZZZZZZZZZZZZZZZZZZZZZZZZZZZZZZZZZZ000ZehTUUigfcd",
"abehTUUigf000Z333ZYYYYYZ3333ZYYYYYYZ3333ZYYYYYZ333Z000eSTUUigfcd",
"abeSMPPPdf00Z33330ZZZZZ033330ZZZZZZ033330ZZZZZ03333Z00eRMPPPdfcd",
"abeRLOOPff0Z3333330000033333300000033333300000333333Z0egLOOPffcd",
"abegKNNPcfZ333333333333333333333333333333333333333333ZegKNNPcfcd",
"abegHMMPAf3ZZZZZZZZZZZZZZZZZZZZZZZZZZZZZZZZZZZZZZZZZZ3egHMMPAfcd",
"abegzLLOAfooooooooooooooooooooooooooooooooooooooooooqregzLLOAfcd",
"abegJKKNAfmnopqrstutuw4vv4wutsrqponmnopqrstutsrqpqrstvegJKKNAfcd",
"abegGHHMAfnopqrstutuw4vv4wutsrqponmnopqrstutsrqpqrstuvegGHHMAfcd",
"abegyzzLAfopqrstutuw4vv4wutsrqponmnopqrstutsrqpqrstuwvegyzzLAfcd",
"abegIJJKAfpqrstutuw4vv4wutsrqponmnopqrstutsrqpqrstuwvvegIJJKAfcd",
"abegFGGHAfqrstutuw4vv4wutsrqponmnopqrstutsrqpqrstuw4vvegFGGHAfcd",
"abegxyyzAfrstutuw4vv4wutsrqponmnopqrstutsrqpqrstuw4vvvegxyyzAfcd",
"abe5RhhUUf6klmmmmmmmmmmmmmmmmmmmmmmmmmmmmmmmmmmmmmmmooe5RhhUUfcd",
"abedfghigfknoppppppppppppppppppppppppppppppppppppppprredfghigfcd",
"abedfghigfssuuuuuuuuuuuuuuuuuuuuuuuuuuuuuuuuuuuuuuuu44edfghigfcd",
"abedfghigf6klmmmmmmmmmmmmmmmmmmmmmmmmmmmmmmmmmmmmmmmooedfghigfcd",
"abedfghigfknoppppppppppppppppppppppppppppppppppppppprredfghigfcd",
"abedfghigfssuuuuuuuuuuuuuuuuuuuuuuuuuuuuuuuuuuuuuuuu44edfghigfcd",
"abedfghigf6klmmmmmmmmmmmmmmmmmmmmmmmmmmmmmmmmmmmmmmmooedfghigfcd",
"abedfghigfknoppppppppppppppppppppppppppppppppppppppprredfghigfcd",
"abedfghigfssuuuuuuuuuuuuuuuuuuuuuuuuuuuuuuuuuuuuuuuu44edfghigfcd",
"abedfghigf6klmmmmmmmmmmmmmmmmmmmmmmmmmmmmmmmmmmmmmmmooedfghigfcd",
"abedfghigfknoppppppppppppppppppppppppppppppppppppppprredfghigfcd",
"abedfghigfssuuuuuuuuuuuuuuuuuuuuuuuuuuuuuuuuuuuuuuuu44edfghigfcd"
};