/* XPM */
static char *wall_r11_c04[] = {
"64 64 23 1",
"a	c #4C4C4C",
"b	c #6C6C6C",
"c	c #5C5C5C",
"d	c #BCBCBC",
"e	c #7C7C7C",
"f	c #545454",
"g	c #8C8C8C",
"h	c #989898",
"i	c #A8A8A8",
"j	c #848484",
"k	c #343434",
"l	c #C4C4C4",
"m	c #444444",
"n	c #3C3C3C",
"o	c #040404",
"p	c #242424",
"q	c #1C1C1C",
"r	c #141414",
"s	c #2C2C00",
"t	c #3C3C00",
"u	c #505000",
"v	c #646400",
"w	c #747474",
"abcddddebfddddebfddddebfddddebfddddebfddddebfddddebfddddgbfddddg",
"abchdidebfhdidebfhdidebfhdidebfhdidebfhdidebfhdidebfhdidgbfhdidg",
"abcheidebfheidebfheidebfheidebfheidebfheidebfheidebfheidgbfheidg",
"abcheidebfheidebfheidebfheidebfheidebfheidebfheidebfheidgbfheidg",
"abcheidebfheidebfheidebfheidebfheidebfheidebfheidebfheidgbfheidg",
"abcheidebfheidebfheidebfheidebfheidebfheidebfheidebfheidgbfheidg",
"abcheidebfheidebfheidebfheidebfheidebfheidebfheidebfheidgbfheidg",
"abcheidebfheidebfheidebfheidebfheidebfheidebfheidebfheidgbfheidg",
"abcheidebfheidebfheidebfheidebfheidebfheidebfheidebfheidgbfheidg",
"abcheidebfheidebfheidebfheidebfheidebfheidebfheidebfheidgbfheidg",
"abcheidebfheidebfheidebfheidebfheidebfheidebfheidebfheidgbfheidg",
"abcheidebfheidebfheidebfheidebfheidebfheidebfheidebfheidgbfheidg",
"abcheidebfheidebfheidebfheidebfheidebfheidebfheidebfheidgbfheidg",
"abcheidebfheidebfheidebfheidebfheidebfheidebfheidebfheidgbfheidg",
"abcheidebfheidebfheidebfheidebfheidebfheidebfheidebfheidgbfheidg",
"abcheidebfheidebfheidebfheidebfheidebfheidebfheidebfheidgbfheidg",
"abcheidebfheidebfheidebfheidebfheidebfheidebfheidebfheidgbfheidg",
"abcheidebfheidebfheidebfheidebfheidebfheidebfheidebfheidgbfheidg",
"abcheidebfheidebfheidebfheidebfheidebfheidebfheidebfheidgbfheidg",
"abcheidebfheidebfheidebfheidebfheidebfheidebfheidebfheidgbfheidg",
"abcheidebfheidebfheidebfheidebfheidebfheidebfheidebfheidgbfheidg",
"abcheidebfheidebfheidebfheidebfheidebfheidebfheidebfheidgbfheidg",
"abcheidebfheidebfheidebfheidebfheidebfheidebfheidebfheidgbfheidg",
"abchcidjbfhcidjbfhcidjbfheidebfheidebfheidjbfhcidjbfhcidgbfhcidg",
"abccccdgbfcccdgbfcccdgbfheidebfheidebfheidgbfcccdgbfcccdgbfcccdg",
"akkkkkkkkkkkkkkkkkkkkkkfheidebfheidebfheidkkkkkkkkkkkkkkkkkkkkkk",
"lllllllllllllllllllllllfheidebfheidebfheidllllllllllllllllllllll",
"iiiiiiiiiiiiiiiiiiiiiiifheidebfheidebfheidiiiiiiiiiiiiiiiiiiiiii",
"cccccccccccccccccccccccfheidebfheidebfheidcccccccccccccccccccccc",
"bbbbbbbbbbbbbbbbbbbbbbbfhcidbbfheidbbfhcidbbbbbbbbbbbbbbbbbbbbbb",
"eeeeeeeeeeeeeeeeeeeeeeefcccdeefheideefcccdeeeeeeeeeeeeeeeeeeeeee",
"mmmmmmmmmmmmmmmmmmmmmmmmmmmmmmfheidmmmmmmmmmmmmmmmmmmmmmmmmmmmmm",
"aaaaaaaaaaaaaaaaaaaaaaaaaaaaaafheidaaaaaaaaaaaaaaaaaaaaaaaaaaaaa",
"fffffffffffffffffffffffffffffffheidfffffffffffffffffffffffffffff",
"ccccccccccccccccccccccccccccccfheidccccccccccccccccccccccccccccc",
"aaaaaaaaaaaaaaaaaaaaaaaaaaaaaafhcidaaaaaaaaaaaaaaaaaaaaaaaaaaaaa",
"nnnnnnnnnnnnnnnnnnnnnnnnnnnnnnfcccdnnnnnnnnnnnnnnnnnnnnnnnnnnnnn",
"oooooooooooooooooooooooooooooooooooooooooooooooooooooooooooooooo",
"oooooooooooooooooooooooooooooooooooooooooooooooooooooooooooooooo",
"hhhhhhhhhhhhhhhhhhhhhhhhhhhhhhhhhhhhhhhhhhhhhhhhhhhhhhhhhhhhhhhh",
"jjjjjjjjhjjjjjjjjjjjjjjjjjjjjjjjjjjjjjjjjjjjjjjjjjjjjjjhjjjjjjjj",
"ccccccccjhcccccccccccccccccccccccccccccccccccccccccccchjcccccccc",
"cccccccccjhcccccccccccccccccccccccccccccccccccccccccchjccccccccc",
"bbbbbbccccjhbbbbbbbbbbbbbbbbbbbbbbbbbbbbbbbbbbbbbbbbhjccccbbbbbb",
"kkkkkfbccccjhfkkkkkkkkkkkkkkkkkkkkkkkkkkkkkkkkkkkkkhjccccbfkkkkk",
"ppppppfbccccjhfppppppppppppppppppppppppppppppppppphjccccbfpppppp",
"qqqqqqqfbccccjhfqqqqqqqqqqqqqqqqqqqqqqqqqqqqqqqqqhjccccbfqqqqqqq",
"rrrrrrrrfbccccjhfrrrrrrrrrrrrrrrrrrrrrrrrrrrrrrrhjccccbfrrrrrrrr",
"sssssssssfbccccjhfssssssssssssssssssssssssssssshjccccbfsssssssss",
"ttttttttttfbccccjhfttttttttttttttttttttttttttthjccccbftttttttttt",
"uuuuuuuuuuufbccccjhfuuuuuuuuuuuuuuuuuuuuuuuuuhjccccbfuuuuuuuuuuu",
"vvvvvvvvvvvvfbccccjhfvvvvvvvvvvvvvvvvvvvvvvvhjccccbfvvvvvvvvvvvv",
"uuuuuuuuuuuuwhccccjwfuuuuuuuuuuuuuuuuuuuuuuuwjcccchwuuuuuuuuuuuu",
"tttttttttttwhccccjwftttttttttttttttttttttttttwjcccchwttttttttttt",
"sssssssssswhccccjwfssssssssssssssssssssssssssswjcccchwssssssssss",
"ooooooooowhccccjwfooooooooooooooooooooooooooooowjcccchwooooooooo",
"rrrrrrrrwhccccjwfrrrrrrrrrrrrrrrrrrrrrrrrrrrrrrrwjcccchwrrrrrrrr",
"qqqqqqqwhccccjwfqqqqqqqqqqqqqqqqqqqqqqqqqqqqqqqqqwjcccchwqqqqqqq",
"ppppppwhccccjwfpppppppppppppppppppppppppppppppppppwjcccchwpppppp",
"kkkkkwhccccjwfkkkkkkkkkkkkkkkkkkkkkkkkkkkkkkkkkkkkkwjcccchwkkkkk",
"hhhhhhccccjwhhhhhhhhhhhhhhhhhhhhhhhhhhhhhhhhhhhhhhhhwjcccchhhhhh",
"jjjjjccccjjjjjjjjjjjjjjjjjjjjjjjjjjjjjjjjjjjjjjjjjjjjjjccccjjjjj",
"cccccccccccccccccccccccccccccccccccccccccccccccccccccccccccccccc",
"cccccccccccccccccccccccccccccccccccccccccccccccccccccccccccccccc"
};