/* XPM */
static char *wall_r05_c09[] = {
"64 64 20 1",
"a	c #6C90BC",
"b	c #5884B0",
"c	c #4C78A8",
"d	c #346090",
"e	c #081420",
"f	c #2C5480",
"g	c #204060",
"h	c #142840",
"i	c #0C1C30",
"j	c #244870",
"k	c #183450",
"l	c #4C4C4C",
"m	c #5C5C5C",
"n	c #3C3C3C",
"o	c #343434",
"p	c #6C6C6C",
"q	c #7C7C7C",
"r	c #3C6CA0",
"s	c #0C0C0C",
"t	c #28CC28",
"aabcccccccccccccccccccccccccccdeedcccccccccccccccccccccccccccccf",
"addddddddddddddddddddddfgfeegdheeiddfgfeegddddddddddddddddddddfh",
"bdiiiiiiiiiiifdgeeeiijifgfeeggheeigkfgfeeekfkeefgkeeiijiegkiifgh",
"cdigkijieekkkfdgeeeefjiiiiiifgheeigkiiiiieffkeefgkeeikjiegkikfgh",
"cdigkidgkekkkfgkkeeefjiiiiiifgheeigkiiiiiekfkefgkkheeijiegkikfgh",
"cdigggdgkegggfdgeeeefjilmlnofgheeigkonlmleefkefgkkheeijiegkikfgh",
"cdikkkjieekkkfgkkeeefjipqmlnfgheeigknlmqpekfkeefgkeeiijiegkikfgh",
"cdiiiijieeiiifgkkeeefjipqmlnfgheeigknlmqpekfkefgkkheeijiegkikfgh",
"cdieeedgkeeeefdgeeeefjipqmlnfgheeigknlmqpeffkefgkkheeijiegkikfgh",
"cdiiiidgkeejefgkkeeefddpqmlnfgheeigknlmqpddfkeefgkeeiijiegkikfgh",
"cdigkijieeejkfgkkeejdrrrqmlgffheeiffglmqrrrdjeefgkeeikjiegkikfgh",
"cdigkijieeejkfdgeeeddrrrrrrrfgheeigfrrrrrrrddeefgkeeikjiegkiefgh",
"cdigkijieeejkfgkkeejjffddddfgiheeikgfddddffjjeefgkeeikdgkkkeefgh",
"cdigkijieeejkfdgeeegjjfffddfiiheeikifddfffjjgeefgkeeikdgkkkeefgh",
"cdigkijieeejkfdgeeegjjjffdddiiheeikidddffjjjgeefgkeeikjiegkiefgh",
"cdigkijieeejkfgkkeeeeeeeeeeeeiheeikeeeeeeeeeeeefgkeeikjiegkihfgh",
"cdigkijieeejkfdgeeeseeeeeekekkheeigkkkkeeeeeheefgkeeikjiegkikfgh",
"cdijjjjiejjjjfgkkeeefjieeijkfgheeigkdgkkeekfkefgkkheeijiegkikfgh",
"cdiiiijieiiiifdgeeeefjieeijkfgheeigkdgkkeekfkefgkkheeijiegkikfgh",
"cdieeejieeeeefdgeeeefjieeijkfgheeigkkkkkhekfkeefgkeeiijiegkikfgh",
"cdigkijieeeeefdgeeefgkkheeikfgheeigkddgeeekfkeefgkeeikjiegkikfgh",
"cdigkijieeeeefdgeeefgkkheeikfgheeigkdgkkeefkkkefgkeegggggggggggh",
"cdigkijieeekkfdgeeeefjieeeikfgheeigkddgeeefkkkefgkeekkkkkkkkkkgh",
"cdigkijieeekkfdgeeeefjieeiikfgheeigkddgeeekfkeefgkeeiiiiiiiiiigh",
"cdigkijieeekfgkkheeefjieeijkfgheeigkdgkheefkkkefgkeeeeeeeeeeeegh",
"cdigkijieeekfgkkheeefjieeijkfgheeigkdgkheefkkkefgkeeihfiegkihfgh",
"cdigkijieeekfgkkheeefjieeijkfgheeigkdgkheekfkeedfjgeikfiegkikfgh",
"cdigkijieeekfgkkheeefjieeijkfgheeigkdgkheefkkkefgkeeikfiegkikfgh",
"cdigkijieeekfgkkheeefjieeijkfgheeigkdgkheekfkeefgkeeikfiegkikfgh",
"cdcccccccccccccccccccccccccccgheefdccccccccccccccccccccccccccfgh",
"cdddddddddddrcccrddddrcrdddddgheehgddrcrddddrcccrddddddddddddfgh",
"cdffffffffffdrcccrdffdrcrdfffgheehgffdrcrdffdrcccrdfffffffffffgh",
"cdfffffffffffdrcccrdffdrcrdffgheehgfffdrcrdffdrcccrdffffffffffgh",
"cdffffffffffffdrcccrdffdrcrdfgheehgffffdrcrdffdrcccrdfffffffffgh",
"cdfffffffffffffdrcccrdffdrcrdgheehgfffffdrcrdffdrcccrdffffffffgh",
"cdkkkkkkkkkkkkkkkkkkkkkkkkkkkgheehkkkkkkkkkkkkkkkkkkkkkkkkkkkfgh",
"cdeeeeeeeeeeeeeeeeeeeeeeeeeeeeeeeeeeeeeeeeeeeeeeeeeeeeeeeeeeefgh",
"cdiiiiiiiiiiiiiiiiiiiiiiiiiiiiieeiiiiiiiiiiiiiiiiiiiiiiiiiiiifgh",
"cdkkkkkkkkkkkkhieeeeeittttttnkheehknttttttieeeeeigkkkkkkkkkkkfgh",
"cdkkkkkkkkkkkkhnmmmmmittttttmkheehkmttttttimmmmmngkkkkkkkkkkkfgh",
"cdcccccccccccccccccccccccccccgheefdccccccccccccccccccccccccccfgh",
"cdddddddddddddddddddddrcccrddgheehgdddddddddddddrcrddddrcccrdfgh",
"cdffffffffffffffffffffdrcccrdgheehgfffffffffffffdrcrdffdrcccrfgh",
"cdkkkkkkkkkkkkkkkkkkkkkkkkkkkgheehkkkkkkkkkkkkkkkkkkkkkkkkkkkfgh",
"cdeeeeeeeeeeeeeeeeeeeeeeeeeeeeeeeeeeeeeeeeeeeeeeeeeeeeeeeeeeefgh",
"cdijjieiijieeiigkiiiiiiiiiiifgheehgfgkkkeejiefidjkheeiiegkieifgh",
"cdijjiekkjieegggkiggggggggggfgheehgfgkkkeejiefjdjkheekkegkiehfgh",
"cdijjiekkjieekkgkikkkkkkkkkkfgheehgefgkeeijiefjddjeeekegkkeekfgh",
"cdijjiekkjieeiigkiiiiiiiiiiifgheehgfgjieeejiefjdjkheekegkkeekfgh",
"cdijieefgkkheeegkieeefgkeeiefgheehgffjiefkjiefjdjkheekefkeeekfgh",
"cdijiekfgkkheekgkikkkfgkeeikfgheehgffjiefkjiefjdjkheekegkkeekfgh",
"cdijiekefgkeeijgkijjjfgkeeijfgheehgffjiefkjiefjdjkheekegkkeekfgh",
"cdijiekfgkkheeigkiiiifgkeeiifgheehgfgkkkeejiefjkkkkhekejiejjjfgh",
"cdijiekfgkkheeegkieeefgkeeiefgheehgfgkkkeejiefjddjeeekejieffffgh",
"cdijiekefgkeeikgkijiefgkeeikfgheehgefgkeeijiefjdjkkhekejiejjjjgh",
"cdijiekfgkkheekgkijiefgkeeikfgheehgfgkkkeejiefjddjeeekejieiiiigh",
"cdikkkkfgkkheekgkijiefgkeeikfgheehgfffffffjiefjddjeeekejieeeeegh",
"cdijiekefgkeeikgkijiefgkeeikfgheehgggggggggggggdjkheekejieehhfgh",
"cdijiekfgkkheekgkijiefgkeeikfgheehgkkkkkkkkkkkkdjkheekejieekkfgh",
"cdijiekfgkkheekgkijiefgkeeikfgheehgiiiiiiiiiiiifkkkhekejieekkfgh",
"cdijiekefgkeeikgkijiefgkeeikfgheehgeeeeeeeeeeeejkkkhekejieekkfgh",
"cdfffffffffffffffffffffffffffgheehgfffffffffffffffffffffffffffgh",
"cfggggggggggggggggggggggggggggheehgggggggggggggggggggggggggggggh",
"fhhhhhhhhhhhhhhhhhhhhhhhhhhhhhheehhhhhhhhhhhhhhhhhhhhhhhhhhhhhhh"
};