/* XPM */
static char *wall_r08_c01[] = {
"64 64 32 1",
"a	c #346090",
"b	c #204060",
"c	c #0C1C30",
"d	c #04A468",
"e	c #04BC78",
"f	c #30C890",
"g	c #60D8AC",
"h	c #B0B0B0",
"i	c #747474",
"j	c #7C7C7C",
"k	c #8C8C8C",
"l	c #A0A0A0",
"m	c #000000",
"n	c #3C3C3C",
"o	c #343434",
"p	c #444444",
"q	c #545454",
"r	c #848484",
"s	c #007400",
"t	c #008C00",
"u	c #00A400",
"v	c #10C410",
"w	c #5CD85C",
"x	c #5C5C5C",
"y	c #646464",
"z	c #142840",
"A	c #081420",
"B	c #183450",
"C	c #244870",
"D	c #3C6CA0",
"E	c #2C5480",
"F	c #4C78A8",
"aaaaaaaaaaaaaaaaaaaaaaaaaaaaaaaaaaaaaaaaaaaaaaaaaaaaaaaaaaaaaaaa",
"bbbbbbbbbbbbbbbbbbbbbbbbbbbbbbbbbbbbbbbbbbbbbbbbbbbbbbbbbbbbbbbb",
"cccccccccccccccccccccccccccccccccccccccccccccccccccccccccccccccc",
"dddddddddddddddddddddddddddddddddddddddddddddddddddddddddddddddd",
"eeeeeeeeeeeeeeeeeeeeeeeeeeeeeeeeeeeeeeeeeeeeeeeeeeeeeeeeeeeeeeee",
"ffffffffffffffffffffffffffffffffffffffffffffffffffffffffffffffff",
"gggggggggggggggggggggggggggggggggggggggggggggggggggggggggggggggg",
"ffffffffffffffffffffffffffffffffffffffffffffffffffffffffffffffff",
"eeeeeeeeeeeeeeeeeeeeeeeeeeeeeeeeeeeeeeeeeeeeeeeeeeeeeeeeeeeeeeee",
"dddddddddddddddddddddddddddddddddddddddddddddddddddddddddddddddd",
"aaaaaaaaaaaaaaaaaaaaaaaaaaaaaaaaaaaaaaaaaaaaaaaaaaaaaaaaaaaaaaaa",
"bbbbbbbbbbbbbbbbbbbbbbbbbbbbbbbbbbbbbbbbbbbbbbbbbbbbbbbbbbbbbbbb",
"cccccccccccccccccccccccccccccccccccccccccccccccccccccccccccccccc",
"hhiijkllllllllllmiijkllllllllllnmiijkllllllllllmiijkllllllllllhh",
"hiopqiiiiiiiiirlmopqiiiiiiiiirlnmopqiiiiiiiiirlmopqiiiiiiiiirlkh",
"hiopqqqqqqqqqirlmopqqqqqqqqqirlnmopqqqqqqqqqirlmopqqqqqqqqqirlkh",
"hiopqistuvutsirlmopqistuvutsirlnmopqistuvutsirlmopqistuvutsirlkh",
"hiopqistuwutsirlmopqistuwutsirlnmopqistuwutsirlmopqistuwutsirlkh",
"hiopqistuwutsirlmopqistuwutsirlnmopqistuwutsirlmopqistuwutsirlkh",
"hiopqistuwutsirlmopqistuwutsirlnmopqistuwutsirlmopqistuwutsirlkh",
"hiopqistuwutsirlmopqistuwutsirlnmopqistuwutsirlmopqistuwutsirlkh",
"hiopqistuwutsirlmopqistuwutsirlnmopqistuwutsirlmopqistuwutsirlkh",
"hiopqistuwutsirlmopqistuwutsirlnmopqistuwutsirlmopqistuwutsirlkh",
"hiopqistuwutsirlmopqistuwutsirlnmopqistuwutsirlmopqistuwutsirlkh",
"hiopqistuwutsirlmopqistuwutsirlnmopqistuwutsirlmopqistuwutsirlkh",
"hiopqistuwutsirlmopqistuwutsirlnmopqistuwutsirlmopqistuwutsirlkh",
"hiopqistuwutsirlmopqistuwutsirlnmopqistuwutsirlmopqistuwutsirlkh",
"hiopqistuwutsirlmopqistuwutsirlnmopqistuwutsirlmopqistuwutsirlkh",
"hiopqistuwutsirlmopqistuwutsirlnmopqistuwutsirlmopqistuwutsirlkh",
"hiopqistuwutsirlmopqistuwutsirlnmopqistuwutsirlmopqistuwutsirlkh",
"hiopqistuwutsirlmopqistuwutsirlnmopqistuwutsirlmopqistuwutsirlkh",
"hiopqistuwutsirlmopqistuwutsirlnmopqistuwutsirlmopqistuwutsirlkh",
"hiopqistuwutsirlmopqistuwutsirlnmopqistuwutsirlmopqistuwutsirlkh",
"hiopqistuwutsirlmopqistuwutsirlnmopqistuwutsirlmopqistuwutsirlkh",
"hiopqistuvutsirlmopqistuvutsirlnmopqistuvutsirlmopqistuvutsirlkh",
"hiopqirrrrrrrirlmopqirrrrrrrirlnmopqirrrrrrrirlmopqirrrrrrrirlkh",
"hiopqiiiiiiiiirlmopqiiiiiiiiirlnmopqiiiiiiiiirlmopqiiiiiiiiirlkh",
"hiopqqqqqqqqqirlmopqqqqqqqqqirlnmopqqqqqqqqqirlmopqqqqqqqqqirlhh",
"jjxjkxxjkxxjkxxjkxxjkxxjkxxjkxxjkxxjkxxjkxxjkxxjkxxjkxxjkxxjkxjj",
"ccccccyjkxzcccccccccccyjkxzcccccccccccyjkxzcccccccccccyjkxzccccc",
"AAAAAcyjkxzAAAAAAAAAAcyjkxzAAAAAAAAAAcyjkxzAAAAAAAAAAcyjkxzAAAAA",
"zzzcAcyjkxzzzzzzzzzcAcyjkxzzzzzzzzzcAcyjkxzzzzzzzzzcAcyjkxzzzzzz",
"ccccAcyjkxzcccccccccAcyjkxzcccccccccAcyjkxzcccccccccAcyjkxzccccc",
"AAAAAcyjkxzAAAAAAAAAAcyjkxzAAAAAAAAAAcyjkxzAAAAAAAAAAcyjkxzAAAAA",
"zzzzzcyjkxBzzzzzzzzzzcyjkxBzzzzzzzzzzcyjkxBzzzzzzzzzzcyjkxBzzzzz",
"CBBBBBBBBBBBBBBCBBBBBBBBBBBBBBBBBBBBBBBBBBBBBBBBBCBBBBBBBBBBBBBB",
"DCbbbbbbbbbbbbcDCbbbbbbbbbbbbbbbbbbbbbbbbbbbbbbbcDCbbbbbbbbbbbbc",
"aDECCCCCCCCCCzAaDECCCCCCCCCCCCCCCCCCCCCCCCCCCCCzAaDECCCCCCCCCCzA",
"EaFDDDDDDDDDBcAEaFDDDDDDDDDDDDDDDDDDDDDDDDDDDDBcAEaFDDDDDDDDDBcA",
"EaDDaaaaaaaazcAEaDDaaaaaaaaaaaaaaaaaaaaaaaaaaazcAEaDDaaaaaaaazcA",
"EaDaEEEEEEEazcAEaDaEEEEEEEEEEEEEEEEEEEEEEEEEEazcAEaDaEEEEEEEazcA",
"EaDaEEEEEEEazcAEaDaEEEEEEEEEEEEEEEEEEEEEEEEEEazcAEaDaEEEEEEEazcA",
"EaDaEEEEEEEazcAEaDaEEEEEEEEEEEEEEEEEEEEEEEEEEazcAEaDaEEEEEEEazcA",
"EaDaEEEEEEEazcAEaDaEEEEEEEEEEEEEEEEEEEEEEEEEEazcAEaDaEEEEEEEazcA",
"EaDaEEEEEEEazcAEaDaEEEEEEEEEEEEEEEEEEEEEEEEEEazcAEaDaEEEEEEEazcA",
"EaDaEEEEEEEazcAEaDaEEEEEEEEEEEEEEEEEEEEEEEEEEazcAEaDaEEEEEEEazcA",
"EaDaaaaaaaaazcAEaDaaaaaaaaaaaaaaaaaaaaaaaaaaaazcAEaDaaaaaaaaazcA",
"EaECCCCCCCCCzcAEaECCCCCCCCCCCCCCCCCCCCCCCCCCCCzcAEaECCCCCCCCCzcA",
"ECbbbbbbbbbbCcAECbbbbbbbbbbbbbbbbbbbbbbbbbbbbbCcAECbbbbbbbbbbCcA",
"CBBBBBBBBBBBBbACBBBBBBBBBBBBBBBBBBBBBBBBBBBBBBBbACBBBBBBBBBBBBbA",
"zzzzzzzzzzzzzzBzzzzzzzzzzzzzzzzzzzzzzzzzzzzzzzzzBzzzzzzzzzzzzzzB",
"aaaaaaaaaaaaaaaaaaaaaaaaaaaaaaaaaaaaaaaaaaaaaaaaaaaaaaaaaaaaaaaa",
"bbbbbbbbbbbbbbbbbbbbbbbbbbbbbbbbbbbbbbbbbbbbbbbbbbbbbbbbbbbbbbbb",
"cccccccccccccccccccccccccccccccccccccccccccccccccccccccccccccccc"
};