/* XPM */
static char *wall_r09_c09[] = {
"64 64 23 1",
"a	c #C4C4C4",
"b	c #A8A8A8",
"c	c #989898",
"d	c #8C8C8C",
"e	c #7C7C7C",
"f	c #848484",
"g	c #CCCCCC",
"h	c #B0B0B0",
"i	c #6C6C6C",
"j	c #5C5C5C",
"k	c #BCBCBC",
"l	c #343434",
"m	c #747474",
"n	c #646464",
"o	c #545454",
"p	c #A0A0A0",
"q	c #505000",
"r	c #646400",
"s	c #3C3C00",
"t	c #4C4C4C",
"u	c #000000",
"v	c #444444",
"w	c #3C3C3C",
"abcdeeeeeeeeeeeeeeeeeeeeeeeeeeeeeeeeeeeeeeeeeeeeeeeeeeeeeeeeeefd",
"abcdeeeeeeeeeeeeeeeeeeeeeeeeeeeeeeeeeeeeeeeeeeeeeeeeeeeeeeeeeefd",
"ghbbbbbbbbbbbbbbbbbbbbbbbbbbbijkkkkbijkkkkbijkkkkbijkkkkbijkkkkb",
"abcdeeeeeeeeeeeeeeeeeeeeeeeeeijckbkeijckbkeijckbkeijckbkeijckbkd",
"abcdeeeeeeeeeeeeeeeeeeeeeeeeeijcjbkeijcjbkeijcjbkeijcjbkeijcjbkd",
"abcdeeeeeeeeeeeeeeeeeeeeeeeeeijjjjkeijjjjkeijjjjkeijjjjkeijjjjkd",
"llllllllllllllllllllllllllllllllllllllllllllllllllllllllllllllll",
"mnjooooooooooooooooooooooooooooooooooooooooooooooooooooooooooooo",
"fminnnnnnnnnnnnnnnnnnnnnnnnnnnnnnnnnnnnnnnnnnnnnnnnnnnnnnnnnnnnn",
"fmmmmmmmmmmmmmmmmmmmmmmmmmmmmmmmmmmmmmmmmmmmmmmmmmmmmmmmmmmmmmmm",
"abcdeeeeeeeeeeeeeeeeeeeeeeeeeeeeeeeeeeeeeeeeeeeeeeeeeeeeeeeeeeee",
"abcdeeeeeeeeeeeeeeeeeeeeeeeeeeeeeeeeeeeeeeeeeeeeeeeeeeeeeeeeeeee",
"gkhpcccccccccccccccccccccccccccccccccccccccccccccccccccccccccccc",
"gkhppppppppppppppppppppppppppppppppppppppppppppppppppppppppppppp",
"gkhbbbbbbbbbbbbbbbbbbbbbbbbbbbbbbbbbbbbbbbbbbbbbbbbbbbbbbbbbbbbb",
"abcdfffffffefeefeeeeeeeeeeeeeijkkkkeijkkkkeijkkkkeijkkkkeijkkkkd",
"abcdffffffefeefeeeeeeeeeeeeeeijckbkeijckbkeijckbkeijckbkeijckbkd",
"abcdfffffefeefeeeeeeeeeeeeeeeijcebkeijcebkeijcebkeijcebkeijcebkd",
"abcdffffefqqqeqqeqqqeeeeeeeeeijcebkeijcebkeijcebkeijcebkeijcebkd",
"abcdfffefeqqeqqqqeqqeeeeeeeeeijcebkeijcebkeijcebkeijcebkeijcebkd",
"abcdffefeeqeqqqqqqeqeeeeeeeeeijcebkeijcebkeijcebkeijcebkeijcebkd",
"abcdfefeefeqqqqqqqqeeeeeeeeefijcebkeijcebkeijcebkeijcebkeijcebkd",
"abcdffeefqeqqqqqqqqeqeeeeeefeijcebkeijcebkeijcebkeijcebkeijcebkd",
"abcdfeefeeqeqqqqqqeqeeeeeefefijcebkeijcebkeijcebkeijcebkeijcebkd",
"abcdeefeeerqeqqqqeqreeeeefeffijcebkeijcebkeijcebkeijcebkeijcebkd",
"abcdefeeeeeqqeqqeqqeeeeefeffeijcebkeijcebkeijcebkeijcebkeijcebkd",
"abcdfeeeeeerqqeeqqreeeefeffeeijcebkeijcebkeijcebkeijcebkeijcebkd",
"abcdeeeeeeeeqqqqqqeeeefeffeeeijcebkeijcebkeijcebkeijcebkeijcebkd",
"abcdeeeeeeeerqqqqreeefeffeeefijcebkeijcebkeijcebkeijcebkeijcebkd",
"abcdeeeeeeeeeqqqqeeefeffeeefeijcebkeijcebkeijcebkeijcebkeijcebkd",
"abcdeeeeeeeeerqqreefeffeeefeeijcebkeijcebkeijcebkeijcebkeijcebkd",
"abcdeeeeeeeeeeqqeefeffeeefeeeijcebkeijcebkeijcebkeijcebkeijcebkd",
"abcdeeeeeeeeeeeeefeffeeefeeeeijcebkeijcebkeijcebkeijcebkeijcebkd",
"abcdeeeeeeeeeeeefeffeeefeeeeeijcebkeijcebkeijcebkeijcebkeijcebkd",
"abcdeeeeeeeeeeefeffeeefeeeeeeijcebkeijcebkeijcebkeijcebkeijcebkd",
"abcdeeeeeeeeeefeffeeefeeeeeeeijcebkeijcebkeijcebkeijcebkeijcebkd",
"abcdeeeeeeeeefeffeeefeeeeeeeeijcebkeijcebkeijcebkeijcebkeijcebkd",
"abcdeeeeeeeefeffeeefeeeeeeeeeijcebkeijcebkeijcebkeijcebkeijcebkd",
"abcdfffffffffffffffffffffffffijcjbkfijcjbkfijcjbkfijcjbkfijcjbkd",
"abcddddddddddddddddddddddddddijjjjkdijjjjkdijjjjkdijjjjkdijjjjkd",
"llllllllllllllllllllllllllllllllllllllllllllllllllllllllllllllll",
"mnjooooooooooooooooooooooooooooooooooooooooooooooooooooooooooooo",
"fminnnnnnnnnnnnnnnnnnnnnnnnnnnnnnnnnnnnnnnnnnnnnnnnnnnnnnnnnnnnn",
"bdemmmmmmmmmmmmmmmmmmmmmmmmmmmmmmmmmmmmmmmmmmmmmmmmmmmmmmmmmmmmm",
"abcdeeeeeeeeeeeeeeeeeeeeeeeeeeeeeeeeeeeeeeeeeeeeeeeeeeeeeeeeeeee",
"abcdeeeeeeeeeeeeeeeeeeeeeeeeeeeeeeeeeeeeeeeeeeeeeeeeeeeeeeeeeeee",
"abcdeeeeeeeeeeeeeeeeeeeeeeeeeeeeeeeeeeeeeeeeeeeeeeeeeeeeeeeeeeee",
"abcdffffffffffffffffffffffffffffffffffffffffffffffffffffffffffff",
"gkhbbbbbbbbbbbbbbbbbbbbbbbbbbbbbbbbbbbbbbbbbbbbbbbbbbbbbbbbbbbbb",
"abcdeeeeeeeeeeeeeeeeeeeeeeeeeeeeeeeeeeeeeeeeeeeeeeeeeeeeeeeeeefd",
"abcdeeeeeeeeeeeeeeeeeeeeeeeeeeeeeeeeeeeeeeeeeeeeeeeeeeeeeeeeeefd",
"llllllllllllllllllllllllllllllllllllllllllllllllllllllllllllllll",
"injooooooooooooooooooooooooooooooooooooooooooooooooooooooooooojn",
"mminnnnnnnnnnnnnnnnnnnnnnnnnnnnnnnnnnnnnnnnnnnnnnnnnnnnnnnnnnnim",
"pcdfeeeeeeeeeeeeeeeeeeeeeeeeeeeeeeeeeeeeeeeeeeeeeeeeeeeeeeeeefdc",
"pcdfeeeeeeeeeeeeeeeeeeeeeeeeeeeeeeesssseseseseesseeeesseseeeefdc",
"pcdfeeeeeeeeeeeeeeeeeeeeeeeeeeeeeeesssseseseeeesseeeessesessefdc",
"pcdfeeeeeeeeeeeeeeeeeeeeeeeeeeeeeeeeeeeeseseessssessesseseeeefdc",
"pcdfjjeejjeejjeeeeeeeeeeeeeeeeeeeeeeesseeeeeeeeeeeeeeeeeeeeeefdc",
"pcdfjleejleejleeeeeeeeeeeeeeeeeeeeeeeeeeeeeeeeeeeeeeeeeeeeeeefdc",
"ttttluttluttlutttttttttttttttttttttttttttttttttttttttttttttttttt",
"vvvvluvvluvvluvvvvvvvvvvvvvvvvvvvvvvvvvvvvvvvvvvvvvvvvvvvvvvvvvv",
"wwwwluwwluwwluwwwwwwwwwwwwwwwwwwwwwwwwwwwwwwwwwwwwwwwwwwwwwwwwww",
"llllllllllllllllllllllllllllllllllllllllllllllllllllllllllllllll"
};