/* XPM */
static char *wall_r15_c01[] = {
"64 64 25 1",
"a	c #A06C3C",
"b	c #94602C",
"c	c #704820",
"d	c #503418",
"e	c #201408",
"f	c #684018",
"g	c #805424",
"h	c #60401C",
"i	c #402810",
"j	c #301C0C",
"k	c #5C340C",
"l	c #040404",
"m	c #B0B0B0",
"n	c #A0A0A0",
"o	c #848484",
"p	c #BCBCBC",
"q	c #989898",
"r	c #3C3C3C",
"s	c #5C5C5C",
"t	c #4C4C4C",
"u	c #C4C4C4",
"v	c #141414",
"w	c #A8A8A8",
"x	c #7C7C7C",
"y	c #28CC28",
"abbbbbbbbbbbbbbbbbbbbbbbbbbbbcdeedcbbbbbbbbbbbbbbbbbbbbbbbbbbbbf",
"agggggggggggggggggggggggggggghieeihgggggggggggggggggggggggggggdi",
"aghhhhhhhhhhhhhhhhhhhhhhhhhhhdjeejdhhhhhhhhhhhhhhhhhhhhhhhhhhhdi",
"aghhhhhhhhhhhhhhhhhhhhhhhhhhhdjeejdhhhhhhhhhhhhhhhhhhhhhhhhhhhdi",
"aghhhhhhhhhhhhhhhhhhhhhhhhhhhdjeejdhhhhhhhhhhhhhhhhhhhhhhhhhhhdi",
"aghhhhhhhffffffffffffffffffcgdjeejdffffffffffffffffffcghhhhhhhdi",
"aghhhhhhhhfkkkkkkkkkkkkkkkcbgdjeejdhfkkkkkkkkkkkkkkkcbghhhhhhhdi",
"aghhhhhhhhfkllllllllllllllabgdjeejdhfkllllllllllllllabghhhhhhhdi",
"aghhhhhhhhfklaaaaaaaaaaaclabgdjeejdhfklaaaaaaaaaaaclabghhhhhhhdi",
"aghhhhhhhhfklabbbbbbbbbcklabgdjeejdhfklabbbbbbbbbcklabghhhhhhhdi",
"aghhhhhhhhfklabgggggggcfklabgdjeejdhfklabgggggggcfklabghhhhhhhdi",
"aghhhhhhhhfklabghhhhhhhfklabgdjeejdhfklabghhhhhhhfklabghhhhhhhdi",
"aghhhhhhhhfklabghhhhhhhfklabgdjeejdhfklabghhhhhhhfklabghhhhhhhdi",
"aghhhhhhhhfklabghhhhhhhfklabgdjeejdhfklabghhhhhhhfklabghhhhhhhdi",
"aghhhhhhhhfklabghhhhhhhfklabgdjeejdhfklabghhhhhhhfklabghhhhhhhdi",
"aghhhhhhhhfklabghhmnkhhfklabgdjeejdhfklabghhmnkhhfklabghhhhhhhdi",
"aghhhhhhhhfklabghhnokhhfklabgdjeejdhfklabghhnokhhfklabghhhhhhhdi",
"aghhhhhhhhfklabghhookhhfklabgdjeejdhfklabghhookhhfklabghhhhhhhdi",
"aghhhhhhhhfklabghhkkkhhfklabgdjeejdhfklabghhkkkhhfklabghhhhhhhdi",
"aghhhhhhhhfklabghhhhhhhfklabgdjeejdhfklabghhhhhhhfklabghhhhhhhdi",
"aghhhhhhhhfklabghhhhhhhfklabgdjeejdhfklabghhhhhhhfklabghhhhhhhdi",
"aghhhhhhhhfklabghhhhhhhfklabgdjeejdhfklabghhhhhhhfklabghhhhhhhdi",
"aghhhhhhhhfklabghhhhhhhfklabgdjeejdhfklabghhhhhhhfklabghhhhhhhdi",
"aghhhhhhhhfklabchhhhhhhfklabgdjeejdhfklabchhhhhhhfklabghhhhhhhdi",
"aghhhhhhhhfklacfffffffffklabgdjeejdhfklacfffffffffklabghhhhhhhdi",
"aghhhhhhhhfklckkkkkkkkkkklabgdjeejdhfklckkkkkkkkkkklabghhhhhhhdi",
"aghhhhhhhhfkllllllllllllllabgdjeejdhfkllllllllllllllabghhhhhhhdi",
"aghhhhhhhhfcaaaaaaaaaaaaaaabgdjeejdhfcaaaaaaaaaaaaaaabghhhhhhhdi",
"aghhhhhhhhcbbbbbbbbbbbbbbbbpqqqrrqqqpbbbbbbbbbbbbbbbbbghhhhhhhdi",
"aghhhhhhhhgggggggggggggggggpstsrrstspgggggggggggggggggghhhhhhhdi",
"aghhhhhhhhhhhhuqqqqqqqqqqqqnsvsrrsvsnqqqqqqqqqqqquhhhhhhhhhhhhdi",
"aghhhhhhhhhhhhwssssssssssssssvsrrsvsssssssssssssswhhhhhhhhhhhhdi",
"aghhhhhhhhhhhhwsxxyyxxyyyxxssvsrrsvssxxyyyxxyyxxswhhhhhhhhhhhhdi",
"aghhhhhhhhhhhhwssssssssssssssvsrrsvsssssssssssssswhhhhhhhhhhhhdi",
"aghhhhhhhhhhhhxrrrrrrrrrrrrrsosrrsosrrrrrrrrrrrrrxhhhhhhhhhhhhdi",
"aghhhhhhhhhhhhhhhhhhhhhhhhhnsssrrsssnhhhhhhhhhhhhhhhhhhhhhhhhhdi",
"aghhhhhhhffffffffffffffffffxrrrrrrrrxffffffffffffffffcghhhhhhhdi",
"aghhhhhhhhfkkkkkkkkkkkkkkkcbgdjeejdhfkkkkkkkkkkkkkkkcbghhhhhhhdi",
"aghhhhhhhhfkllllllllllllllabgdjeejdhfkllllllllllllllabghhhhhhhdi",
"aghhhhhhhhfklaaaaaaaaaaaclabgdjeejdhfklaaaaaaaaaaaclabghhhhhhhdi",
"aghhhhhhhhfklabbbbbbbbbcklabgdjeejdhfklabbbbbbbbbcklabghhhhhhhdi",
"aghhhhhhhhfklabgggggggcfklabgdjeejdhfklabgggggggcfklabghhhhhhhdi",
"aghhhhhhhhfklabghhhhhhhfklabgdjeejdhfklabghhhhhhhfklabghhhhhhhdi",
"aghhhhhhhhfklabghhhhhhhfklabgdjeejdhfklabghhhhhhhfklabghhhhhhhdi",
"aghhhhhhhhfklabghhhhhhhfklabgdjeejdhfklabghhhhhhhfklabghhhhhhhdi",
"aghhhhhhhhfklabghhhhhhhfklabgdjeejdhfklabghhhhhhhfklabghhhhhhhdi",
"aghhhhhhhhfklabghhmnkhhfklabgdjeejdhfklabghhmnkhhfklabghhhhhhhdi",
"aghhhhhhhhfklabghhnokhhfklabgdjeejdhfklabghhnokhhfklabghhhhhhhdi",
"aghhhhhhhhfklabghhookhhfklabgdjeejdhfklabghhookhhfklabghhhhhhhdi",
"aghhhhhhhhfklabghhkkkhhfklabgdjeejdhfklabghhkkkhhfklabghhhhhhhdi",
"aghhhhhhhhfklabghhhhhhhfklabgdjeejdhfklabghhhhhhhfklabghhhhhhhdi",
"aghhhhhhhhfklabghhhhhhhfklabgdjeejdhfklabghhhhhhhfklabghhhhhhhdi",
"aghhhhhhhhfklabghhhhhhhfklabgdjeejdhfklabghhhhhhhfklabghhhhhhhdi",
"aghhhhhhhhfklabghhhhhhhfklabgdjeejdhfklabghhhhhhhfklabghhhhhhhdi",
"aghhhhhhhhfklabchhhhhhhfklabgdjeejdhfklabchhhhhhhfklabghhhhhhhdi",
"aghhhhhhhhfklacfffffffffklabgdjeejdhfklacfffffffffklabghhhhhhhdi",
"aghhhhhhhhfklckkkkkkkkkkklabgdjeejdhfklckkkkkkkkkkklabghhhhhhhdi",
"aghhhhhhhhfkllllllllllllllabgdjeejdhfkllllllllllllllabghhhhhhhdi",
"aghhhhhhhhfcaaaaaaaaaaaaaaabgdjeejdhfcaaaaaaaaaaaaaaabghhhhhhhdi",
"aghhhhhhhhcbbbbbbbbbbbbbbbbbgdjeejdhcbbbbbbbbbbbbbbbbbghhhhhhhdi",
"aghhhhhhhhgggggggggggggggggggdjeejdhggggggggggggggggggghhhhhhhdi",
"aghhhhhhhhhhhhhhhhhhhhhhhhhhhdjeejdhhhhhhhhhhhhhhhhhhhhhhhhhhhdi",
"bhhhhhhhhhhhhhhhhhhhhhhhhhhhhieeeeihhhhhhhhhhhhhhhhhhhhhhhhhhhdi",
"fffffffffffffffffffffffffffffffeeffffffffffffffffffffffffffffffi"
};