/* XPM */
static char *wall_r01_c02[] = {
"64 64 11 1",
"a	c #244870",
"b	c #183450",
"c	c #5884B0",
"d	c #6C90BC",
"e	c #A8BCD8",
"f	c #80A0C4",
"g	c #3C6CA0",
"h	c #346090",
"i	c #94B0D0",
"j	c #4C78A8",
"k	c #2C5480",
"abcccccccdebfffeabcccccccdebfffeabcccccccdebfffeabcccccccdebfffe",
"abgggggggdebggdeabgggggggdebggdeabgggggggdebggdeabgggggggdebggde",
"abgggggggdebggdeabgggggggdebggdeabgggggggdebggdeabgggggggdebggde",
"abgggggggdebggdeabgggggggdebggdeabgggggggdebggdeabgggggggdebggde",
"abgggggggdebhideabgggggggdebhideabgggggggdebhideabgggggggdebhide",
"abgggggggdebahdeabgggggggdebahdeabgggggggdebahdeabgggggggdebahde",
"abaaaaaaaafbggdeabaaaaaaaafbggdeabaaaaaaaafbggdeabaaaaaaaafbggde",
"agjjhgghggabggdedhgggggkhgabggdedjjjjjgjggabggdedjcccccccgabggde",
"agjjhgghggabggdedhgggggkggabggdedjjjjjgjggabggdedjcccccccgabggde",
"agjjhgghggabggdedhgggggkggabggdedjjjjjhjhgabggdedgggggggggabggde",
"agjjhgghggabhidedkgkhggkggabhidedjjjjjhjhgabhidedggggghhggabhide",
"agjjhgghhhabahdedkgkhggkghabahdedjjjjjhjhhabahdedccggjhhchabahde",
"agjjhgghhhabggdedkgkhggkghabggdedhhhhhhhhhabggdedccggjhhchabggde",
"agjjhgghhhabggdedkgkhggkghabggdedhhhhhhhhhabggdedccggjhhchabggde",
"agjjhgjjhhabggdedkgkhggkghabggdedhhhhhhhhhabggdedccggjhhchabggde",
"agjjhgjjhhabggdedkgkhggkghabggdedhhhhhhhhhabggdedccggjhhghabggde",
"ffffffffffabhideffffffffffabhideffffffffffabhideffffffffffabhide",
"ddddddddddabahdeddddddddddabahdeddddddddddabahdeddddddddddabahde",
"ccccccccccabggdeccccccccccabggdeccccccccccabggdeccccccccccabggde",
"jjjjjjjjjjabggdejjjjjjjjjjabggdejjjjjjjjjjabggdejjjjjjjjjjabggde",
"jjjjjjjjjjabggdejjjjjjjjjjabggdejjjjjjjjjjabggdejjjjjjjjjjabggde",
"ccccccccccabggdeccccccccccabggdeccccccccccabggdeccccccccccabggde",
"jjjjjjjjjjabhidejjjjjjjjjjabhidejjjjjjjjjjabhidejjjjjjjjjjabhide",
"ggggggggggabahdeggggggggggabahdeggggggggggabahdeggggggggggabahde",
"hhhhhhhhhhabggdehhhhhhhhhhabggdehhhhhhhhhhabggdehhhhhhhhhhabggde",
"kkkkkkkkkkabggdekkkkkkkkkkabggdekkkkkkkkkkabggdekkkkkkkkkkabggde",
"aaaaaaaaaaabggdeaaaaaaaaaaabggdeaaaaaaaaaaabggdeaaaaaaaaaaabggde",
"aghhhghgjhabggdedkgkggggghabggdedgghjjhhhhabggdedjccgchhchabggde",
"aghjhghgjhabhidedkgkggggghabhidedgghjjhhhhabhidedjcjjchhchabhide",
"aghjhghgjhabahdedkgkggggghabahdedgghjjghhhabahdedjcjjchhchabahde",
"aghjhghgjhabggdedkgkhgghhhabggdedgghjjghhhabggdedjcjjchhchabggde",
"aghjhghgjhabggdedkgkhgghhhabggdedgghjjghhhabggdedjcjjjhhjhabggde",
"aghjhghgjhabggdedkgkhgghhhabggdedgghjjghhhabggdedjcjjjhhjhabggde",
"aghjhghgjhabggdedkgkhgghhhabggdedgghjjghhhabggdedghjjghhghabggde",
"aghjhghgjhabhidedgggggghhhabhidedgghjjghhhabhidedghjjghhghabhide",
"aghjhghgjhabahdedgggggghhhabahdedgghjjghhhabahdedghjjghhghabahde",
"aggjhghgjhabggdedkkkhgghhhabggdedgghjjghhhabggdedghjjghhghabggde",
"aggjhghgjhabggdedkkkhgghhhabggdedgghjjghhhabggdedghjjghhghabggde",
"aggjhghgjhabggdedkkkhgghhhabggdedgghjjghhhabggdedghjjghhghabggde",
"aggjhghgjhabggdedkkkhgghkhabggdedgghjjghhhabggdedghjjghhghabggde",
"aggjhghgjgabhidedhhhhgghkgabhidedgghjjghhgabhidedghjjghhggabhide",
"aggjhghgjgabahdedhhhhgghkgabahdedgghjjghhgabahdedghjjghhggabahde",
"aggjhghgjgabggdedhhhhgghkgabggdedgghjjghhgabggdedghjjghhggabggde",
"aggjhhhhjgabggdedhhhhgghkgabggdedgghjjghhgabggdedghjjgggggabggde",
"aggjhhhhjgabggdedhhhhgghkgabggdedgghjjghhgabggdedghjjgggggabggde",
"aggjhhhhjgabggdedhhkkggkkgabggdedgghjjghhgabggdedghjjgggggabggde",
"aggjhhhhjgabhidedhhkkggkkgabhidedgghjjghhgabhidedggjjgggggabhide",
"aggjhhhhjgabahdedhhkkggkkgabahdedgghjjghhgabahdedggjjgggggabahde",
"aggjhhhhjjabggdedhhkkggkkjabggdedghhhhghhjabggdedggjjggggjabggde",
"aggjhhhhjjabggdedhhkkggkkjabggdedghhhhghhjabggdedcccggcgcjabggde",
"dddddddddddddddddddddddddddddddddddddddddddddddddddddddddddddddd",
"ffffffffffffffffffffffffffffffffffffffffffffffffffffffffffffffff",
"dddkieiddddkieiddddkieiddddkieiddddkieiddddkieiddddkieiddddkieid",
"dddkjiiddddkjiiddddkjiiddddkjiiddddkjiiddddkjiiddddkjiiddddkjiid",
"dddkkkiddddkkkiddddkkkiddddkkkiddddkkkiddddkkkiddddkkkiddddkkkid",
"gggggggggggggggggggggggggggggggggggggggggggggggggggggggggggggggg",
"hhhhhhhhhhhhhhhhhhhhhhhhhhhhhhhhhhhhhhhhhhhhhhhhhhhhhhhhhhhhhhhh",
"kkkkkkkkkkkkkkkkkkkkkkkkkkkkkkkkkkkkkkkkkkkkkkkkkkkkkkkkkkkkkkkk",
"agghhggghjabhidedhhkkgkkkjabhidedghhhhhhhjabhidedjjjgggggjabhide",
"agghhggghjabahdedhhkkkkkkjabahdedggggghhhjabahdedjjjgggggjabahde",
"agghhggghjabggdedhhkkkkkkjabggdedggggghhhjabggdedjjjgggggjabggde",
"agghhggghjabggdedhhkkkkkkjabggdedggggghhhjabggdedjjjggjjjjabggde",
"agghhggghgabggdedhhkkkkkkgabggdedggggghhhgabggdedjjjggjjjgabggde",
"aaaaaaaaaaabccceaaaaaaaaaaabccceaaaaaaaaaaabccceaaaaaaaaaaabcccf"
};