/* XPM */
static char *wall_r15_c05[] = {
"64 64 19 1",
"a	c #A0A0A0",
"b	c #8C8C8C",
"c	c #7C7C7C",
"d	c #747474",
"e	c #1C1C1C",
"f	c #A8A8A8",
"g	c #BCBCBC",
"h	c #545454",
"i	c #444444",
"j	c #3C3C3C",
"k	c #4C4C4C",
"l	c #989898",
"m	c #848484",
"n	c #343434",
"o	c #2C2C2C",
"p	c #646464",
"q	c #242424",
"r	c #28CC28",
"s	c #141414",
"abbbbbbbbbbbbbbbbbbbbbbbbbbbbcdeedcbbbbbbbbbbbbbbbbbbbbbbbbbbbba",
"bcdddddddddddddddddddddddddddddeedddddddddddddddddddddddddddddcb",
"bdaafgdhiaafgdhjaafgdhjaafgdkijeejikjaafgdhjaafgdhjaafgdhjaafgdb",
"bdcabfdhicabfdhjcabfdhjcabfdkijeejikjcabfdhjcabfdhjcabfdhjcabfdb",
"bdcdbadhicdbadhjcdbadhjcdbadkijeejikjcdbadhjcdbadhjcdbadhjcdbadb",
"bdcdbadhicdbadhjcdbadhjcdbadkijeejikjcdbadhjcdbadhjcdbadhjcdbadb",
"bdcdbadhicdbadhjcdbadhjcdbadkijeejikjcdbadhjcdbadhjcdbadhjcdbadb",
"bdcdbadhicdbadhjcdbadhjcdbadkijeejikjcdbadhjcdbadhjcdbadhjcdbadb",
"bdcdbadhicdbadhjcdbadhjcdbadkijeejikjcdbadhjcdbadhjcdbadhjcdbadb",
"bdcdbadhicdbadhjaaaaaaaaaaaaabceecbaaaaaaaaaaaaadhjcdbadhjcdbadb",
"bdcdbadhicdbadhagggggggggggggfleelfgggggggggggggahjcdbadhjcdbadb",
"bdcdbadhicdbadagaaaaaaaaaaaaabceecbaaaaaaaaaaaaagajcdbadhjcdbadb",
"bdcdbadhicdbaagammmmmmmmmmmmmddeeddmmmmmmmmmmmmmagacdbadhjcdbadb",
"bdcdbadhicdbagamdddddddddddddddeedddddddddddddddmagadbadhjcdbadb",
"bdcdbadhicdagamdjjjjjjjjjjjjnooeeoonjjjjjjjjjjjjdmagabadhjcdbadb",
"bdcdbadhjcagamdjiiiiiiiiiiiijnneennjiiiiiiiiiiiijdmagaadhicdbadb",
"bdcdbadhiagamdjikkkkkkkkkkkkijjeejjikkkkkkkkkkkkijdmagadhicdbadb",
"bdcdbadhagamdjikhhhhhhhhhhhhkijeejikhhhhhhhhhhhhkijdmagahicdbadb",
"bdcdbadagamdjikhhhhhhhhhhhhhkijeejikhhhhhhhhhhhhhkijdmagaicdbadb",
"bdcdbaagamdjikhhhhhhhhhhhhhhkijeejikhhhhhhhhhhhhhhkijdmagacdbadb",
"bdcdbagamdjikhhhhhhhhhhhhhhhkijeejikhhhhhhhhhhhhhhhkijdmagadbadb",
"bdcdagamdjikhhhhhhhhhhhhhhhhkijeejikhhhhhhhhhhhhhhhhkijdmagabadb",
"bdcagamdjikhhhhhhhhhhhhhhhhhkijeejikhhhhhhhhhhhhhhhhhkijdmagaadb",
"bdbgamdjikhhhhhhhhhhhhhhhhhhkijeejikhhhhhhhhhhhhhhhhhhkijdmagadb",
"bdbamdjikhhhhhhhhhhhhhhhhhhhkijeejikhhhhhhhhhhhhhhhhhhhkijdmaadb",
"bdbadjikhhhhhhhhhhhhhhhhhhhhkijeejikhhhhhhhhhhhhhhhhhhhhkihdaadb",
"bdbabbbbbbbbbbbbbbbbbbbbbbbbbcdeedcbbbbbbbbbbbbbbbbbbbbbbbbbaadb",
"bdbaddddddddddddhiiiiiiiiiiiiddeeddiiiiiiiiiiiihddddddddddddaadb",
"bdbadpppppppppppdnnnnnnnnnnqnhkeekhnqnnnnnnnnnndpppppppppppdaadb",
"bdbadhhhhhhhhhhhdniiiiiiiinqnijeejinqniiiiiiiindhhhhhhhhhhhdaadb",
"bdbadhhhhhhhhhhhdniqqqqqqinqnijeejinqniqqqqqqindhhhhhhhhhhhdaadb",
"bdbadhhhhhhhhhhhdnihddddhinqnijeejinqnihddddhindhhhhhhhhhhhdaadb",
"bdbadpppppppppppdniiiiirrinqnhkeekhnqnirriiiiindpppppppppppdaadb",
"bdbadddddddddddddnnnnnnnnnnqnddeeddnqnnnnnnnnnndddddddddddddaadb",
"bdbammmmmmmmmmmmhiiiiiiiiiiiiddeeddiiiiiiiiiiiihmmmmmmmmmmmdaadb",
"bdbadoooooooooooooooooooooooqeseeseqooooooooooooooooooooooodaadb",
"bdbamdnnnnnnnnnnnnnnnnnnnnnnoqeeeeqonnnnnnnnnnnnnnnnnnnnnndmaadb",
"bdbgamdiiiiiiiiiiiiiiiiiiiiijnoeeonjiiiiiiiiiiiiiiiiiiiiidmagadb",
"bdcagamdhhhhhhhhhhhhhhhhhhhhkijeejikhhhhhhhhhhhhhhhhhhhhdmagaadb",
"bdcdagamdhhhhhhhhhhhhhhhhhhhkijeejikhhhhhhhhhhhhhhhhhhhdmagabadb",
"bdcdbagamdhhhhhhhhhhhhhhhhhhkijeejikhhhhhhhhhhhhhhhhhhdmagadbadb",
"bdcdbaagamdhhhhhhhhhhhhhhhhhkijeejikhhhhhhhhhhhhhhhhhdmagacdbadb",
"bdcdbadagamdhhhhhhhhhhhhhhhhkijeejikhhhhhhhhhhhhhhhhdmagaicdbadb",
"bdcdbadhagamdhhhhhhhhhhhhhhhkijeejikhhhhhhhhhhhhhhhdmagahicdbadb",
"bdcdbadhiagamdhhhhhhhhhhhhhhkijeejikhhhhhhhhhhhhhhdmagadhicdbadb",
"bdcdbadhjcagamdhhhhhhhhhhhhhkijeejikhhhhhhhhhhhhhdmagaadhicdbadb",
"bdcdbadhicdagamdhhhhhhhhhhhhkijeejikhhhhhhhhhhhhdmagabadhjcdbadb",
"bdcdbadhicdbagamdddddddddddddddeedddddddddddddddmagadbadhjcdbadb",
"bdcdbadhicdbaagammmmmmmmmmmmmddeeddmmmmmmmmmmmmmagacdbadhjcdbadb",
"bdcdbadhicdbadagaaaaaaaaaaaaabceecbaaaaaaaaaaaaagajcdbadhjcdbadb",
"bdcdbadhicdbadhagggggggggggggfleelfgggggggggggggahjcdbadhjcdbadb",
"bdcdbadhicdbadhjaaaaaaaaaaaaabceecbaaaaaaaaaaaaadhjcdbadhjcdbadb",
"bdcdbadhicdbadhjcdbadhjcdbadkijeejikjcdbadhjcdbadhjcdbadhjcdbadb",
"bdcdbadhicdbadhjcdbadhjcdbadkijeejikjcdbadhjcdbadhjcdbadhjcdbadb",
"bdcdbadhicdbadhjcdbadhjcdbadkijeejikjcdbadhjcdbadhjcdbadhjcdbadb",
"bdcdbadhicdbadhjcdbadhjcdbadkijeejikjcdbadhjcdbadhjcdbadhjcdbadb",
"bdcdbadhicdbadhjcdbadhjcdbadkijeejikjcdbadhjcdbadhjcdbadhjcdbadb",
"bdcabfdhicabfdhjcabfdhjcabfdkijeejikjcabfdhjcabfdhjcabfdhjcabfdb",
"bdaafgdhiaafgdhjaafgdhjaafgdkijeejikjaafgdhjaafgdhjaafgdhjaafgdb",
"bdjjjjhhjjjjjhhjjjjjhhjjjjjhkijeejikjjjjjhhjjjjjhhjjjjjhhjjjjjdb",
"bdhhhhhhhhhhhhhhhhhhhhhhhhhhkijeejikhhhhhhhhhhhhhhhhhhhhhhhhhhdb",
"bdhhhhhhhhhhhhhhhhhhhhhhhhhhkijeejikhhhhhhhhhhhhhhhhhhhhhhhhhhdb",
"bhkkkkkkkkkkkkkkkkkkkkkkkkkkijjeenjikkkkkkkkkkkkkkkkkkkkkkkkkkhb",
"hjjjjjjjjjjjjjjjjjjjjjjjjjjjjjjjjjjjjjjjjjjjjjjjjjjjjjjjjjjjjjjh"
};