/* XPM */
static char *wall_r12_c06[] = {
"64 64 14 1",
"a	c #201408",
"b	c #040404",
"c	c #301C0C",
"d	c #5C340C",
"e	c #684018",
"f	c #402810",
"g	c #805424",
"h	c #94602C",
"i	c #A06C3C",
"j	c #A8784C",
"k	c #B08458",
"l	c #C4A080",
"m	c #D0B094",
"n	c #E4C098",
"aaaaaaaaabccccccccccccccccccccdefffcccccbbbfccccffffffffffffffff",
"aaaaaaaaafdeggggefccccccccffcccehgedffffffdedfffdhhgedddddededff",
"aaaaaaaafdeghijjhefffffffffccccghjjihgeddeghgeegegiihgeeeeegefff",
"cccccccfdeghijkjigeddddfffffffffgikjihgeeghihgheeehkjigggghgdffc",
"fffffffdeghijkkjigeedddddffffffffgjljihghijihheffdejlkjhhiheffcc",
"dddddddeghijklkjigeeeeddddddddddddglmkihijihhefffddgknljihgfcfff",
"eeeeeeeghijkllkjiggeeeeeeeedddeeeeeglmlkjjiheffddeeegnnlhgdfffff",
"eeegggghijkkmlkjiggggggggeeeeddeggggglnljihgffddeeeeennliddffffd",
"eeghhhhhhiklmlkjihhhhhhhggeeddddeghhhhnnlhgddeddgggggnnlhddffffe",
"eghiiiikkklmmlkjiiiiihhggeedddddeeghhinnliddddeehhhhhnnlgdfeddgg",
"ghijjkjjjkllllkjjjiihhggeeddeedddeeghhnnlhddeegghhhhinnkedfeeehh",
"iijjkjhhhjkllkkjjiihhggeeddeggedddeeggnnlgddeeggiiiiimnkdddggiii",
"jjjkjhgggjjkkkjjiihhggeeddeghggeeddeeennkeddeeggjjjjjmnkddeggiij",
"jkkjhghhhhjjkjjiihhggeeddeghhgggeedddemnkddedeehjjjkkmmjddeghjjj",
"kkkjhghjjjikkjiihhggeedegghhhhggggeeedmnkddeddehijjjkmmjddggijjk",
"klkjhghjjkkjkjihhggeedeghiiihhgghhggggmmjddeddehiiijjlmiddgijjkk",
"lllkjhhjkkjjkjhhggeddeghijiihhhhhhhhhhmmjddedddhhiijjlmidegikkkk",
"lmmlljjikjjkjhgggedegghijjiihhhiiiiiiilmiddgdddghhiijllhdggiklkk",
"mmlllkkkkkkjhggeedeghjijkjiihhiijiiiiilmiddgdddgghhiiklhdhghkmll",
"lllkkkjjjjjhggeedeghjkkkkjiiiiijiihhhhllhddhddeegghhhklgdighlmmm",
"lkkkjjjiihhggeedeghjkkllkjjiijjjihggggklhddiedgeegghhjkgdiegjkll",
"kkjjjiiihhggeeddghijklmlkjjjjkjihgeeeeklgdejgeggeegggikedigehjjk",
"kjiiiihhgggeeddeghijklmlkkkkkjihgeddddjkgdgighhggeeeghkeehgehijj",
"jjiihhgggeeedddeghijklmllkkkjihgedfffgikedhhgjihggeeegjdgghgeiij",
"iihhgggeeeeddddeghijklmmllkjihgedfdghjhkedghhjjihggeegidgghhhhii",
"hhgggeeeeddddddeghijklmmmljihgedfdgghjijddehijkjihggeehdeggggghh",
"ggggeeddgggedddeghijklmmmljhgedfdegghjjidfeghijkjihggggddeeeeegg",
"eeeeeggghhhheddeghijkllmmljhgedfdeeghijjdfeghijkjjihgedddddddeee",
"eeggghhhiiihgedeghijkklmmljhgedfdeegghhgffehijkjjihgeddddddddddd",
"ggghhhiijjihgedegghijklmmljhgedfddeegggdfeghijjihhgededdeeeegggg",
"hhgghijjkjihgedeeghijkkllljhgedfddeeeedfdghiijihhgedeedegggghhhg",
"iihgghijkkjihgedeghijjkkklkjhgedfddeddfdeghijihhgedegedeghhhhiih",
"jjihghijkkjihgedeeghiijjjkkjhgedfddddfdeghijihhgedeggedeghhiijji",
"kjihghijklkjihgedeghhiiiiijjihgedffffdeghijihhgedeghgedeghijjjkj",
"kjihgghijkkjihgedeeghhhhhhiiiihgeeeeeeghijihhgedeghhgedeghhijkkl",
"lkjihghijklkjihgedeeggggghhhiiihgggggghijihhgedeghihgedegghijjkl",
"lkjihghijklkjihhgedeeeeeggghhhiihhhhhhijihhgedeghijhgedegghijjkl",
"lkjihghiijklkjiihgeedddeeegghhhiiiiiiijihhgedeghijjhgedegghijjkl",
"mlkihgghijkkjjihihggeeddeeeggghhiiiiiiihhgeedeghijihgedegghijkkl",
"nmljihghiijjiihghhihggedddeeggghhhhhhhhhgeedeghijihgedeeghijjkll",
"nmlkjihghiiihhghghiihhgeedeeeeegggggggggeedeghiiiihgedeghhijkklm",
"nmlkjiihghhhgghihghihhgeeedddddeeeeeeeeeddegghhhhhgeedeghijjklmm",
"nmlkjihhhggghkkkighhggeeddeeeeedddddddedeeeeggggggeddeghijjkklmm",
"nmlkihggggijkkihghggeeddeegggggeeeeeeedddddddeeeeeedeeghijkklmmm",
"nmljhggegijjjihghgeeddeeggghhhggggggggeeeedddddddeddeghiijklmmmm",
"nmljhgeghiijihghgeedeeggghhhihhhhhhhhhhgggeeeeeeddddeghiijklmmmm",
"nmljhgeghiiiighhgedeeghhhiiiiiiihiiiiihhhhgggggeeedddgghijkllmmm",
"nmljhgegghhhhghhgedeeghiiijjjjjihijjjiiiiihhhhhggeeddeghiijkllmm",
"nmlkihgeggggggghgedeeghiijjkkkjiiijkjjjjiiiihhhhhgeedeghijklmmmm",
"nmlkjhggeeeeeeeggedeeghiijkklkjjjjjkkkkkkkkkkjiihhgedeghijkklmmm",
"nnmlkjhhgggggggggedeeghijjkllkkkkkklllkkhghikkjiihgeddgghijklmmm",
"nnnmlkkkkkkkkkjigedeeghijkllllllllllmllighjklmkjihgeedeghijklmmm",
"mmmmmlllllllkjihgedeghhijklmmmmmmmmmmmlighjjlmljjhggedeghijkklmm",
"mmmmmmmmmmllkjihgedeghijkklmnnnnnnnmmmlkhghillkkjihgedeghijjkklm",
"llllllllllkkkjihgedeghijkklmmnnnnnnnmmmmmmmmlkkkjihgedeghijjjkkl",
"kkkkkkkkkkkkjjihgedeghijkklmmmmmmmmmmmnnnnnnmlkkjhggedeghiijjjkk",
"jjjjjjjjjjjjiihhgedeghijkkllmmmmmmmmmmmmmmmmmlkjjhgeddeghhiiijjj",
"jjjjjiiiiiiihhhggedeghijkkklllllllllllllllllllkjjhgeddegghhhiiij",
"iiiiiihhhhhhhgggeedeghijkkkkkkkkkkkkkkjjkkkkkkkjjhgeddeeggghhhhi",
"hhhhhhgggggggeeedddeghijkkkkjjjjjjjjjjjjjjjjjjjjihgeddddeegggghh",
"ggggggeeeeeeedddddedeghijjjjiiiiiiiiiiiiiiiiiiiihgeddffdddeeeggg",
"eeeeeeddddddddfddegedeghiiiiihhhhhhhhhhhhhhhhhhhgeddffdffddddeee",
"dddddddddddfffdeeghgedeghhhhhgggggggggggggggggggeddffddddfdddddd",
"dddddffffffdddegghihgedegggggeeeeeeeeeeeeeeeeeeeddffdeddddddeeee"
};