/* XPM */
static char *enemy_floor1_walking_f00[] = {
"64 64 33 1",
"a	c None",
"b	c #6C6C6C",
"c	c #005C00",
"d	c #2C2C2C",
"e	c #007400",
"f	c #008C00",
"g	c #00A400",
"h	c #000000",
"i	c #C01010",
"j	c #4C4C4C",
"k	c #004400",
"l	c #002C00",
"m	c #747804",
"n	c #C4C824",
"o	c #A4A814",
"p	c #00140C",
"q	c #5C0000",
"r	c #200000",
"s	c #480000",
"t	c #700404",
"u	c #5C340C",
"v	c #840404",
"w	c #980808",
"x	c #684018",
"y	c #94602C",
"z	c #3C3C00",
"A	c #502400",
"B	c #344400",
"C	c #64A0D8",
"D	c #3884CC",
"E	c #402810",
"F	c #2474C4",
"G	c #AC0C0C",
"aaaaaaaaaaaaaaaaaaaaaaaaaaaaaaaaaaaaaaaaaaaaaaaaaaaaaaaaaaaaaaaa",
"aaaaaaaaaaaaaaaaaaaaaaaaaaaaaaaaaaaaaaaabaaaaaaaaaaaaaaaaaaaaaaa",
"aaaaaaaaaaaaaaaaaaaaaaaaaaaaaacccccccaaadaaaaaaaaaaaaaaaaaaaaaaa",
"aaaaaaaaaaaaaaaaaaaaaaaaaaaacceeeeeeeccadaaaaaaaaaaaaaaaaaaaaaaa",
"aaaaaaaaaaaaaaaaaaaaaaaaaaaceeefffffeeecdaaaaaaaaaaaaaaaaaaaaaaa",
"aaaaaaaaaaaaaaaaaaaaaaaaaaaceeffgggffeecdaaaaaaaaaaaaaaaaaaaaaaa",
"aaaaaaaaaaaaaaaaaaaaaaaaaaceeeeefffeeeehbiaaaaaaaaaaaaaaaaaaaaaa",
"aaaaaaaaaaaaaaaaaaaaaaaaaaceffeceeeceffhjhaaaaaaaaaaaaaaaaaaaaaa",
"aaaaaaaaaaaaaaaaaaaaaaaaaaeklcfecfcefclkhaaaaaaaaaaaaaaaaaaaaaaa",
"aaaaaaaaaaaaaaaaaaaaaaacffcckllkkckkllkccffcaaaaaaaaaaaaaaaaaaaa",
"aaaaaaaaaaaaaaaaaaaaaaaaklccmnkocfcoknmcclkaaaaaaaaaaaaaaaaaaaaa",
"aaaaaaaaaaaaaaaaaaaaaaaaackfckkcegeckkcfkcaaaaaaaaaaaaaaaaaaaaaa",
"aaaaaaaaaaaaaaaaaaaaaaaaaclegfckckckcfgelcaaaaaaaaaaaaaaaaaaaaaa",
"aaaaaaaaaaaaaaaaaaaaaaaaaackeceeeceeecekcaaaaaaaaaaaaaaaaaaaaaaa",
"aaaaaaaaaaaaaaaaaaaaaaaaaacceeefgggfeeeccaaaaaaaaaaaaaaaaaaaaaaa",
"aaaaaaaaaaaaaaaaaaaaaaaaaaceeekpppppkeeecaaaaaaaaaaaaaaaaaaaaaaa",
"aaaaaaaaaaaaaaaaaaaaaqqqqdkeekprsqsrpkeekdqqqqqqqqqaaaaaaaaaaaaa",
"aaaaaaaaaaaaaaaaaqqqqttttefcepupppppupecfetttttttttqqqqaaaaaaaaa",
"aaaaaaaaaaaaaaqqqttvvwwwvfekekpxyxyxpkekefvwwwvvtvvttttqqqaaaaaa",
"aaaaaaaaaaaqqqtvttwwvvvvtecekeffgggffekecetvvvvwwqtttvwwvtqqaaaa",
"aaaaaaaaaqqtvvttvvqqttttteefekecfcfcekefeetttttqqwwwvtttttvtqaaa",
"aaaaaaaqqvtqtqqtvqvtqqqqqccccekkkkkkkeccccqqqqqtvqvtqqtqtvtvtqaa",
"aaaaaaqtvqtvvvtqtwttvvwwwzfeeccceeeccceefzwwwvvttttqtvvvtqtttqaa",
"aaaaaqtvttvvwwvtqqtttttttteeeefecccefeeeetttttttttqtvwwwvttqvtqa",
"aaaaaqtttvvvwwvtqtttvvvvvvAeeeeceeeceeeeAvvvvvvtttqtvvwwvvttttqa",
"aaaaqtvqtvvwvvttqtvvvvwwwvtqBeeececeeeBqtvwwwvvvvqqttvvvwvttqtqa",
"aaaaqttttvvvvtttqttvvwwwwwwvvvqtttttqvvvwtnnnwvvtwvvttvvvtttstqa",
"aaaaqtqtttttttttqqvvvvvwwwvvvvvtqtqtvvvvvqnnnvvvvssssqtttttqsqaa",
"aaaaqtsttttttttqvwqqqtvvvvtqqtqtttttqtqqtqqqttqqqvwvvtsssqqsttqa",
"aaaaaqsqtvwvtqssssvttttvvvvvvvttqtqttvvvvvvvvvttvsssqqtttttqtvtq",
"aaaaqttsqqssstvvwwwwvvvtttvvttqqtttqqttvvvvttqssqsqttvvwwvttqttq",
"aaaqtvtqtttttqqssssssssssqqqqqtttvtttqqqqqsssqttqsttvvwwwwvtsqtq",
"aaaqttqttvwwvvtttssqqtttttttvwwvtttvwwvvttttttqqsaqtvvvvwvvtstqa",
"aaaqtqstvwwwwvvttsqtttqtvwwwvtttttttttvwwwvtqtttqaqtvvwwvvttqtqa",
"aaaaqtstvvwvvvvtqaqqqttvvttttqqqsssqqqqqqtttvttqqaqqtttttttqqtqa",
"aaaaqtqttwwwwwvtqaaqttvttqqssssrrrrrsssssssqtqsqaaaqssssqqsstqaa",
"aaaaqtqwvqqsssqqaaahsqtqsssqqqqqqsqqttqqqsssssshaaastvwvttqtttqa",
"aaaaaqvssqtvwvtsaaahhhhhsqqqttvvtqtvvvttqqshhhhhaaqqsssssqtvttqa",
"aaaaqtqqtvvvttsqaahhdhdhhhhhhhChhdhhChhhhhhhdhdhhaktvtqttvvtttka",
"aaaaqqtvvvttvvtqaahhhjhhhhhhhhDhhdhhDhhhhhhhhjhhhacectqttvvtkcka",
"aaaaqqtvvtcekcvtqahEhdhqhhhhhhFhhhhhFhhhhhhqhdhEhacefkeeffeeccka",
"aaaaqtvcffeekefeqahhhhhvttvvttqqtvtqqtvvvvvvhhhhhaacfceefeecccka",
"aaaaqceeffeecefecaaqhhvtttvwvttqstsqtvvvvvvvvhhqaaakeceeeeecckaa",
"aaaaceeeeffeecfecaaqtvvtqtvwvvttqsqttvwwvvvwwvtqaaakceeeeeccckaa",
"aaaaceeeeefeecfcaaaqtvttqtvvvvttqaqtvwwwwvtvwwtqaaaccceeeecckkaa",
"aaaaaceeeeeecckkaaaqtttttttvvvtqaaaqvvwwvvvvwttqaaceeeeeecckkaaa",
"aaaaaceeeecceeeecaaqtqtvvtqtvttqaaaqtvvvtwGwvqtqaceeeeeeccckkaaa",
"aaaaacceeceefecfecaqtstvwvtqttqqaaaqqtvtwwwwwstqaccfceefcekckaaa",
"aaaaaaceeefeffecckaaqsttvvtqqqtqaaaqtqqqvwwvtsqaakeekeeekekekaaa",
"aaaaaaceeefceeffeckaqqstttqstttqaaaqtttsqtttsqqaakkceffckckckaaa",
"aaaaaaceeeeeeeeeeecactqssqqvwvtcaaaqtvvtqqssqtqaakceeeeckkkkaaaa",
"aaaaaaacefcecklkkckaaceqvtqtveecaaaqtvwvtqqtvtqaaakkkkkkkaaaaaaa",
"aaaaaaakceklkccckkaaaceceeceeeccaaaactvvtqtvtecaaaaaaaaaaaaaaaaa",
"aaaaaaaakcccckkkaaaaakccefeeeeecaaaacceeecfececaaaaaaaaaaaaaaaaa",
"aaaaaaaaakkkkkaaaaaaakceeffeeeccaaaaceeeeefececaaaaaaaaaaaaaaaaa",
"aaaaaaaaaaaaaaaaaaaaaccefeeeeeecaaaacceefffecccaaaaaaaaaaaaaaaaa",
"aaaaaaaaaaaaaaaaaaaacceeeeeefeecaaaaceeeffffeccaaaaaaaaaaaaaaaaa",
"aaaaaaaaaaaaaaaaaaaceeeceeceeecaaaaaceeeeeeeeccaaaaaaaaaaaaaaaaa",
"aaaaaaaaaaaaaaaaaacfcfcfecfeeckaaaaaceefefeeeecaaaaaaaaaaaaaaaaa",
"aaaaaaaaaaaaaaaaaacekekeekeeecaaaaaaeeeceecfeecaaaaaaaaaaaaaaaaa",
"aaaaaaaaaaaaaaaaaaacacaccacccaaaaaaacefecefcfcfcaaaaaaaaaaaaaaaa",
"aaaaaaaaaaaaaaaaaaaaaaaaaaaaaaaaaaaaceeekeekekecaaaaaaaaaaaaaaaa",
"aaaaaaaaaaaaaaaaaaaaaaaaaaaaaaaaaaaaacccaccacacaaaaaaaaaaaaaaaaa",
"aaaaaaaaaaaaaaaaaaaaaaaaaaaaaaaaaaaaaaaaaaaaaaaaaaaaaaaaaaaaaaaa"
};
