/* XPM */
static char *death_f00[] = {
"64 64 19 1",
"a	c None",
"b	c #6C8C00",
"c	c #587400",
"d	c #445C00",
"e	c #344400",
"f	c #202C00",
"g	c #7CA400",
"h	c #98C010",
"i	c #0C0C0C",
"j	c #3C3C00",
"k	c #747804",
"l	c #A4A814",
"m	c #505000",
"n	c #200000",
"o	c #480000",
"p	c #5C0000",
"q	c #000000",
"r	c #2C2C2C",
"s	c #3C3C3C",
"aaaaaaaaaaaaaaaaaaaaaaaaaaaaaaaaaaaaaaaaaaaaaaaaaaaaaaaaaaaaaaaa",
"aaaaaaaaaaaaaaaaaaaaaaaaaaaaaaaaaaaaaaaaaaaaaaaaaaaaaaaaaaaaaaaa",
"aaaaaaaaaaaaaaaaaaaaaaaaaaaaaaaaaaaaaaaaaaaaaaaaaaaaaaaaaaaaaaaa",
"aaaaaaaaaaaaaaaaaaaabbbbbbbaaaaaaaaaaabbbbbaaaaaaaaaaaaaaaaaaaaa",
"aaaaaaaaaaaaaaaaabbbbcccccbbbbaaaaabbbcccccbbbbaaaaaaaaaaaaaaaaa",
"aaaaaaaaaaaaaaabbccccddcdccccbbbbbbccccdcddccccbbaaaaaaaaaaaaaaa",
"aaaaaaaaaaaaaabccdcdddecddddccccccccddddecdddcdccbaaaaaaaaaaaaaa",
"aaaaaaaaaaaaabccddecddfeddddddececddddddfeddecddccbaaaaaaaaaaaaa",
"aaaaaaaaaaaaacddddfedecdedecdefefeedecdedecdfeddddcaaaaaaaaaaaaa",
"aaaaaaaaaaaaaeedecdghgebeefeeeeeeeeefeeeefededecdeeaaaaaaaaaaaaa",
"aaaaaaaaaacccebefegcccgeeefbffiiiiffefeeeeeeeefeefecccaaaaaaaaaa",
"aaaaaaaaccdddeifghcdddcggbiiiiffffiiiifffefeeefefiedddccaaaaaaaa",
"aaaaaaacddededfiigdeeedhiiffeeeeeeeeffiiiffffffiifdededdcaaaaaaa",
"aaaaaacdeeeedeeefheaaaehgeeeeefeefeeeeeefiiiiiifeeedeeeedcaaaaaa",
"aaaaaaceeeeecefegegaaaggeeeefieddeifeeeeeeeeeeeeefeceeeeecaaaaaa",
"aaaaaadefeeeceedeeeghgehbfiiiedccdeiiiffeeeeeefedeeceeefedaaaaaa",
"aaaaaadeefefeddeefbgiiiigiifeddddddefiiiiiiiiffffddefefeedaaaaaa",
"aaaaaaaefefffiiiiihiiiijklkiifeeeefiiklkjiiiiiiiiiifffefeaaaaaaa",
"aaaaaaaaeffiifffffifiijkkkkkiiiiiiiikkkkkjiififffffiiffeaaaaaaaa",
"aaaaaaaiiiieeedeegefffiiiigiiiffffiiiiiiiifffeeeedeeeiiiiaaaaaaa",
"aaaaaddddeeedeeeeeeeeffffffeedcbbcdeeffffffeeeeeeeedeeeddddaaaaa",
"aaaaddeeeceeeeeeefeffeeeeddddeeeeeeddbdeeeeffefeeeeeeeceeeddaaaa",
"aaadeedcdefffiifeeeeeedddefiiiiiiiiiifebgdeeeeeefiifffedcdeedaaa",
"aaadeiiiiiiiiffiifeedeeiiiikimimimikiiiiibedeefiiffiiiiiiiiedaaa",
"aadeiiiieeeeeiiififeeeiiijiinoppponiijiiigigfiigiiieeeeeiiiiedaa",
"aadfieecdddeeeffififeeiiiiimimikikimiiiighefbhfiffeeedddceeifdaa",
"aadfeefcedddeeefiffifeeiiiifijimbmghibhhggbggefifeeedddecfeefdaa",
"adfeeececedeedffifefiffeeeccgccbbbcchgaaaaageffigfdeedececeeefda",
"aefeceefefdddcdefifffiifdeeeeeeeeeeegaaaaaaagiigedcdddfefeecefea",
"aeffefeceddedeedefifeffifdeeeeffffehaaaaaaaaagfgdeededdecefeffea",
"afifeefefeddeffeefiifeeeiedgeeeeeegbaaaaaaaaagfeeffeddefefeefifa",
"aaifeedddeedeeifefiiifegefgbddcccchgaaaaaaaaahfefieedeedddeefiaa",
"aafifeecdefedefifiiiiieeghhgdddddgdgeaaaaaaaehififedefedceefifaa",
"aaiiffffedeifeeefiffibggaaaghedeedebdeaaaaaedgifeeefiedeffffiiaa",
"aaaiiffifeeeiiffiifbfigaaaaagfeeegfigddeeeddgbbiffiieeefiffiiaaa",
"aaaaiiefiiffefiiiffefgeaaaaaegbiiiiiggcccccgefhiiifeffiifeiiaaaa",
"aaaaaiiiffiiffiiffefehdeaaaedhhgiieebdghhghegeffiiffiiffiiiaaaaa",
"aaaaaaaiiiiiiiiiiifeggcdeeedcgeeegdddgefghgfefiiiiiiiiiiiaaaaaaa",
"aaaaaaaaifefiiiiiiigeegcdddcgddddddcdeefigeefiibiiiifefiaaaaaaaa",
"aaaaaaaaiffiififiiifeehgcccggdccccdddefifheefiiififiiffiaaaaaaaa",
"aaaaaaaaaiiffififiiifbefghgebdddddddeefifeefiiifififfiiaaaaaaaaa",
"aaaaaaaaaifffffffffifeeehifeegddddeeefifegefifffffffffiaaaaaaaaa",
"aaaaaaaaaifeeeefefffifedgfifeeeeeeeefifddefifffefeeeefiaaaaaaaaa",
"aaaaaaaaffeededeeeefiifeeefifbeeeeffifeeefiifeeeededeeffaaaaaaaa",
"aaaaaaaaffeceecdeefefiffbdefiiiiiiiifeeeffifefeedeceecffaaaaaaaa",
"aaaaaaaffefedfeeceeffiifeedeeffffffeedeefiiffeecefedfeeffaaaaaaa",
"aaaaaaafeeecdddfeffeffiifeedeeeeeeeedeeffiffeffeddddeceefaaaaaaa",
"aaaaaaafeefedddedeeffiiiffeeedccccdeeeffiiiffeededddfeeefaaaaaaa",
"aaaaaaafeecddecdeefiiiiiiffeeeddddeeeffiiiiiifeedecddecefaaaaaaa",
"aaaaaaffefeecfeeeeiiiiiiiiffeeeeeeeeffiiiiiiiieeefeecfefffaaaaaa",
"aaaaaafeeedeeeeeefiiiiiiieifffeeeefffieiiiiiiifeeeeeeeeeefaaaaaa",
"aaaaaafeeeefedeeefiiiiiiieaiffffffffiaeiiiiiiifeeeefedeeefaaaaaa",
"aaaaaafeeceeeeeefiiiiiiiifaaiiffffiiaafiiiiiiiifeeeeeeecefaaaaaa",
"aaaaaafefefeeceefiiiiiiiifaaaaiiiiaaaafiiiiiiiifeeecefeeefaaaaaa",
"aaaaeeeeeeeefeeefiiiiiiifaaaaaaaaaaaaaafiiiiiiifeefeeeeeeeeeaaaa",
"aaaeddeeeeeeeeefiiiiiiiiaaaaaaaaaaaaaaaaiiiiiiiifeeeeeeeeeddeaaa",
"aaedcdeeddeeeddfiiiiiiiiiaaaaaaaaaaaaaaiiiiiiiiifddeeeddeedcdeaa",
"aaeddeedddeeedcfiiiqqiiiiaaaaaaaaaaaaaaiiiiqqiiifcdeeedddeeddeaa",
"aeeeeedgdeeeeddefiqqqqqqiaaaaaaaaaaaaaaaqqqqqqifeddeeeedgdeeeeea",
"afeeffedeeefeeeefqqqaaaaaaaaaaaaaaaaaaaaaaaaqqqfeeeefeeedeffeefa",
"aaiiifeeeefiieeefaaaaaaaaaaaaaaaaaaaaaaaaaaaaaafeeeiifeeeefiiiaa",
"aaaaaieeeeiariiiaaaaaaaaaaaaaaaaaaaaaaaaaaaaaaaaiiirsieeeeiraaaa",
"aaaaaaiiiiaaaaaaaaaaaaaaaaaaaaaaaaaaaaaaaaaaaaaaaaaaaaiiiiaaaaaa",
"aaaaaaaaaaaaaaaaaaaaaaaaaaaaaaaaaaaaaaaaaaaaaaaaaaaaaaaaaaaaaaaa"
};