/* XPM */
static char *death_f01[] = {
"64 64 21 1",
"a	c None",
"b	c #6C8C00",
"c	c #587400",
"d	c #445C00",
"e	c #344400",
"f	c #202C00",
"g	c #7CA400",
"h	c #98C010",
"i	c #0C0C0C",
"j	c #747804",
"k	c #505000",
"l	c #3C3C00",
"m	c #200000",
"n	c #480000",
"o	c #5C0000",
"p	c #A4A814",
"q	c #000000",
"r	c #040404",
"s	c #141414",
"t	c #2C2C2C",
"u	c #3C3C3C",
"aaaaaaaaaaaaaaaaaaaaaaaaaaaaaaaaaaaaaaaaaaaaaaaaaaaaaaaaaaaaaaaa",
"aaaaaaaaaaaaaaaaaaaaaaaaaaaaaaaaaaaaaaaaaaaaaaaaaaaaaaaaaaaaaaaa",
"aaaaaaaaaaaaaaaaaaaaaaaaaaaaaaaaaaaaaaaaaaaaaaaaaaaaaaaaaaaaaaaa",
"aaaaaaaaaaaaaaaaaaaaaaaaaaaaaaaaaaaaaaaaaaaaaaaaaaaaaaaaaaaaaaaa",
"aaaaaaaaaaaaaaaaaaaaaaaaaaaaaaaaaaaaaaaaaaaaaaaaaaaaaaaaaaaaaaaa",
"aaaaaaaaaaaaaaaaaaaaaaaaaaaaaaaaaaaaaaaaaaaaaaaaaaaaaaaaaaaaaaaa",
"aaaaaaaaaaaaaaaaaaaaaaaaaaaaaaaaaaaaaaaaaaaaaaaaaaaaaaaaaaaaaaaa",
"aaaaaaaaaaaaaaaaaaaaaaaaaaaaaaaaaaaaaaaaaaaaaaaaaaaaaaaaaaaaaaaa",
"aaaaaaaaaaaaaaaaaaaaaaaaaaaaaaaaaaaaaaaaaaaaaaaaaaaaaaaaaaaaaaaa",
"aaaaaaaaaaaaaaaaaaaaaaaaaaaaaaaaaaaaaaaaaaaaaaaaaaaaaaaaaaaaaaaa",
"aaaaaaaaaaaaaaaaaaaaaaaaaaaaaaaaaaaaaaaaaaaaaaaaaaaaaaaaaaaaaaaa",
"aaaaaaaaaaaaaaaaaaaaaaaaaaaaaaaaaaaaaaaaaaaaaaaaaaaaaaaaaaaaaaaa",
"aaaaaaaaaaaaaaaaaaaaaaaaaaaaaaaaaaaaaaaaaaaaaaaaaaaaaaaaaaaaaaaa",
"aaaaaaaaaaaaaaaaaaaabbbbbbbaaaaaaaaaaabbbbbaaaaaaaaaaaaaaaaaaaaa",
"aaaaaaaaaaaaaaaaabbbbcccccbbbbaaaaabbbcccccbbbbaaaaaaaaaaaaaaaaa",
"aaaaaaaaaaaaaaabbccccddcdccccbbbbbbccccdcddccccbbaaaaaaaaaaaaaaa",
"aaaaaaaaaaaaaabccdcdddecddddccccccccddddecdddcdccbaaaaaaaaaaaaaa",
"aaaaaaaaaaaaabccddecddfeddddddececddddddfeddecddccbaaaaaaaaaaaaa",
"aaaaaaaaaaccccddddfedecdedecdefefeedecdedecdfeddddccccaaaaaaaaaa",
"aaaaaaaaccdddeedecdghgebeefeeeeeeeeefeeeefededecdeedddccaaaaaaaa",
"aaaaaaacddedeebefegcgcgeeefbffiiiiffefeeeeeeeefeefeededdcaaaaaaa",
"aaaaaacdeeeedeifbhcdcdcggbiiiiffffiiiifffefeeefefiedeeeedcaaaaaa",
"aaaaaaceeeeecefiggdeeedhiifffieddeifffiiiffffffiifeceeeeecaaaaaa",
"aaaaaadefeeeceebeheghgehbfiiiedccdeiiifffiiiiiifdeeceeefedaaaaaa",
"aaaaaddeefefeddeegbhhhhggiifeddddddefiiiiigbiffffddefefeeddaaaaa",
"aaaaddeefefffiiiiighghighigiifeeeefiiighhgfffbiiiiifffefeeddaaaa",
"aaadeedceffiieeeebehegffhffeeiiiiiibggffgffeeeeeeeeiiffecdeedaaa",
"aaadeiideefieeeeefegfgeegddddeeeeeeddbdeeeeffefeeeeeifeediiedaaa",
"aadeiddcbbcefiefeeebeeddhefiiiiiiiiiifebgdeeeeeefeifecbbcddiedaa",
"aadfdcbcddcbdefiifegdgfigiijikikikijigiiibedeefiifedbcddcbcdfdaa",
"aaddcdcbcdddcbdefifheiibgliiiiiiiiiiiliiigigfiifedbcdddcbcdcddaa",
"adfedcfedcddeccbbcifeeeebhiimnooonmiiiiighefbicbbcceddcdefcdefda",
"aeffedededddedefeecifeededgkikijijikibhhggbgiceefededddededeffea",
"aeiefedefeddeefffeefiffeegchbgbkbkghhgcdddcifeefffeeddefedefeiea",
"afffefededecdefiiffliiifdeeghhgbbbccgcadcdailffiifedcededefefffa",
"aaiifdeecfeecceiiifjifeifdeegegeeeehacaacaaijfiiiecceefceedfiiaa",
"aaaiicefcdifdbcfiiipiieeiedggegfffgbaaaabaaipiiifcbdfidcfeciiaaa",
"aaaaiceedceifdeefijlibggcfgbgdcccchgacaaaaciljifeedfiecdeeciaaaa",
"aaaaidcffbciiffjlilieigachhggdgddgdgeddecedbililjffiicbffcdiaaaa",
"aaaaaibfideeiiilpjiibgeaacaghedeedebdeccccggiijpliiieedifbiaaaaa",
"aaaaaidefiffeiiijpliebdeaaaegfeeegfihdghhgghilpjiiieffifediaaaaa",
"aaaaaaifeiifjiifiljieehdecedegbiiiiihgeghhbhijlifiijfiiefiaaaaaa",
"aaaaaaaijjiiippieiiifbgcdddcgdhgiidchgebhgeggiieippiiijjiaaaaaaa",
"aaaaaaaaippiiijjieeifeghccchgdccccddggfbhgegheeijjiiippiaaaaaaaa",
"aaaaaaaafijpjiiieefeifbghhhgbdddddddghfbhbfihfeeiiijpjifaaaaaaaa",
"aaaaaaaffeiiifeeceebiibgghhgegddddeeehighbiiheecefeiiieffaaaaaaa",
"aaaaaaafeeecdddfefbgfibfghgbeeeeeeeefheehbifgffeddddeceefaaaaaaa",
"aaaaaaafeefedddedegbfibfghgifbeeeeffiheehbifgeededddfeeefaaaaaaa",
"aaaaaaafeecddecdeehiiigibhggiiiiiiiidhefhbiigfeedecddecefaaaaaaa",
"aaaaaaffefeecfeeeeiiiiiibhgbgdccccdeghffhbiiiieeefeecfefffaaaaaa",
"aaaaaafeeedeeeeeefgiiibibhgegeddddeeehfihbiigifeeeeeeeeeefaaaaaa",
"aaaaaafeeeefedeeefiiiigighbfeeeeeeeefhiihbiigifeeeefedeeefaaaaaa",
"aaaaaafeeceeeeeefiiiiiiiihbfgfeeeefffgfihbiigiifeeeeeeecefaaaaaa",
"aaaaaafefefeeceefiiiiihibhbiffffffffigfigbiihiifeeecefeeefaaaaaa",
"aaaaeeeeeeeefeeefiiiiiiiggbaiiffffiiagafhbiiiiifeefeeeeeeeeeaaaa",
"aaaeddeeeeeeeeefiiiigiiicgbccaaaaaaccgcchbiigiiifeeeeeeeeeddeaaa",
"aaedcdeeddeeeddfcdiiiiiiigccagaaaaaaagcihbiihiiifddeeeddeedcdeca",
"ageddeedddeeedcfiiiqqigighaacaaaabaaagqihbiqqiiifcdeeedddeeddeaa",
"aeeeeedgdeeeeddefiqqqqqhihagaaaaaaagagqqhbqqqqbfeddeeeedgdeeeeea",
"afeeffedeeefeeeefqqqaaarhhhaaaaaaaaahbqsgbssgqqfeeeefeeedeffeefa",
"aaiiifeeeefiieeeftbaghhgghgghgabaaaaagbsgbagasaaeeeiifeeeefiiiaa",
"aaaatieeeeigciiiutaaaagagggagaaaaaaaabhghbhaaaaaiiiccieeeeicaaaa",
"aaaaaaiiiiaaaaaaaaaabaaagaaaabaaagaghgghhhgbghgaaaaaaaiiiiaaacaa",
"aaaaaaaaaaaaaaaaaaaaaaaaaaaaaaaaaaaaaggagaagaaaaabgaaaaaaaaaaaaa"
};