/* XPM */
static const char *acid_dragon_gunk_shot_f02[] = {
/* columns rows colors chars-per-pixel */
"95 97 832 2",
"!! c None",
"!# c #385083",
"!$ c #434884",
"!% c #3F4B83",
"!& c #444784",
"!' c #2C5B82",
"!( c #6D2486",
"!) c #6A2686",
"!* c #692885",
"!+ c #83076F",
"!, c #7B0A64",
"!- c #7D0A67",
"!. c #7B0A65",
"!/ c #7F086B",
"!0 c #44211F",
"!1 c #252E00",
"!2 c #2D2B02",
"!3 c #272D00",
"!4 c #382611",
"!5 c #820471",
"!6 c #471C26",
"!7 c #3E3B02",
"!8 c #3C4600",
"!9 c #3D4200",
"!: c #3C4100",
"!; c #434C00",
"!< c #4E4E00",
"!= c #542B25",
"!> c #4B1F27",
"!? c #58163B",
"!@ c #830673",
"!A c #431E29",
"!B c #582E27",
"!C c #65342A",
"!D c #63332A",
"!E c #61312A",
"!F c #653B24",
"!G c #733B31",
"!H c #890A72",
"!I c #602238",
"!J c #344200",
"!K c #525900",
"!L c #626302",
"!M c #616202",
"!N c #6C6C03",
"!O c #6E7001",
"!P c #4D5800",
"!Q c #324700",
"!R c #383205",
"!S c #701155",
"!T c #890675",
"!U c #58183C",
"!V c #1F3500",
"!W c #485B00",
"!X c #5E6A00",
"!Y c #5A6700",
"!Z c #5C6900",
"![ c #667900",
"!] c #767A04",
"!^ c #8D3950",
"!_ c #512923",
"!` c #424E00",
"!a c #666600",
"!b c #717403",
"!c c #7C8006",
"!d c #858908",
"!e c #838708",
"!f c #787D05",
"!g c #636502",
"!h c #474900",
"!i c #293100",
"!j c #68114E",
"!k c #4B1E28",
"!l c #263200",
"!m c #3D3D00",
"!n c #737606",
"!o c #898D08",
"!p c #90940B",
"!q c #9EA210",
"!r c #A3A813",
"!s c #889701",
"!t c #8B4643",
"!u c #502824",
"!v c #3F4E00",
"!w c #6F7202",
"!x c #797E05",
"!y c #838707",
"!z c #828707",
"!{ c #808406",
"!| c #767B04",
"!} c #616201",
"!~ c #434600",
"#! c #232F00",
"## c #6B0E53",
"#$ c #67134C",
"#% c #41221C",
"#& c #471F23",
"#' c #2E2607",
"#( c #3B3B00",
"#) c #717406",
"#* c #888C08",
"#+ c #848808",
"#, c #8F940A",
"#- c #9DA110",
"#. c #A2A712",
"#/ c #859800",
"#0 c #8A4641",
"#1 c #711057",
"#2 c #4B3316",
"#3 c #4C5300",
"#4 c #6B6C02",
"#5 c #7E8208",
"#6 c #8C910A",
"#7 c #94980B",
"#8 c #93980B",
"#9 c #92960A",
"#: c #878C0A",
"#; c #747706",
"#< c #595C01",
"#= c #393E00",
"#> c #571E33",
"#? c #750A60",
"#@ c #720D5B",
"#A c #43261A",
"#B c #233600",
"#C c #283300",
"#D c #323500",
"#E c #3C3B00",
"#F c #4B4B00",
"#G c #7F8209",
"#H c #95990D",
"#I c #91950D",
"#J c #9B9F10",
"#K c #A8AC13",
"#L c #ACB112",
"#M c #94A205",
"#N c #924B47",
"#O c #760C5F",
"#P c #282E00",
"#Q c #404600",
"#R c #5E5F01",
"#S c #787C05",
"#T c #9B9F11",
"#U c #B0B41B",
"#V c #B8BC21",
"#W c #B7BB21",
"#X c #B6B91F",
"#Y c #AAAE17",
"#Z c #989C0E",
"#[ c #7C7F06",
"#] c #575701",
"#^ c #383A00",
"#_ c #272C00",
"#` c #292E00",
"#a c #363800",
"#b c #3E3E00",
"#c c #4A4A00",
"#d c #575700",
"#e c #95980F",
"#f c #A8AC15",
"#g c #A5A914",
"#h c #B1B51A",
"#i c #C0C424",
"#j c #C5CA29",
"#k c #ABB911",
"#l c #9D564A",
"#m c #770C60",
"#n c #292D00",
"#o c #3F4500",
"#p c #A7AB11",
"#q c #C6C83D",
"#r c #DADA70",
"#s c #D9DA6E",
"#t c #D5D761",
"#u c #C6C92B",
"#v c #A4A911",
"#w c #7A7E06",
"#x c #535300",
"#y c #454700",
"#z c #434700",
"#{ c #464700",
"#| c #5B5B00",
"#} c #5F5E00",
"#~ c #5F5F00",
"$! c #646400",
"$# c #8D8F0B",
"$$ c #9CA00F",
"$% c #BCC018",
"$& c #DDE164",
"$' c #E9EE9F",
"$( c #B6C725",
"$) c #9E5942",
"$* c #780C61",
"$+ c #2D2E00",
"$, c #414500",
"$- c #656602",
"$. c #898E09",
"$/ c #A4A90E",
"$0 c #C8CA49",
"$1 c #E7E691",
"$2 c #E5E58C",
"$3 c #E9E99F",
"$4 c #E6E799",
"$5 c #CBCE34",
"$6 c #9EA20C",
"$7 c #747804",
"$8 c #616302",
"$9 c #5E6001",
"$: c #5F6101",
"$; c #636401",
"$< c #6C6E01",
"$= c #6A6B01",
"$> c #6B6D02",
"$? c #7F8206",
"$@ c #868A08",
"$A c #878B09",
"$B c #9DA30D",
"$C c #B9B24E",
"$D c #C1AD82",
"$E c #878B1C",
"$F c #853D41",
"$G c #770B60",
"$H c #282B00",
"$I c #989D0A",
"$J c #BDC03D",
"$K c #E1E17D",
"$L c #DFDF77",
"$M c #E7E79C",
"$N c #E6E6A4",
"$O c #BABE2E",
"$P c #8D9105",
"$Q c #707402",
"$R c #757904",
"$S c #777B04",
"$T c #747904",
"$U c #737704",
"$V c #727604",
"$W c #6E7501",
"$X c #73630C",
"$Y c #73471C",
"$Z c #53321A",
"$[ c #711452",
"$] c #6D065E",
"$^ c #071900",
"$_ c #1D2700",
"$` c #464501",
"$a c #6E6F02",
"$b c #8E9208",
"$c c #B3B71E",
"$d c #D1D436",
"$e c #CFD333",
"$f c #D7D845",
"$g c #CFCF4A",
"$h c #969A14",
"$i c #7A7F03",
"$j c #717503",
"$k c #727603",
"$l c #7B7F06",
"$m c #828607",
"$n c #818507",
"$o c #808407",
"$p c #818607",
"$q c #5A5C01",
"$r c #474B00",
"$s c #49380C",
"$t c #800E64",
"$u c #840176",
"$v c #4C0940",
"$w c #282108",
"$x c #2E3900",
"$y c #515100",
"$z c #6A6C04",
"${ c #858709",
"$| c #989B0D",
"$} c #97990C",
"$~ c #9EA013",
"%! c #9DA016",
"%# c #7E8207",
"%$ c #888C09",
"%% c #8B8F09",
"%& c #8A8E09",
"%' c #8D910A",
"%( c #93970D",
"%) c #8E920B",
"%* c #797D05",
"%+ c #5F5F01",
"%, c #414A00",
"%- c #3E3509",
"%. c #551A35",
"%/ c #312F02",
"%0 c #3A3B00",
"%1 c #454500",
"%2 c #5A5A00",
"%3 c #595800",
"%4 c #626400",
"%5 c #6F7301",
"%6 c #8A8E0A",
"%7 c #969A0D",
"%8 c #999D0E",
"%9 c #A8AC16",
"%: c #9EA211",
"%; c #989C0D",
"%< c #979B0D",
"%= c #8B8F0A",
"%> c #727303",
"%? c #4F5700",
"%@ c #41350A",
"%A c #8A0875",
"%B c #721553",
"%C c #393D00",
"%D c #3A3D00",
"%E c #3F3F00",
"%F c #505000",
"%G c #686900",
"%H c #707403",
"%I c #A0A412",
"%J c #ABAF18",
"%K c #B2B61B",
"%L c #ACB018",
"%M c #A1A513",
"%N c #91950B",
"%O c #5D6800",
"%P c #40340B",
"%Q c #690E57",
"%R c #581E39",
"%S c #702A3F",
"%T c #79264A",
"%U c #612C2F",
"%V c #424400",
"%W c #414100",
"%X c #383800",
"%Y c #353500",
"%Z c #686800",
"%[ c #A2A612",
"%] c #B3B71C",
"%^ c #B7BB1D",
"%_ c #B6BA1D",
"%` c #B3B818",
"%a c #B5B917",
"%b c #BCC01B",
"%c c #BEC21B",
"%d c #B8BC1B",
"%e c #A1A512",
"%f c #646A01",
"%g c #393404",
"%h c #4E1D31",
"%i c #780A66",
"%j c #411F26",
"%k c #224000",
"%l c #4F5900",
"%m c #535E00",
"%n c #434200",
"%o c #4F4F00",
"%p c #696A01",
"%q c #808307",
"%r c #979B0F",
"%s c #B4B81C",
"%t c #B5B91D",
"%u c #B4B81B",
"%v c #B8BB26",
"%w c #BFC32F",
"%x c #C9CD34",
"%y c #CCCF36",
"%z c #C5C82D",
"%{ c #A9AD16",
"%| c #A4A814",
"%} c #656604",
"%~ c #393B00",
"&! c #153300",
"&# c #52183B",
"&$ c #55252B",
"&% c #3E4A00",
"&& c #636300",
"&' c #6E7102",
"&( c #606000",
"&) c #4D4D00",
"&* c #575600",
"&+ c #686901",
"&, c #969A0E",
"&- c #B3B71B",
"&. c #B5B91C",
"&/ c #B3B71A",
"&0 c #B3B719",
"&1 c #CED057",
"&2 c #E0E080",
"&3 c #DEDE7A",
"&4 c #D7D860",
"&5 c #C2C622",
"&6 c #ABAF15",
"&7 c #A2A613",
"&8 c #818508",
"&9 c #646601",
"&: c #494A00",
"&; c #1E3400",
"&< c #561540",
"&= c #58262C",
"&> c #424C00",
"&? c #656500",
"&@ c #737600",
"&A c #717400",
"&B c #636200",
"&C c #545300",
"&D c #525200",
"&E c #686801",
"&F c #B2B619",
"&G c #B1B618",
"&H c #D1D25F",
"&I c #E1E081",
"&J c #E3E288",
"&K c #D9DA65",
"&L c #C4C822",
"&M c #ADB116",
"&N c #A6AA15",
"&O c #656701",
"&P c #4B4C00",
"&Q c #1C3200",
"&R c #581246",
"&S c #552729",
"&T c #3E4C00",
"&U c #76781D",
"&V c #777A1B",
"&W c #565600",
"&X c #4C4C00",
"&Y c #494900",
"&Z c #555500",
"&[ c #696901",
"&] c #7F8307",
"&^ c #94980D",
"&_ c #AFB31A",
"&` c #B7BB1C",
"&a c #B6BA1B",
"&b c #D1D25B",
"&c c #E4E38A",
"&d c #E3E38C",
"&e c #E5E594",
"&f c #DCDD6F",
"&g c #C6C928",
"&h c #A7AB15",
"&i c #9CA011",
"&j c #626301",
"&k c #2A3A00",
"&l c #4D1E31",
"&m c #850575",
"&n c #646401",
"&o c #838370",
"&p c #8E9068",
"&q c #828604",
"&r c #5C5D00",
"&s c #444400",
"&t c #393900",
"&u c #6A6A01",
"&v c #8E920A",
"&w c #B7BB1E",
"&x c #C5C923",
"&y c #C3C721",
"&z c #D5D65A",
"&{ c #ECEBB6",
"&| c #EEEEC2",
"&} c #E5E592",
"&~ c #CCCC36",
"'! c #979A11",
"'# c #828605",
"'$ c #6D6E02",
"'% c #323F00",
"'& c #2E2314",
"'' c #84086F",
"'( c #702D3A",
"') c #868B2D",
"'* c #898B2D",
"'+ c #707102",
"', c #575800",
"'- c #464600",
"'. c #5C5C01",
"'/ c #777B05",
"'0 c #838807",
"'1 c #8D910B",
"'2 c #B9BD1F",
"'3 c #C8CC24",
"'4 c #C5C922",
"'5 c #D7D85F",
"'6 c #E7E79D",
"'7 c #EFEFC3",
"'8 c #F5F5D4",
"'9 c #E0E195",
"': c #B2B420",
"'; c #878B07",
"'< c #787D03",
"'= c #5D5E01",
"'> c #4E4D00",
"'? c #5D5B00",
"'@ c #4B5300",
"'A c #363D00",
"'B c #412124",
"'C c #730B62",
"'D c #8D146C",
"'E c #545500",
"'F c #636B00",
"'G c #676900",
"'H c #646702",
"'I c #898E0A",
"'J c #9DA111",
"'K c #C3C722",
"'L c #C1C520",
"'M c #D0D24B",
"'N c #DEDF79",
"'O c #E5E597",
"'P c #E6E79C",
"'Q c #CDCF68",
"'R c #9EA20E",
"'S c #747802",
"'T c #666802",
"'U c #676A02",
"'V c #545400",
"'W c #5E5F02",
"'X c #696902",
"'Y c #525600",
"'Z c #1C3800",
"'[ c #5B1443",
"'] c #790D61",
"'^ c #2C2C00",
"'_ c #262B00",
"'` c #585800",
"'a c #92960B",
"'b c #BEC220",
"'c c #C8CB2B",
"'d c #CDCC39",
"'e c #BEC127",
"'f c #ABB016",
"'g c #93970C",
"'h c #606103",
"'i c #5E5D00",
"'j c #727403",
"'k c #7F8406",
"'l c #6B7002",
"'m c #3D4500",
"'n c #6A1849",
"'o c #520649",
"'p c #2A1814",
"'q c #343400",
"'r c #474700",
"'s c #595900",
"'t c #666902",
"'u c #6F7204",
"'v c #757804",
"'w c #787B04",
"'x c #797C04",
"'y c #626501",
"'z c #5B5A01",
"'{ c #7D8106",
"'| c #94980E",
"'} c #A8AD14",
"'~ c #B3B717",
"(! c #94990A",
"(# c #7A7E04",
"($ c #616203",
"(% c #585700",
"(& c #5D5D00",
"(' c #85870B",
"(( c #9DA10F",
"() c #A6AA0F",
"(* c #9FA40F",
"(+ c #90950C",
"(, c #737E00",
"(- c #84344B",
"(. c #351124",
"(/ c #102900",
"(0 c #626201",
"(1 c #787A04",
"(2 c #93970B",
"(3 c #969B0B",
"(4 c #94990B",
"(5 c #959A0B",
"(6 c #90940A",
"(7 c #808408",
"(8 c #606202",
"(9 c #6D6F03",
"(: c #717304",
"(; c #707204",
"(< c #80820A",
"(= c #878A0B",
"(> c #7C7F05",
"(? c #686A02",
"(@ c #575900",
"(A c #535200",
"(B c #686902",
"(C c #6F7002",
"(D c #A0A411",
"(E c #BDC12A",
"(F c #C7CA40",
"(G c #C7CA3F",
"(H c #BFC22C",
"(I c #ABB114",
"(J c #889602",
"(K c #8C3D4B",
"(L c #4C1C2C",
"(M c #696C02",
"(N c #B4B71D",
"(O c #B7BB1F",
"(P c #B6BA1F",
"(Q c #B1B51B",
"(R c #7B8006",
"(S c #6A6C01",
"(T c #4F4E00",
"(U c #7E8106",
"(V c #A7AC11",
"(W c #CACC48",
"(X c #E3E387",
"(Y c #E4E38B",
"(Z c #D9DA58",
"([ c #B9BF1A",
"(] c #7A8700",
"(^ c #823349",
"(_ c #4D1C2C",
"(` c #2E3800",
"(a c #717404",
"(b c #B5B91E",
"(c c #D1D259",
"(d c #D9DA6D",
"(e c #D6D766",
"(f c #D8D96A",
"(g c #CFD147",
"(h c #B5BA19",
"(i c #515400",
"(j c #363600",
"(k c #404000",
"(l c #414000",
"(m c #3B3D00",
"(n c #2B3600",
"(o c #1C2F00",
"(p c #293C00",
"(q c #515C00",
"(r c #7B8104",
"(s c #888D09",
"(t c #9EA30C",
"(u c #C3C645",
"(v c #E7E693",
"(w c #EEEEBA",
"(x c #E6E581",
"(y c #C0C426",
"(z c #6C8000",
"({ c #792E41",
"(| c #481D27",
"(} c #293A00",
"(~ c #787B05",
")! c #979C0A",
")# c #B3B61E",
")$ c #DADA72",
")% c #EAE99D",
")& c #EAE9A5",
")' c #EBEBAB",
")( c #E1E270",
")) c #C1C424",
")* c #7F8107",
")+ c #444500",
"), c #252500",
")- c #333300",
"). c #353400",
")/ c #382F08",
")0 c #531934",
")1 c #4D1737",
")2 c #541E36",
")3 c #6B3134",
")4 c #736C0C",
")5 c #748300",
")6 c #778100",
")7 c #939908",
")8 c #BBBE30",
")9 c #DFE066",
"): c #E9E98E",
"); c #D5DD5D",
")< c #ACAF1D",
")= c #7C4E2C",
")> c #851462",
")? c #511931",
")@ c #313500",
")A c #727504",
")B c #A5A917",
")C c #D1D361",
")D c #E8E799",
")E c #EBEBB6",
")F c #EDEDBC",
")G c #BDBD2A",
")H c #707005",
")I c #292900",
")J c #2B2B00",
")K c #282D00",
")L c #4D1E2A",
")M c #734529",
")N c #606100",
")O c #675F08",
")P c #848609",
")Q c #A5AA12",
")R c #BFC320",
")S c #C6C82F",
")T c #ACB31B",
")U c #90791E",
")V c #6A134D",
")W c #323300",
")X c #484C00",
")Y c #6F7104",
")Z c #9A9E0F",
")[ c #BFC32A",
")] c #D0D242",
")^ c #D3D252",
")_ c #D6D555",
")` c #C0C136",
")a c #92950F",
")b c #4E4F02",
")c c #313100",
")d c #2A2A00",
")e c #2A2D00",
")f c #621545",
")g c #910C76",
")h c #900F73",
")i c #8C156A",
")j c #615110",
")k c #576B00",
")l c #606B00",
")m c #5D7000",
")n c #7A4633",
")o c #7A0965",
")p c #232C00",
")q c #3A4100",
")r c #696903",
")s c #9BA00D",
")t c #BFC41B",
")u c #CFD229",
")v c #D1D134",
")w c #D5D536",
")x c #BBBD20",
")y c #888D06",
")z c #454601",
"){ c #2D2D00",
")| c #282800",
")} c #242800",
")~ c #232800",
"*! c #740761",
"*# c #751F4D",
"*$ c #672A35",
"*% c #682539",
"*& c #652733",
"*' c #7F0D63",
"*( c #36280C",
"*) c #3D3F00",
"** c #606501",
"*+ c #8E930B",
"*, c #B0B51A",
"*- c #BEC228",
"*. c #C0C132",
"*/ c #C3C434",
"*0 c #ACAF20",
"*1 c #434500",
"*2 c #2E2F00",
"*3 c #313600",
"*4 c #721C4F",
"*5 c #8A0676",
"*6 c #382619",
"*7 c #223E00",
"*8 c #444D00",
"*9 c #566000",
"*: c #5D6600",
"*; c #5C6500",
"*< c #5D6700",
"*= c #515B00",
"*> c #3D4700",
"*? c #293300",
"*@ c #2E3200",
"*A c #6C6E03",
"*B c #777B06",
"*C c #757905",
"*D c #837A11",
"*E c #716313",
"*F c #433110",
"*G c #7C0C64",
"*H c #6C0D59",
"*I c #59163F",
"*J c #661844",
"*K c #6C1E43",
"*L c #6E2042",
"*M c #6D2042",
"*N c #6D2041",
"*O c #6A1C43",
"*P c #651745",
"*Q c #651349",
"*R c #462121",
"*S c #717303",
"*T c #94970D",
"*U c #A4A813",
"*V c #A6B00A",
"*W c #8FA200",
"*X c #606D00",
"*Y c #841E5D",
"*Z c #5B0F44",
"*[ c #2D3C00",
"*] c #7A7F05",
"*^ c #BABE1E",
"*_ c #CFD236",
"*` c #BCC52E",
"*a c #7E8505",
"*b c #8D255E",
"*c c #51133E",
"*d c #203C00",
"*e c #6E7401",
"*f c #ADB018",
"*g c #CDD224",
"*h c #C8CC21",
"*i c #F0F18E",
"*j c #C6CD8C",
"*k c #3F4900",
"*l c #760F56",
"*m c #7F066F",
"*n c #591C3C",
"*o c #3B4800",
"*p c #607500",
"*q c #838E06",
"*r c #7E8B05",
"*s c #7C8E34",
"*t c #756951",
"*u c #6C174C",
"*v c #8A0276",
"*w c #381B23",
"*x c #403011",
"*y c #593B17",
"*z c #573A17",
"*{ c #382507",
"*| c #4B0D2D",
"*} c #6B2686",
"*~ c #2F5982",
"+! c #375183",
"+# c #345483",
"+$ c #385183",
"+% c #246282",
"!!!!!!!!!!!!!!!!!!!!!!!!!!!!!!!!!!!!!!!!!!!!!!!!!!!!!!!!!!!!!!!!!!!!!!!!!!!!!!!!!!!!!!!!!!!!!!!!!!!!!!!!!!!!!!!!!!!!!!!!!!!!!!!!!!!!!!!!!!!!!!!!!!!!!!!!!!!!!!!!!!!!!!!!!!!!!!!!!!!!!!!!!!!!!!",
"!!!!!!!!!!!!!!!!!!!!!!!!!!!!!!!!!!!!!!!!!!!!!!!!!!!!!!!!!!!!!!!!!!!!!!!!!!!!!!!!!!!!!!!!!!!!!!!!!!!!!!!!!!!!!!!!!!!!!!!!!!!!!!!!!!!!!!!!!!!!!!!!!!!!!!!!!!!!!!!!!!!!!!!!!!!!!!!!!!!!!!!!!!!!!!",
"!!!!!!!!!!!!!!!!!!!!!!!!!!!!!!!!!!!!!!!!!!!!!!!!!!!!!!!!!!!!!!!!!!!!!!!!!!!!!!!!!!!!!!!!!!!!!!!!!!!!!!!!!!!!!!!!!!!!!!!!!!!!!!!!!!!!!!!!!!!!!!!!!!!!!!!!!!!!!!!!!!!!!!!!!!!!!!!!!!!!!!!!!!!!!!",
"!!!!!!!!!!!!!!!!!!!!!!!!!!!!!!!!!!!!!!!!!!!!!!!!!!!!!!!!!!!!!!!!!!!!!!!!!!!!!!!!!!!!!!!!!!!!!!!!!!!!!!!!!!!!!!!!!!!!!!!!!!!!!!!!!!!!!!!!!!!!!!!!!!!!!!!!!!!!!!!!!!!!!!!!!!!!!!!!!!!!!!!!!!!!!!",
"!!!!!!!!!!!!!!!!!!!!!!!!!!!!!!!!!!!!!!!!!!!!!!!!!!!!!!!!!!!!!!!!!!!!!!!!!!!!!!!!!!!!!!!!!!!!!!!!!!!!!!!!!!!!!!!!!!!!!!!!!!!!!!!!!!!!!!!!!!!!!!!!!!!!!!!!!!!!!!!!!!!!!!!!!!!!!!!!!!!!!!!!!!!!!!",
"!!!!!!!!!!!!!!!!!!!!!!!!!!!!!!!!!!!!!!!!!!!!!!!!!!!!!!!!!!!!!!!!!!!!!!!!!!!!!!!!!!!!!!!!!!!!!!!!!!!!!!!!!!!!!!!!!!!!!!!!!!!!!!!!!!!!!!!!!!!!!!!!!!!!!!!!!!!!!!!!!!!!!!!!!!!!!!!!!!!!!!!!!!!!!!",
"!!!!!!!!!!!!!!!!!!!!!!!!!!!!!!!!!!!!!!!!!!!!!!!!!!!!!!!!!!!!!!!!!!!!!!!!!!!!!!!!!!!!!!!!!!!!!!!!!!!!!!!!!!!!!!!!!!!!!!!!!!!!!!!!!!!!!!!!!!!!!!!!!!!!!!!!!!!!!!!!!!!!!!!!!!!!!!!!!!!!!!!!!!!!!!",
"!!!!!!!!!!!!!!!!!!!!!!!!!!!!!!!!!!!!!!!!!!!!!!!!!!!!!!!!!!!!!!!!!!!!!!!!!!!!!!!!!!!!!!!!!!!!!!!!!!!!!!!!!!!!!!!!!!!!!!!!!!!!!!!!!!!!!!!!!!!!!!!!!!!!!!!!!!!!!!!!!!!!!!!!!!!!!!!!!!!!!!!!!!!!!!",
"!!!!!!!!!!!!!!!!!!!!!!!!!!!!!!!!!!!!!!!!!!!!!!!!!!!!!!!!!!!!!!!!!!!!!!!!!!!!!!!!!!!!!!!!!!!!!!!!!!!!!!!!!!!!!!!!!!!!!!!!!!!!!!!!!!!!!!!!!!!!!!!!!!!!!!!!!!!!!!!!!!!!!!!!!!!!!!!!!!!!!!!!!!!!!!",
"!!!!!!!!!!!!!!!!!!!!!!!!!!!!!!!!!!!!!!!!!!!!!!!!!!!!!!!!!!!!!!!!!!!!!!!!!!!!!!!!!!!!!!!!!!!!!!!!!!!!!!!!!!!!!!!!!!!!!!!!!!!!!!!!!!!!!!!!!!!!!!!!!!!!!!!!!!!!!!!!!!!!!!!!!!!!!!!!!!!!!!!!!!!!!!",
"!!!!!!!!!!!!!!!!!!!!!!!!!!!!!!!!!!!!!!!!!!!!!!!!!!!!!!!!!!!!!!!!!!!!!!!!!!!!!!!!!!!!!!!!!!!!!!!!!!!!!!!!!!!!!!!!!!!!!!!!!!!!!!!!!!!!!!!!!!!!!!!!!!!!!!!!!!!!!!!!!!!!!!!!!!!!!!!!!!!!!!!!!!!!!!",
"!!!!!!!!!!!!!!!!!!!!!!!!!!!!!!!!!!!!!!!!!!!!!!!!!!!!!!!!!!!!!!!!!!!!!!!!!!!!!!!!!!!!!!!!!!!!!!!!!!!!!!!!!!!!!!!!!!!!!!!!!!!!!!!!!!!!!!!!!!!!!!!!!!!!!!!!!!!!!!!!!!!!!!!!!!!!!!!!!!!!!!!!!!!!!!",
"!!!!!!!!!!!!!!!!!!!!!!!!!!!!!!!!!!!!!!!!!!!!!!!!!!!!!!!!!!!!!!!!!!!!!!!!!!!!!!!!!!!!!!!!!!!!!!!!!!!!!!!!!!!!!!!!!!!!!!!!!!!!!!!!!!!!!!!!!!!!!!!!!!!!!!!!!!!!!!!!!!!!!!!!!!!!!!!!!!!!!!!!!!!!!!",
"!!!!!!!!!!!!!!!!!!!!!!!!!!!!!!!!!!!!!!!!!!!!!!!!!!!!!!!!!!!!!!!!!!!!!!!!!!!!!!!!!!!!!!!!!!!!!!!!!!!!!!!!!!!!!!!!!!!!!!!!!!!!!!!!!!!!!!!!!!!!!!!!!!!!!!!!!!!!!!!!!!!!!!!!!!!!!!!!!!!!!!!!!!!!!!",
"!!!!!!!!!!!!!!!!!!!!!!!!!!!!!!!!!!!!!!!!!!!!!!!!!!!!!!!!!!!!!!!!!!!!!!!!!!!!!!!!!!!!!!!!!!!!!!!!!!!!!!!!!!!!!!!!!!!!!!!!!!!!!!!!!!!!!!!!!!!!!!!!!!!!!!!!!!!!!!!!!!!!!!!!!!!!!!!!!!!!!!!!!!!!!!",
"!!!!!!!!!!!!!!!!!!!!!!!!!!!!!!!!!!!!!!!!!!!!!!!!!!!!!!!!!!!!!!!!!!!!!!!!!!!!!!!!!!!!!!!!!!!!!!!!!!!!!!!!!!!!!!!!!!!!!!!!!!!!!!!!!!!!!!!!!!!!!!!!!!!!!!!!!!!!!!!!!!!!!!!!!!!!!!!!!!!!!!!!!!!!!!",
"!!!!!!!!!!!!!!!!!!!!!!!!!!!!!!!!!!!!!!!!!!!!!!!!!!!!!!!!!!!!!!!!!!!!!!!!!!!!!!!!!!!!!!!!!!!!!!!!!!!!!!!!!!!!!!!!!!!!!!!!!!!!!!!!!!!!!!!!!!!!!!!!!!!!!!!!!!!!!!!!!!!!!!!!!!!!!!!!!!!!!!!!!!!!!!",
"!!!!!!!!!!!!!!!!!!!!!!!!!!!!!!!!!!!!!!!!!!!!!!!!!!!!!!!!!!!!!!!!!!!!!!!!!!!!!!!!!!!!!!!!!!!!!!!!!!!!!!!!!!!!!!!!!!!!!!!!!!!!!!!!!!!!!!!!!!!!!!!!!!!!!!!!!!!!!!!!!!!!!!!!!!!!!!!!!!!!!!!!!!!!!!",
"!!!!!!!!!!!!!!!!!!!!!!!!!!!!!!!!!!!!!!!!!!!!!!!!!!!!!!!!!!!!!!!!!!!!!!!!!!!!!!!!!!!!!!!!!!!!!!!!!!!!!!!!!!!!!!!!!!!!!!!!!!!!!!!!!!!!!!!!!!!!!!!!!!!!!!!!!!!!!!!!!!!!!!!!!!!!!!!!!!!!!!!!!!!!!!",
"!!!!!!!!!!!!!!!!!!!!!!!!!!!!!!!!!!!!!!!!!!!!!!!!!!!!!!!!!!!!!!!!!!!!!!!!!!!!!!!!!!!!!!!!!!!!!!!!!!!!!!!!!!!!!!!!!!!!!!!!!!!!!!!!!!!!!!!!!!!!!!!!!!!!!!!!!!!!!!!!!!!!!!!!!!!!!!!!!!!!!!!!!!!!!!",
"!!!!!!!!!!!!!!!!!!!!!!!!!!!!!!!!!!!!!!!!!!!!!!!!!!!!!!!!!!!!!!!!!!!!!!!!!!!!!!!!!!!!!!!!!!!!!!!!!!!!!!!!!!!!!!!!!!!!!!!!!!!!!!!!!!!!!!!!!!!!!!!!!!!!!!!!!!!!!!!!!!!!!!!!!!!!!!!!!!!!!!!!!!!!!!",
"!!!!!!!!!!!!!!!!!!!!!!!!!!!!!!!!!!!!!!!!!!!!!!!!!!!!!!!!!!!!!!!!!!!!!!!!!!!!!!!!!!!!!!!!!!!!!!!!!!!!!!!!!!!!!!!!!!!!!!!!!!!!!!!!!!!!!!!!!!!!!!!!!!!!!!!!!!!!!!!!!!!!!!!!!!!!!!!!!!!!!!!!!!!!!!",
"!!!!!!!!!!!!!!!!!!!!!!!!!!!!!!!!!!!!!!!!!!!!!!!!!!!!!!!!!!!!!!!!!!!!!!!!!!!!!!!!!!!!!!!!!!!!!!!!!!!!!!!!!!!!!!!!!!!!!!!!!!!!!!!!!!!!!!!!!!!!!!!!!!!!!!!!!!!!!!!!!!!!!!!!!!!!!!!!!!!!!!!!!!!!!!",
"!!!!!!!!!!!!!!!!!!!!!!!!!!!!!!!!!!!!!!!!!!!!!!!!!!!!!!!!!!!!!!!!!!!!!!!!!!!!!!!!!!!!!!!!!!!!!!!!!!!!!!!!!!!!!!!!!!!!!!!!!!!!!!!!!!!!!!!!!!!!!!!!!!!!!!!!!!!!!!!!!!!!!!!!!!!!!!!!!!!!!!!!!!!!!!",
"!!!!!!!!!!!!!!!!!!!!!!!!!!!!!!!!!!!!!!!!!!!!!!!!!!!!!!!!!!!!!!!!!!!!!!!!!!!!!!!!!!!!!!!!!!!!!!!!!!!!!!!!!!!!!!!!!!!!!!!!!!!!!!!!!!!!!!!!!!!!!!!!!!!!!!!!!!!!!!!!!!!!!!!!!!!!!!!!!!!!!!!!!!!!!!",
"!!!!!!!!!!!!!!!!!!!!!!!!!!!!!!!!!!!!!!!!!!!!!!!!!!!!!!!!!!!!!!!!!!!!!!!!!!!!!!!!!!!!!!!!!!!!!!!!!!!!!!!!!!!!!!!!!!!!!!!!!!!!!!!!!!!!!!!!!!!!!!!!!!!!!!!!!!!!!!!!!!!!!!!!!!!!!!!!!!!!!!!!!!!!!!",
"!!!!!!!!!!!!!!!!!!!!!!!!!!!!!!!!!!!!!!!!!!!!!!!!!!!!!!!!!!!!!!!!!!!!!!!!!!!!!!!!!!!!!!!!!!!!!!!!!!!!!!!!!!!!!!!!!!!!!!!!!!!!!!!!!!!!!!!!!!!!!!!!!!!!!!!!!!!!!!!!!!!!!!!!!!!!!!!!!!!!!!!!!!!!!!",
"!!!!!!!!!!!!!!!!!!!!!!!!!!!!!!!!!!!!!!!!!!!!!!!!!!!!!!!!!!!!!!!!!!!!!!!!!!!!!!!!!!!!!!!!!!!!!!!!!!!!!!!!!!!!!!!!!!!!!!!!!!!!!!!!!!!!!!!!!!!!!!!!!!!!!!!!!!!!!!!!!!!!!!!!!!!!!!!!!!!!!!!!!!!!!!",
"!!!!!!!!!!!!!!!!!!!!!!!!!!!!!!!!!!!!!!!!!!!!!!!!!!!!!!!!!!!!!!!!!!!!!!!!!!!!!!!!!!!!!!!!!!!!!!!!!!!!!!!!!!!!!!!!!!!!!!!!!!!!!!!!!!!!!!!!!!!!!!!!!!!!!!!!!!!!!!!!!!!!!!!!!!!!!!!!!!!!!!!!!!!!!!",
"!!!!!!!!!!!!!!!!!!!!!!!!!!!!!!!!!!!!!!!!!!!!!!!!!!!!!!!!!!!!!!!!!!!!!!!!!!!!!!!!!!!!!!!!!!!!!!!!!!!!!!!!!!!!!!!!!!!!!!!!!!!!!!!!!!!!!!!!!!!!!!!!!!!!!!!!!!!!!!!!!!!!!!!!!!!!!!!!!!!!!!!!!!!!!!",
"!!!!!!!!!!!!!!!!!!!!!!!!!!!!!!!!!!!!!!!!!!!!!!!!!!!!!!!!!!!!!!!!!!!!!!!!!!!!!!!!!!!!!!!!!!!!!!!!!!!!!!!!!!!!!!!!!!!!!!!!!!!!!!!!!!!!!!!!!!!!!!!!!!!!!!!!!!!!!!!!!!!!!!!!!!!!!!!!!!!!!!!!!!!!!!",
"!!!!!!!!!!!!!!!!!!!!!!!!!!!!!!!!!!!!!!!!!!!!!!!!!!!!!!!!!!!!!!!!!!!!!!!!!!!!!!!!!!!!!!!!!!!!!!!!!!!!!!!!!!!!!!!!!!!!!!!!!!!!!!!!!!!!!!!!!!!!!!!!!!!!!!!!!!!!!!!!!!!!!!!!!!!!!!!!!!!!!!!!!!!!!!",
"!!!!!!!!!!!!!!!!!!!!!!!!!!!!!!!!!!!!!!!!!!!!!!!!!!!!!!!!!!!!!!!!!!!!!!!!!!!!!!!!!!!!!!!!!!!!!!!!!!!!!!!!!!!!!!!!!!!!!!!!!!!!!!!!!!!!!!!!!!!!!!!!!!!!!!!!!!!!!!!!!!!!!!!!!!!!!!!!!!!!!!!!!!!!!!",
"!!!!!!!!!!!!!!!!!!!!!!!!!!!!!!!!!!!!!!!!!!!!!!!!!!!!!!!!!!!!!!!!!!!!!!!!!+!,!-!-!.!/!!!!!!!!!!!!!!!!!!!!!!!!!!!!!!!!!!!!!!!!!!!!!!!!!!!!!!!!!!!!!!!!!!!!!!!!!!!!!!!!!!!!!!!!!!!!!!!!!!!!!!!!!!",
"!!!!!!!!!!!!!!!!!!!!!!!!!!!!!!!!!!!!!!!!!!!!!!!!!!!!!!!!!!!!!!!!!!!!!!!!!0!1!2!2!3!4!!!!!!!!!!!!!!!!!!!!!!!!!!!!!!!!!!!!!!!!!!!!!!!!!!!!!!!!!!!!!!!!!!!!!!!!!!!!!!!!!!!!!!!!!!!!!!!!!!!!!!!!!!",
"!!!!!!!!!!!!!!!!!!!!!!!!!!!!!!!!!!!!!!!!!!!!!!!!!!!!!!!!!!!!!!!!!!!!!!!6!7!8!9!:!;!<!=!>!?!!!!!!!!!!!!!!!!!!!A!B!C!D!E!F!G!!!!!!!!!!!!!!!!!!!!!!!!!!!!!!!!!!!!!!!!!!!!!!!!!!!!!!!!!!!!!!!!!!!!",
"!!!!!!!!!!!!!!!!!!!!!!!!!!!!!!!!!!!!!!!!!!!!!!!!!!!!!!!!!!!!!!!!!!!!!I!J!K!L!L!M!N!O!P!Q!R!S!!!!!!!!!!!!!!!U!V!W!X!Y!Z![!]!^!!!!!!!!!!!!!!!!!!!!!!!!!!!!!!!!!!!!!!!!!!!!!!!!!!!!!!!!!!!!!!!!!!",
"!!!!!!!!!!!!!!!!!!!!!!!!!!!!!!!!!!!!!!!!!!!!!!!!!!!!!!!!!!!!!!!!!!!_!`!a!b!c!d!d!d!e!f!g!h!i!j!!!!!!!!!!!k!l!m!n!o!d!p!q!r!s!t!!!!!!!!!!!!!!!!!!!!!!!!!!!!!!!!!!!!!!!!!!!!!!!!!!!!!!!!!!!!!!!!",
"!!!!!!!!!!!!!!!!!!!!!!!!!!!!!!!!!!!!!!!!!!!!!!!!!!!!!!!!!!!!!!!!!!!u!v!a!w!x!y!z!y!{!|!}!~#!##!!!!#$#%#&#'!3#(#)#*#+#,#-#.#/#0!!!!!!!!!!!!!!!!!!!!!!!!!!!!!!!!!!!!!!!!!!!!!!!!!!!!!!!!!!!!!!!!",
"!!!!!!!!!!!!!!!!!!!!!!!!!!!!!!!!!!!!!!!!!!!!!!!!!!!!!!!!!!!!!!!!#1#2#3#4#5#6#7#8#7#9#:#;#<#=#>#?#@#A#B#C#D#E#F#G#H#I#J#K#L#M#N!!!!!!!!!!!!!!!!!!!!!!!!!!!!!!!!!!!!!!!!!!!!!!!!!!!!!!!!!!!!!!!!",
"!!!!!!!!!!!!!!!!!!!!!!!!!!!!!!!!!!!!!!!!!!!!!!!!!!!!!!!!!!!!!!#O#P#Q#R#S#T#U#V#W#V#X#Y#Z#[#]#^#_#`#a#b#b#c#d!a#e#f#g#h#i#j#k#l!!!!!!!!!!!!!!!!!!!!!!!!!!!!!!!!!!!!!!!!!!!!!!!!!!!!!!!!!!!!!!!!",
"!!!!!!!!!!!!!!!!!!!!!!!!!!!!!!!!!!!!!!!!!!!!!!!!!!!!!!!!!!!!!!#m#n#o!L#+#p#q#r#s#s#t#u#v#w#x#y!~#z#{!<#|#}#~$!$#$$$$$%$&$'$($)!!!!!!!!!!!!!!!!!!!!!!!!!!!!!!!!!!!!!!!!!!!!!!!!!!!!!!!!!!!!!!!!",
"!!!!!!!!!!!!!!!!!!!!!!!!!!!!!!!!!!!!!!!!!!!!!!!!!!!!!!!!!!!!!!$*$+$,$-$.$/$0$1$2$3$4$5$6$7$8$9!}!}$:$;$<$<$=$>$?$@$A$B$C$D$E$F!!!!!!!!!!!!!!!!!!!!!!!!!!!!!!!!!!!!!!!!!!!!!!!!!!!!!!!!!!!!!!!!",
"!!!!!!!!!!!!!!!!!!!!!!!!!!!!!!!!!!!!!!!!!!!!!!!!!!!!!!!!!!!!!!$G$H!:!M#+$I$J$K$L$M$N$O$P$Q$R!|$S$S$S!|!]!]!]$T$U$U$V$W$X$Y$Z$[!!!!!!!!!!!!!!!!!!!!!!!!!!!!!!!!!!!!!!!!!!!!!!!!!!!!!!!!!!!!!!!!",
"!!!!!!!!!!!!!!!!!!!!!!!!!!!!!!!!!!!!!!!!!!!!!!!!!!!!!!!!!!!!!!$]$^$_$`$a$b$c$d$e$f$g$h$i$j$k$l$m$n$n$n$o$p!c$V$k$7$j$q$r$s$t!!!!!!!!!!!!!!!!!!!!!!!!!!!!!!!!!!!!!!!!!!!!!!!!!!!!!!!!!!!!!!!!!!",
"!!!!!!!!!!!!!!!!!!!!!!!!!!!!!!!!!!!!!!!!!!!!!!!!!!!!!!!!!!!!!!!!$v$w$x$y$z${$|$}$~%!%#$S!c$n%$%%%%%&%'%(%)#*$m!c!c%*%+%,%-!!!!!!!!!!!!!!!!!!!!!!!!!!!!!!!!!!!!!!!!!!!!!!!!!!!!!!!!!!!!!!!!!!!!",
"!!!!!!!!!!!!!!!!!!!!!!!!!!!!!!!!!!!!!!!!!!!!!!!!!!!!!!!!!!!!!!!!!!%.%/%0%1$y%2%3%4%5$j!c%6%7%8%8%8#Z#-%9%:%;%<%=$A!d%>%?%@!!!!!!!!!!!!!!!!!!!!!!!!!!!!!!!!!!!!!!!!!!!!!!!!!!!!!!!!!!!!!!!!!!!!",
"!!!!!!!!!!!!!!!!!!!!!!!!!!!!!!!!!!!!!!!!!!!!!!!!!!!!!!!!!!!!!!!!!!!!%B%C%D#b%E!m%F%G%H!y%7%I%J%K#h#h#h%K%K%L%M#H%N%N!o%O%P!!!!!!!!!!!!!!!!!!!!!!!!!!!!!!!!!!!!!!!!!!!!!!!!!!!!!!!!!!!!!!!!!!!!",
"!!!!!!!!!!!!!!!!!!!!!!!!!!!!!!!!!!!!!!!!!!!!!!!!!!!!!!!!!!!!%Q%R%S%T%U#^%V%W%X%Y#c%Z#S%)%[%L%]%^%_%`%a%b%c%d%L%e#-#-%N%f%g%h%i!!!!!!!!!!!!!!!!!!!!!!!!!!!!!!!!!!!!!!!!!!!!!!!!!!!!!!!!!!!!!!!!",
"!!!!!!!!!!!!!!!!!!!!!!!!!!!!!!!!!!!!!!!!!!!!!!!!!!!!!!!!!!!!%j%k%l%m#3%n%o#F#b!m!<%p%q%r#Y%s%t%s%u%v%w%x%y%z%^%{#g%|%'%}%~&!&#!!!!!!!!!!!!!!!!!!!!!!!!!!!!!!!!!!!!!!!!!!!!!!!!!!!!!!!!!!!!!!!!",
"!!!!!!!!!!!!!!!!!!!!!!!!!!!!!!!!!!!!!!!!!!!!!!!!!!!!!!!!!!!!&$&%&&$Q&'&(#x!<!<&)&*&+$?&,%{&-&.&/&0&1&2&3&2&4&5&6%|&7&8&9&:&;&<!!!!!!!!!!!!!!!!!!!!!!!!!!!!!!!!!!!!!!!!!!!!!!!!!!!!!!!!!!!!!!!!",
"!!!!!!!!!!!!!!!!!!!!!!!!!!!!!!!!!!!!!!!!!!!!!!!!!!!!!!!!!!!!&=&>&?&@&A&B&C%F&D$y%3&E$?&,#Y%s&.&F&G&H$2&I&J&K&L&M&N%|&8&O&P&Q&R!!!!!!!!!!!!!!!!!!!!!!!!!!!!!!!!!!!!!!!!!!!!!!!!!!!!!!!!!!!!!!!!",
"!!!!!!!!!!!!!!!!!!!!!!!!!!!!!!!!!!!!!!!!!!!!!!!!!!!!!!!!!!!!&S&T$!&U&V$=&W&X#F&Y&Z&[&]&^#g&_%t&`&a&b&c&d&e&f&g&h#-&i!c&j&P&k&l!!!!!!!!!!!!!!!!!!!!!!!!!!!!!!!!!!!!!!!!!!!!!!!!!!!!!!!!!!!!!!!!",
"!!!!!!!!!!!!!!!!!!!!!!!!!!!!!!!!!!!!!!!!!!!!!!!!!!!!!!!!!!!!&S&T&n&o&p&q&r&s#(&t&)&u$o&v#Z&7&w&x&y&z&e&{&|&}&~'!'##+'$%2%o$y'%'&!!!!!!!!!!!!!!!!!!!!!!!!!!!!!!!!!!!!!!!!!!!!!!!!!!!!!!!!!!!!!!",
"!!!!!!!!!!!!!!!!!!!!!!!!!!!!!!!!!!!!!!!!!!!!!!!!!!!!!!!!!!!!'''(%G')'*'+',#c'-'-&X'.'/'0'1%M'2'3'4'5'6'7'8'9':';'<%*'='>&)'?'@'A'B'C!!!!!!!!!!!!!!!!!!!!!!!!!!!!!!!!!!!!!!!!!!!!!!!!!!!!!!!!!!",
"!!!!!!!!!!!!!!!!!!!!!!!!!!!!!!!!!!!!!!!!!!!!!!!!!!!!!!!!!!!!!!'D'E'F'G%2%F%F&W&W%F%F'H'/'I'J&.'K'L'M'N'O'P'Q'R'S'T'U&W'V'W#4'X'Y'Z'[!!!!!!!!!!!!!!!!!!!!!!!!!!!!!!!!!!!!!!!!!!!!!!!!!!!!!!!!!!",
"!!!!!!!!!!!!!!!!!!!!!!!!!!!!!!!!!!!!!!!!!!!!!!!!!!!!!!!!!!!!!!']'^'_%X$y%o'`&?&?#|!<&)$z$.'a%9%_%s'b'c'd'e'f'g'h#c$y'i'j!d!d'k'l'm'n!!!!!!!!!!!!!!!!!!!!!!!!!!!!!!!!!!!!!!!!!!!!!!!!!!!!!!!!!!",
"!!!!!!!!!!!!!!!!!!!!!!!!!!!!!!!!!!!!!!!!!!!!!!!!!!!!!!!!!!!!'o'p'q'r's't'u'v'w'x!b'y&)'z%>'{'1&,'|'}'~#f(!(#($#|(%(&('((()()(*(+(,(-!!!!!!!!!!!!!!!!!!!!!!!!!!!!!!!!!!!!!!!!!!!!!!!!!!!!!!!!!!",
"!!!!!!!!!!!!!!!!!!!!!!!!!!!!!!!!!!!!!!!!!!!!!!!!!!!!!!!!!!!!(.(/&s(0(1$A(2(3(4(5(6(7(8(&&?'t(9(:(;(<(=(>(?(@(A(B(C'j(D(E(F(G(H(I(J(K!!!!!!!!!!!!!!!!!!!!!!!!!!!!!!!!!!!!!!!!!!!!!!!!!!!!!!!!!!",
"!!!!!!!!!!!!!!!!!!!!!!!!!!!!!!!!!!!!!!!!!!!!!!!!!!!!!!!!!!!!(L$x$y(M#:&h(N(O(P(O(Q%I(R(S#}%F!<(T(T!<!<!<!m&s&?(U!d$A(V(W(X(Y(Z([(](^!!!!!!!!!!!!!!!!!!!!!!!!!!!!!!!!!!!!!!!!!!!!!!!!!!!!!!!!!!",
"!!!!!!!!!!!!!!!!!!!!!!!!!!!!!!!!!!!!!!!!!!!!!!!!!!!!!!!!!!!!(_(`$y(a#7(b(c(d(e(f(g(h$m(i(j(k%W(k(k(l(m(n(o(p(q(r%6(s(t(u(v(w(x(y(z({!!!!!!!!!!!!!!!!!!!!!!!!!!!!!!!!!!!!!!!!!!!!!!!!!!!!!!!!!!",
"!!!!!!!!!!!!!!!!!!!!!!!!!!!!!!!!!!!!!!!!!!!!!!!!!!!!!!!!!!!!(|(}&D(~)!)#)$)%)&)')()))*)+),)-%Y).).(`)/)0)1)2)3)4)5)6)7)8)9):);)<)=)>!!!!!!!!!!!!!!!!!!!!!!!!!!!!!!!!!!!!!!!!!!!!!!!!!!!!!!!!!!",
"!!!!!!!!!!!!!!!!!!!!!!!!!!!!!!!!!!!!!!!!!!!!!!!!!!!!!!!!!!!!)?)@!<)A$b)B)C)D)E)F$K)G)H%E)I)J)J)J)J)K)L!!!!!!!!)M)N)O)P)Q)R)S)T)U!!!!!!!!!!!!!!!!!!!!!!!!!!!!!!!!!!!!!!!!!!!!!!!!!!!!!!!!!!!!!!",
"!!!!!!!!!!!!!!!!!!!!!!!!!!!!!!!!!!!!!!!!!!!!!!!!!!!!!!!!!!!!!!)V)W)X)Y)Z)[)])^)_)`)a)b)c)d'^'^)e#n)f!!!!!!!!!!!!!!)i)j)k)l)m)n!!!!!!!!!!!!!!!!!!!!!!!!!!!!!!!!!!!!!!!!!!!!!!!!!!!!!!!!!!!!!!!!",
"!!!!!!!!!!!!!!!!!!!!!!!!!!!!!!!!!!!!!!!!!!!!!!!!!!!!!!!!!!!!!!)o)p)q)r)s)t)u)v)w)x)y)z){)d)I)|)})~*!!!!!!!!!!!!!!!!!*#*$*%*&*'!!!!!!!!!!!!!!!!!!!!!!!!!!!!!!!!!!!!!!!!!!!!!!!!!!!!!!!!!!!!!!!!",
"!!!!!!!!!!!!!!!!!!!!!!!!!!!!!!!!!!!!!!!!!!!!!!!!!!!!!!!!!!!!!!!.*(*)***+*,*-*.*/*0'k*1*2){)c)-#D*3*4!!!!!!!!!!!!!!!!!!!!!!!!!!!!!!!!!!!!!!!!!!!!!!!!!!!!!!!!!!!!!!!!!!!!!!!!!!!!!!!!!!!!!!!!!!",
"!!!!!!!!!!!!!!!!!!!!!!!!!!!!!!!!!!!!!!!!!!!!!!!!!!!!!!!!!!!!!!!!!!*6*7*8*9*:*;*<*=*>*?*@(l#d*A*B*C*D*E*F*G!!!!!!!!!!!!!!!!!!!!!!!!!!!!!!!!!!!!!!!!!!!!!!!!!!!!!!!!!!!!!!!!!!!!!!!!!!!!!!!!!!!!",
"!!!!!!!!!!!!!!!!!!!!!!!!!!!!!!!!!!!!!!!!!!!!!!!!!!!!!!!!!!!!!!!!!!*H*I*J*K*L*M*N*O*P*Q*R!:*S*T*U%M*V*W*X*Y!!!!!!!!!!!!!!!!!!!!!!!!!!!!!!!!!!!!!!!!!!!!!!!!!!!!!!!!!!!!!!!!!!!!!!!!!!!!!!!!!!!!",
"!!!!!!!!!!!!!!!!!!!!!!!!!!!!!!!!!!!!!!!!!!!!!!!!!!!!!!!!!!!!!!!!!!!!!!!!!!!!!!!!!!!!!!*Z*[*]%{'b*^*_*`*a*b!!!!!!!!!!!!!!!!!!!!!!!!!!!!!!!!!!!!!!!!!!!!!!!!!!!!!!!!!!!!!!!!!!!!!!!!!!!!!!!!!!!!",
"!!!!!!!!!!!!!!!!!!!!!!!!!!!!!!!!!!!!!!!!!!!!!!!!!!!!!!!!!!!!!!!!!!!!!!!!!!!!!!!!!!!!!!*c*d*e*f*g*h*i*j*k*l!!!!!!!!!!!!!!!!!!!!!!!!!!!!!!!!!!!!!!!!!!!!!!!!!!!!!!!!!!!!!!!!!!!!!!!!!!!!!!!!!!!!",
"!!!!!!!!!!!!!!!!!!!!!!!!!!!!!!!!!!!!!!!!!!!!!!!!!!!!!!!!!!!!!!!!!!!!!!!!!!!!!!!!!!!!!!*m*n*o*p*q*r*s*t*u!!!!!!!!!!!!!!!!!!!!!!!!!!!!!!!!!!!!!!!!!!!!!!!!!!!!!!!!!!!!!!!!!!!!!!!!!!!!!!!!!!!!!!",
"!!!!!!!!!!!!!!!!!!!!!!!!!!!!!!!!!!!!!!!!!!!!!!!!!!!!!!!!!!!!!!!!!!!!!!!!!!!!!!!!!!!!!!!!!!*w*x*y*z*{*|!!!!!!!!!!!!!!!!!!!!!!!!!!!!!!!!!!!!!!!!!!!!!!!!!!!!!!!!!!!!!!!!!!!!!!!!!!!!!!!!!!!!!!!!",
"!!!!!!!!!!!!!!!!!!!!!!!!!!!!!!!!!!!!!!!!!!!!!!!!!!!!!!!!!!!!!!!!!!!!!!!!!!!!!!!!!!!!!!!!!!!!!!!!!!!!!!!!!!!!!!!!!!!!!!!!!!!!!!!!!!!!!!!!!!!!!!!!!!!!!!!!!!!!!!!!!!!!!!!!!!!!!!!!!!!!!!!!!!!!!!",
"!!!!!!!!!!!!!!!!!!!!!!!!!!!!!!!!!!!!!!!!!!!!!!!!!!!!!!!!!!!!!!!!!!!!!!!!!!!!!!!!!!!!!!!!!!!!!!!!!!!!!!!!!!!!!!!!!!!!!!!!!!!!!!!!!!!!!!!!!!!!!!!!!!!!!!!!!!!!!!!!!!!!!!!!!!!!!!!!!!!!!!!!!!!!!!",
"!!!!!!!!!!!!!!!!!!!!!!!!!!!!!!!!!!!!!!!!!!!!!!!!!!!!!!!!!!!!!!!!!!!!!!!!!!!!!!!!!!!!!!!!!!!!!!!!!!!!!!!!!!!!!!!!!!!!!!!!!!!!!!!!!!!!!!!!!!!!!!!!!!!!!!!!!!!!!!!!!!!!!!!!!!!!!!!!!!!!!!!!!!!!!!",
"!!!!!!!!!!!!!!!!!!!!!!!!!!!!!!!!!!!!!!!!!!!!!!!!!!!!!!!!!!!!!!!!!!!!!!!!!!!!!!!!!!!!!!!!!!!!!!!!!!!!!!!!!!!!!!!!!!!!!!!!!!!!!!!!!!!!!!!!!!!!!!!!!!!!!!!!!!!!!!!!!!!!!!!!!!!!!!!!!!!!!!!!!!!!!!",
"!!!!!!!!!!!!!!!!!!!!!!!!!!!!!!!!!!!!!!!!!!!!!!!!!!!!!!!!!!!!!!!!!!!!!!!!!!!!!!!!!!!!!!!!!!!!!!!!!!!!!!!!!!!!!!!!!!!!!!!!!!!!!!!!!!!!!!!!!!!!!!!!!!!!!!!!!!!!!!!!!!!!!!!!!!!!!!!!!!!!!!!!!!!!!!",
"!!!!!!!!!!!!!!!!!!!!!!!!!!!!!!!!!!!!!!!!!!!!!!!!!!!!!!!!!!!!!!!!!!!!!!!!!!!!!!!!!!!!!!!!!!!!!!!!!!!!!!!!!!!!!!!!!!!!!!!!!!!!!!!!!!!!!!!!!!!!!!!!!!!!!!!!!!!!!!!!!!!!!!!!!!!!!!!!!!!!!!!!!!!!!!",
"!!!!!!!!!!!!!!!!!!!!!!!!!!!!!!!!!!!!!!!!!!!!!!!!!!!!!!!!!!!!!!!!!!!!!!!!!!!!!!!!!!!!!!!!!!!!!!!!!!!!!!!!!!!!!!!!!!!!!!!!!!!!!!!!!!!!!!!!!!!!!!!!!!!!!!!!!!!!!!!!!!!!!!!!!!!!!!!!!!!!!!!!!!!!!!",
"!!!!!!!!!!!!!!!!!!!!!!!!!!!!!!!!!!!!!!!!!!!!!!!!!!!!!!!!!!!!!!!!!!!!!!!!!!!!!!!!!!!!!!!!!!!!!!!!!!!!!!!!!!!!!!!!!!!!!!!!!!!!!!!!!!!!!!!!!!!!!!!!!!!!!!!!!!!!!!!!!!!!!!!!!!!!!!!!!!!!!!!!!!!!!!",
"!!!!!!!!!!!!!!!!!!!!!!!!!!!!!!!!!!!!!!!!!!!!!!!!!!!!!!!!!!!!!!!!!!!!!!!!!!!!!!!!!!!!!!!!!!!!!!!!!!!!!!!!!!!!!!!!!!!!!!!!!!!!!!!!!!!!!!!!!!!!!!!!!!!!!!!!!!!!!!!!!!!!!!!!!!!!!!!!!!!!!!!!!!!!!!",
"!!!!!!!!!!!!!!!!!!!!!!!!!!!!!!!!!!!!!!!!!!!!!!!!!!!!!!!!!!!!!!!!!!!!!!!!!!!!!!!!!!!!!!!!!!!!!!!!!!!!!!!!!!!!!!!!!!!!!!!!!!!!!!!!!!!!!!!!!!!!!!!!!!!!!!!!!!!!!!!!!!!!!!!!!!!!!!!!!!!!!!!!!!!!!!",
"!!!!!!!!!!!!!!!!!!!!!!!!!!!!!!!!!!!!!!!!!!!!!!!!!!!!!!!!!!!!!!!!!!!!!!!!!!!!!!!!!!!!!!!!!!!!!!!!!!!!!!!!!!!!!!!!!!!!!!!!!!!!!!!!!!!!!!!!!!!!!!!!!!!!!!!!!!!!!!!!!!!!!!!!!!!!!!!!!!!!!!!!!!!!!!",
"!!!!!!!!!!!!!!!!!!!!!!!!!!!!!!!!!!!!!!!!!!!!!!!!!!!!!!!!!!!!!!!!!!!!!!!!!!!!!!!!!!!!!!!!!!!!!!!!!!!!!!!!!!!!!!!!!!!!!!!!!!!!!!!!!!!!!!!!!!!!!!!!!!!!!!!!!!!!!!!!!!!!!!!!!!!!!!!!!!!!!!!!!!!!!!",
"!!!!!!!!!!!!!!!!!!!!!!!!!!!!!!!!!!!!!!!!!!!!!!!!!!!!!!!!!!!!!!!!!!!!!!!!!!!!!!!!!!!!!!!!!!!!!!!!!!!!!!!!!!!!!!!!!!!!!!!!!!!!!!!!!!!!!!!!!!!!!!!!!!!!!!!!!!!!!!!!!!!!!!!!!!!!!!!!!!!!!!!!!!!!!!",
"!!!!!!!!!!!!!!!!!!!!!!!!!!!!!!!!!!!!!!!!!!!!!!!!!!!!!!!!!!!!!!!!!!!!!!!!!!!!!!!!!!!!!!!!!!!!!!!!!!!!!!!!!!!!!!!!!!!!!!!!!!!!!!!!!!!!!!!!!!!!!!!!!!!!!!!!!!!!!!!!!!!!!!!!!!!!!!!!!!!!!!!!!!!!!!",
"!!!!!!!!!!!!!!!!!!!!!!!!!!!!!!!!!!!!!!!!!!!!!!!!!!!!!!!!!!!!!!!!!!!!!!!!!!!!!!!!!!!!!!!!!!!!!!!!!!!!!!!!!!!!!!!!!!!!!!!!!!!!!!!!!!!!!!!!!!!!!!!!!!!!!!!!!!!!!!!!!!!!!!!!!!!!!!!!!!!!!!!!!!!!!!",
"!!!!!!!!!!!!!!!!!!!!!!!!!!!!!!!!!!!!!!!!!!!!!!!!!!!!!!!!!!!!!!!!!!!!!!!!!!!!!!!!!!!!!!!!!!!!!!!!!!!!!!!!!!!!!!!!!!!!!!!!!!!!!!!!!!!!!!!!!!!!!!!!!!!!!!!!!!!!!!!!!!!!!!!!!!!!!!!!!!!!!!!!!!!!!!",
"!!!!!!!!!!!!!!!!!!!!!!!!!!!!!!!!!!!!!!!!!!!!!!!!!!!!!!!!!!!!!!!!!!!!!!!!!!!!!!!!!!!!!!!!!!!!!!!!!!!!!!!!!!!!!!!!!!!!!!!!!!!!!!!!!!!!!!!!!!!!!!!!!!!!!!!!!!!!!!!!!!!!!!!!!!!!!!!!!!!!!!!!!!!!!!",
"!!!!!!!!!!!!!!!!!!!!!!!!!!!!!!!!!!!!!!!!!!!!!!!!!!!!!!!!!!!!!!!!!!!!!!!!!!!!!!!!!!!!!!!!!!!!!!!!!!!!!!!!!!!!!!!!!!!!!!!!!!!!!!!!!!!!!!!!!!!!!!!!!!!!!!!!!!!!!!!!!!!!!!!!!!!!!!!!!!!!!!!!!!!!!!",
"!!!!!!!!!!!!!!!!!!!!!!!!!!!!!!!!!!!!!!!!!!!!!!!!!!!!!!!!!!!!!!!!!!!!!!!!!!!!!!!!!!!!!!!!!!!!!!!!!!!!!!!!!!!!!!!!!!!!!!!!!!!!!!!!!!!!!!!!!!!!!!!!!!!!!!!!!!!!!!!!!!!!!!!!!!!!!!!!!!!!!!!!!!!!!!",
"!!!!!!!!!!!!!!!!!!!!!!!!!!!!!!!!!!!!!!!!!!!!!!!!!!!!!!!!!!!!!!!!!!!!!!!!!!!!!!!!!!!!!!!!!!!!!!!!!!!!!!!!!!!!!!!!!!!!!!!!!!!!!!!!!!!!!!!!!!!!!!!!!!!!!!!!!!!!!!!!!!!!!!!!!!!!!!!!!!!!!!!!!!!!!!",
"!!!!!!!!!!!!!!!!!!!!!!!!!!!!!!!!!!!!!!!!!!!!!!!!!!!!!!!!!!!!!!!!!!!!!!!!!!!!!!!!!!!!!!!!!!!!!!!!!!!!!!!!!!!!!!!!!!!!!!!!!!!!!!!!!!!!!!!!!!!!!!!!!!!!!!!!!!!!!!!!!!!!!!!!!!!!!!!!!!!!!!!!!!!!!!",
"!!!!!!!!!!!!!!!!!!!!!!!!!!!!!!!!!!!!!!!!!!!!!!!!!!!!!!!!!!!!!!!!!!!!!!!!!!!!!!!!!!!!!!!!!!!!!!!!!!!!!!!!!!!!!!!!!!!!!!!!!!!!!!!!!!!!!!!!!!!!!!!!!!!!!!!!!!!!!!!!!!!!!!!!!!!!!!!!!!!!!!!!!!!!!!",
"!!!!!!!!!!!!!!!!!!!!!!!!!!!!!!!!!!!!!!!!!!!!!!!!!!!!!!!!!!!!!!!!!!!!!!!!!!!!!!!!!!!!!!!!!!!!!!!!!!!!!!!!!!!!!!!!!!!!!!!!!!!!!!!!!!!!!!!!!!!!!!!!!!!!!!!!!!!!!!!!!!!!!!!!!!!!!!!!!!!!!!!!!!!!!!",
"!!!!!!!!!!!!!!!!!!!!!!!!!!!!!!!!!!!!!!!!!!!!!!!!!!!!!!!!!!!!!!!!!!!!!!!!!!!!!!!!!!!!!!!!!!!!!!!!!!!!!!!!!!!!!!!!!!!!!!!!!!!!!!!!!!!!!!!!!!!!!!!!!!!!!!!!!!!!!!!!!!!!!!!!!!!!!!!!!!!!!!!!!!!!!!",
"!!!!!!!!!!!!!!!!!!!!!!!!!!!!!!!!!!!!!!!!!!!!!!!!!!!!!!!!!!!!!!!!!!!!!!!!!!!!!!!!!!!!!!!!!!!!!!!!!!!!!!!!!!!!!!!!!!!!!!!!!!!!!!!!!!!!!!!!!!!!!!!!!!!!!!!!!!!!!!!!!!!!!!!!!!!!!!!!!!!!!!!!!!!!!!"
};