/* XPM */
static const char *acid_dragon_gunk_shot_f00[] = {
/* columns rows colors chars-per-pixel */
"95 97 831 2",
"!! c None",
"!# c #434784",
"!$ c #404A83",
"!% c #3F4B83",
"!& c #414983",
"!' c #54418C",
"!( c #A90089",
"!) c #A00088",
"!* c #9F0088",
"!+ c #A40089",
"!, c #236282",
"!- c #52438C",
"!. c #9A0088",
"!/ c #9C0088",
"!0 c #226382",
"!1 c #50448C",
"!2 c #A20089",
"!3 c #9D0088",
"!4 c #970087",
"!5 c #9A008A",
"!6 c #A00092",
"!7 c #9E0093",
"!8 c #9E0092",
"!9 c #A10092",
"!: c #9B008B",
"!; c #9D008E",
"!< c #940084",
"!= c #73055B",
"!> c #780F5A",
"!? c #7B125E",
"!@ c #710B5F",
"!A c #8E027F",
"!B c #9E008F",
"!C c #9F0091",
"!D c #83086E",
"!E c #312A08",
"!F c #414900",
"!G c #444D00",
"!H c #1F2F00",
"!I c #6E0D5B",
"!J c #A00091",
"!K c #990089",
"!L c #9C008D",
"!M c #670C48",
"!N c #5E4632",
"!O c #B5B78D",
"!P c #B8C04C",
"!Q c #939C08",
"!R c #5C6800",
"!S c #3D360F",
"!T c #561243",
"!U c #99008A",
"!V c #9C008F",
"!W c #662B2E",
"!X c #6B810E",
"!Y c #E7EA8D",
"!Z c #E4E758",
"![ c #B8BC16",
"!] c #858807",
"!^ c #304B00",
"!_ c #381A20",
"!` c #9D008F",
"!a c #A10093",
"!b c #9C008E",
"!c c #9B008E",
"!d c #98008A",
"!e c #99008E",
"!f c #88483F",
"!g c #8D9C03",
"!h c #BEC21D",
"!i c #BEC21F",
"!j c #A8AC16",
"!k c #868A08",
"!l c #404B00",
"!m c #441A25",
"!n c #940283",
"!o c #980087",
"!p c #950283",
"!q c #950383",
"!r c #930282",
"!s c #950185",
"!t c #980089",
"!u c #9A008C",
"!v c #9D0092",
"!w c #9D0091",
"!x c #652936",
"!y c #4F6400",
"!z c #929709",
"!{ c #9B9F0D",
"!| c #8C900A",
"!} c #717202",
"!~ c #494B00",
"#! c #382F08",
"## c #41221C",
"#$ c #46261C",
"#% c #4E2F1A",
"#& c #563718",
"#' c #583919",
"#( c #52321A",
"#) c #46281A",
"#* c #312414",
"#+ c #651052",
"#, c #A50097",
"#- c #9A008B",
"#. c #9B0092",
"#/ c #8A0576",
"#0 c #721C4A",
"#1 c #731B4C",
"#2 c #731E4A",
"#3 c #7A1A55",
"#4 c #960087",
"#5 c #9F0094",
"#6 c #9B008D",
"#7 c #770C5E",
"#8 c #592B29",
"#9 c #5B5A05",
"#: c #5D6201",
"#; c #595A02",
"#< c #4B4B00",
"#= c #3D3C00",
"#> c #2F3200",
"#? c #293400",
"#@ c #485400",
"#A c #687300",
"#B c #7E8807",
"#C c #7E8A03",
"#D c #6F7B00",
"#E c #556200",
"#F c #2C4400",
"#G c #40261B",
"#H c #720C5B",
"#I c #9C038A",
"#J c #7E2B4C",
"#K c #546000",
"#L c #545F00",
"#M c #506000",
"#N c #585107",
"#O c #8B136C",
"#P c #950085",
"#Q c #90027F",
"#R c #A30097",
"#S c #880575",
"#T c #2E2507",
"#U c #222A00",
"#V c #282800",
"#W c #292900",
"#X c #2E2E00",
"#Y c #404000",
"#Z c #808308",
"#[ c #B6B924",
"#] c #D5D545",
"#^ c #D2D535",
"#_ c #BABF1F",
"#` c #93970B",
"#a c #636303",
"#b c #384300",
"#c c #322A07",
"#d c #82096D",
"#e c #9A0090",
"#f c #915B37",
"#g c #9F9E18",
"#h c #B7BA25",
"#i c #B4BA1A",
"#j c #9FA70E",
"#k c #838608",
"#l c #705D12",
"#m c #4A390E",
"#n c #451B26",
"#o c #960085",
"#p c #AE00A3",
"#q c #8B0478",
"#r c #302708",
"#s c #242C00",
"#t c #2A2A00",
"#u c #363600",
"#v c #5E5D00",
"#w c #A8A91C",
"#x c #DADA61",
"#y c #EAEAAA",
"#z c #E5E688",
"#{ c #C7C949",
"#| c #9DA10E",
"#} c #858908",
"#~ c #636801",
"$! c #444500",
"$# c #382B0B",
"$$ c #6B1052",
"$% c #9A008D",
"$& c #8E0974",
"$' c #7F3245",
"$( c #9F991C",
"$) c #C7D53F",
"$* c #E6E57D",
"$+ c #E0E160",
"$, c #C1C433",
"$- c #989D0B",
"$. c #798400",
"$/ c #4D5D00",
"$0 c #373502",
"$1 c #591740",
"$2 c #660F51",
"$3 c #5A193A",
"$4 c #353104",
"$5 c #303400",
"$6 c #333300",
"$7 c #272700",
"$8 c #383900",
"$9 c #6F7102",
"$: c #B4B61C",
"$; c #DFE061",
"$< c #ECEBAE",
"$= c #EBEA9E",
"$> c #D0D15C",
"$? c #A9AD13",
"$@ c #91960A",
"$A c #707204",
"$B c #4A4C00",
"$C c #233500",
"$D c #5E1541",
"$E c #9C0093",
"$F c #821F56",
"$G c #647000",
"$H c #B2B91C",
"$I c #E3E271",
"$J c #EEEEBC",
"$K c #E9E89A",
"$L c #C9CB51",
"$M c #A1A60F",
"$N c #8D9109",
"$O c #6F7004",
"$P c #203300",
"$Q c #1F2E00",
"$R c #2E3400",
"$S c #3D3E00",
"$T c #403F00",
"$U c #3F3F00",
"$V c #323100",
"$W c #424300",
"$X c #767A04",
"$Y c #ACB114",
"$Z c #CFD23E",
"$[ c #DBDC73",
"$] c #DFDF7C",
"$^ c #CED052",
"$_ c #AFB317",
"$` c #8D920A",
"$a c #6A6C03",
"$b c #494A00",
"$c c #2A3300",
"$d c #621346",
"$e c #88235A",
"$f c #727A00",
"$g c #B0B914",
"$h c #D8DA51",
"$i c #E5E590",
"$j c #E7E691",
"$k c #D0D258",
"$l c #ADB115",
"$m c #8E920A",
"$n c #757703",
"$o c #5B5B00",
"$p c #383A00",
"$q c #3C3F00",
"$r c #494900",
"$s c #4B4A00",
"$t c #4C4B00",
"$u c #565600",
"$v c #646601",
"$w c #767B04",
"$x c #9CA010",
"$y c #B4B71D",
"$z c #BCBF28",
"${ c #BDC129",
"$| c #B6BA21",
"$} c #A5A914",
"$~ c #818608",
"%! c #646701",
"%# c #2B3400",
"%$ c #621446",
"%% c #9A0092",
"%& c #8F2A5D",
"%' c #838B05",
"%( c #A8B010",
"%) c #C1C52E",
"%* c #CCCE4A",
"%+ c #CED04F",
"%, c #C3C637",
"%- c #AAAE15",
"%. c #7E8006",
"%/ c #616200",
"%0 c #545400",
"%1 c #565700",
"%2 c #666802",
"%3 c #777905",
"%4 c #7C7E0A",
"%5 c #727406",
"%6 c #676902",
"%7 c #626502",
"%8 c #646500",
"%9 c #636300",
"%: c #616302",
"%; c #7E8208",
"%< c #93970C",
"%= c #9A9F0C",
"%> c #9CA10C",
"%? c #979B0C",
"%@ c #898D0B",
"%A c #767803",
"%B c #5D5D01",
"%C c #3E4100",
"%D c #102600",
"%E c #540D41",
"%F c #8D285D",
"%G c #7A8005",
"%H c #91990B",
"%I c #A3A712",
"%J c #AAAF12",
"%K c #ACB012",
"%L c #A6AA12",
"%M c #93960F",
"%N c #666601",
"%O c #565500",
"%P c #5E6002",
"%Q c #7C8004",
"%R c #94980C",
"%S c #A6AA14",
"%T c #AFB316",
"%U c #9DA110",
"%V c #898D0A",
"%W c #7C8006",
"%X c #707203",
"%Y c #5F5F00",
"%Z c #4D4D00",
"%[ c #616301",
"%] c #737704",
"%^ c #7C8005",
"%_ c #7B7E06",
"%` c #696C02",
"%a c #5D5D00",
"%b c #323102",
"%c c #1E140F",
"%d c #5E0454",
"%e c #9F008F",
"%f c #7A135B",
"%g c #424500",
"%h c #697000",
"%i c #838707",
"%j c #898D09",
"%k c #7C7F06",
"%l c #656501",
"%m c #4F4E00",
"%n c #6C6D05",
"%o c #969A0C",
"%p c #AAAE12",
"%q c #BEC025",
"%r c #C8C92F",
"%s c #C2C620",
"%t c #B9BD1C",
"%u c #A8AC17",
"%v c #92960C",
"%w c #727405",
"%x c #4E4E00",
"%y c #5A5B00",
"%z c #676700",
"%{ c #585900",
"%| c #535300",
"%} c #4F4F00",
"%~ c #323200",
"&! c #232B00",
"&# c #35260E",
"&$ c #860574",
"&% c #6E0E58",
"&& c #1E3400",
"&' c #4C5600",
"&( c #6B6B02",
"&) c #707102",
"&* c #5A5B01",
"&+ c #5D5F01",
"&, c #7E8202",
"&- c #AAAE1E",
"&. c #D3D570",
"&/ c #E2E28A",
"&0 c #E1E181",
"&1 c #D8D960",
"&2 c #CACD37",
"&3 c #B7BC1A",
"&4 c #A0A412",
"&5 c #8E920B",
"&6 c #7A7E06",
"&7 c #646602",
"&8 c #515200",
"&9 c #585800",
"&: c #515000",
"&; c #595800",
"&< c #5D6000",
"&= c #555B00",
"&> c #4C4606",
"&? c #512032",
"&@ c #780868",
"&A c #9F0090",
"&B c #780966",
"&C c #36231A",
"&D c #393D01",
"&E c #4D5300",
"&F c #5F5E00",
"&G c #504F00",
"&H c #717503",
"&I c #929607",
"&J c #BABD35",
"&K c #EBEBB5",
"&L c #F4F4D1",
"&M c #EDEDB9",
"&N c #E4E38D",
"&O c #D2D448",
"&P c #BDC11A",
"&Q c #A6AA15",
"&R c #90940C",
"&S c #828707",
"&T c #7A7E05",
"&U c #5F6001",
"&V c #4E4D00",
"&W c #4A4A00",
"&X c #4C4C00",
"&Y c #717205",
"&Z c #8A8D25",
"&[ c #828319",
"&] c #5D6100",
"&^ c #1F3C00",
"&_ c #581541",
"&` c #9C008C",
"&a c #910281",
"&b c #36211B",
"&c c #2A3F00",
"&d c #505000",
"&e c #666700",
"&f c #7A7E04",
"&g c #A7A918",
"&h c #D4D44C",
"&i c #EAEAAE",
"&j c #EFEFC5",
"&k c #EBEBB1",
"&l c #E2E287",
"&m c #D1D346",
"&n c #BBBF1A",
"&o c #989C0E",
"&p c #8F930A",
"&q c #838708",
"&r c #6E7002",
"&s c #535200",
"&t c #3C3C00",
"&u c #474700",
"&v c #666800",
"&w c #878B11",
"&x c #8F8F7F",
"&y c #7D7D55",
"&z c #5D5E00",
"&{ c #3A4400",
"&| c #681A46",
"&} c #9E0091",
"&~ c #7C076C",
"'! c #501E33",
"'# c #2F3A00",
"'$ c #484C00",
"'% c #5E5F00",
"'& c #737603",
"'' c #91950C",
"'( c #B3B619",
"') c #D1D33E",
"'* c #E4E490",
"'+ c #E8E8A1",
"', c #E6E699",
"'- c #E5E48C",
"'. c #CACC46",
"'/ c #B4B916",
"'0 c #AFB319",
"'1 c #848808",
"'2 c #6F7002",
"'3 c #595900",
"'4 c #767707",
"'5 c #808234",
"'6 c #777823",
"'7 c #5F6000",
"'8 c #3E4600",
"'9 c #6B1C46",
"': c #A9009B",
"'; c #6B0D59",
"'< c #162E00",
"'= c #3C4200",
"'> c #606102",
"'? c #808407",
"'@ c #B5B918",
"'A c #C5C82B",
"'B c #D6D75D",
"'C c #DADB67",
"'D c #D8D965",
"'E c #D6D768",
"'F c #BFC237",
"'G c #B2B617",
"'H c #B6BA1D",
"'I c #ADB118",
"'J c #9CA011",
"'K c #6D6F02",
"'L c #686A00",
"'M c #676B00",
"'N c #565D00",
"'O c #304100",
"'P c #631944",
"'Q c #681054",
"'R c #1D2E00",
"'S c #303500",
"'T c #5C5D03",
"'U c #8A8F09",
"'V c #B7BB1E",
"'W c #C3C724",
"'X c #C6CA25",
"'Y c #C1C523",
"'Z c #B5B91D",
"'[ c #B3B71C",
"'] c #B4B81C",
"'^ c #ACB018",
"'_ c #9B9F10",
"'` c #484800",
"'a c #3D3D00",
"'b c #4A4D00",
"'c c #1F3300",
"'d c #5B1346",
"'e c #8E037E",
"'f c #710F5A",
"'g c #402E10",
"'h c #586100",
"'i c #8C910A",
"'j c #979B0D",
"'k c #A2A613",
"'l c #BABF1C",
"'m c #B8BC1B",
"'n c #B5B91A",
"'o c #B6BB1C",
"'p c #AAAE17",
"'q c #A1A512",
"'r c #90940B",
"'s c #787C05",
"'t c #6B6C01",
"'u c #525200",
"'v c #383800",
"'w c #3E3E00",
"'x c #3A3A00",
"'y c #313800",
"'z c #59272C",
"'{ c #851466",
"'| c #750E60",
"'} c #860575",
"'~ c #A00093",
"(! c #9B008A",
"(# c #4A2C1A",
"($ c #505C00",
"(% c #7F8206",
"(& c #8B8F09",
"(' c #979B0E",
"(( c #AEB219",
"() c #ABAF17",
"(* c #A0A411",
"(+ c #95990D",
"(, c #858A08",
"(- c #727603",
"(. c #6A6D00",
"(/ c #444400",
"(0 c #393900",
"(1 c #242F00",
"(2 c #601245",
"(3 c #A9009F",
"(4 c #A30095",
"(5 c #930380",
"(6 c #4A2F18",
"(7 c #454F00",
"(8 c #686801",
"(9 c #7F8207",
"(: c #8D910A",
"(; c #92960B",
"(< c #9DA111",
"(= c #A1A513",
"(> c #7E8206",
"(? c #747804",
"(@ c #767B05",
"(A c #727504",
"(B c #3A3B00",
"(C c #273100",
"(D c #5A173C",
"(E c #9B008C",
"(F c #9F0092",
"(G c #970088",
"(H c #482E18",
"(I c #3A4600",
"(J c #727604",
"(K c #7B7F05",
"(L c #7D8106",
"(M c #878B08",
"(N c #8B8F0A",
"(O c #8C900B",
"(P c #888C09",
"(Q c #7B7F06",
"(R c #777B05",
"(S c #777B04",
"(T c #A7A91C",
"(U c #B9BA21",
"(V c #ACAF14",
"(W c #90930C",
"(X c #727404",
"(Y c #545300",
"(Z c #303200",
"([ c #201A08",
"(] c #350B2C",
"(^ c #8B017C",
"(_ c #9F008E",
"(` c #8E037C",
"(a c #751157",
"(b c #573416",
"(c c #504C00",
"(d c #5B5E00",
"(e c #6E7203",
"(f c #7D8206",
"(g c #7E8306",
"(h c #7F8407",
"(i c #6F7303",
"(j c #979B10",
"(k c #CECE59",
"(l c #E4E46C",
"(m c #D4D747",
"(n c #ADB11C",
"(o c #8C8F07",
"(p c #6E6F02",
"(q c #464501",
"(r c #1A2B00",
"(s c #1A1A05",
"(t c #870376",
"(u c #9D0090",
"(v c #7A165A",
"(w c #534111",
"(x c #7F572A",
"(y c #866F1E",
"(z c #797F04",
"({ c #737604",
"(| c #717504",
"(} c #6F7302",
"(~ c #868A06",
")! c #E1E295",
")# c #EFEFB8",
")$ c #DFDF7F",
")% c #B5B82D",
")& c #979C08",
")' c #818507",
")( c #5C5D01",
")) c #374000",
")* c #36260E",
")+ c #8B0577",
"), c #9E0090",
")- c #980090",
"). c #933653",
")/ c #989D17",
")0 c #D2CD94",
")1 c #D3D076",
")2 c #B2B716",
")3 c #95990C",
")4 c #777A04",
")5 c #656500",
")6 c #676801",
")7 c #6A6B01",
")8 c #666701",
")9 c #585901",
"): c #575801",
"); c #575800",
")< c #565601",
")= c #6E7103",
")> c #969B0C",
")? c #C5C925",
")@ c #DFE077",
")A c #EAE99D",
")B c #E2E285",
")C c #C0C334",
")D c #A0A40C",
")E c #818407",
")F c #5B5C01",
")G c #373F00",
")H c #8A0577",
")I c #970090",
")J c #9D4256",
")K c #B0BB17",
")L c #DCE472",
")M c #DBE060",
")N c #C0C41D",
")O c #A7AB13",
")P c #808207",
")Q c #616000",
")R c #575700",
")S c #474600",
")T c #3B4000",
")U c #3B4100",
")V c #737505",
")W c #9A9E0E",
")X c #BABE1F",
")Y c #CACD44",
")Z c #D1D359",
")[ c #CED053",
")] c #BBBF28",
")^ c #9CA10E",
")_ c #797D05",
")` c #5B5B01",
")a c #344100",
")b c #2F2807",
")c c #970091",
")d c #9A3E5A",
")e c #A3AE0E",
")f c #BBC317",
")g c #BCC01C",
")h c #AFB31A",
")i c #A8AC15",
")j c #828409",
")k c #5A5A00",
")l c #4D4E00",
")m c #3F4000",
")n c #363800",
")o c #393A00",
")p c #342B09",
")q c #382C0A",
")r c #4A4B00",
")s c #6D7103",
")t c #8B8F0B",
")u c #9EA212",
")v c #AAAF14",
")w c #AFB315",
")x c #8E920C",
")y c #6E7202",
")z c #545700",
"){ c #3B3D00",
")| c #3F221A",
")} c #8C0479",
")~ c #990092",
"*! c #903853",
"*# c #889B00",
"*$ c #A6AF10",
"*% c #A8AC14",
"*& c #9A9F0E",
"*' c #686905",
"*( c #3B3B00",
"*) c #2C3400",
"** c #253100",
"*+ c #243200",
"*, c #6B124F",
"*- c #790C62",
"*. c #2C3200",
"*/ c #434C00",
"*0 c #666703",
"*1 c #818607",
"*2 c #767804",
"*3 c #656700",
"*4 c #3B4C00",
"*5 c #5A2430",
"*6 c #99008D",
"*7 c #941573",
"*8 c #8B4842",
"*9 c #827F0C",
"*: c #758700",
"*; c #6A7500",
"*< c #3F5300",
"*= c #282C02",
"*> c #5B163E",
"*? c #651249",
"*@ c #611544",
"*A c #601642",
"*B c #8C0579",
"*C c #960086",
"*D c #631248",
"*E c #3E2E0D",
"*F c #374700",
"*G c #4F5B00",
"*H c #6C7100",
"*I c #747504",
"*J c #686A03",
"*K c #656602",
"*L c #515A00",
"*M c #414500",
"*N c #5E2533",
"*O c #850B6D",
"*P c #A10094",
"*Q c #980187",
"*R c #9B0091",
"*S c #960089",
"*T c #724229",
"*U c #5C500A",
"*V c #554013",
"*W c #594313",
"*X c #3C360B",
"*Y c #3C1E24",
"*Z c #940185",
"*[ c #59163C",
"*] c #34280B",
"*^ c #463013",
"*_ c #555103",
"*` c #464800",
"*a c #484B00",
"*b c #3E1E1C",
"*c c #8D027C",
"*d c #A20095",
"*e c #94077E",
"*f c #92087B",
"*g c #91067C",
"*h c #92077C",
"*i c #8F057B",
"*j c #8F037E",
"*k c #920280",
"*l c #910380",
"*m c #8F057C",
"*n c #47271D",
"*o c #233600",
"*p c #293100",
"*q c #223400",
"*r c #511F2D",
"*s c #930182",
"*t c #9A008E",
"*u c #9C0090",
"*v c #9E008E",
"*w c #750B5F",
"*x c #67114D",
"*y c #631249",
"*z c #7E0968",
"*{ c #52428C",
"*| c #A60089",
"*} c #236382",
"*~ c #385183",
"+! c #355483",
"+# c #345483",
"+$ c #365283",
"!!!!!!!!!!!!!!!!!!!!!!!!!!!!!!!!!!!!!!!!!!!!!!!!!!!!!!!!!!!!!!!!!!!!!!!!!!!!!!!!!!!!!!!!!!!!!!!!!!!!!!!!!!!!!!!!!!!!!!!!!!!!!!!!!!!!!!!!!!!!!!!!!!!!!!!!!!!!!!!!!!!!!!!!!!!!!!!!!!!!!!!!!!!!!!",
"!!!!!!!!!!!!!!!!!!!!!!!!!!!!!!!!!!!!!!!!!!!!!!!!!!!!!!!!!!!!!!!!!!!!!!!!!!!!!!!!!!!!!!!!!!!!!!!!!!!!!!!!!!!!!!!!!!!!!!!!!!!!!!!!!!!!!!!!!!!!!!!!!!!!!!!!!!!!!!!!!!!!!!!!!!!!!!!!!!!!!!!!!!!!!!",
"!!!!!!!!!!!!!!!!!!!!!!!!!!!!!!!!!!!!!!!!!!!!!!!!!!!!!!!!!!!!!!!!!!!!!!!!!!!!!!!!!!!!!!!!!!!!!!!!!!!!!!!!!!!!!!!!!!!!!!!!!!!!!!!!!!!!!!!!!!!!!!!!!!!!!!!!!!!!!!!!!!!!!!!!!!!!!!!!!!!!!!!!!!!!!!",
"!!!!!!!!!!!!!!!!!!!!!!!!!!!!!!!!!!!!!!!!!!!!!!!!!!!!!!!!!!!!!!!!!!!!!!!!!!!!!!!!!!!!!!!!!!!!!!!!!!!!!!!!!!!!!!!!!!!!!!!!!!!!!!!!!!!!!!!!!!!!!!!!!!!!!!!!!!!!!!!!!!!!!!!!!!!!!!!!!!!!!!!!!!!!!!",
"!!!!!!!!!!!!!!!!!!!!!!!!!!!!!!!!!!!!!!!!!!!!!!!!!!!!!!!!!!!!!!!!!!!!!!!!!!!!!!!!!!!!!!!!!!!!!!!!!!!!!!!!!!!!!!!!!!!!!!!!!!!!!!!!!!!!!!!!!!!!!!!!!!!!!!!!!!!!!!!!!!!!!!!!!!!!!!!!!!!!!!!!!!!!!!",
"!!!!!!!!!!!!!!!!!!!!!!!!!!!!!!!!!!!!!!!!!!!!!!!!!!!!!!!!!!!!!!!!!!!!!!!!!!!!!!!!!!!!!!!!!!!!!!!!!!!!!!!!!!!!!!!!!!!!!!!!!!!!!!!!!!!!!!!!!!!!!!!!!!!!!!!!!!!!!!!!!!!!!!!!!!!!!!!!!!!!!!!!!!!!!!",
"!!!!!!!!!!!!!!!!!!!!!!!!!!!!!!!!!!!!!!!!!!!!!!!!!!!!!!!!!!!!!!!!!!!!!!!!!!!!!!!!!!!!!!!!!!!!!!!!!!!!!!!!!!!!!!!!!!!!!!!!!!!!!!!!!!!!!!!!!!!!!!!!!!!!!!!!!!!!!!!!!!!!!!!!!!!!!!!!!!!!!!!!!!!!!!",
"!!!!!!!!!!!!!!!!!!!!!!!!!!!!!!!!!!!!!!!!!!!!!!!!!!!!!!!!!!!!!!!!!!!!!!!!!!!!!!!!!!!!!!!!!!!!!!!!!!!!!!!!!!!!!!!!!!!!!!!!!!!!!!!!!!!!!!!!!!!!!!!!!!!!!!!!!!!!!!!!!!!!!!!!!!!!!!!!!!!!!!!!!!!!!!",
"!!!!!!!!!!!!!!!!!!!!!!!!!!!!!!!!!!!!!!!!!!!!!!!!!!!!!!!!!!!!!!!!!!!!!!!!!!!!!!!!!!!!!!!!!!!!!!!!!!!!!!!!!!!!!!!!!!!!!!!!!!!!!!!!!!!!!!!!!!!!!!!!!!!!!!!!!!!!!!!!!!!!!!!!!!!!!!!!!!!!!!!!!!!!!!",
"!!!!!!!!!!!!!!!!!!!!!!!!!!!!!!!!!!!!!!!!!!!!!!!!!!!!!!!!!!!!!!!!!!!!!!!!!!!!!!!!!!!!!!!!!!!!!!!!!!!!!!!!!!!!!!!!!!!!!!!!!!!!!!!!!!!!!!!!!!!!!!!!!!!!!!!!!!!!!!!!!!!!!!!!!!!!!!!!!!!!!!!!!!!!!!",
"!!!!!!!!!!!!!!!!!!!!!!!!!!!!!!!!!!!!!!!!!!!!!!!!!!!!!!!!!!!!!!!!!!!!!!!!!!!!!!!!!!!!!!!!!!!!!!!!!!!!!!!!!!!!!!!!!!!!!!!!!!!!!!!!!!!!!!!!!!!!!!!!!!!!!!!!!!!!!!!!!!!!!!!!!!!!!!!!!!!!!!!!!!!!!!",
"!!!!!!!!!!!!!!!!!!!!!!!!!!!!!!!!!!!!!!!!!!!!!!!!!!!!!!!!!!!!!!!!!!!!!!!!!!!!!!!!!!!!!!!!!!!!!!!!!!!!!!!!!!!!!!!!!!!!!!!!!!!!!!!!!!!!!!!!!!!!!!!!!!!!!!!!!!!!!!!!!!!!!!!!!!!!!!!!!!!!!!!!!!!!!!",
"!!!!!!!!!!!!!!!!!!!!!!!!!!!!!!!!!!!!!!!!!!!!!!!!!!!!!!!!!!!!!!!!!!!!!!!!!!!!!!!!!!!!!!!!!!!!!!!!!!!!!!!!!!!!!!!!!!!!!!!!!!!!!!!!!!!!!!!!!!!!!!!!!!!!!!!!!!!!!!!!!!!!!!!!!!!!!!!!!!!!!!!!!!!!!!",
"!!!!!!!!!!!!!!!!!!!!!!!!!!!!!!!!!!!!!!!!!!!!!!!!!!!!!!!!!!!!!!!!!!!!!!!!!!!!!!!!!!!!!!!!!!!!!!!!!!!!!!!!!!!!!!!!!!!!!!!!!!!!!!!!!!!!!!!!!!!!!!!!!!!!!!!!!!!!!!!!!!!!!!!!!!!!!!!!!!!!!!!!!!!!!!",
"!!!!!!!!!!!!!!!!!!!!!!!!!!!!!!!!!!!!!!!!!!!!!!!!!!!!!!!!!!!!!!!!!!!!!!!!!!!!!!!!!!!!!!!!!!!!!!!!!!!!!!!!!!!!!!!!!!!!!!!!!!!!!!!!!!!!!!!!!!!!!!!!!!!!!!!!!!!!!!!!!!!!!!!!!!!!!!!!!!!!!!!!!!!!!!",
"!!!!!!!!!!!!!!!!!!!!!!!!!!!!!!!!!!!!!!!!!!!!!!!!!!!!!!!!!!!!!!!!!!!!!!!!!!!!!!!!!!!!!!!!!!!!!!!!!!!!!!!!!!!!!!!!!!!!!!!!!!!!!!!!!!!!!!!!!!!!!!!!!!!!!!!!!!!!!!!!!!!!!!!!!!!!!!!!!!!!!!!!!!!!!!",
"!!!!!!!!!!!!!!!!!!!!!!!!!!!!!!!!!!!!!!!!!!!!!!!!!!!!!!!!!!!!!!!!!!!!!!!!!!!!!!!!!!!!!!!!!!!!!!!!!!!!!!!!!!!!!!!!!!!!!!!!!!!!!!!!!!!!!!!!!!!!!!!!!!!!!!!!!!!!!!!!!!!!!!!!!!!!!!!!!!!!!!!!!!!!!!",
"!!!!!!!!!!!!!!!!!!!!!!!!!!!!!!!!!!!!!!!!!!!!!!!!!!!!!!!!!!!!!!!!!!!!!!!!!!!!!!!!!!!!!!!!!!!!!!!!!!!!!!!!!!!!!!!!!!!!!!!!!!!!!!!!!!!!!!!!!!!!!!!!!!!!!!!!!!!!!!!!!!!!!!!!!!!!!!!!!!!!!!!!!!!!!!",
"!!!!!!!!!!!!!!!!!!!!!!!!!!!!!!!!!!!!!!!!!!!!!!!!!!!!!!!!!!!!!!!!!!!!!!!!!!!!!!!!!!!!!!!!!!!!!!!!!!!!!!!!!!!!!!!!!!!!!!!!!!!!!!!!!!!!!!!!!!!!!!!!!!!!!!!!!!!!!!!!!!!!!!!!!!!!!!!!!!!!!!!!!!!!!!",
"!!!!!!!!!!!!!!!!!!!!!!!!!!!!!!!!!!!!!!!!!!!!!!!!!!!!!!!!!!!!!!!!!!!!!!!!!!!!!!!!!!!!!!!!!!!!!!!!!!!!!!!!!!!!!!!!!!!!!!!!!!!!!!!!!!!!!!!!!!!!!!!!!!!!!!!!!!!!!!!!!!!!!!!!!!!!!!!!!!!!!!!!!!!!!!",
"!!!!!!!!!!!!!!!!!!!!!!!!!!!!!!!!!!!!!!!!!!!!!!!!!!!!!!!!!!!!!!!!!!!!!!!!!!!!!!!!!!!!!!!!!!!!!!!!!!!!!!!!!!!!!!!!!!!!!!!!!!!!!!!!!!!!!!!!!!!!!!!!!!!!!!!!!!!!!!!!!!!!!!!!!!!!!!!!!!!!!!!!!!!!!!",
"!!!!!!!!!!!!!!!!!!!!!!!!!!!!!!!!!!!!!!!!!!!!!!!!!!!!!!!!!!!!!!!!!!!!!!!!!!!!!!!!!!!!!!!!!!!!!!!!!!!!!!!!!!!!!!!!!!!!!!!!!!!!!!!!!!!!!!!!!!!!!!!!!!!!!!!!!!!!!!!!!!!!!!!!!!!!!!!!!!!!!!!!!!!!!!",
"!!!!!!!!!!!!!!!!!!!!!!!!!!!!!!!!!!!!!!!!!!!!!!!!!!!!!!!!!!!!!!!!!!!!!!!!!!!!!!!!!!!!!!!!!!!!!!!!!!!!!!!!!!!!!!!!!!!!!!!!!!!!!!!!!!!!!!!!!!!!!!!!!!!!!!!!!!!!!!!!!!!!!!!!!!!!!!!!!!!!!!!!!!!!!!",
"!!!!!!!!!!!!!!!!!!!!!!!!!!!!!!!!!!!!!!!!!!!!!!!!!!!!!!!!!!!!!!!!!!!!!!!!!!!!!!!!!!!!!!!!!!!!!!!!!!!!!!!!!!!!!!!!!!!!!!!!!!!!!!!!!!!!!!!!!!!!!!!!!!!!!!!!!!!!!!!!!!!!!!!!!!!!!!!!!!!!!!!!!!!!!!",
"!!!!!!!!!!!!!!!!!!!!!!!!!!!!!!!!!!!!!!!!!!!!!!!!!!!!!!!!!!!!!!!!!!!!!!!!!!!!!!!!!!!!!!!!!!!!!!!!!!!!!!!!!!!!!!!!!!!!!!!!!!!!!!!!!!!!!!!!!!!!!!!!!!!!!!!!!!!!!!!!!!!!!!!!!!!!!!!!!!!!!!!!!!!!!!",
"!!!!!!!!!!!!!!!!!!!!!!!!!!!!!!!!!!!!!!!!!!!!!!!!!!!!!!!!!!!!!!!!!!!!!!!!!!!!!!!!!!!!!!!!!!!!!!!!!!!!!!!!!!!!!!!!!!!!!!!!!!!!!!!!!!!!!!!!!!!!!!!!!!!!!!!!!!!!!!!!!!!!!!!!!!!!!!!!!!!!!!!!!!!!!!",
"!!!!!!!!!!!!!!!!!!!!!!!!!!!!!!!!!!!!!!!!!!!!!!!!!!!!!!!!!!!!!!!!!!!!!!!!!!!!!!!!!!!!!!!!!!!!!!!!!!!!!!!!!!!!!!!!!!!!!!!!!!!!!!!!!!!!!!!!!!!!!!!!!!!!!!!!!!!!!!!!!!!!!!!!!!!!!!!!!!!!!!!!!!!!!!",
"!!!!!!!!!!!!!!!!!!!!!!!!!!!!!!!!!!!!!!!!!!!!!!!!!!!!!!!!!!!!!!!!!!!!!!!!!!!!!!!!!!!!!!!!!!!!!!!!!!!!!!!!!!!!!!!!!!!!!!!!!!!!!!!!!!!!!!!!!!!!!!!!!!!!!!!!!!!!!!!!!!!!!!!!!!!!!!!!!!!!!!!!!!!!!!",
"!!!!!!!!!!!!!!!!!!!!!!!!!!!!!!!!!!!!!!!!!!!!!!!!!!!!!!!!!!!!!!!!!!!!!!!!!!!!!!!!!!!!!!!!!!!!!!!!!!!!!!!!!!!!!!!!!!!!!!!!!!!!!!!!!!!!!!!!!!!!!!!!!!!!!!!!!!!!!!!!!!!!!!!!!!!!!!!!!!!!!!!!!!!!!!",
"!!!!!!!!!!!!!!!!!!!!!!!!!!!!!!!!!!!!!!!!!!!!!!!!!!!!!!!!!!!!!!!!!!!!!!!!!!!!!!!!!!!!!!!!!!!!!!!!!!!!!!!!!!!!!!!!!!!!!!!!!!!!!!!!!!!!!!!!!!!!!!!!!!!!!!!!!!!!!!!!!!!!!!!!!!!!!!!!!!!!!!!!!!!!!!",
"!!!!!!!!!!!!!!!!!!!!!!!!!!!!!!!!!!!!!!!!!!!!!!!!!!!!!!!!!!!!!!!!!!!!!!!!!!!!!!!!!!!!!!!!!!!!!!!!!!!!!!!!!!!!!!!!!!!!!!!!!!!!!!!!!!!!!!!!!!!!!!!!!!!!!!!!!!!!!!!!!!!!!!!!!!!!!!!!!!!!!!!!!!!!!!",
"!!!!!!!!!!!!!!!!!!!!!!!!!!!!!!!!!!!!!!!!!!!!!!!!!!!!!!!!!!!!!!!!!!!!!!!!!!!!!!!!!!!!!!!!!!!!!!!!!!!!!!!!!!!!!!!!!!!!!!!!!!!!!!!!!!!!!!!!!!!!!!!!!!!!!!!!!!!!!!!!!!!!!!!!!!!!!!!!!!!!!!!!!!!!!!",
"!!!!!!!!!!!!!!!!!!!!!!!!!!!!!!!!!!!!!!!!!!!!!!!!!!!!!!!!!!!!!!!!!!!!!!!!!!!!!!!!!!!!!!!!!!!!!!!!!!!!!!!!!!!!!!!!!!!!!!!!!!!!!!!!!!!!!!!!!!!!!!!!!!!!!!!!!!!!!!!!!!!!!!!!!!!!!!!!!!!!!!!!!!!!!!",
"!!!!!!!!!!!!!!!!!!!!!!!!!!!!!!!!!!!!!!!!!!!!!!!!!!!!!!!!!!!!!!!!!!!!!!!!!!!!!!!!!!!!!!!!!!!!!!!!!!!!!!!!!!!!!!!!!!!!!!!!!!!!!!!!!!!!!!!!!!!!!!!!!!!!!!!!!!!!!!!!!!!!!!!!!!!!!!!!!!!!!!!!!!!!!!",
"!!!!!!!!!!!!!!!!!!!!!!!!!!!!!!!!!!!!!!!!!!!!!!!!!!!!!!!!!!!!!!!!!!!!!!!!!!!!!!!!!!!!!!!!!!!!!!!!!!!!!!!!!!!!!!!!!!!!!!!!!!!!!!!!!!!!!!!!!!!!!!!!!!!!!!!!!!!!!!!!!!!!!!!!!!!!!!!!!!!!!!!!!!!!!!",
"!!!!!!!!!!!!!!!!!!!!!!!!!!!!!!!!!!!!!!!!!!!!!!!!!!!!!!!!!!!!!!!!!!!!!!!!!!!!!!!!!!!!!!!!!!!!!!!!!!!!!!!!!!!!!!!!!!!!!!!!!!!!!!!!!!!!!!!!!!!!!!!!!!!!!!!!!!!!!!!!!!!!!!!!!!!!!!!!!!!!!!!!!!!!!!",
"!!!!!!!!!!!!!!!!!!!!!!!!!!!!!!!!!!!!!!!!!!!!!!!!!!!!!!!!!!!!!!!!!!!!!!!!!!!!!!!!!!!!!!!!!!!!!=!>!?!@!!!!!!!!!!!!!!!!!!!!!!!!!!!!!!!!!!!!!!!!!!!!!!!!!!!!!!!!!!!!!!!!!!!!!!!!!!!!!!!!!!!!!!!!!!",
"!!!!!!!!!!!!!!!!!!!!!!!!!!!!!!!!!!!!!!!!!!!!!!!!!!!!!!!!!!!!!!!!!!!!!!!!!!!!!!!!!!!!!!!!!!!D!E!F!G!H!I!!!!!!!!!!!!!!!!!!!!!!!!!!!!!!!!!!!!!!!!!!!!!!!!!!!!!!!!!!!!!!!!!!!!!!!!!!!!!!!!!!!!!!!!",
"!!!!!!!!!!!!!!!!!!!!!!!!!!!!!!!!!!!!!!!!!!!!!!!!!!!!!!!!!!!!!!!!!!!!!!!!!!!!!!!!!!!!!!!!!M!N!O!P!Q!R!S!T!!!!!!!!!!!!!!!!!!!!!!!!!!!!!!!!!!!!!!!!!!!!!!!!!!!!!!!!!!!!!!!!!!!!!!!!!!!!!!!!!!!!!!",
"!!!!!!!!!!!!!!!!!!!!!!!!!!!!!!!!!!!!!!!!!!!!!!!!!!!!!!!!!!!!!!!!!!!!!!!!!!!!!!!!!!!!!!!!!W!X!Y!Z![!]!^!_!!!!!!!!!!!!!!!!!!!!!!!!!!!!!!!!!!!!!!!!!!!!!!!!!!!!!!!!!!!!!!!!!!!!!!!!!!!!!!!!!!!!!!",
"!!!!!!!!!!!!!!!!!!!!!!!!!!!!!!!!!!!!!!!!!!!!!!!!!!!!!!!!!!!!!!!!!!!!!!!!!!!!!!!!!!!!!!!!!f!g!h!i!j!k!l!m!!!!!!!!!!!!!!!!!!!!!!!!!!!!!!!!!!!!!!!!!!!!!!!!!!!!!!!!!!!!!!!!!!!!!!!!!!!!!!!!!!!!!!",
"!!!!!!!!!!!!!!!!!!!!!!!!!!!!!!!!!!!!!!!!!!!!!!!!!!!!!!!!!!!!!!!!!!!!!!!!!!!!!!!!!!!!!!!!!x!y!z!{!|!}!~#!###$#%#&#'#(#)#*#+!!!!!!!!!!!!!!!!!!!!!!!!!!!!!!!!!!!!!!!!!!!!!!!!!!!!!!!!!!!!!!!!!!!!",
"!!!!!!!!!!!!!!!!!!!!!!!!!!!!!!!!!!!!!!!!!!!!!!!!!!!!!!!!!!!!!!!!!!!!!!!!#0#1#2#3!!!!!!!!#7#8#9#:#;#<#=#>#?#@#A#B#C#D#E#F#G#H!!!!!!!!!!!!!!!!!!!!!!!!!!!!!!!!!!!!!!!!!!!!!!!!!!!!!!!!!!!!!!!!!!",
"!!!!!!!!!!!!!!!!!!!!!!!!!!!!!!!!!!!!!!!!!!!!!!!!!!!!!!!!!!!!!!!!!!!!!!#J#K#L#M#N#O!!!!!!!!!!#T#U#V#W#W#X#Y#Z#[#]#^#_#`#a#b#c#d!!!!!!!!!!!!!!!!!!!!!!!!!!!!!!!!!!!!!!!!!!!!!!!!!!!!!!!!!!!!!!!!",
"!!!!!!!!!!!!!!!!!!!!!!!!!!!!!!!!!!!!!!!!!!!!!!!!!!!!!!!!!!!!!!!!!!!!#f#g#h#i#j#k#l#m#n!!!!!!#r#s#t#t#V#u#v#w#x#y#z#{#|#}#~$!$#$$!!!!!!!!!!!!!!!!!!!!!!!!!!!!!!!!!!!!!!!!!!!!!!!!!!!!!!!!!!!!!!",
"!!!!!!!!!!!!!!!!!!!!!!!!!!!!!!!!!!!!!!!!!!!!!!!!!!!!!!!!!!!!!!!!!!$'$($)$*$+$,$-$.$/$0$1$2$3$4$5$6$6$7$8$9$:$;$<$=$>$?$@$A$B$C$D!!!!!!!!!!!!!!!!!!!!!!!!!!!!!!!!!!!!!!!!!!!!!!!!!!!!!!!!!!!!!!",
"!!!!!!!!!!!!!!!!!!!!!!!!!!!!!!!!!!!!!!!!!!!!!!!!!!!!!!!!!!!!!!!!$F$G$H$I$J$K$L$M$N$O$B$P$Q$R$S$T$U$U$V$W$X$Y$Z$[$]$^$_$`$a$b$c$d!!!!!!!!!!!!!!!!!!!!!!!!!!!!!!!!!!!!!!!!!!!!!!!!!!!!!!!!!!!!!!",
"!!!!!!!!!!!!!!!!!!!!!!!!!!!!!!!!!!!!!!!!!!!!!!!!!!!!!!!!!!!!!!!!$e$f$g$h$i$j$k$l$m$n$o$p$q$b$r$s#<$t$u$v$w$x$y$z${$|$}$~%!$B%#%$!!!!!!!!!!!!!!!!!!!!!!!!!!!!!!!!!!!!!!!!!!!!!!!!!!!!!!!!!!!!!!",
"!!!!!!!!!!!!!!!!!!!!!!!!!!!!!!!!!!!!!!!!!!!!!!!!!!!!!!!!!!!!!!!!%&%'%(%)%*%+%,%-%.%/%0%1%2%3%4%5%6%7%8%9%:%;%<%=%>%?%@%A%B%C%D%E!!!!!!!!!!!!!!!!!!!!!!!!!!!!!!!!!!!!!!!!!!!!!!!!!!!!!!!!!!!!!!",
"!!!!!!!!!!!!!!!!!!!!!!!!!!!!!!!!!!!!!!!!!!!!!!!!!!!!!!!!!!!!!!!!%F%G%H%I%J%K%L%M%N%O%P%Q%R%S%T%U%V%W%X%Y%Z%[%]%^%_%]%`%a$b%b%c%d!!!!!!!!!!!!!!!!!!!!!!!!!!!!!!!!!!!!!!!!!!!!!!!!!!!!!!!!!!!!!!",
"!!!!!!!!!!!!!!!!!!!!!!!!!!!!!!!!!!!!!!!!!!!!!!!!!!!!!!!!!!!!!!!!%f%g%h%i%j!|%k%l%m%n%o%p%q%r%s%t%u%v%j%w%x%x%y%z%{%|%}%~&!&#!!!!!!!!!!!!!!!!!!!!!!!!!!!!!!!!!!!!!!!!!!!!!!!!!!!!!!!!!!!!!!!!!!",
"!!!!!!!!!!!!!!!!!!!!!!!!!!!!!!!!!!!!!!!!!!!!!!!!!!!!!!!!!!!!!!!!&%&&&'&(&)%2&*%0&+&,&-&.&/&0&1&2&3&4&5&6&7&8%}&9%}&:&;&<&=&>&?&@!!!!!!!!!!!!!!!!!!!!!!!!!!!!!!!!!!!!!!!!!!!!!!!!!!!!!!!!!!!!!!",
"!!!!!!!!!!!!!!!!!!!!!!!!!!!!!!!!!!!!!!!!!!!!!!!!!!!!!!!!!!!!!!!!&B&C&D&E&F&G$t$u&H&I&J&K&L&M&N&O&P&Q&R&S&T&U&V&W&X%y&Y&Z&[&]&^&_!!!!!!!!!!!!!!!!!!!!!!!!!!!!!!!!!!!!!!!!!!!!!!!!!!!!!!!!!!!!!!",
"!!!!!!!!!!!!!!!!!!!!!!!!!!!!!!!!!!!!!!!!!!!!!!!!!!!!!!!!!!!!!!!!!!!!&b&c%|&d$u&e&f&g&h&i&j&k&l&m&n$}&o&p&q&r&s&t&u&v&w&x&y&z&{&|!!!!!!!!!!!!!!!!!!!!!!!!!!!!!!!!!!!!!!!!!!!!!!!!!!!!!!!!!!!!!!",
"!!!!!!!!!!!!!!!!!!!!!!!!!!!!!!!!!!!!!!!!!!!!!!!!!!!!!!!!!!!!!!!!!!!!&~'!'#'$'%'&'''(')'*'+','-'.'/'0%S&o'1'2'3$r#<'%'4'5'6'7'8'9!!!!!!!!!!!!!!!!!!!!!!!!!!!!!!!!!!!!!!!!!!!!!!!!!!!!!!!!!!!!!!",
"!!!!!!!!!!!!!!!!!!!!!!!!!!!!!!!!!!!!!!!!!!!!!!!!!!!!!!!!!!!!!!!!!!!!!!';'<'='>'?&4'@'A'B'C'D'E'F'G'H'I'J'1'K'3&X%}&s&9'L'M'N'O'P!!!!!!!!!!!!!!!!!!!!!!!!!!!!!!!!!!!!!!!!!!!!!!!!!!!!!!!!!!!!!!",
"!!!!!!!!!!!!!!!!!!!!!!!!!!!!!!!!!!!!!!!!!!!!!!!!!!!!!!!!!!!!!!!!!!!!!!'Q'R'S'T'U&4'I'V'W'X'Y'Z'[']']'^'_'1'2%|&t&X'`'a%Z%0'b'c'd!!!!!!!!!!!!!!!!!!!!!!!!!!!!!!!!!!!!!!!!!!!!!!!!!!!!!!!!!!!!!!",
"!!!!!!!!!!!!!!!!!!!!!!!!!!!!!!!!!!!!!!!!!!!!!!!!!!!!!!!!!!!!!!!!!!!!!!!!'f'g'h'i'j'k'^%t'l'm'n'o']'p'q'r's't'u'v'w$U'x'y'z'{'|!!!!!!!!!!!!!!!!!!!!!!!!!!!!!!!!!!!!!!!!!!!!!!!!!!!!!!!!!!!!!!!!",
"!!!!!!!!!!!!!!!!!!!!!!!!!!!!!!!!!!!!!!!!!!!!!!!!!!!!!!!!!!!!!!!!!!!!!!!!!!(#($(%(&(''q!j'I((()()!j(*(+(,(-(.%y(/$U'a(0(1(2!!!!!!!!!!!!!!!!!!!!!!!!!!!!!!!!!!!!!!!!!!!!!!!!!!!!!!!!!!!!!!!!!!!!",
"!!!!!!!!!!!!!!!!!!!!!!!!!!!!!!!!!!!!!!!!!!!!!!!!!!!!!!!!!!!!!!!!!!!!!!!!!!(6(7(8(9(:%R(;(<(=%R(;%<%<%j(>(?(@(A%N&9$r(B(C(D!!!!!!!!!!!!!!!!!!!!!!!!!!!!!!!!!!!!!!!!!!!!!!!!!!!!!!!!!!!!!!!!!!!!",
"!!!!!!!!!!!!!!!!!!!!!!!!!!!!!!!!!!!!!!!!!!!!!!!!!!!!!!!!!!!!!!!!!!!!!!!!!!(H(I$u(J(K(L(M(N(O(P%j#}(Q(R(S(L(T(U(V(W(X(Y(Z([(]!!!!!!!!!!!!!!!!!!!!!!!!!!!!!!!!!!!!!!!!!!!!!!!!!!!!!!!!!!!!!!!!!!",
"!!!!!!!!!!!!!!!!!!!!!!!!!!!!!!!!!!!!!!!!!!!!!!!!!!!!!!!!!!!!!!!!!!!!!!!!(a(b(c(d(e%](?(L(f(L(g(h%W(?(i&f(j(k(l(m(n(o(p(q(r(s!!!!!!!!!!!!!!!!!!!!!!!!!!!!!!!!!!!!!!!!!!!!!!!!!!!!!!!!!!!!!!!!!!",
"!!!!!!!!!!!!!!!!!!!!!!!!!!!!!!!!!!!!!!!!!!!!!!!!!!!!!!!!!!!!!!!!!!!!!!(v(w(x(y(z$w(?%]({({(J(|(|(A(J(}(~'V)!)#)$)%)&)')()))*!!!!!!!!!!!!!!!!!!!!!!!!!!!!!!!!!!!!!!!!!!!!!!!!!!!!!!!!!!!!!!!!!!",
"!!!!!!!!!!!!!!!!!!!!!!!!!!!!!!!!!!!!!!!!!!!!!!!!!!!!!!!!!!!!!!!!!!!!!!).)/)0)1)2)3)4)5)6)7)8)9):);)<)=)>)?)@)A)B)C)D)E)F)G)*!!!!!!!!!!!!!!!!!!!!!!!!!!!!!!!!!!!!!!!!!!!!!!!!!!!!!!!!!!!!!!!!!!",
"!!!!!!!!!!!!!!!!!!!!!!!!!!!!!!!!!!!!!!!!!!!!!!!!!!!!!!!!!!!!!!!!!!!!!!)J)K)L)M)N)O)P)Q%a)R%})S)T)U%x)V)W)X)Y)Z)[)])^)_)`)a)b!!!!!!!!!!!!!!!!!!!!!!!!!!!!!!!!!!!!!!!!!!!!!!!!!!!!!!!!!!!!!!!!!!",
"!!!!!!!!!!!!!!!!!!!!!!!!!!!!!!!!!!!!!!!!!!!!!!!!!!!!!!!!!!!!!!!!!!!!!!)d)e)f)g)h)i)j)k)l)m)n)o)p)q)r)s)t)u)v)w$l$})x)y)z){)|!!!!!!!!!!!!!!!!!!!!!!!!!!!!!!!!!!!!!!!!!!!!!!!!!!!!!!!!!!!!!!!!!!",
"!!!!!!!!!!!!!!!!!!!!!!!!!!!!!!!!!!!!!!!!!!!!!!!!!!!!!!!!!!!!!!!!!!!!!!*!*#*$*%*&(;*'*(*)(C***+*,*-*.*/*0(f%j$m'i*1*2*3*4*5!!!!!!!!!!!!!!!!!!!!!!!!!!!!!!!!!!!!!!!!!!!!!!!!!!!!!!!!!!!!!!!!!!!!",
"!!!!!!!!!!!!!!!!!!!!!!!!!!!!!!!!!!!!!!!!!!!!!!!!!!!!!!!!!!!!!!!!!!!!!!!!*8*9*:*;#A*<*=*>*?*@*A!!!!*D*E*F*G*H*I*J*K*L*M*N*O!!!!!!!!!!!!!!!!!!!!!!!!!!!!!!!!!!!!!!!!!!!!!!!!!!!!!!!!!!!!!!!!!!!!",
"!!!!!!!!!!!!!!!!!!!!!!!!!!!!!!!!!!!!!!!!!!!!!!!!!!!!!!!!!!!!!!!!!!!!!!!!!!*T*U*V*W*X*Y!!!!!!!!!!!!!!*[*]*^*_)z*`*a&t*b!!!!!!!!!!!!!!!!!!!!!!!!!!!!!!!!!!!!!!!!!!!!!!!!!!!!!!!!!!!!!!!!!!!!!!!!",
"!!!!!!!!!!!!!!!!!!!!!!!!!!!!!!!!!!!!!!!!!!!!!!!!!!!!!!!!!!!!!!!!!!!!!!!!!!!!!!!!!!!!!!!!!!!!!!!!!!!!!!!!!!*n*o*p*q*r!!!!!!!!!!!!!!!!!!!!!!!!!!!!!!!!!!!!!!!!!!!!!!!!!!!!!!!!!!!!!!!!!!!!!!!!!!",
"!!!!!!!!!!!!!!!!!!!!!!!!!!!!!!!!!!!!!!!!!!!!!!!!!!!!!!!!!!!!!!!!!!!!!!!!!!!!!!!!!!!!!!!!!!!!!!!!!!!!!!!!!!*w*D*x*y*z!!!!!!!!!!!!!!!!!!!!!!!!!!!!!!!!!!!!!!!!!!!!!!!!!!!!!!!!!!!!!!!!!!!!!!!!!!",
"!!!!!!!!!!!!!!!!!!!!!!!!!!!!!!!!!!!!!!!!!!!!!!!!!!!!!!!!!!!!!!!!!!!!!!!!!!!!!!!!!!!!!!!!!!!!!!!!!!!!!!!!!!!!!!!!!!!!!!!!!!!!!!!!!!!!!!!!!!!!!!!!!!!!!!!!!!!!!!!!!!!!!!!!!!!!!!!!!!!!!!!!!!!!!!",
"!!!!!!!!!!!!!!!!!!!!!!!!!!!!!!!!!!!!!!!!!!!!!!!!!!!!!!!!!!!!!!!!!!!!!!!!!!!!!!!!!!!!!!!!!!!!!!!!!!!!!!!!!!!!!!!!!!!!!!!!!!!!!!!!!!!!!!!!!!!!!!!!!!!!!!!!!!!!!!!!!!!!!!!!!!!!!!!!!!!!!!!!!!!!!!",
"!!!!!!!!!!!!!!!!!!!!!!!!!!!!!!!!!!!!!!!!!!!!!!!!!!!!!!!!!!!!!!!!!!!!!!!!!!!!!!!!!!!!!!!!!!!!!!!!!!!!!!!!!!!!!!!!!!!!!!!!!!!!!!!!!!!!!!!!!!!!!!!!!!!!!!!!!!!!!!!!!!!!!!!!!!!!!!!!!!!!!!!!!!!!!!",
"!!!!!!!!!!!!!!!!!!!!!!!!!!!!!!!!!!!!!!!!!!!!!!!!!!!!!!!!!!!!!!!!!!!!!!!!!!!!!!!!!!!!!!!!!!!!!!!!!!!!!!!!!!!!!!!!!!!!!!!!!!!!!!!!!!!!!!!!!!!!!!!!!!!!!!!!!!!!!!!!!!!!!!!!!!!!!!!!!!!!!!!!!!!!!!",
"!!!!!!!!!!!!!!!!!!!!!!!!!!!!!!!!!!!!!!!!!!!!!!!!!!!!!!!!!!!!!!!!!!!!!!!!!!!!!!!!!!!!!!!!!!!!!!!!!!!!!!!!!!!!!!!!!!!!!!!!!!!!!!!!!!!!!!!!!!!!!!!!!!!!!!!!!!!!!!!!!!!!!!!!!!!!!!!!!!!!!!!!!!!!!!",
"!!!!!!!!!!!!!!!!!!!!!!!!!!!!!!!!!!!!!!!!!!!!!!!!!!!!!!!!!!!!!!!!!!!!!!!!!!!!!!!!!!!!!!!!!!!!!!!!!!!!!!!!!!!!!!!!!!!!!!!!!!!!!!!!!!!!!!!!!!!!!!!!!!!!!!!!!!!!!!!!!!!!!!!!!!!!!!!!!!!!!!!!!!!!!!",
"!!!!!!!!!!!!!!!!!!!!!!!!!!!!!!!!!!!!!!!!!!!!!!!!!!!!!!!!!!!!!!!!!!!!!!!!!!!!!!!!!!!!!!!!!!!!!!!!!!!!!!!!!!!!!!!!!!!!!!!!!!!!!!!!!!!!!!!!!!!!!!!!!!!!!!!!!!!!!!!!!!!!!!!!!!!!!!!!!!!!!!!!!!!!!!",
"!!!!!!!!!!!!!!!!!!!!!!!!!!!!!!!!!!!!!!!!!!!!!!!!!!!!!!!!!!!!!!!!!!!!!!!!!!!!!!!!!!!!!!!!!!!!!!!!!!!!!!!!!!!!!!!!!!!!!!!!!!!!!!!!!!!!!!!!!!!!!!!!!!!!!!!!!!!!!!!!!!!!!!!!!!!!!!!!!!!!!!!!!!!!!!",
"!!!!!!!!!!!!!!!!!!!!!!!!!!!!!!!!!!!!!!!!!!!!!!!!!!!!!!!!!!!!!!!!!!!!!!!!!!!!!!!!!!!!!!!!!!!!!!!!!!!!!!!!!!!!!!!!!!!!!!!!!!!!!!!!!!!!!!!!!!!!!!!!!!!!!!!!!!!!!!!!!!!!!!!!!!!!!!!!!!!!!!!!!!!!!!",
"!!!!!!!!!!!!!!!!!!!!!!!!!!!!!!!!!!!!!!!!!!!!!!!!!!!!!!!!!!!!!!!!!!!!!!!!!!!!!!!!!!!!!!!!!!!!!!!!!!!!!!!!!!!!!!!!!!!!!!!!!!!!!!!!!!!!!!!!!!!!!!!!!!!!!!!!!!!!!!!!!!!!!!!!!!!!!!!!!!!!!!!!!!!!!!",
"!!!!!!!!!!!!!!!!!!!!!!!!!!!!!!!!!!!!!!!!!!!!!!!!!!!!!!!!!!!!!!!!!!!!!!!!!!!!!!!!!!!!!!!!!!!!!!!!!!!!!!!!!!!!!!!!!!!!!!!!!!!!!!!!!!!!!!!!!!!!!!!!!!!!!!!!!!!!!!!!!!!!!!!!!!!!!!!!!!!!!!!!!!!!!!",
"!!!!!!!!!!!!!!!!!!!!!!!!!!!!!!!!!!!!!!!!!!!!!!!!!!!!!!!!!!!!!!!!!!!!!!!!!!!!!!!!!!!!!!!!!!!!!!!!!!!!!!!!!!!!!!!!!!!!!!!!!!!!!!!!!!!!!!!!!!!!!!!!!!!!!!!!!!!!!!!!!!!!!!!!!!!!!!!!!!!!!!!!!!!!!!",
"!!!!!!!!!!!!!!!!!!!!!!!!!!!!!!!!!!!!!!!!!!!!!!!!!!!!!!!!!!!!!!!!!!!!!!!!!!!!!!!!!!!!!!!!!!!!!!!!!!!!!!!!!!!!!!!!!!!!!!!!!!!!!!!!!!!!!!!!!!!!!!!!!!!!!!!!!!!!!!!!!!!!!!!!!!!!!!!!!!!!!!!!!!!!!!",
"!!!!!!!!!!!!!!!!!!!!!!!!!!!!!!!!!!!!!!!!!!!!!!!!!!!!!!!!!!!!!!!!!!!!!!!!!!!!!!!!!!!!!!!!!!!!!!!!!!!!!!!!!!!!!!!!!!!!!!!!!!!!!!!!!!!!!!!!!!!!!!!!!!!!!!!!!!!!!!!!!!!!!!!!!!!!!!!!!!!!!!!!!!!!!!",
"!!!!!!!!!!!!!!!!!!!!!!!!!!!!!!!!!!!!!!!!!!!!!!!!!!!!!!!!!!!!!!!!!!!!!!!!!!!!!!!!!!!!!!!!!!!!!!!!!!!!!!!!!!!!!!!!!!!!!!!!!!!!!!!!!!!!!!!!!!!!!!!!!!!!!!!!!!!!!!!!!!!!!!!!!!!!!!!!!!!!!!!!!!!!!!",
"!!!!!!!!!!!!!!!!!!!!!!!!!!!!!!!!!!!!!!!!!!!!!!!!!!!!!!!!!!!!!!!!!!!!!!!!!!!!!!!!!!!!!!!!!!!!!!!!!!!!!!!!!!!!!!!!!!!!!!!!!!!!!!!!!!!!!!!!!!!!!!!!!!!!!!!!!!!!!!!!!!!!!!!!!!!!!!!!!!!!!!!!!!!!!!",
"!!!!!!!!!!!!!!!!!!!!!!!!!!!!!!!!!!!!!!!!!!!!!!!!!!!!!!!!!!!!!!!!!!!!!!!!!!!!!!!!!!!!!!!!!!!!!!!!!!!!!!!!!!!!!!!!!!!!!!!!!!!!!!!!!!!!!!!!!!!!!!!!!!!!!!!!!!!!!!!!!!!!!!!!!!!!!!!!!!!!!!!!!!!!!!",
"!!!!!!!!!!!!!!!!!!!!!!!!!!!!!!!!!!!!!!!!!!!!!!!!!!!!!!!!!!!!!!!!!!!!!!!!!!!!!!!!!!!!!!!!!!!!!!!!!!!!!!!!!!!!!!!!!!!!!!!!!!!!!!!!!!!!!!!!!!!!!!!!!!!!!!!!!!!!!!!!!!!!!!!!!!!!!!!!!!!!!!!!!!!!!!",
"!!!!!!!!!!!!!!!!!!!!!!!!!!!!!!!!!!!!!!!!!!!!!!!!!!!!!!!!!!!!!!!!!!!!!!!!!!!!!!!!!!!!!!!!!!!!!!!!!!!!!!!!!!!!!!!!!!!!!!!!!!!!!!!!!!!!!!!!!!!!!!!!!!!!!!!!!!!!!!!!!!!!!!!!!!!!!!!!!!!!!!!!!!!!!!",
"!!!!!!!!!!!!!!!!!!!!!!!!!!!!!!!!!!!!!!!!!!!!!!!!!!!!!!!!!!!!!!!!!!!!!!!!!!!!!!!!!!!!!!!!!!!!!!!!!!!!!!!!!!!!!!!!!!!!!!!!!!!!!!!!!!!!!!!!!!!!!!!!!!!!!!!!!!!!!!!!!!!!!!!!!!!!!!!!!!!!!!!!!!!!!!",
"!!!!!!!!!!!!!!!!!!!!!!!!!!!!!!!!!!!!!!!!!!!!!!!!!!!!!!!!!!!!!!!!!!!!!!!!!!!!!!!!!!!!!!!!!!!!!!!!!!!!!!!!!!!!!!!!!!!!!!!!!!!!!!!!!!!!!!!!!!!!!!!!!!!!!!!!!!!!!!!!!!!!!!!!!!!!!!!!!!!!!!!!!!!!!!",
"!!!!!!!!!!!!!!!!!!!!!!!!!!!!!!!!!!!!!!!!!!!!!!!!!!!!!!!!!!!!!!!!!!!!!!!!!!!!!!!!!!!!!!!!!!!!!!!!!!!!!!!!!!!!!!!!!!!!!!!!!!!!!!!!!!!!!!!!!!!!!!!!!!!!!!!!!!!!!!!!!!!!!!!!!!!!!!!!!!!!!!!!!!!!!!",
"!!!!!!!!!!!!!!!!!!!!!!!!!!!!!!!!!!!!!!!!!!!!!!!!!!!!!!!!!!!!!!!!!!!!!!!!!!!!!!!!!!!!!!!!!!!!!!!!!!!!!!!!!!!!!!!!!!!!!!!!!!!!!!!!!!!!!!!!!!!!!!!!!!!!!!!!!!!!!!!!!!!!!!!!!!!!!!!!!!!!!!!!!!!!!!",
"!!!!!!!!!!!!!!!!!!!!!!!!!!!!!!!!!!!!!!!!!!!!!!!!!!!!!!!!!!!!!!!!!!!!!!!!!!!!!!!!!!!!!!!!!!!!!!!!!!!!!!!!!!!!!!!!!!!!!!!!!!!!!!!!!!!!!!!!!!!!!!!!!!!!!!!!!!!!!!!!!!!!!!!!!!!!!!!!!!!!!!!!!!!!!!",
"!!!!!!!!!!!!!!!!!!!!!!!!!!!!!!!!!!!!!!!!!!!!!!!!!!!!!!!!!!!!!!!!!!!!!!!!!!!!!!!!!!!!!!!!!!!!!!!!!!!!!!!!!!!!!!!!!!!!!!!!!!!!!!!!!!!!!!!!!!!!!!!!!!!!!!!!!!!!!!!!!!!!!!!!!!!!!!!!!!!!!!!!!!!!!!",
"!!!!!!!!!!!!!!!!!!!!!!!!!!!!!!!!!!!!!!!!!!!!!!!!!!!!!!!!!!!!!!!!!!!!!!!!!!!!!!!!!!!!!!!!!!!!!!!!!!!!!!!!!!!!!!!!!!!!!!!!!!!!!!!!!!!!!!!!!!!!!!!!!!!!!!!!!!!!!!!!!!!!!!!!!!!!!!!!!!!!!!!!!!!!!!"
};