/* XPM */
static const char *acid_dragon_gunk_shot_f05[] = {
/* columns rows colors chars-per-pixel */
"95 97 4014 2",
"!! c None",
"!# c #404A83",
"!$ c #414983",
"!% c #3F4B83",
"!& c #48478E",
"!' c #2E526E",
"!( c #0D5F44",
"!) c #394D7B",
"!* c #4C4693",
"!+ c #414A85",
"!, c #165A51",
"!- c #245562",
"!. c #424A87",
"!/ c #404B84",
"!0 c #404A85",
"!1 c #43478B",
"!2 c #414986",
"!3 c #434784",
"!4 c #266082",
"!5 c #236282",
"!6 c #6E0E4B",
"!7 c #382407",
"!8 c #820664",
"!9 c #A3008E",
"!: c #8E0172",
"!; c #372604",
"!< c #5E1636",
"!= c #256182",
"!> c #226382",
"!? c #4A1F23",
"!@ c #541A30",
"!A c #8D0279",
"!B c #4D192B",
"!C c #372110",
"!D c #3D2511",
"!E c #2F3C00",
"!F c #65203A",
"!G c #8C0E6C",
"!H c #5E4116",
"!I c #83185B",
"!J c #246182",
"!K c #66134A",
"!L c #5E1B3C",
"!M c #6C2044",
"!N c #484701",
"!O c #2C4B00",
"!P c #2B3700",
"!Q c #5C2630",
"!R c #840F68",
"!S c #88106B",
"!T c #4A5200",
"!U c #801A5B",
"!V c #6B1B48",
"!W c #622339",
"!X c #791559",
"!Y c #7A1F51",
"!Z c #732843",
"![ c #732347",
"!] c #6A1A47",
"!^ c #651A42",
"!_ c #731454",
"!` c #7A115E",
"!a c #413C04",
"!b c #65580C",
"!c c #5C510A",
"!d c #4D2F1A",
"!e c #801C59",
"!f c #555401",
"!g c #7F2254",
"!h c #7C135D",
"!i c #394300",
"!j c #374100",
"!k c #5A272E",
"!l c #8B146A",
"!m c #574D09",
"!n c #4B5C00",
"!o c #4C5500",
"!p c #3F4800",
"!q c #374A00",
"!r c #4B3B0F",
"!s c #850870",
"!t c #6F2343",
"!u c #575602",
"!v c #707403",
"!w c #61560C",
"!x c #4E4804",
"!y c #495300",
"!z c #841861",
"!{ c #740C5D",
"!| c #322908",
"!} c #7D0B66",
"!~ c #842654",
"#! c #636400",
"## c #606300",
"#$ c #5F6100",
"#% c #626400",
"#& c #6C7102",
"#' c #727902",
"#( c #626602",
"#) c #332909",
"#* c #70055F",
"#+ c #8A3E48",
"#, c #6C5C12",
"#- c #617000",
"#. c #757904",
"#/ c #657400",
"#0 c #64560F",
"#1 c #782649",
"#2 c #6C2143",
"#3 c #631D3E",
"#4 c #68134C",
"#5 c #940087",
"#6 c #8F0A77",
"#7 c #6E2B3B",
"#8 c #77343C",
"#9 c #813048",
"#: c #833745",
"#; c #72690D",
"#< c #6B7300",
"#= c #6D6F02",
"#> c #767A04",
"#? c #747703",
"#@ c #666B00",
"#A c #4C5900",
"#B c #6A5319",
"#C c #8C3651",
"#D c #8A0577",
"#E c #5D173F",
"#F c #860771",
"#G c #9C4D4F",
"#H c #9B385F",
"#I c #921373",
"#J c #941970",
"#K c #901470",
"#L c #6D7103",
"#M c #718200",
"#N c #7A7D06",
"#O c #777B05",
"#P c #758600",
"#Q c #865830",
"#R c #9F0093",
"#S c #5C2332",
"#T c #572929",
"#U c #8E037D",
"#V c #920380",
"#W c #742A43",
"#X c #506000",
"#Y c #5C7400",
"#Z c #763838",
"#[ c #880476",
"#] c #756316",
"#^ c #768300",
"#_ c #7C8106",
"#` c #797E05",
"#a c #6C6F01",
"#b c #676B00",
"#c c #777E01",
"#d c #777B04",
"#e c #7C5528",
"#f c #8B0F6F",
"#g c #671549",
"#h c #273100",
"#i c #770E5E",
"#j c #847A15",
"#k c #896E23",
"#l c #911670",
"#m c #90186D",
"#n c #766E0E",
"#o c #7F8A02",
"#p c #8F5938",
"#q c #8B0D71",
"#r c #534A08",
"#s c #6C7600",
"#t c #878B08",
"#u c #838708",
"#v c #819100",
"#w c #8A622C",
"#x c #9D008E",
"#y c #9F0094",
"#z c #730D5B",
"#{ c #312908",
"#| c #473F06",
"#} c #615C07",
"#~ c #737803",
"$! c #787E03",
"$# c #535007",
"$$ c #322709",
"$% c #595801",
"$& c #828506",
"$' c #979C0C",
"$( c #898D09",
"$) c #798102",
"$* c #707D00",
"$+ c #8D3156",
"$, c #8A106D",
"$- c #56490C",
"$. c #3B3505",
"$/ c #2F2E01",
"$0 c #3A3A00",
"$1 c #810F67",
"$2 c #3E2417",
"$3 c #516600",
"$4 c #9C8B1E",
"$5 c #786B13",
"$6 c #727D00",
"$7 c #7E522D",
"$8 c #882F52",
"$9 c #7F671D",
"$: c #818D01",
"$; c #667700",
"$< c #64570D",
"$= c #773937",
"$> c #561E31",
"$? c #680558",
"$@ c #890062",
"$A c #7D0055",
"$B c #7A0055",
"$C c #820057",
"$D c #6C630C",
"$E c #707B00",
"$F c #7E8206",
"$G c #848808",
"$H c #8C9505",
"$I c #7C6F15",
"$J c #561A36",
"$K c #611742",
"$L c #562927",
"$M c #3A4300",
"$N c #586400",
"$O c #6F7700",
"$P c #6E7003",
"$Q c #5D6300",
"$R c #535D00",
"$S c #6A6E01",
"$T c #616304",
"$U c #525504",
"$V c #555B00",
"$W c #774134",
"$X c #922B60",
"$Y c #8D2E5A",
"$Z c #9D038B",
"$[ c #900B76",
"$] c #5A5D00",
"$^ c #2E3E00",
"$_ c #293100",
"$` c #4A4A00",
"$a c #563121",
"$b c #78115C",
"$c c #760167",
"$d c #5B3028",
"$e c #5B6500",
"$f c #815B29",
"$g c #97226C",
"$h c #79333E",
"$i c #86205B",
"$j c #931473",
"$k c #718000",
"$l c #749100",
"$m c #80800A",
"$n c #8A5D30",
"$o c #941B6E",
"$p c #844140",
"$q c #76730B",
"$r c #757807",
"$s c #686C04",
"$t c #636A00",
"$u c #636F00",
"$v c #3C5100",
"$w c #583522",
"$x c #9B1E73",
"$y c #8E0171",
"$z c #700C38",
"${ c #620D22",
"$| c #5F0A22",
"$} c #670D27",
"$~ c #7E0659",
"%! c #851A63",
"%# c #68630B",
"%$ c #6D7A00",
"%% c #7B8203",
"%& c #858A08",
"%' c #808308",
"%( c #5D6202",
"%) c #2E3A00",
"%* c #454C00",
"%+ c #5C5D01",
"%, c #6A6D03",
"%- c #727604",
"%. c #737704",
"%/ c #686901",
"%0 c #6E7002",
"%1 c #7A7E04",
"%2 c #7A7F05",
"%3 c #525402",
"%4 c #2C2D00",
"%5 c #363C00",
"%6 c #6B1C43",
"%7 c #950081",
"%8 c #90037A",
"%9 c #91037D",
"%: c #862557",
"%; c #6B6A03",
"%< c #454B00",
"%= c #3A3900",
"%> c #4C4C00",
"%? c #384C00",
"%@ c #503618",
"%A c #89116C",
"%B c #A20098",
"%C c #7C135E",
"%D c #495200",
"%E c #799500",
"%F c #936136",
"%G c #902165",
"%H c #6C6F00",
"%I c #803D3D",
"%J c #882659",
"%K c #7D5728",
"%L c #81800C",
"%M c #858E05",
"%N c #877718",
"%O c #96216B",
"%P c #830C6B",
"%Q c #871368",
"%R c #7C0F61",
"%S c #3E3C02",
"%T c #909B0E",
"%U c #A7AE14",
"%V c #7B7F05",
"%W c #899305",
"%X c #958D16",
"%Y c #8E0074",
"%Z c #710735",
"%[ c #562B1E",
"%] c #553411",
"%^ c #5C310E",
"%_ c #533218",
"%` c #54321D",
"%a c #4B3017",
"%b c #2D2A02",
"%c c #5F6601",
"%d c #8B9306",
"%e c #565803",
"%f c #373700",
"%g c #464500",
"%h c #5E5F01",
"%i c #747804",
"%j c #575801",
"%k c #5B5D01",
"%l c #747704",
"%m c #757A04",
"%n c #6C6E02",
"%o c #5E5E00",
"%p c #505200",
"%q c #59400D",
"%r c #64341A",
"%s c #633518",
"%t c #62371F",
"%u c #674D1A",
"%v c #6B6E00",
"%w c #555400",
"%x c #3B3B00",
"%y c #474A00",
"%z c #4D5600",
"%{ c #534D05",
"%| c #890376",
"%} c #9A3263",
"%~ c #919C06",
"&! c #949F07",
"&# c #8D910A",
"&$ c #84850B",
"&% c #839001",
"&& c #90424C",
"&' c #774031",
"&( c #6B5415",
"&) c #960185",
"&* c #8C5E32",
"&+ c #87741A",
"&, c #970782",
"&- c #A10098",
"&. c #7B115F",
"&/ c #3E3904",
"&0 c #830B6C",
"&1 c #821B5C",
"&2 c #514F02",
"&3 c #871269",
"&4 c #800E66",
"&5 c #454400",
"&6 c #904150",
"&7 c #A04C55",
"&8 c #686B00",
"&9 c #747A02",
"&: c #849300",
"&; c #869900",
"&< c #5B3625",
"&= c #52152D",
"&> c #5A281D",
"&? c #494A0A",
"&@ c #485303",
"&A c #4C5103",
"&B c #485106",
"&C c #3F4805",
"&D c #353C01",
"&E c #2E3600",
"&F c #722A43",
"&G c #943857",
"&H c #666406",
"&I c #4A4E00",
"&J c #494900",
"&K c #616403",
"&L c #6B6E03",
"&M c #666902",
"&N c #5B5C01",
"&O c #656602",
"&P c #707203",
"&Q c #787B04",
"&R c #787A04",
"&S c #7F8206",
"&T c #818307",
"&U c #686A01",
"&V c #6B6C01",
"&W c #6D7102",
"&X c #4D5D00",
"&Y c #424B01",
"&Z c #404102",
"&[ c #414202",
"&] c #3E4403",
"&^ c #494608",
"&_ c #674E0F",
"&` c #787802",
"&a c #738400",
"&b c #606203",
"&c c #7C2B4A",
"&d c #870F6A",
"&e c #821B5D",
"&f c #9A5A47",
"&g c #A18F23",
"&h c #9B9A12",
"&i c #9C3B5E",
"&j c #8B4D3E",
"&k c #5A6100",
"&l c #4C3913",
"&m c #5C1440",
"&n c #951177",
"&o c #7E3046",
"&p c #73442A",
"&q c #8A394B",
"&r c #9D1B77",
"&s c #9A008E",
"&t c #7A1F52",
"&u c #5E4A12",
"&v c #575D00",
"&w c #8F146E",
"&x c #970384",
"&y c #7D1E54",
"&z c #881765",
"&{ c #575601",
"&| c #6B124D",
"&} c #731552",
"&~ c #666900",
"'! c #867618",
"'# c #875E2D",
"'$ c #333900",
"'% c #2C2E00",
"'& c #4E3B15",
"'' c #445A01",
"'( c #426200",
"') c #436000",
"'* c #446000",
"'+ c #3B5600",
"', c #364800",
"'- c #3F3900",
"'. c #71114E",
"'/ c #7D0D63",
"'0 c #484303",
"'1 c #515700",
"'2 c #676A02",
"'3 c #636502",
"'4 c #656C03",
"'5 c #6B7503",
"'6 c #687203",
"'7 c #677103",
"'8 c #6E7804",
"'9 c #757E06",
"': c #777806",
"'; c #787805",
"'< c #6D7403",
"'= c #486000",
"'> c #364E00",
"'? c #304300",
"'@ c #314600",
"'A c #2F4700",
"'B c #393F03",
"'C c #583215",
"'D c #7F512B",
"'E c #8B7321",
"'F c #797D05",
"'G c #7F294F",
"'H c #840079",
"'I c #88126A",
"'J c #9E901F",
"'K c #99B300",
"'L c #878010",
"'M c #8E2163",
"'N c #8C4446",
"'O c #768100",
"'P c #414200",
"'Q c #233100",
"'R c #2F2A04",
"'S c #721058",
"'T c #98008F",
"'U c #980980",
"'V c #704F1E",
"'W c #732346",
"'X c #88007F",
"'Y c #9C008E",
"'Z c #613626",
"'[ c #425C00",
"'] c #555900",
"'^ c #6C2342",
"'_ c #88007A",
"'` c #9E0092",
"'a c #91156F",
"'b c #88215C",
"'c c #8A1B62",
"'d c #8C1B65",
"'e c #656302",
"'f c #363B00",
"'g c #3E3E01",
"'h c #819000",
"'i c #92553E",
"'j c #940086",
"'k c #3F201B",
"'l c #343002",
"'m c #513817",
"'n c #465604",
"'o c #435F00",
"'p c #445C00",
"'q c #465300",
"'r c #4F2B03",
"'s c #522C12",
"'t c #4A3515",
"'u c #3B3A01",
"'v c #606402",
"'w c #797E04",
"'x c #585901",
"'y c #5B5B01",
"'z c #737804",
"'{ c #506401",
"'| c #415A00",
"'} c #3F5800",
"'~ c #4D6402",
"(! c #9AA012",
"(# c #95960D",
"($ c #6B7102",
"(% c #495F00",
"(& c #384D00",
"(' c #334200",
"(( c #344400",
"() c #324500",
"(* c #394202",
"(+ c #4E3515",
"(, c #84086E",
"(- c #95216B",
"(. c #494F00",
"(/ c #3C3B00",
"(0 c #535201",
"(1 c #898C0A",
"(2 c #858808",
"(3 c #636300",
"(4 c #6E7103",
"(5 c #8D910B",
"(6 c #484902",
"(7 c #2E2E00",
"(8 c #292C00",
"(9 c #272E00",
"(: c #6A134E",
"(; c #A20095",
"(< c #9C008C",
"(= c #4C1F28",
"(> c #42221C",
"(? c #5E2930",
"(@ c #303C00",
"(A c #2C2C00",
"(B c #242F00",
"(C c #541836",
"(D c #990387",
"(E c #724E20",
"(F c #5E7000",
"(G c #695C0A",
"(H c #9A0773",
"(I c #77224C",
"(J c #654E16",
"(K c #687100",
"(L c #757C04",
"(M c #8C900A",
"(N c #6F7502",
"(O c #4F410C",
"(P c #410B2A",
"(Q c #6C0060",
"(R c #6D134D",
"(S c #563B17",
"(T c #564A0E",
"(U c #454D04",
"(V c #425A00",
"(W c #445E00",
"(X c #445800",
"(Y c #474B01",
"(Z c #454D03",
"([ c #425102",
"(] c #405100",
"(^ c #3F4601",
"(_ c #424201",
"(` c #4A4B01",
"(a c #616402",
"(b c #747604",
"(c c #767904",
"(d c #516501",
"(e c #344B00",
"(f c #263600",
"(g c #2B3E00",
"(h c #657C05",
"(i c #919C0F",
"(j c #9AA013",
"(k c #5E7902",
"(l c #3F5600",
"(m c #2F3E00",
"(n c #263400",
"(o c #223200",
"(p c #2F3305",
"(q c #503318",
"(r c #752C3D",
"(s c #783935",
"(t c #5A5901",
"(u c #5C6500",
"(v c #747D03",
"(w c #90990B",
"(x c #868C08",
"(y c #717203",
"(z c #606000",
"({ c #707800",
"(| c #666D01",
"(} c #4D4D03",
"(~ c #323200",
")! c #2B2A01",
")# c #2A2D00",
")$ c #203100",
")% c #2D2C01",
")& c #5B183B",
")' c #A20097",
")( c #511C30",
")) c #223000",
")* c #491E26",
")+ c #332C06",
"), c #45241E",
")- c #80076C",
"). c #770C60",
")/ c #880575",
")0 c #4B3315",
")1 c #523916",
")2 c #8D1C64",
")3 c #5E2D2B",
")4 c #777C04",
")5 c #808406",
")6 c #8A8E08",
")7 c #535200",
")8 c #414B00",
")9 c #606718",
"): c #A6476C",
"); c #9D4D54",
")< c #705B17",
")= c #7B2E42",
")> c #5C2B2D",
")? c #3A4004",
")@ c #425900",
")A c #476200",
")B c #4A6400",
")C c #496700",
")D c #496600",
")E c #4A6700",
")F c #4C6800",
")G c #343D00",
")H c #2B2900",
")I c #3D3C00",
")J c #5D5E02",
")K c #6F7403",
")L c #6A7603",
")M c #4F6601",
")N c #354A00",
")O c #232E00",
")P c #202800",
")Q c #262D00",
")R c #334000",
")S c #486500",
")T c #94A512",
")U c #B9BE1F",
")V c #5D6E03",
")W c #3B4E00",
")X c #2D3D00",
")Y c #1F2B00",
")Z c #1A2700",
")[ c #272D04",
")] c #453810",
")^ c #594B10",
")_ c #5B5609",
")` c #505900",
")a c #626701",
")b c #7C7E08",
")c c #8E910F",
")d c #6E7105",
")e c #666801",
")f c #727403",
")g c #676A04",
")h c #454600",
")i c #3A3B00",
")j c #2E3200",
")k c #312907",
")l c #511D2F",
")m c #4F1E2C",
")n c #531C31",
")o c #6F1155",
")p c #631546",
")q c #482321",
")r c #2B3500",
")s c #243700",
")t c #412817",
")u c #790D61",
")v c #9E0091",
")w c #9C018B",
")x c #761656",
")y c #2C2902",
")z c #4F1733",
"){ c #59242F",
")| c #445000",
")} c #7D8206",
")~ c #70711F",
"*! c #D7DB52",
"*# c #D5D840",
"*$ c #B4C11B",
"*% c #938B14",
"*& c #9A127B",
"*' c #750D5B",
"*( c #4A3C0F",
"*) c #445701",
"** c #4F6C00",
"*+ c #5A7700",
"*, c #597500",
"*- c #597600",
"*. c #454F00",
"*/ c #413F00",
"*0 c #515100",
"*1 c #514F00",
"*2 c #577400",
"*3 c #3D5200",
"*4 c #2D3000",
"*5 c #292600",
"*6 c #2F3100",
"*7 c #4B6400",
"*8 c #98AA14",
"*9 c #B7B921",
"*: c #4A4904",
"*; c #323A00",
"*< c #314100",
"*= c #222E00",
"*> c #1E2900",
"*? c #243100",
"*@ c #334300",
"*A c #3E5400",
"*B c #4B6700",
"*C c #587500",
"*D c #525A00",
"*E c #4E4C00",
"*F c #4E4E00",
"*G c #4C4B00",
"*H c #646603",
"*I c #858908",
"*J c #565700",
"*K c #343E00",
"*L c #392314",
"*M c #8E047C",
"*N c #A50098",
"*O c #800A6A",
"*P c #2E2B02",
"*Q c #720E59",
"*R c #890C70",
"*S c #3D3B02",
"*T c #3B3F00",
"*U c #353800",
"*V c #2D2B02",
"*W c #81086D",
"*X c #7E145E",
"*Y c #373E00",
"*Z c #273300",
"*[ c #59183A",
"*] c #7B5F1F",
"*^ c #91315A",
"*_ c #542C24",
"*` c #811164",
"*a c #471E25",
"*b c #5D5908",
"*c c #5F6400",
"*d c #3C3D01",
"*e c #929416",
"*f c #C2C521",
"*g c #B4B81D",
"*h c #949812",
"*i c #9FA31A",
"*j c #C4C82C",
"*k c #C2C926",
"*l c #B1BA16",
"*m c #8E8F0D",
"*n c #4F2A20",
"*o c #3F2D16",
"*p c #475304",
"*q c #4A4F00",
"*r c #5B6E00",
"*s c #698900",
"*t c #678600",
"*u c #688700",
"*v c #638200",
"*w c #587400",
"*x c #565F00",
"*y c #5E5D00",
"*z c #6C6D03",
"*{ c #646F02",
"*| c #557200",
"*} c #456100",
"*~ c #3A5000",
"+! c #334100",
"+# c #2E3000",
"+$ c #2B2700",
"+% c #415700",
"+& c #6E7F07",
"+' c #84860B",
"+( c #504F01",
"+) c #464700",
"+* c #424800",
"++ c #2F3D00",
"+, c #212E00",
"+- c #324300",
"+. c #486200",
"+/ c #577500",
"+0 c #515800",
"+1 c #4C4A00",
"+2 c #5D5D00",
"+3 c #616201",
"+4 c #5A5B02",
"+5 c #4D4E02",
"+6 c #535402",
"+7 c #565701",
"+8 c #363600",
"+9 c #2A2C00",
"+: c #302A05",
"+; c #442020",
"+< c #452120",
"+= c #551B34",
"+> c #83086E",
"+? c #5D183E",
"+@ c #342A09",
"+A c #2E2F00",
"+B c #6F174F",
"+C c #7C0C64",
"+D c #5A282C",
"+E c #363800",
"+F c #283300",
"+G c #6A144D",
"+H c #834D35",
"+I c #783143",
"+J c #621545",
"+K c #57262B",
"+L c #621248",
"+M c #262C00",
"+N c #4F5002",
"+O c #262600",
"+P c #778110",
"+Q c #BAC520",
"+R c #CED028",
"+S c #A9AC16",
"+T c #9A9D0E",
"+U c #A2A511",
"+V c #A8AA14",
"+W c #A2A412",
"+X c #868A09",
"+Y c #3C4F00",
"+Z c #365400",
"+[ c #4D6700",
"+] c #555300",
"+^ c #677600",
"+_ c #749A00",
"+` c #729600",
"+a c #749700",
"+b c #6D9000",
"+c c #5F7D00",
"+d c #6A7502",
"+e c #767704",
"+f c #7C8006",
"+g c #7E7F06",
"+h c #737E04",
"+i c #5E7C00",
"+j c #5C7001",
"+k c #4F6001",
"+l c #394D00",
"+m c #2A3200",
"+n c #2D2F00",
"+o c #3B5200",
"+p c #576500",
"+q c #696800",
"+r c #595900",
"+s c #5D5C01",
"+t c #5A5F01",
"+u c #405600",
"+v c #2C3D00",
"+w c #253100",
"+x c #303F00",
"+y c #4C6400",
"+z c #5B7900",
"+{ c #586000",
"+| c #505000",
"+} c #525200",
"+~ c #535300",
",! c #3F3E00",
",# c #424100",
",$ c #4B4B00",
",% c #484A02",
",& c #373802",
",' c #282A00",
",( c #2A3400",
",) c #213400",
",* c #33280A",
",+ c #6E1154",
",, c #611643",
",- c #412618",
",. c #2C3400",
",/ c #591A38",
",0 c #6D1E46",
",1 c #4F2822",
",2 c #571838",
",3 c #5C153F",
",4 c #263300",
",5 c #403807",
",6 c #333300",
",7 c #272D00",
",8 c #2A2A00",
",9 c #282800",
",: c #2C2B00",
",; c #3F5500",
",< c #7A910B",
",= c #BEC322",
",> c #85890C",
",? c #6F7402",
",@ c #818607",
",A c #8F950A",
",B c #8E930A",
",C c #7F8607",
",D c #657E03",
",E c #5A7801",
",F c #5A7100",
",G c #636600",
",H c #748A00",
",I c #80AB01",
",J c #7EA701",
",K c #7FA801",
",L c #7AA100",
",M c #6D8F00",
",N c #7D8A06",
",O c #888909",
",P c #878B09",
",Q c #7D8D05",
",R c #6E8E00",
",S c #889208",
",T c #737C07",
",U c #243300",
",V c #222700",
",W c #2F3200",
",X c #425700",
",Y c #566400",
",Z c #656500",
",[ c #666600",
",] c #747D05",
",^ c #637D04",
",_ c #475D01",
",` c #364700",
",a c #4E6600",
",b c #5A7400",
",c c #5F5D00",
",d c #3F3F00",
",e c #4F4F01",
",f c #686801",
",g c #585800",
",h c #3D3D00",
",i c #353500",
",j c #7A0B64",
",k c #44380B",
",l c #253700",
",m c #482024",
",n c #763E31",
",o c #746B0D",
",p c #896727",
",q c #5D1E38",
",r c #3D3209",
",s c #8C0A74",
",t c #541D31",
",u c #1D3200",
",v c #232B00",
",w c #222900",
",x c #3B4C00",
",y c #557102",
",z c #6E8806",
",{ c #546A02",
",| c #4D6300",
",} c #5D7700",
",~ c #759800",
"-! c #749600",
"-# c #768F04",
"-$ c #B3BD1E",
"-% c #929512",
"-& c #5E6700",
"-' c #739300",
"-( c #86AF05",
"-) c #92BE0C",
"-* c #96C00E",
"-+ c #96BF0E",
"-, c #8CB508",
"-- c #789F00",
"-. c #869506",
"-/ c #90900A",
"-0 c #8E920A",
"-1 c #93AE0E",
"-2 c #88B108",
"-3 c #7CA201",
"-4 c #BAC51C",
"-5 c #909017",
"-6 c #2B2F00",
"-7 c #272900",
"-8 c #2A3100",
"-9 c #394600",
"-: c #697103",
"-; c #677702",
"-< c #5D7301",
"-= c #7B8006",
"-> c #7D8004",
"-? c #8F9310",
"-@ c #C2C731",
"-A c #8B9F15",
"-B c #5A7900",
"-C c #5D7C00",
"-D c #618400",
"-E c #688300",
"-F c #6E7603",
"-G c #646500",
"-H c #484900",
"-I c #696C04",
"-J c #838609",
"-K c #8D900A",
"-L c #7E8107",
"-M c #797C06",
"-N c #6E6F02",
"-O c #555500",
"-P c #444400",
"-Q c #4D4D00",
"-R c #3C4400",
"-S c #442D15",
"-T c #7E0B67",
"-U c #960086",
"-V c #9B008C",
"-W c #8D047B",
"-X c #472C18",
"-Y c #4E2A20",
"-Z c #941177",
"-[ c #843848",
"-] c #595105",
"-^ c #667D00",
"-_ c #919908",
"-` c #9E6144",
"-a c #9E2472",
"-b c #76363C",
"-c c #595606",
"-d c #6B144E",
"-e c #680A53",
"-f c #591938",
"-g c #402F0F",
"-h c #252800",
"-i c #1D2300",
"-j c #374900",
"-k c #3C5300",
"-l c #3C4B00",
"-m c #3D5500",
"-n c #526A00",
"-o c #768707",
"-p c #9DB522",
"-q c #8AAA16",
"-r c #6B8D00",
"-s c #96A714",
"-t c #85890D",
"-u c #6A6C00",
"-v c #7E9502",
"-w c #A4BC19",
"-x c #B3C824",
"-y c #8EA30D",
"-z c #98B817",
"-{ c #9CC519",
"-| c #87B205",
"-} c #9EAF10",
"-~ c #AFAF19",
".! c #AFB119",
".# c #AFC01A",
".$ c #98B70F",
".% c #789D00",
".& c #99AF12",
".' c #72790F",
".( c #272400",
".) c #2A2700",
".* c #2F3700",
".+ c #384900",
"., c #515202",
".- c #556501",
".. c #5E7A01",
"./ c #838808",
".0 c #8C8E08",
".1 c #8B8E0E",
".2 c #8D8A22",
".3 c #7A8E0E",
".4 c #789901",
".5 c #94A70E",
".6 c #8FA20C",
".7 c #839008",
".8 c #7C7C06",
".9 c #8C8C11",
".: c #909019",
".; c #888819",
".< c #8D900D",
".= c #8E9207",
".> c #8C9007",
".? c #8F930A",
".@ c #828607",
".A c #686803",
".B c #717404",
".C c #515900",
".D c #3E5300",
".E c #543B16",
".F c #9B008A",
".G c #A00096",
".H c #95097D",
".I c #882856",
".J c #5E4913",
".K c #4F400E",
".L c #65104C",
".M c #8C2F57",
".N c #718100",
".O c #585E00",
".P c #6C6C06",
".Q c #94990B",
".R c #9FB503",
".S c #9D5E46",
".T c #874143",
".U c #607200",
".V c #2A3900",
".W c #6C1250",
".X c #920D76",
".Y c #52311C",
".Z c #403C06",
".[ c #353601",
".] c #2B2B00",
".^ c #495A06",
"._ c #495906",
".` c #354600",
".a c #5E6F01",
".b c #999E0F",
".c c #CFCF48",
".d c #ADBB33",
".e c #678500",
".f c #527200",
".g c #627401",
".h c #7B7D05",
".i c #7C8105",
".j c #ABAE24",
".k c #B9BA2F",
".l c #737605",
".m c #89A116",
".n c #A3CB24",
".o c #9FC315",
".p c #B9C81F",
".q c #C8CB25",
".r c #C0C822",
".s c #B9BD1E",
".t c #98A511",
".u c #668500",
".v c #557500",
".w c #3F5100",
".x c #292A00",
".y c #292900",
".z c #324100",
".{ c #3E4E00",
".| c #607B01",
".} c #7D8705",
".~ c #999E0C",
"/! c #282700",
"/# c #435800",
"/$ c #7F9A07",
"/% c #B0B61A",
"/& c #ADB217",
"/' c #979E0E",
"/( c #878E09",
"/) c #BDBF31",
"/* c #DBDA44",
"/+ c #D1D13A",
"/, c #A6A917",
"/- c #8E920B",
"/. c #8B8F0E",
"// c #94980D",
"/0 c #91950B",
"/1 c #7D8107",
"/2 c #727505",
"/3 c #8D8E0C",
"/4 c #5C4F0D",
"/5 c #504A05",
"/6 c #643B25",
"/7 c #950382",
"/8 c #9F0098",
"/9 c #8A1A65",
"/: c #626700",
"/; c #676F00",
"/< c #2C3300",
"/= c #7B0B64",
"/> c #8F2E59",
"/? c #818B02",
"/@ c #979F0D",
"/A c #87880C",
"/B c #696C00",
"/C c #738B00",
"/D c #884A3D",
"/E c #601940",
"/F c #2C4000",
"/G c #444800",
"/H c #61540C",
"/I c #5D4911",
"/J c #2D2803",
"/K c #8D8F18",
"/L c #969919",
"/M c #2A2800",
"/N c #9B9C38",
"/O c #A9B539",
"/P c #292E00",
"/Q c #414C00",
"/R c #789303",
"/S c #B4BA21",
"/T c #A9AA1B",
"/U c #768003",
"/V c #567200",
"/W c #748506",
"/X c #91940B",
"/Y c #647A02",
"/Z c #637E05",
"/[ c #688107",
"/] c #5C7401",
"/^ c #6E9200",
"/_ c #97B811",
"/` c #CBCF35",
"/a c #CBCB2B",
"/b c #B0BD16",
"/c c #88AC05",
"/d c #7E9E03",
"/e c #698402",
"/f c #4A6300",
"/g c #2E3D00",
"/h c #202B00",
"/i c #202B01",
"/j c #222C00",
"/k c #293500",
"/l c #4E6801",
"/m c #678F00",
"/n c #A0B40E",
"/o c #A2A119",
"/p c #312F01",
"/q c #577401",
"/r c #799704",
"/s c #7FA202",
"/t c #85AB03",
"/u c #96B90F",
"/v c #C8D352",
"/w c #DCDA5F",
"/x c #CECE38",
"/y c #B4B71C",
"/z c #B8BD2B",
"/{ c #C3C843",
"/| c #A0A417",
"/} c #8F9307",
"/~ c #808307",
"0! c #575701",
"0# c #645113",
"0$ c #8A116D",
"0% c #91077C",
"0& c #91097A",
"0' c #980087",
"0( c #9C0093",
"0) c #8A1866",
"0* c #626200",
"0+ c #616800",
"0, c #5E6500",
"0- c #5B5B00",
"0. c #8C156B",
"0/ c #933558",
"00 c #8EA000",
"01 c #A9BC09",
"02 c #8C9905",
"03 c #615A04",
"04 c #7F3C3E",
"05 c #883F45",
"06 c #6E2741",
"07 c #5C1C3A",
"08 c #616600",
"09 c #728300",
"0: c #697200",
"0; c #3B3D00",
"0< c #83850F",
"0= c #8F9610",
"0> c #435100",
"0? c #859421",
"0@ c #839122",
"0A c #354100",
"0B c #4B6100",
"0C c #6C8D00",
"0D c #8DA807",
"0E c #A7B313",
"0F c #A8A918",
"0G c #727E06",
"0H c #6B7B03",
"0I c #6F8205",
"0J c #506B00",
"0K c #3D5300",
"0L c #5C7E00",
"0M c #759305",
"0N c #94A11D",
"0O c #7B7C16",
"0P c #677008",
"0Q c #658900",
"0R c #5B7D00",
"0S c #466000",
"0T c #2F3F00",
"0U c #2E3700",
"0V c #252C00",
"0W c #212D00",
"0X c #431F22",
"0Y c #621742",
"0Z c #3F3E0B",
"0[ c #365800",
"0] c #495D02",
"0^ c #7B4440",
"0_ c #847427",
"0` c #6A8601",
"0a c #3C5000",
"0b c #455700",
"0c c #738602",
"0d c #92B008",
"0e c #9BC512",
"0f c #C4C53C",
"0g c #CFC242",
"0h c #BFC229",
"0i c #BEC21E",
"0j c #D0D341",
"0k c #D8DA63",
"0l c #939719",
"0m c #767900",
"0n c #6A6C02",
"0o c #4A4B00",
"0p c #354000",
"0q c #472E15",
"0r c #98008C",
"0s c #A800A3",
"0t c #A00095",
"0u c #9F0097",
"0v c #951D6C",
"0w c #747D00",
"0x c #6C7800",
"0y c #6D7100",
"0z c #707103",
"0{ c #67352D",
"0| c #780D60",
"0} c #972E62",
"0~ c #96881B",
"1! c #A49423",
"1# c #87850F",
"1$ c #645C05",
"1% c #871267",
"1& c #786815",
"1' c #8C3254",
"1( c #7E6022",
"1) c #7C8007",
"1* c #727803",
"1+ c #676702",
"1, c #6F7A02",
"1- c #5B7800",
"1. c #557600",
"1/ c #313400",
"10 c #556802",
"11 c #6A8901",
"12 c #6E9000",
"13 c #709A00",
"14 c #97B20E",
"15 c #B6BD20",
"16 c #7F8309",
"17 c #677601",
"18 c #5C7702",
"19 c #476100",
"1: c #363B01",
"1; c #312B02",
"1< c #3D4F00",
"1= c #4B6500",
"1> c #547100",
"1? c #527000",
"1@ c #333E00",
"1A c #323B00",
"1B c #567100",
"1C c #4C6600",
"1D c #344800",
"1E c #1D2800",
"1F c #2D2B00",
"1G c #243000",
"1H c #651547",
"1I c #9A008A",
"1J c #392213",
"1K c #273700",
"1L c #4E2F27",
"1M c #96008B",
"1N c #742252",
"1O c #3F4E06",
"1P c #344301",
"1Q c #324200",
"1R c #2D3600",
"1S c #262400",
"1T c #6B6A07",
"1U c #95A60C",
"1V c #94BC0E",
"1W c #BAB51B",
"1X c #C3B21F",
"1Y c #B2B71A",
"1Z c #BCC11C",
"1[ c #CCCE3E",
"1] c #CACA59",
"1^ c #878B15",
"1_ c #6F7100",
"1` c #454500",
"1a c #2B3300",
"1b c #382511",
"1c c #850E6B",
"1d c #91087A",
"1e c #8E0779",
"1f c #8F0083",
"1g c #88225E",
"1h c #89751C",
"1i c #7B7E06",
"1j c #757D02",
"1k c #415500",
"1l c #56262A",
"1m c #833547",
"1n c #5E6B00",
"1o c #732248",
"1p c #612D2F",
"1q c #3B4B00",
"1r c #4F4F00",
"1s c #767706",
"1t c #7D8806",
"1u c #567300",
"1v c #547000",
"1w c #556E00",
"1x c #838B09",
"1y c #8C9E07",
"1z c #76A000",
"1{ c #6F9200",
"1| c #678601",
"1} c #607D02",
"1~ c #587300",
"2! c #83920B",
"2# c #9BA312",
"2$ c #4E6902",
"2% c #4D4206",
"2& c #522C0A",
"2' c #2E2B01",
"2( c #516C00",
"2) c #364A00",
"2* c #2D2C00",
"2+ c #2B2C00",
"2, c #5F1740",
"2- c #930282",
"2. c #531D31",
"2/ c #970286",
"20 c #990089",
"21 c #9B018B",
"22 c #7D0F65",
"23 c #322C07",
"24 c #283000",
"25 c #2A2900",
"26 c #4B5A01",
"27 c #688900",
"28 c #7DA501",
"29 c #B3BF1B",
"2: c #C4C424",
"2; c #B3B71B",
"2< c #ABAF17",
"2= c #A1A515",
"2> c #989C13",
"2? c #93970D",
"2@ c #9EA210",
"2A c #999C11",
"2B c #5B5B02",
"2C c #3C3C00",
"2D c #3A3801",
"2E c #53470B",
"2F c #474304",
"2G c #552A27",
"2H c #970186",
"2I c #551837",
"2J c #461F22",
"2K c #950B7D",
"2L c #815A29",
"2M c #728700",
"2N c #515F00",
"2O c #652D32",
"2P c #832E4C",
"2Q c #6A7000",
"2R c #7C3D3C",
"2S c #82066E",
"2T c #602038",
"2U c #454203",
"2V c #595D00",
"2W c #6B6F04",
"2X c #687602",
"2Y c #537400",
"2Z c #5C7B00",
"2[ c #7F8807",
"2] c #9CA210",
"2^ c #A4BA14",
"2_ c #7FA303",
"2` c #657503",
"2a c #574F0A",
"2b c #496400",
"2c c #5B7204",
"2d c #646C09",
"2e c #3A4401",
"2f c #434303",
"2g c #514E05",
"2h c #445100",
"2i c #4F6600",
"2j c #617F00",
"2k c #8EA011",
"2l c #8F9F12",
"2m c #394B00",
"2n c #262B00",
"2o c #2A2B00",
"2p c #292D00",
"2q c #2F2B04",
"2r c #5A193A",
"2s c #880674",
"2t c #6E1153",
"2u c #80096B",
"2v c #A00092",
"2w c #322808",
"2x c #445A00",
"2y c #628600",
"2z c #87B206",
"2{ c #B7C71D",
"2| c #C6C925",
"2} c #B7BB1D",
"2~ c #A1A512",
"3! c #9CA00D",
"3# c #9A9E0C",
"3$ c #7E8006",
"3% c #848709",
"3& c #868B0B",
"3' c #4B4B01",
"3( c #666A03",
"3) c #5A6200",
"3* c #4A2D1A",
"3+ c #99008F",
"3, c #4C3217",
"3- c #9A1579",
"3. c #82463A",
"3/ c #6A6D01",
"30 c #5C6400",
"31 c #62530D",
"32 c #793C37",
"33 c #931373",
"34 c #8E0A76",
"35 c #8C106F",
"36 c #8B8114",
"37 c #936732",
"38 c #8C0777",
"39 c #3D3606",
"3: c #3D4400",
"3; c #585801",
"3< c #757704",
"3= c #6A7C03",
"3> c #5B7501",
"3? c #576D00",
"3@ c #767E04",
"3A c #A6A616",
"3B c #C9CC26",
"3C c #92BA09",
"3D c #767B0C",
"3E c #6A3D1B",
"3F c #4E5007",
"3G c #384A00",
"3H c #2A3A00",
"3I c #456200",
"3J c #597700",
"3K c #6B8C00",
"3L c #719500",
"3M c #AABB17",
"3N c #A9B519",
"3O c #486400",
"3P c #2C2A00",
"3Q c #262E00",
"3R c #82096D",
"3S c #9E008F",
"3T c #9F0091",
"3U c #322A08",
"3V c #354700",
"3W c #4A6500",
"3X c #729207",
"3Y c #A5C51A",
"3Z c #BEC922",
"3[ c #BCBE20",
"3] c #A6AA17",
"3^ c #91950C",
"3_ c #6D6E03",
"3` c #676900",
"3a c #696C02",
"3b c #434300",
"3c c #676905",
"3d c #6B6B01",
"3e c #454E00",
"3f c #4A3018",
"3g c #8F166D",
"3h c #6C4226",
"3i c #5C4713",
"3j c #82096C",
"3k c #8E0081",
"3l c #802154",
"3m c #626300",
"3n c #676D00",
"3o c #696802",
"3p c #7F1C59",
"3q c #7F5D25",
"3r c #606500",
"3s c #544D07",
"3t c #888B0A",
"3u c #A2AC0D",
"3v c #A49027",
"3w c #880A71",
"3x c #3D3705",
"3y c #404700",
"3z c #595A01",
"3{ c #848A07",
"3| c #737705",
"3} c #515200",
"3~ c #7E8207",
"4! c #ADB017",
"4# c #C5CB24",
"4$ c #A1CA12",
"4% c #8A9217",
"4& c #7B4B23",
"4' c #623810",
"4( c #463B05",
"4) c #314500",
"4* c #304500",
"4+ c #304200",
"4, c #3A4C00",
"4- c #557000",
"4. c #709400",
"4/ c #7EA700",
"40 c #79A200",
"41 c #80A801",
"42 c #769A02",
"43 c #4B6600",
"44 c #2B2A00",
"45 c #8F047D",
"46 c #6D1152",
"47 c #322A07",
"48 c #252A00",
"49 c #2F3400",
"4: c #3F5700",
"4; c #567800",
"4< c #8AA211",
"4= c #CBCC37",
"4> c #C3C528",
"4? c #9FA313",
"4@ c #767A05",
"4A c #5F5F00",
"4B c #767805",
"4C c #696901",
"4D c #474700",
"4E c #444302",
"4F c #736F0A",
"4G c #6F6E04",
"4H c #545201",
"4I c #312A07",
"4J c #453C08",
"4K c #5A5405",
"4L c #646400",
"4M c #6F7D00",
"4N c #865036",
"4O c #4D301A",
"4P c #5F2533",
"4Q c #816A1C",
"4R c #7C9300",
"4S c #818A06",
"4T c #777A05",
"4U c #7C8B00",
"4V c #898214",
"4W c #770E5D",
"4X c #65223C",
"4Y c #72085E",
"4Z c #552F24",
"4[ c #6D6E07",
"4] c #696E01",
"4^ c #6E7204",
"4_ c #636504",
"4` c #4D4B01",
"4a c #504C00",
"4b c #727304",
"4c c #979B0F",
"4d c #BDC01E",
"4e c #A58E24",
"4f c #7D4926",
"4g c #663112",
"4h c #443A00",
"4i c #3A400B",
"4j c #701C52",
"4k c #4E2F26",
"4l c #2C4F00",
"4m c #496300",
"4n c #597900",
"4o c #7B9906",
"4p c #B2C219",
"4q c #96BA08",
"4r c #729E00",
"4s c #5B7A00",
"4t c #3F4D00",
"4u c #313C00",
"4v c #203200",
"4w c #1B2F00",
"4x c #4A2026",
"4y c #701055",
"4z c #980089",
"4{ c #A40097",
"4| c #8B0578",
"4} c #2A3C00",
"4~ c #495802",
"5! c #758107",
"5# c #7B8704",
"5$ c #8E9F0E",
"5% c #B1C922",
"5& c #B2BC1D",
"5' c #95970F",
"5( c #6C7001",
"5) c #7D8106",
"5* c #7B7F06",
"5+ c #6F7303",
"5, c #6E7102",
"5- c #6F7102",
"5. c #6C6D02",
"5/ c #575600",
"50 c #5B5D00",
"51 c #7A8600",
"52 c #838905",
"53 c #676B03",
"54 c #303700",
"55 c #474E00",
"56 c #636900",
"57 c #6F7203",
"58 c #4C5A00",
"59 c #67283A",
"5: c #423709",
"5; c #542D23",
"5< c #8B6F23",
"5= c #9BAA07",
"5> c #A6AA15",
"5? c #6A6A02",
"5@ c #616E00",
"5A c #7A7011",
"5B c #5E2037",
"5C c #3E3B02",
"5D c #54133A",
"5E c #2D4200",
"5F c #747806",
"5G c #787D05",
"5H c #787B06",
"5I c #565603",
"5J c #464800",
"5K c #525900",
"5L c #616C01",
"5M c #7E8807",
"5N c #C2B11F",
"5O c #A98F21",
"5P c #755B1A",
"5Q c #5D410C",
"5R c #3D4300",
"5S c #403B13",
"5T c #79135F",
"5U c #443D13",
"5V c #406100",
"5W c #657F03",
"5X c #A7B21A",
"5Y c #829D07",
"5Z c #4E6300",
"5[ c #333600",
"5] c #334001",
"5^ c #3C281D",
"5_ c #451E28",
"5` c #44221E",
"5a c #1F3100",
"5b c #571B36",
"5c c #A60099",
"5d c #870772",
"5e c #99008A",
"5f c #920281",
"5g c #6D1052",
"5h c #2F2806",
"5i c #354D00",
"5j c #617803",
"5k c #9B9D0D",
"5l c #898C09",
"5m c #7D9107",
"5n c #8BB409",
"5o c #9CAB10",
"5p c #7F8308",
"5q c #7A7E05",
"5r c #717403",
"5s c #676801",
"5t c #676800",
"5u c #707202",
"5v c #868A08",
"5w c #6D6F05",
"5x c #424200",
"5y c #717600",
"5z c #717503",
"5{ c #4B1133",
"5| c #5F2633",
"5} c #6A1E44",
"5~ c #947825",
"6! c #9EAD08",
"6# c #A0A413",
"6$ c #6C6C03",
"6% c #6D7900",
"6& c #887C16",
"6' c #621C3E",
"6( c #45370D",
"6) c #5D1540",
"6* c #263100",
"6+ c #646703",
"6, c #505100",
"6- c #757606",
"6. c #798406",
"6/ c #577300",
"60 c #537100",
"61 c #6E8104",
"62 c #989A0D",
"63 c #A7A814",
"64 c #909F0C",
"65 c #345100",
"66 c #3F3A11",
"67 c #8E077A",
"68 c #A40098",
"69 c #850C6F",
"6: c #394007",
"6; c #375700",
"6< c #456000",
"6= c #343F00",
"6> c #2D2D00",
"6? c #282E00",
"6@ c #2F2B03",
"6A c #7F0A68",
"6B c #90037E",
"6C c #37280D",
"6D c #531C32",
"6E c #9E0090",
"6F c #5B193B",
"6G c #36280C",
"6H c #940283",
"6I c #641546",
"6J c #252D00",
"6K c #435600",
"6L c #6B8303",
"6M c #95990C",
"6N c #6E8105",
"6O c #6D8E00",
"6P c #899508",
"6Q c #9D9F10",
"6R c #A3A714",
"6S c #999D0E",
"6T c #818507",
"6U c #727603",
"6V c #787C05",
"6W c #5C5B00",
"6X c #686D02",
"6Y c #747802",
"6Z c #313E00",
"6[ c #4D182F",
"6] c #75561E",
"6^ c #818D00",
"6_ c #9FA50F",
"6` c #94A801",
"6a c #906C2C",
"6b c #941F6B",
"6c c #82076D",
"6d c #5B143F",
"6e c #666903",
"6f c #6D7002",
"6g c #858609",
"6h c #8B9A09",
"6i c #618300",
"6j c #505E00",
"6k c #5D6B00",
"6l c #819A05",
"6m c #ADB218",
"6n c #99A810",
"6o c #648700",
"6p c #476400",
"6q c #315200",
"6r c #3E3B10",
"6s c #930482",
"6t c #A6009B",
"6u c #7A1361",
"6v c #791A5B",
"6w c #7C1C5D",
"6x c #79195C",
"6y c #7B0C65",
"6z c #5D1142",
"6{ c #232C00",
"6| c #213000",
"6} c #252E00",
"6~ c #3C2613",
"7! c #7D0B65",
"7# c #9A008B",
"7$ c #870773",
"7% c #6B1250",
"7& c #1E3000",
"7' c #405000",
"7( c #547001",
"7) c #5F7304",
"7* c #444F01",
"7+ c #394800",
"7, c #4F6900",
"7- c #7F8A07",
"7. c #9FA110",
"7/ c #9A9E0F",
"70 c #8B8F09",
"71 c #969A0B",
"72 c #93970B",
"73 c #8A8E09",
"74 c #878C08",
"75 c #828507",
"76 c #717601",
"77 c #5E6000",
"78 c #862E50",
"79 c #81304B",
"7: c #505B00",
"7; c #6D2144",
"7< c #69164B",
"7= c #8C0876",
"7> c #765C1A",
"7? c #6F8400",
"7@ c #808506",
"7A c #A0862A",
"7B c #A33968",
"7C c #902067",
"7D c #972A65",
"7E c #98226D",
"7F c #831365",
"7G c #4C2027",
"7H c #303800",
"7I c #7A7B06",
"7J c #808106",
"7K c #858F06",
"7L c #809807",
"7M c #5C6602",
"7N c #4C5800",
"7O c #5A7300",
"7P c #9AAA12",
"7Q c #97AE0D",
"7R c #6B8E00",
"7S c #4C6900",
"7T c #433713",
"7U c #761159",
"7V c #8F037C",
"7W c #9F0092",
"7X c #A6009A",
"7Y c #8A0676",
"7Z c #4C1F29",
"7[ c #492025",
"7] c #402419",
"7^ c #631645",
"7_ c #A10093",
"7` c #970087",
"7a c #8F047C",
"7b c #34290A",
"7c c #385000",
"7d c #334C00",
"7e c #2A2E00",
"7f c #2C2F00",
"7g c #415900",
"7h c #818B0A",
"7i c #A4A612",
"7j c #A4A814",
"7k c #9CA00F",
"7l c #818409",
"7m c #676906",
"7n c #737408",
"7o c #6D6F07",
"7p c #686B05",
"7q c #808407",
"7r c #838707",
"7s c #868B09",
"7t c #747706",
"7u c #808408",
"7v c #7C8401",
"7w c #646B00",
"7x c #7A2947",
"7y c #7A1956",
"7z c #643729",
"7{ c #850C6C",
"7| c #512E1F",
"7} c #870B6F",
"7~ c #9A7D27",
"8! c #748800",
"8# c #52460A",
"8$ c #8B0A73",
"8% c #766A12",
"8& c #7E8D00",
"8' c #797E06",
"8( c #707304",
"8) c #92970C",
"8* c #A5A914",
"8+ c #747505",
"8, c #767606",
"8- c #708806",
"8. c #3E5000",
"8/ c #6B8A00",
"80 c #83AF00",
"81 c #79A100",
"82 c #5F8000",
"83 c #54530D",
"84 c #4D2F17",
"85 c #3C2B0A",
"86 c #6F1250",
"87 c #9F0090",
"88 c #8D057A",
"89 c #2D2B01",
"8: c #8B950F",
"8; c #ACAE16",
"8< c #9FA30F",
"8= c #696C07",
"8> c #272700",
"8? c #7A7E07",
"8@ c #828608",
"8A c #888D09",
"8B c #656802",
"8C c #737604",
"8D c #656401",
"8E c #9A226F",
"8F c #8F2463",
"8G c #841067",
"8H c #3B2E0A",
"8I c #425100",
"8J c #283800",
"8K c #363D00",
"8L c #7D8006",
"8M c #8F9409",
"8N c #898D08",
"8O c #ADB133",
"8P c #A5A531",
"8Q c #6B8500",
"8R c #4B5E00",
"8S c #272500",
"8T c #516900",
"8U c #6E9600",
"8V c #86AD04",
"8W c #B8C728",
"8X c #958126",
"8Y c #562E13",
"8Z c #3C2C07",
"8[ c #6D124F",
"8] c #9C008D",
"8^ c #8E047B",
"8_ c #7A0B62",
"8` c #7F076A",
"8a c #850671",
"8b c #4C2925",
"8c c #2E4800",
"8d c #8C9610",
"8e c #A9AC14",
"8f c #92930B",
"8g c #6E7805",
"8h c #435A00",
"8i c #616D07",
"8j c #87890F",
"8k c #90940C",
"8l c #848807",
"8m c #737703",
"8n c #707102",
"8o c #7A7D04",
"8p c #757905",
"8q c #464F00",
"8r c #5D3F1C",
"8s c #92176D",
"8t c #891766",
"8u c #890F6D",
"8v c #89374F",
"8w c #655A1D",
"8x c #646E06",
"8y c #675D0E",
"8z c #541835",
"8{ c #573B1A",
"8| c #646A00",
"8} c #93960D",
"8~ c #A1A514",
"9! c #9B9E19",
"9# c #C1C539",
"9$ c #B2B431",
"9% c #759200",
"9& c #5E7A00",
"9' c #3D4800",
"9( c #759703",
"9) c #9A9F24",
"9* c #7A691D",
"9+ c #472C0A",
"9, c #372608",
"9- c #6C0F51",
"9. c #A00091",
"9/ c #A30096",
"90 c #7C0B64",
"91 c #49321E",
"92 c #304E00",
"93 c #435B00",
"94 c #87900D",
"95 c #9FA210",
"96 c #7F8A06",
"97 c #768705",
"98 c #708704",
"99 c #658700",
"9: c #889E0A",
"9; c #AEB116",
"9< c #9C9F0E",
"9= c #7F8207",
"9> c #626401",
"9? c #575901",
"9@ c #5C5F02",
"9A c #353C00",
"9B c #3E2614",
"9C c #6F0B59",
"9D c #8A4145",
"9E c #8D9D04",
"9F c #CACD33",
"9G c #C0CB21",
"9H c #A28C26",
"9I c #9D0B84",
"9J c #813D40",
"9K c #788600",
"9L c #93980B",
"9M c #A9AE15",
"9N c #BFC226",
"9O c #CECE39",
"9P c #B0B31F",
"9Q c #A6AB15",
"9R c #8AAA05",
"9S c #6C9200",
"9T c #526C00",
"9U c #2E3300",
"9V c #252600",
"9W c #291F03",
"9X c #680C50",
"9Y c #7E0A68",
"9Z c #2A3D00",
"9[ c #374B00",
"9] c #455D00",
"9^ c #808A09",
"9_ c #96970C",
"9` c #828708",
"9a c #6D8A01",
"9b c #7B9105",
"9c c #959A0C",
"9d c #7FA301",
"9e c #8EA809",
"9f c #A5A714",
"9g c #9B9F0E",
"9h c #717305",
"9i c #282C00",
"9j c #740F5A",
"9k c #865432",
"9l c #939014",
"9m c #B0BA16",
"9n c #CBD921",
"9o c #BCC81B",
"9p c #A09D17",
"9q c #8E7026",
"9r c #6F600F",
"9s c #6A6E00",
"9t c #93970C",
"9u c #AAAE16",
"9v c #C0C422",
"9w c #D2D52C",
"9x c #B1B51A",
"9y c #A6A914",
"9z c #B2B61B",
"9{ c #8CB005",
"9| c #303400",
"9} c #324000",
"9~ c #253000",
":! c #1C2B00",
":# c #63124B",
":$ c #A50099",
":% c #850770",
":& c #283A00",
":' c #3A4E00",
":( c #546F00",
":) c #95A00F",
":* c #A4A412",
":+ c #848708",
":, c #6F8C01",
":- c #768D03",
":. c #898E09",
":/ c #7FA400",
":0 c #91AB09",
":1 c #A7A915",
":2 c #A2A60F",
":3 c #636506",
":4 c #353E00",
":5 c #4C2D1C",
":6 c #7F0A69",
":7 c #581938",
":8 c #3A2612",
":9 c #43231C",
":: c #908518",
":; c #A4BD05",
":< c #BBB526",
":= c #B67551",
":> c #AC8935",
":? c #9CA70B",
":@ c #879600",
":A c #808804",
":B c #82830A",
":C c #8B8F0A",
":D c #ABB017",
":E c #AAAE1C",
":F c #828414",
":G c #959811",
":H c #ACAF16",
":I c #B6BA1D",
":J c #A2B711",
":K c #708605",
":L c #3C4A00",
":M c #465D00",
":N c #415800",
":O c #233400",
":P c #133200",
":Q c #5D1546",
":R c #541A32",
":S c #304000",
":T c #597400",
":U c #6A7109",
":V c #75790B",
":W c #788904",
":X c #6B7F00",
":Y c #758003",
":Z c #6F8F00",
":[ c #859D08",
":] c #9D9F11",
":^ c #787A09",
":_ c #4A4B03",
":` c #313D00",
":a c #542629",
":b c #4B1F28",
":c c #113700",
":d c #A08C25",
":e c #ADC409",
":f c #AFA128",
":g c #950A7C",
":h c #9E5151",
":i c #A2B00D",
":j c #838807",
":k c #94980E",
":l c #9DA112",
":m c #AAAF16",
":n c #8E9114",
":o c #7B7E0E",
":p c #B4B81A",
":q c #BCBC1F",
":r c #A1AE15",
":s c #739303",
":t c #607E00",
":u c #506A00",
":v c #465E00",
":w c #252D03",
":x c #651150",
":y c #541C32",
":z c #3C4D00",
":{ c #343B00",
":| c #3F4B00",
":} c #6F8E01",
":~ c #6F6D03",
";! c #597101",
";# c #738405",
";$ c #8B8E0A",
";% c #464701",
";& c #383700",
";' c #3C3D00",
";( c #581A38",
";) c #897D16",
";* c #94AA00",
";+ c #989810",
";, c #6D5514",
";- c #A2942B",
";. c #C2C52E",
";/ c #6E7800",
";0 c #757605",
";1 c #94980C",
";2 c #9FA40F",
";3 c #858809",
";4 c #A5A526",
";5 c #C4C62E",
";6 c #A5A915",
";7 c #BBBE1E",
";8 c #C7CA2B",
";9 c #BAC12E",
";: c #7C970A",
";; c #536E00",
";< c #486001",
";= c #335600",
";> c #383F07",
";? c #830B6E",
";@ c #38270F",
";A c #68124C",
";B c #78115E",
";C c #343E03",
";D c #698800",
";E c #5E7D00",
";F c #708603",
";G c #8D950A",
";H c #5F5C02",
";I c #525B00",
";J c #4D5500",
";K c #2C2B01",
";L c #313200",
";M c #364000",
";N c #233900",
";O c #40221B",
";P c #8F3754",
";Q c #7E631F",
";R c #687800",
";S c #525D00",
";T c #7F8E06",
";U c #A29E23",
";V c #7F3940",
";W c #72511E",
";X c #6F7600",
";Y c #717306",
";Z c #8C9009",
";[ c #858709",
";] c #B3B424",
";^ c #C0C329",
";_ c #ACB018",
";` c #BDC21F",
";a c #D1D131",
";b c #CECD3B",
";c c #79910C",
";d c #587800",
";e c #456300",
";f c #52401F",
";g c #641F45",
";h c #5D1744",
";i c #7E096B",
";j c #591939",
";k c #890475",
";l c #8A0A76",
";m c #344003",
";n c #466500",
";o c #5F7E00",
";p c #7C9603",
";q c #8F9B09",
";r c #97970D",
";s c #677403",
";t c #5C7000",
";u c #6B7C03",
";v c #686B04",
";w c #717205",
";x c #797C05",
";y c #6A6A00",
";z c #565600",
";{ c #414100",
";| c #332B07",
";} c #6B1E45",
";~ c #681848",
"<! c #750D5D",
"<# c #651548",
"<$ c #8B0577",
"<% c #791955",
"<& c #504906",
"<' c #525500",
"<( c #7D522A",
"<) c #944B48",
"<* c #788700",
"<+ c #545400",
"<, c #676903",
"<- c #8A8D0B",
"<. c #A9AD16",
"</ c #B0B419",
"<0 c #B3B71C",
"<1 c #C0C421",
"<2 c #CECF2E",
"<3 c #C7C834",
"<4 c #70870B",
"<5 c #406500",
"<6 c #75294E",
"<7 c #930086",
"<8 c #2E2611",
"<9 c #5E1546",
"<: c #A30097",
"<; c #810F69",
"<< c #394703",
"<= c #496900",
"<> c #628000",
"<? c #718E02",
"<@ c #8D960A",
"<A c #999A0D",
"<B c #90990A",
"<C c #769203",
"<D c #778C03",
"<E c #878909",
"<F c #888C09",
"<G c #5A5A00",
"<H c #474800",
"<I c #4B1F27",
"<J c #4E1E2B",
"<K c #8D186A",
"<L c #8B4E3C",
"<M c #894740",
"<N c #7A8A00",
"<O c #525301",
"<P c #5D5E07",
"<Q c #ADB117",
"<R c #A2A613",
"<S c #BEC221",
"<T c #CDD029",
"<U c #C3C826",
"<V c #7D9808",
"<W c #5D7D00",
"<X c #557100",
"<Y c #3D6200",
"<Z c #6A2B43",
"<[ c #9C008F",
"<] c #8C047A",
"<^ c #910380",
"<_ c #A4009B",
"<` c #8A146E",
"<a c #526A03",
"<b c #5C8400",
"<c c #779003",
"<d c #92970B",
"<e c #98970E",
"<f c #8E9C09",
"<g c #7EA201",
"<h c #818F06",
"<i c #848608",
"<j c #787C04",
"<k c #575802",
"<l c #343700",
"<m c #651349",
"<n c #3D2515",
"<o c #35280B",
"<p c #36280D",
"<q c #711057",
"<r c #974153",
"<s c #9B613F",
"<t c #9F5450",
"<u c #963C57",
"<v c #722E41",
"<w c #58123E",
"<x c #671D42",
"<y c #56391C",
"<z c #505A00",
"<{ c #677300",
"<| c #373B00",
"<} c #4B4B08",
"<~ c #B5B91B",
"=! c #AAAE17",
"=# c #B3B51A",
"=$ c #A8AD15",
"=% c #7B9604",
"=& c #537000",
"=' c #698300",
"=( c #854245",
"=) c #9B0091",
"=* c #930183",
"=+ c #5A1544",
"=, c #5E223F",
"=- c #714832",
"=. c #7E8A09",
"=/ c #739200",
"=0 c #729001",
"=1 c #819206",
"=2 c #889C06",
"=3 c #85A403",
"=4 c #7BA600",
"=5 c #779002",
"=6 c #828B07",
"=7 c #8F910B",
"=8 c #626900",
"=9 c #544909",
"=: c #611B3F",
"=; c #900081",
"=< c #890675",
"== c #1E3200",
"=> c #213100",
"=? c #760E5D",
"=@ c #226283",
"=A c #9C1276",
"=B c #927D1F",
"=C c #98B900",
"=D c #993461",
"=E c #981677",
"=F c #660C50",
"=G c #302F01",
"=H c #363F00",
"=I c #583D18",
"=J c #3D3208",
"=K c #525605",
"=L c #ABAF18",
"=M c #B7BB1C",
"=N c #B5B91D",
"=O c #9DA011",
"=P c #8C9109",
"=Q c #728E01",
"=R c #658501",
"=S c #6B8205",
"=T c #8F9F03",
"=U c #9B504A",
"=V c #990092",
"=W c #9A008C",
"=X c #940184",
"=Y c #6F0D5A",
"=Z c #1F2A00",
"=[ c #254D00",
"=] c #8E940B",
"=^ c #798F04",
"=_ c #668800",
"=` c #698C00",
"=a c #749B00",
"=b c #7AA300",
"=c c #799F00",
"=d c #6B9000",
"=e c #789004",
"=f c #8F970B",
"=g c #818407",
"=h c #787B05",
"=i c #637000",
"=j c #664D15",
"=k c #9B0487",
"=l c #A7009E",
"=m c #880774",
"=n c #3C2514",
"=o c #225E86",
"=p c #9A7426",
"=q c #966437",
"=r c #896925",
"=s c #8B9B00",
"=t c #969A0C",
"=u c #94940E",
"=v c #9CA50C",
"=w c #A49225",
"=x c #820D69",
"=y c #423809",
"=z c #4D2B1E",
"={ c #930083",
"=| c #7F4637",
"=} c #A8AD17",
"=~ c #B5B91C",
">! c #B8BC1E",
"># c #A4A615",
">$ c #6B8800",
">% c #89A10C",
">& c #AFB51A",
">' c #8B9A03",
">( c #8D4248",
">) c #9C0096",
">* c #9E008E",
">+ c #591642",
">, c #202A00",
">- c #384800",
">. c #4C6700",
">/ c #5D7801",
">0 c #5C7800",
">1 c #5F7F00",
">2 c #6A8E00",
">3 c #6C8C00",
">4 c #708D01",
">5 c #757D04",
">6 c #777805",
">7 c #777A04",
">8 c #797D04",
">9 c #4A5600",
">: c #3B2414",
">; c #930182",
">< c #950184",
">= c #462121",
">> c #392711",
">? c #226184",
">@ c #9B345A",
">A c #982C65",
">B c #806222",
">C c #849900",
">D c #979412",
">E c #974A4C",
">F c #A23E62",
">G c #9B4458",
">H c #5C2136",
">I c #830273",
">J c #980385",
">K c #3E3A03",
">L c #384B00",
">M c #57460F",
">N c #7F3A3D",
">O c #7D641C",
">P c #7B8501",
">Q c #878C07",
">R c #9EA20F",
">S c #ACB116",
">T c #AFB319",
">U c #919C0D",
">V c #738802",
">W c #6F7F01",
">X c #868E0A",
">Y c #9E9F12",
">Z c #8B8F07",
">[ c #7A661E",
">] c #6A3D38",
">^ c #5B2D32",
">_ c #800F68",
">` c #A10092",
">a c #A00094",
">b c #A40099",
">c c #5A1E3C",
">d c #1E3E00",
">e c #2E3800",
">f c #455F00",
">g c #525208",
">h c #84721A",
">i c #748508",
">j c #6B8B00",
">k c #678800",
">l c #617601",
">m c #637402",
">n c #637601",
">o c #667A02",
">p c #475300",
">q c #362A08",
">r c #5E2533",
">s c #54222D",
">t c #740E5B",
">u c #71551E",
">v c #768B00",
">w c #918C12",
">x c #962A65",
">y c #770564",
">z c #511A31",
">{ c #800C67",
">| c #552828",
">} c #4C400A",
">~ c #4D5200",
"?! c #666D00",
"?# c #727405",
"?$ c #707306",
"?% c #777B07",
"?& c #86890B",
"?' c #96990F",
"?( c #94950C",
"?) c #819106",
"?* c #6A8C00",
"?+ c #6C7A02",
"?, c #747C04",
"?- c #808A07",
"?. c #738A00",
"?/ c #567C00",
"?0 c #2D5200",
"?1 c #582336",
"?2 c #860572",
"?3 c #9B008B",
"?4 c #8D0579",
"?5 c #7D096A",
"?6 c #800B6B",
"?7 c #830E6C",
"?8 c #880F70",
"?9 c #5A322F",
"?: c #334E00",
"?; c #49320F",
"?< c #975C30",
"?= c #7B800F",
"?> c #699000",
"?? c #6A8900",
"?@ c #617E00",
"?A c #567400",
"?B c #577700",
"?C c #4B5B00",
"?D c #3C4100",
"?E c #364200",
"?F c #343300",
"?G c #491F26",
"?H c #5D3D1C",
"?I c #5A6700",
"?J c #89890C",
"?K c #676409",
"?L c #393403",
"?M c #242B00",
"?N c #41231B",
"?O c #69223F",
"?P c #323C00",
"?Q c #686701",
"?R c #818107",
"?S c #607D00",
"?T c #7D8F04",
"?U c #7C8107",
"?V c #3D4D00",
"?W c #2D3202",
"?X c #2D2902",
"?Y c #69134C",
"?Z c #222A02",
"?[ c #2B3404",
"?] c #394504",
"?^ c #435604",
"?_ c #455B02",
"?` c #3A4D00",
"?a c #354500",
"?b c #273000",
"?c c #4A370E",
"?d c #945F2D",
"?e c #7A810E",
"?f c #6A9000",
"?g c #5D7A00",
"?h c #4E6900",
"?i c #384100",
"?j c #751654",
"?k c #312A06",
"?l c #6D1252",
"?m c #675013",
"?n c #495B00",
"?o c #434600",
"?p c #5B6C00",
"?q c #404E00",
"?r c #313600",
"?s c #838512",
"?t c #555E04",
"?u c #302B02",
"?v c #794033",
"?w c #583C19",
"?x c #333700",
"?y c #5C5B02",
"?z c #4B5A00",
"?{ c #617302",
"?| c #678002",
"?} c #5E7B00",
"?~ c #536000",
"@! c #596200",
"@# c #687500",
"@$ c #738202",
"@% c #5F6603",
"@& c #424302",
"@' c #2C3E00",
"@( c #293900",
"@) c #242C00",
"@* c #3F2819",
"@+ c #512232",
"@, c #4C152F",
"@- c #572D2E",
"@. c #5A362E",
"@/ c #54292F",
"@0 c #502F28",
"@1 c #6F1D4F",
"@2 c #A10094",
"@3 c #8D037B",
"@4 c #6C1152",
"@5 c #2E3207",
"@6 c #2A4E00",
"@7 c #496800",
"@8 c #758602",
"@9 c #657B02",
"@: c #4D6B00",
"@; c #354800",
"@< c #253200",
"@= c #1B2000",
"@> c #463E07",
"@? c #948517",
"@@ c #788D06",
"@A c #678D00",
"@B c #587A00",
"@C c #537200",
"@D c #577200",
"@E c #4E6B00",
"@F c #405800",
"@G c #374000",
"@H c #7F1062",
"@I c #900080",
"@J c #6B0F53",
"@K c #803D3C",
"@L c #4F430A",
"@M c #593123",
"@N c #4E3218",
"@O c #4A4E02",
"@P c #6E700E",
"@Q c #525800",
"@R c #4D4D02",
"@S c #5F6102",
"@T c #6A7002",
"@U c #617202",
"@V c #466400",
"@W c #4C6A00",
"@X c #547200",
"@Y c #4C5700",
"@Z c #555600",
"@[ c #686500",
"@] c #747403",
"@^ c #585802",
"@_ c #3A3C01",
"@` c #495402",
"@a c #415301",
"@b c #313800",
"@c c #445D00",
"@d c #354900",
"@e c #4E6F00",
"@f c #345500",
"@g c #274F00",
"@h c #453718",
"@i c #7F1166",
"@j c #960285",
"@k c #7D1662",
"@l c #46470E",
"@m c #80950B",
"@n c #8F9A0A",
"@o c #768605",
"@p c #5F7501",
"@q c #667C02",
"@r c #577001",
"@s c #3E5700",
"@t c #363B02",
"@u c #616306",
"@v c #949C0A",
"@w c #819605",
"@x c #758F02",
"@y c #758D03",
"@z c #6C730C",
"@{ c #647109",
"@| c #405700",
"@} c #3B4900",
"@~ c #682340",
"A! c #721355",
"A# c #312F02",
"A$ c #63223A",
"A% c #8A136B",
"A& c #7F1063",
"A' c #7D1161",
"A( c #870B6E",
"A) c #6D1C49",
"A* c #3E3A04",
"A+ c #8A0378",
"A, c #8C3353",
"A- c #748100",
"A. c #878D07",
"A/ c #555704",
"A0 c #383800",
"A1 c #606303",
"A2 c #486100",
"A3 c #466100",
"A4 c #666400",
"A5 c #646300",
"A6 c #6B6D02",
"A7 c #868908",
"A8 c #627104",
"A9 c #3E5800",
"A: c #405900",
"A; c #778108",
"A< c #899608",
"A= c #88910A",
"A> c #2D4300",
"A? c #374204",
"A@ c #811069",
"AA c #6A1B4D",
"AB c #324B00",
"AC c #4B6900",
"AD c #96A514",
"AE c #BFC521",
"AF c #759304",
"AG c #6A7C00",
"AH c #787A05",
"AI c #6B7E03",
"AJ c #788308",
"AK c #9A9C0D",
"AL c #8E9409",
"AM c #936527",
"AN c #856F1D",
"AO c #638100",
"AP c #4E6800",
"AQ c #404900",
"AR c #3B3900",
"AS c #4D4C01",
"AT c #3D3C01",
"AU c #353F00",
"AV c #582A29",
"AW c #7C175B",
"AX c #733F2E",
"AY c #71690B",
"AZ c #768900",
"A[ c #839400",
"A] c #585700",
"A^ c #4E5600",
"A_ c #4A5500",
"A` c #5C5C00",
"Aa c #656703",
"Ab c #5D6002",
"Ac c #313900",
"Ad c #434007",
"Ae c #685113",
"Af c #3D3C04",
"Ag c #334700",
"Ah c #4C6301",
"Ai c #5E5110",
"Aj c #4F3F0C",
"Ak c #393A00",
"Al c #4C4D02",
"Am c #7C7F05",
"An c #777D05",
"Ao c #617002",
"Ap c #557300",
"Aq c #788506",
"Ar c #899108",
"As c #828F06",
"At c #8F900B",
"Au c #849009",
"Av c #556A03",
"Aw c #354F00",
"Ax c #304400",
"Ay c #433815",
"Az c #721B54",
"A{ c #561A35",
"A| c #302A06",
"A} c #2B3800",
"A~ c #7E8A0C",
"B! c #A7AD13",
"B# c #7AA201",
"B$ c #798F02",
"B% c #808007",
"B& c #7B7D06",
"B' c #7C8406",
"B( c #758005",
"B) c #667002",
"B* c #878D09",
"B+ c #9A9E0D",
"B, c #767808",
"B- c #403F02",
"B. c #7B6C11",
"B/ c #7F810D",
"B0 c #5D7E00",
"B1 c #5A7600",
"B2 c #445300",
"B3 c #4A4D00",
"B4 c #3D4000",
"B5 c #3A3F00",
"B6 c #552C25",
"B7 c #773E33",
"B8 c #755023",
"B9 c #844E36",
"B: c #8E563A",
"B; c #6E551A",
"B< c #535700",
"B= c #5B3720",
"B> c #5B2B2B",
"B? c #696803",
"B@ c #6D7200",
"BA c #6E7004",
"BB c #6A6B04",
"BC c #322705",
"BD c #543511",
"BE c #422B08",
"BF c #3B3E01",
"BG c #455A01",
"BH c #634013",
"BI c #593B0F",
"BJ c #3E4100",
"BK c #3B3C00",
"BL c #545602",
"BM c #717304",
"BN c #707603",
"BO c #485B00",
"BP c #6B7405",
"BQ c #828C07",
"BR c #728902",
"BS c #879008",
"BT c #9A9B0D",
"BU c #576204",
"BV c #334400",
"BW c #275000",
"BX c #5A2C34",
"BY c #5F1640",
"BZ c #687C03",
"B[ c #809D03",
"B] c #839305",
"B^ c #808207",
"B_ c #767804",
"B` c #7C7D06",
"Ba c #7D7F06",
"Bb c #979B0D",
"Bc c #969B0C",
"Bd c #717407",
"Be c #777C05",
"Bf c #748203",
"Bg c #4F6500",
"Bh c #4E6700",
"Bi c #546E00",
"Bj c #506100",
"Bk c #4C5200",
"Bl c #4A4900",
"Bm c #282900",
"Bn c #323800",
"Bo c #552C24",
"Bp c #712A40",
"Bq c #495600",
"Br c #4B5300",
"Bs c #7D1958",
"Bt c #971576",
"Bu c #77750A",
"Bv c #565E00",
"Bw c #626203",
"Bx c #4F5004",
"By c #232400",
"Bz c #522F0A",
"B{ c #554508",
"B| c #445B00",
"B} c #55380A",
"B~ c #695009",
"C! c #757B03",
"C# c #6C6D01",
"C$ c #575902",
"C% c #6B6F03",
"C& c #2F2E00",
"C' c #5F5F05",
"C( c #858F07",
"C) c #6D8C00",
"C* c #688B00",
"C+ c #7A9304",
"C, c #93980C",
"C- c #314F00",
"C. c #582832",
"C/ c #A00093",
"C0 c #6A1B4C",
"C1 c #324C00",
"C2 c #516D00",
"C3 c #638300",
"C4 c #708C01",
"C5 c #828807",
"C6 c #6A6A01",
"C7 c #90940B",
"C8 c #888C08",
"C9 c #707105",
"C: c #4F4E01",
"C; c #465900",
"C< c #485C00",
"C= c #636500",
"C> c #4F4E00",
"C? c #2E2A03",
"C@ c #333A00",
"CA c #5A2A2B",
"CB c #842456",
"CC c #6D5715",
"CD c #805C26",
"CE c #544313",
"CF c #2B2E00",
"CG c #393B00",
"CH c #5E4516",
"CI c #7F5E20",
"CJ c #878809",
"CK c #5E6001",
"CL c #595C01",
"CM c #483B05",
"CN c #543210",
"CO c #3E2A07",
"CP c #393F01",
"CQ c #4E4C02",
"CR c #5E5602",
"CS c #6D6F01",
"CT c #696B02",
"CU c #242400",
"CV c #4C4E01",
"CW c #767906",
"CX c #727C03",
"CY c #7B8505",
"CZ c #7E8E06",
"C[ c #647F00",
"C] c #2D3A00",
"C^ c #2F220B",
"C_ c #491F25",
"C` c #3C2C14",
"Ca c #4D6A00",
"Cb c #6B8102",
"Cc c #808906",
"Cd c #999A11",
"Ce c #AEB01A",
"Cf c #ABAD19",
"Cg c #8E8F0E",
"Ch c #797B05",
"Ci c #6F7003",
"Cj c #7E8106",
"Ck c #7F8704",
"Cl c #816E13",
"Cm c #825823",
"Cn c #697B07",
"Co c #638A00",
"Cp c #515A00",
"Cq c #3A3D00",
"Cr c #475B00",
"Cs c #4C5600",
"Ct c #515000",
"Cu c #4B5400",
"Cv c #56361C",
"Cw c #850771",
"Cx c #881D5F",
"Cy c #724F20",
"Cz c #566100",
"C{ c #434302",
"C| c #4A4A01",
"C} c #4E5E00",
"C~ c #677C00",
"D! c #646C01",
"D# c #616002",
"D$ c #646502",
"D% c #575A04",
"D& c #57470D",
"D' c #373403",
"D( c #4A5800",
"D) c #4E5300",
"D* c #535400",
"D+ c #6D6E01",
"D, c #4E4F03",
"D- c #656905",
"D. c #7F8306",
"D/ c #7D8005",
"D0 c #6C6F02",
"D1 c #7E7F07",
"D2 c #798005",
"D3 c #667C00",
"D4 c #708800",
"D5 c #718405",
"D6 c #5F6306",
"D7 c #404300",
"D8 c #212B00",
"D9 c #202900",
"D: c #2D3C00",
"D; c #455B00",
"D< c #677C04",
"D= c #7F8907",
"D> c #8D8F0A",
"D? c #93990E",
"D@ c #A4B115",
"DA c #ADC019",
"DB c #A6B814",
"DC c #8D9F0B",
"DD c #747F04",
"DE c #767905",
"DF c #626100",
"DG c #848907",
"DH c #575C00",
"DI c #6D5E10",
"DJ c #997922",
"DK c #758007",
"DL c #668000",
"DM c #627400",
"DN c #413D00",
"DO c #474F00",
"DP c #474600",
"DQ c #5A4017",
"DR c #740D5C",
"DS c #7E155E",
"DT c #8B126C",
"DU c #67550F",
"DV c #6B7700",
"DW c #696900",
"DX c #423F00",
"DY c #2E2F03",
"DZ c #445208",
"D[ c #677006",
"D] c #6C6F03",
"D^ c #556A00",
"D_ c #455B01",
"D` c #424000",
"Da c #6A6B01",
"Db c #676701",
"Dc c #6F7103",
"Dd c #95980C",
"De c #9EA20D",
"Df c #6E7107",
"Dg c #647E02",
"Dh c #90970B",
"Di c #8B8D09",
"Dj c #85880A",
"Dk c #B3B21C",
"Dl c #AAC118",
"Dm c #90BC0C",
"Dn c #7BA400",
"Do c #719700",
"Dp c #637C00",
"Dq c #4F5100",
"Dr c #707303",
"Ds c #6D7003",
"Dt c #363701",
"Du c #555805",
"Dv c #959B0B",
"Dw c #6F6F02",
"Dx c #575500",
"Dy c #4E4D00",
"Dz c #303000",
"D{ c #2A3000",
"D| c #3C4C00",
"D} c #653F22",
"D~ c #544C07",
"E! c #6A7B00",
"E# c #5A5C00",
"E$ c #564605",
"E% c #6A2C2E",
"E& c #8C0B78",
"E' c #654030",
"E( c #4C6C00",
"E) c #576E00",
"E* c #4F5A06",
"E+ c #614614",
"E, c #362D05",
"E- c #343600",
"E. c #646401",
"E/ c #7F8307",
"E0 c #727503",
"E1 c #6E6F03",
"E2 c #838407",
"E3 c #646E03",
"E4 c #394F00",
"E5 c #374E00",
"E6 c #596903",
"E7 c #858D08",
"E8 c #5F6405",
"E9 c #453D05",
"E: c #BC891F",
"E; c #B8B51A",
"E< c #8DBB0C",
"E= c #709300",
"E> c #566E00",
"E? c #636B00",
"E@ c #656400",
"EA c #4D4E00",
"EB c #434401",
"EC c #747708",
"ED c #6E6C02",
"EE c #565300",
"EF c #4D4A00",
"EG c #4F4D00",
"EH c #535101",
"EI c #434800",
"EJ c #4C4B01",
"EK c #525100",
"EL c #4B5100",
"EM c #6F531A",
"EN c #8E156C",
"EO c #751B4F",
"EP c #75571F",
"EQ c #6D7500",
"ER c #3F4200",
"ES c #464B00",
"ET c #634619",
"EU c #801453",
"EV c #583D21",
"EW c #515A07",
"EX c #5A4410",
"EY c #663715",
"EZ c #534807",
"E[ c #686800",
"E] c #6B6C04",
"E^ c #7B7F07",
"E_ c #777904",
"E` c #7A7D05",
"Ea c #6B6E02",
"Eb c #646900",
"Ec c #667602",
"Ed c #657602",
"Ee c #647503",
"Ef c #617203",
"Eg c #546400",
"Eh c #636B02",
"Ei c #7F8006",
"Ej c #92960B",
"Ek c #646905",
"El c #4F4D04",
"Em c #AA9717",
"En c #AFBE17",
"Eo c #90BB0D",
"Ep c #6D8E01",
"Eq c #597800",
"Er c #525C00",
"Es c #4B4900",
"Et c #555702",
"Eu c #747606",
"Ev c #898B09",
"Ew c #8A8F09",
"Ex c #6D7B01",
"Ey c #5F6F00",
"Ez c #5A6900",
"E{ c #536200",
"E| c #455000",
"E} c #44370B",
"E~ c #661D42",
"F! c #55361C",
"F# c #455100",
"F$ c #474C00",
"F% c #464D00",
"F& c #454401",
"F' c #444D00",
"F( c #596300",
"F) c #881B62",
"F* c #7F3C3C",
"F+ c #566000",
"F, c #322F00",
"F- c #3B4308",
"F. c #514F0F",
"F/ c #5F3113",
"F0 c #4E4C06",
"F1 c #406000",
"F2 c #5E4712",
"F3 c #663616",
"F4 c #5A370A",
"F5 c #726C05",
"F6 c #6B7002",
"F7 c #646501",
"F8 c #686A04",
"F9 c #616100",
"F: c #656300",
"F; c #5F6800",
"F< c #6C7E04",
"F= c #888908",
"F> c #6E6D02",
"F? c #7D7E06",
"F@ c #7E8806",
"FA c #93BC0E",
"FB c #99C510",
"FC c #8DB20C",
"FD c #6F8F01",
"FE c #6A8A00",
"FF c #668600",
"FG c #3C3A00",
"FH c #4F5001",
"FI c #606003",
"FJ c #758F03",
"FK c #709101",
"FL c #638001",
"FM c #3C5200",
"FN c #392015",
"FO c #8D027D",
"FP c #6A1B47",
"FQ c #403E02",
"FR c #473E08",
"FS c #473B0B",
"FT c #333400",
"FU c #2E3500",
"FV c #861565",
"FW c #87235A",
"FX c #646003",
"FY c #761C50",
"FZ c #7D6120",
"F[ c #697600",
"F] c #5E6400",
"F^ c #5B4607",
"F_ c #7A1F50",
"F` c #970289",
"Fa c #970183",
"Fb c #5D4027",
"Fc c #396800",
"Fd c #435C00",
"Fe c #583E0B",
"Ff c #5C370C",
"Fg c #524D01",
"Fh c #6C6E01",
"Fi c #6A6E03",
"Fj c #686900",
"Fk c #505101",
"Fl c #474701",
"Fm c #676700",
"Fn c #5E5F00",
"Fo c #515500",
"Fp c #5D6100",
"Fq c #747904",
"Fr c #757406",
"Fs c #97A10D",
"Ft c #98C00F",
"Fu c #82AA08",
"Fv c #587600",
"Fw c #5D6700",
"Fx c #5B5900",
"Fy c #5E5F04",
"Fz c #939B0B",
"F{ c #8C9409",
"F| c #858E07",
"F} c #878F08",
"F~ c #343201",
"G! c #6F0F56",
"G# c #7F1262",
"G$ c #3A4100",
"G% c #6F1C4A",
"G& c #801163",
"G' c #293400",
"G( c #253500",
"G) c #3A4200",
"G* c #801263",
"G+ c #812651",
"G, c #7C363F",
"G- c #803345",
"G. c #752945",
"G/ c #7A3540",
"G0 c #84463C",
"G1 c #84443E",
"G2 c #813B41",
"G3 c #802D49",
"G4 c #871F59",
"G5 c #821952",
"G6 c #761947",
"G7 c #681E42",
"G8 c #6F2549",
"G9 c #623D31",
"G: c #3F6100",
"G; c #4A5000",
"G< c #524800",
"G= c #4F5200",
"G> c #5E5F02",
"G? c #646705",
"G@ c #5E6004",
"GA c #636602",
"GB c #484700",
"GC c #666700",
"GD c #676902",
"GE c #5F6001",
"GF c #565500",
"GG c #737504",
"GH c #555501",
"GI c #444300",
"GJ c #444500",
"GK c #5A5B01",
"GL c #8F950B",
"GM c #AABE17",
"GN c #89A60B",
"GO c #648600",
"GP c #628200",
"GQ c #577100",
"GR c #5F6D00",
"GS c #666A00",
"GT c #555E00",
"GU c #9A9D0D",
"GV c #8F920A",
"GW c #767807",
"GX c #606004",
"GY c #5F5F04",
"GZ c #4B4B02",
"G[ c #1C2C00",
"G] c #6A0C53",
"G^ c #6B1C47",
"G_ c #860B6E",
"G` c #363E00",
"Ga c #502527",
"Gb c #671648",
"Gc c #6A1C46",
"Gd c #6E610D",
"Ge c #724B24",
"Gf c #8F0082",
"Gg c #960089",
"Gh c #853C44",
"Gi c #796716",
"Gj c #771E40",
"Gk c #553609",
"Gl c #423907",
"Gm c #810A69",
"Gn c #514E15",
"Go c #544B0F",
"Gp c #584A0D",
"Gq c #515201",
"Gr c #535401",
"Gs c #6B6B00",
"Gt c #696C03",
"Gu c #393900",
"Gv c #636200",
"Gw c #464600",
"Gx c #585900",
"Gy c #707402",
"Gz c #797B06",
"G{ c #ABAB19",
"G| c #8D9D0D",
"G} c #638000",
"G~ c #5A7200",
"H! c #587200",
"H# c #5C6E00",
"H$ c #313300",
"H% c #301D0F",
"H& c #605411",
"H' c #939A09",
"H( c #414201",
"H) c #484801",
"H* c #444700",
"H+ c #6F184F",
"H, c #820F67",
"H- c #493313",
"H. c #811065",
"H/ c #8C7221",
"H0 c #647200",
"H1 c #403508",
"H2 c #5D3516",
"H3 c #7F204C",
"H4 c #8F0976",
"H5 c #64331D",
"H6 c #7C1C4D",
"H7 c #7E1E56",
"H8 c #515300",
"H9 c #5D5D01",
"H: c #616302",
"H; c #2F2F00",
"H< c #646700",
"H= c #646600",
"H> c #656800",
"H? c #212A00",
"H@ c #780368",
"HA c #943B55",
"HB c #819200",
"HC c #373600",
"HD c #303001",
"HE c #81840A",
"HF c #808605",
"HG c #7E8A01",
"HH c #903655",
"HI c #6E5E13",
"HJ c #655413",
"HK c #681D43",
"HL c #433F00",
"HM c #69223B",
"HN c #7D1B51",
"HO c #8D0B71",
"HP c #7A0F60",
"HQ c #676601",
"HR c #666500",
"HS c #5C5E02",
"HT c #434200",
"HU c #3E3E00",
"HV c #626301",
"HW c #4F5000",
"HX c #737403",
"HY c #5C5A00",
"HZ c #424900",
"H[ c #4A2C1B",
"H] c #700A5A",
"H^ c #883C48",
"H_ c #424F00",
"H` c #6E7008",
"Ha c #737606",
"Hb c #595C03",
"Hc c #606502",
"Hd c #5B4318",
"He c #691B46",
"Hf c #681F41",
"Hg c #6E1C4A",
"Hh c #623527",
"Hi c #762449",
"Hj c #542B26",
"Hk c #691E45",
"Hl c #7D066A",
"Hm c #3F211A",
"Hn c #534F04",
"Ho c #606200",
"Hp c #575700",
"Hq c #393901",
"Hr c #646803",
"Hs c #4D4E01",
"Ht c #343400",
"Hu c #767907",
"Hv c #727404",
"Hw c #494800",
"Hx c #484800",
"Hy c #4B4D00",
"Hz c #4E5100",
"H{ c #4F5900",
"H| c #6C4028",
"H} c #48112F",
"H~ c #63600B",
"I! c #98A208",
"I# c #545700",
"I$ c #3C3F00",
"I% c #343500",
"I& c #383701",
"I' c #582B29",
"I( c #562B26",
"I) c #5E2632",
"I* c #532F21",
"I+ c #313100",
"I, c #414400",
"I- c #646800",
"I. c #695C0B",
"I/ c #901370",
"I0 c #8F4548",
"I1 c #7E8F00",
"I2 c #575A00",
"I3 c #636800",
"I4 c #667100",
"I5 c #2D3500",
"I6 c #631149",
"I7 c #79135B",
"I8 c #5C2A2D",
"I9 c #683032",
"I: c #6F3E2C",
"I; c #823148",
"I< c #65124B",
"I= c #5E173F",
"I> c #731653",
"I? c #602A30",
"I@ c #723438",
"IA c #5B5406",
"IB c #435000",
"IC c #404000",
"ID c #393800",
"IE c #252500",
"IF c #292B00",
"IG c #6B293B",
"IH c #722545",
"II c #3E4700",
"IJ c #464E00",
"IK c #565C00",
"IL c #5E4417",
"IM c #7D1D56",
"IN c #84364A",
"IO c #603528",
"IP c #84304E",
"IQ c #333200",
"IR c #67203F",
"IS c #66213E",
"IT c #62213B",
"IU c #334900",
"IV c #4D5900",
"IW c #596D00",
"IX c #6B5A0F",
"IY c #821265",
"IZ c #4C1C2C",
"I[ c #7B0C63",
"I] c #4E3417",
"I^ c #344D00",
"I_ c #424C00",
"I` c #6D4D1C",
"Ia c #63451B",
"Ib c #2F3000",
"Ic c #3E4200",
"Id c #545A00",
"Ie c #8B1B65",
"If c #920087",
"Ig c #532A24",
"Ih c #4B4803",
"Ii c #4E5400",
"Ij c #595A00",
"Ik c #4A4901",
"Il c #574510",
"Im c #6C2D39",
"In c #850C6D",
"Io c #491C28",
"Ip c #70045F",
"Iq c #950086",
"Ir c #564D0A",
"Is c #662D34",
"It c #850A6D",
"Iu c #8E2065",
"Iv c #821464",
"Iw c #850573",
"Ix c #5D2730",
"Iy c #651D40",
"Iz c #3C4600",
"I{ c #606100",
"I| c #5B5E00",
"I} c #3D3E00",
"I~ c #7D0F62",
"J! c #81056E",
"J# c #434A00",
"J$ c #424A00",
"J% c #840770",
"J& c #770C5F",
"J' c #626800",
"J( c #852655",
"J) c #9E0097",
"J* c #66372A",
"J+ c #4A5700",
"J, c #464C00",
"J- c #3F3A04",
"J. c #8A0973",
"J/ c #761655",
"J0 c #403906",
"J1 c #880B70",
"J2 c #971377",
"J3 c #8A8113",
"J4 c #373503",
"J5 c #434E00",
"J6 c #431B23",
"J7 c #2A3E00",
"J8 c #565800",
"J9 c #545301",
"J: c #373F00",
"J; c #644819",
"J< c #803741",
"J= c #760962",
"J> c #830F68",
"J? c #6E283F",
"J@ c #755720",
"JA c #664E19",
"JB c #515C00",
"JC c #2D3900",
"JD c #404C00",
"JE c #576100",
"JF c #373800",
"JG c #454501",
"JH c #353D00",
"JI c #2B3200",
"JJ c #2C3600",
"JK c #292F00",
"JL c #2E3900",
"JM c #343A00",
"JN c #373601",
"JO c #5C5F00",
"JP c #525E00",
"JQ c #574E08",
"JR c #702B3E",
"JS c #900979",
"JT c #732C3F",
"JU c #525300",
"JV c #474B00",
"JW c #383A00",
"JX c #2F2D02",
"JY c #5F3129",
"JZ c #5A3A1C",
"J[ c #373D00",
"J] c #3D2912",
"J^ c #6C1052",
"J_ c #A03963",
"J` c #8D6F26",
"Ja c #223D00",
"Jb c #352B09",
"Jc c #8B2061",
"Jd c #51321C",
"Je c #442B16",
"Jf c #700D58",
"Jg c #44261B",
"Jh c #414300",
"Ji c #303600",
"Jj c #383D00",
"Jk c #425500",
"Jl c #614D12",
"Jm c #901C68",
"Jn c #444B00",
"Jo c #715D17",
"Jp c #764B2A",
"Jq c #4E1C2D",
"Jr c #67342D",
"Js c #501E2D",
"Jt c #642E30",
"Ju c #714528",
"Jv c #3E3905",
"Jw c #2F3600",
"Jx c #53331D",
"Jy c #683D26",
"Jz c #424600",
"J{ c #2D3300",
"J| c #4A1F26",
"J} c #4A2A1D",
"J~ c #3E3C01",
"K! c #4D2127",
"K# c #3E201A",
"K$ c #2E2C02",
"K% c #532A25",
"K& c #4F3617",
"K' c #353B00",
"K( c #474403",
"K) c #623826",
"K* c #613D20",
"K+ c #6F2D3B",
"K, c #99008B",
"K- c #A600A0",
"K. c #414700",
"K/ c #485100",
"K0 c #475000",
"K1 c #3C3A02",
"K2 c #6B1151",
"K3 c #91563C",
"K4 c #798F00",
"K5 c #4A2423",
"K6 c #411229",
"K7 c #97216D",
"K8 c #5E3E1D",
"K9 c #503715",
"K: c #3D3B01",
"K; c #373C00",
"K< c #626500",
"K= c #921E68",
"K> c #760862",
"K? c #7A0C63",
"K@ c #920C77",
"KA c #6A5A0E",
"KB c #646D00",
"KC c #76105C",
"KD c #8F0D74",
"KE c #544D05",
"KF c #424700",
"KG c #373501",
"KH c #394000",
"KI c #3E3B03",
"KJ c #890A72",
"KK c #771557",
"KL c #8D0976",
"KM c #69124E",
"KN c #711B4D",
"KO c #3F221A",
"KP c #970187",
"KQ c #790C62",
"KR c #262A00",
"KS c #393801",
"KT c #434B00",
"KU c #413709",
"KV c #7A393A",
"KW c #685B0C",
"KX c #961D6F",
"KY c #86840D",
"KZ c #5D7100",
"K[ c #5F3822",
"K] c #7D0968",
"K^ c #790B63",
"K_ c #7F0B68",
"K` c #820E68",
"Ka c #4A291E",
"Kb c #314800",
"Kc c #584F07",
"Kd c #692D36",
"Ke c #7B0A65",
"Kf c #6B1D46",
"Kg c #4A1E27",
"Kh c #481C27",
"Ki c #62332A",
"Kj c #785223",
"Kk c #6B6605",
"Kl c #4C5D00",
"Km c #4A3E0B",
"Kn c #86106A",
"Ko c #531E30",
"Kp c #841663",
"Kq c #861268",
"Kr c #810C69",
"Ks c #7C0B65",
"Kt c #493215",
"Ku c #492421",
"Kv c #462919",
"Kw c #3E3D01",
"Kx c #542E22",
"Ky c #453310",
"Kz c #41330D",
"K{ c #701255",
"K| c #283400",
"K} c #5C1A3B",
"K~ c #8F0180",
"L! c #A30099",
"L# c #7D1F54",
"L$ c #5D3E1B",
"L% c #603B21",
"L& c #8A0C70",
"L' c #96008D",
"L( c #7F076C",
"L) c #661F3F",
"L* c #3A4800",
"L+ c #3A4900",
"L, c #2D4100",
"L- c #8F0E73",
"L. c #9C3B5C",
"L/ c #816F1A",
"L0 c #6A2F35",
"L1 c #741753",
"L2 c #5C2D2A",
"L3 c #683231",
"L4 c #623C22",
"L5 c #79254B",
"L6 c #65213D",
"L7 c #193400",
"L8 c #1D2F00",
"L9 c #344300",
"L: c #586300",
"L; c #5B3F18",
"L< c #641844",
"L= c #3B2514",
"L> c #34280B",
"L? c #731950",
"L@ c #4D3218",
"LA c #233500",
"LB c #243200",
"LC c #323900",
"LD c #3F3B03",
"LE c #6A164B",
"LF c #4C1C2B",
"LG c #212F00",
"LH c #7E0969",
"LI c #730C5C",
"LJ c #5C3E1B",
"LK c #515E00",
"LL c #784034",
"LM c #971B71",
"LN c #890B71",
"LO c #5A262E",
"LP c #54232C",
"LQ c #561936",
"LR c #7B4C30",
"LS c #5D7200",
"LT c #562729",
"LU c #45221F",
"LV c #302B05",
"LW c #2B2903",
"LX c #822355",
"LY c #8A0478",
"LZ c #472122",
"L[ c #7E1260",
"L] c #3D3A03",
"L^ c #313001",
"L_ c #2E2805",
"L` c #423C05",
"La c #3E3805",
"Lb c #2F2E02",
"Lc c #2D2A03",
"Ld c #272C00",
"Le c #6A6901",
"Lf c #6B7C00",
"Lg c #7E5927",
"Lh c #5E2434",
"Li c #4A3016",
"Lj c #730F59",
"Lk c #780C60",
"Ll c #5B2233",
"Lm c #880F6C",
"Ln c #812750",
"Lo c #544111",
"Lp c #293000",
"Lq c #5A173C",
"Lr c #820A6C",
"Ls c #82086C",
"Lt c #850B6C",
"Lu c #860D6D",
"Lv c #800A69",
"Lw c #501C2E",
"Lx c #313500",
"Ly c #828406",
"Lz c #586600",
"L{ c #6A4225",
"L| c #8B0776",
"L} c #890873",
"L~ c #452220",
"M! c #860871",
"M# c #5C183C",
"M$ c #870F6B",
"M% c #612338",
"M& c #6B0E54",
"M' c #54341D",
"M( c #355000",
"M) c #233300",
"M* c #6E0F56",
"M+ c #424300",
"M, c #646604",
"M- c #6F7105",
"M. c #3A4A00",
"M/ c #522D21",
"M0 c #69134D",
"M1 c #6D1251",
"M2 c #5C183D",
"M3 c #521D30",
"M4 c #3A2512",
"M5 c #3F3608",
"M6 c #312B05",
"M7 c #6F1056",
"M8 c #5F1443",
"M9 c #4F1B2F",
"M: c #233000",
"M; c #501D2D",
"M< c #860970",
"M= c #890972",
"M> c #7C165B",
"M? c #3E4F00",
"M@ c #303E00",
"MA c #651449",
"MB c #83096E",
"MC c #752845",
"MD c #69253D",
"ME c #621C3F",
"MF c #7B2151",
"MG c #752A43",
"MH c #752646",
"MI c #851068",
"MJ c #544B08",
"MK c #485A00",
"ML c #6C194A",
"MM c #6F184E",
"MN c #3E3F00",
"MO c #4A4C00",
"MP c #393D00",
"MQ c #293200",
"MR c #602436",
"MS c #481D26",
"MT c #36250F",
"MU c #3C2515",
"MV c #392611",
"MW c #236382",
"MX c #355483",
"MY c #365283",
"MZ c #345483",
"M[ c #385183",
"!!!!!!!!!!!!!!!!!!!!!!!!!!!!!!!!!!!!!!!!!!!!!!!!!!!!!!!!!!!!!!!!!!!!!!!!!!!!!!!!!!!!!!!!!!!!!!!!!!!!!!!!!!!!!!!!!!!!!!!!!!!!!!!!!!!!!!!!!!!!!!!!!!!!!!!!!!!!!!!!!!!!!!!!!!!!!!!!!!!!!!!!!!!!!!",
"!!!!!!!!!!!!!!!!!!!!!!!!!!!!!!!!!!!!!!!!!!!!!!!!!!!!!'!(!!!!!!!,!-!!!!!!!!!!!!!!!!!!!!!!!!!!!!!!!!!!!!!!!!!!!!!!!!!!!!!!!!!!!!!!!!!!!!!!!!!!!!!!!!!!!!!!!!!!!!!!!!!!!!!!!!!!!!!!!!!!!!!!!!!!!!",
"!!!!!!!!!!!!!!!!!!!!!!!!!!!!!!!!!!!!!!!!!!!!!!!!!!!!!6!7!8!!!!!;!<!!!!!!!!!!!!!!!!!!!!!!!!!!!!!!!!!!!!!!!!!!!!!!!!!!!!!!!!!!!!!!!!!!!!!!!!!!!!!!!!!!!!!!!!!!!!!!!!!!!!!!!!!!!!!!!!!!!!!!!!!!!!",
"!!!!!!!!!!!!!!!!!!!!!!!!!!!!!!!!!!!!!!!!!!!!!!!!!!!?!@!!!B!C!D!E!F!!!!!!!!!!!!!G!H!I!!!!!!!!!!!!!!!!!!!!!!!!!!!!!!!!!!!!!!!!!!!!!!!!!!!!!!!!!!!!!!!!!!!!!!!!!!!!!!!!!!!!!!!!!!!!!!!!!!!!!!!!!!",
"!!!!!!!!!!!!!!!!!!!!!!!!!!!!!!!!!!!!!!!!!!!!!!!!!!!K!L!M!N!O!P!Q!R!!!!!!!!!!!!!S!T!U!!!V!W!X!!!!!!!!!!!!!!!Y!Z![!]!^!_!!!!!!!!!!!!!!!!!!!!!!!!!!!!!!!!!!!!!!!!!!!!!!!!!!!!!!!!!!!!!!!!!!!!!!!!",
"!!!!!!!!!!!!!!!!!!!!!!!!!!!!!!!!!!!!!!!!!!!!!!!!!!!!!`!a!b!c!d!!!!!!!!!!!!!!!!!e!f!g!h!i!j!k!!!!!!!!!!!!!l!m!n!o!p!q!r!!!!!!!!!!!!!!!!!!!!!!!!!!!!!!!!!!!!!!!!!!!!!!!!!!!!!!!!!!!!!!!!!!!!!!!!",
"!!!!!!!!!!!!!!!!!!!!!!!!!!!!!!!!!!!!!!!!!!!!!!!!!!!!!!!!!!!!!!!!!!!!!!!!!!!!!t!u!v!w!x!y!z!{!|!}!!!!!!!~#!###$#%#&#'#(#)#*!!!!!!!!!!!!!!!!!!!!!!!!!!!!!!!!!!!!!!!!!!!!!!!!!!!!!!!!!!!!!!!!!!!!",
"!!!!!!!!!!!!!!!!!!!!!!!!!!!!!!!!!!!!!!!!!!!!!!!!!!!!!!!!!!!!!!!!!!!!!!!!!!#+#,#-#.#/#0#1#2#3#4!!!!#7#8#9#:#;#<#=#>#?#@#A#B#C!!!!!!#E!!!!!!#G#H!!!!!!!!!!!!!!!!!!!!!!!!!!!!!!!!!!!!!!!!!!!!!!!!",
"!!!!!!!!!!!!!!!!!!!!!!!!!!!!!!!!!!!!!!!!!!!!!!!!!!!!!!!!!!!!!!!!!!!!!!!!!!#L#M#N#O#P#Q!!#S#T!!!!#W#X#Y#Z!!#]#^#_#`#a#b#c#d#e#f!!#g#h#i!!!!#j#k!!!!!!!!!!!!!!!!!!!!!!!!!!!!!!!!!!!!!!!!!!!!!!!!",
"!!!!!!!!!!!!!!!!!!!!!!!!!!!!!!!!!!!!!!!!#m#n#o#p!!!!!!!!!!!!!!!!!!!!!!!!!!#r#s#t#u#v#w!!!!#z#{#|#}#~$!$#$$$%$&$'$($)$*#M$+$,$-$.$/$0$1!!!!$2$3$4!!!!!!!!!!!!!!!!!!$5$6$7!!!!!!!!!!!!!!!!!!!!!!",
"!!!!!!!!!!!!!!!!!!!!!!!!!!!!!!!!!!!!!!$8$9$:$;$<$=$>$?!!!!!!!!$@$A$B$C!!!!$D$E$F$G$H$I$J$K$L$M$N$O#>$P$Q$R$S$T$U$V$W$X$Y!!!!$]$^$_$`$a$b!!$c$d$e$f$g!!$h$i!!!!!!!!$k$l$m$n$o!!!!!!!!!!!!!!!!!!",
"!!!!!!!!!!!!!!!!!!!!!!!!!!!!!!!!!!!!!!$p$q$r$s$t$u$v$w!!!!!!!!$z${$|$}$~%!%#%$%%%&%'%(#h%)%*%+%,%-%.%/%0%1%2%3%4%5%6!!!!!!%:%;%<%=%>%?%@%A!!%C%D%E%F%G%H%I!!!!!!%J%K%L%M%N%O!!%P!!!!%Q!!!!!!!!",
"!!!!!!!!!!!!!!!!!!!!!!!!!!!!!!!!!!!!!!!!%R%S%T%U%.%V%W%X!!!!%Z%[%]%^%_%`%a%b%c%d#t%e%f$0%g%h%i%j%k#.%i%l%i%m%n%o%p%q%r%s%t%u%i%v%w%x%y%z%{!!%}%~&!&#&$&%&&!!!!&'&(!!&*&+!!!!&.&/&0&1&2&3!!!!!!",
"!!!!!!!!!!!!!!!!!!!!!!!!!!!!!!!!!!!!!!!!&4&5&6&7&8&9&:&;&<&=&>&?&@&A&B&C&D&E&F&G&H&I&J&K&L&M&N&O&P&Q&R&S&T&U&V&W&X&Y&Z&[&]&^&_&`&a&b&c&d&e&f&g&h&i&j#M&k&l&m!!!!&o&p&q!!!!&t&u&v&w!!&y!!!!!!!!",
"!!!!!!!!!!!!!!!!!!!!!!!!!!!!!!!!!!!!!!!!&z&{&|&}&~$6'!'#'$'%'&'''(')'*'+','-'.'/'0'1'2%1%-'3%j'4'5'6'7'8'9':';'<'='>'?'@'A'B'C'D'E'F'G!!'I'J'K'L'M'N'O'P'Q'R'S!!!!'V'W!!!!'Z'[']'^!!!!'a'b'c!!",
"!!!!!!!!!!!!!!!!!!!!!!!!!!!!!!!!!!!!!!!!'d'e'f'g#.'h'i!!'k'l'm'n'o'p'p'o'q'r's't'u'v'w%i'x'y'z'{'|'p'p'}'~(!(#($(%(&('((()(*(+(,(-%i(.(/(0(1(2(3(4$((5(6(7(8(9(:!!!!(=(>!!(?(@(A(B(C!!(E(F(G!!",
"!!!!!!!!!!!!!!!!!!!!!!!!!!!!!!!!!!!!!!(I(J&P(K(L(M(N(O(P(Q(R(S(T(U'>(V(W(X(Y(Z([(](^(_(`(a(b(c(d(e(f(f(g$v(h(i(j(k(l(m(n(o(p(q(r(s(t(u(v(w(x(y(z({(|(}(~)!)#)$)%)&!!)()))*)+),)-).!!!!)0)1)2!!",
"!!!!!!!!!!!!!!!!!!!!!!!!!!!!!!!!!!!!!!)3(%)4)5)6&#)7)8)9):);)<)=)>)?)@)A)B)C)D)E)F)G)H)I)J)K)L)M)N)O)P)Q)R)S)T)U)V)W)X)Y)Z)[)])^)_)`)a)b)c)d)e)f$F)g)h)i)j)k)l)m)n)o)p)q)r)s)t)u!!!!)x)y)z!!!!",
"!!!!!!!!!!!!!!!!!!!!!!!!!!!!!!!!!!!!!!){)|%-%m)}$G)h)~*!*#*$*%!!*'*(*)***+*,*,*-*-*.*/*0*1$R*2)B*3('*4*5*6*7*8*9*:*;*<*=*>*?*@*A*B*C*D*E*F*G*H%&*I$F!v*J*K*L!!!!*O*P*Q!!*S*T*U*V*W*X*Y*Z*[!!!!",
"!!!!!!!!!!!!!!!!!!!!!!!!*]*^!!*_*`!!*a*b*c*d*e*f*g*h*i*j*k*l*m*n*o*p*q*r*s*t*u*v*w*x*y&L*z*{*|*}*~+!+#+$+#+%+&+'+(+)+*+++,+,+-+.+/*C+0+1*F+2+3+4+5+6+7+8+9+:+;+<+=+>+?+@+A+B!!+C+D+E+F+G!!!!!!",
"!!!!!!!!!!!!!!!!!!!!!!!!+H+I+J+!+K+L+M!y+N+O+P+Q+R+S+T+U+V+W+X+Y+Z+[+]+^+_+`+a+b+c+d+e+f+g+h+i+j+k+l+m+O+n+o+p+q+r+s+t+u+v+w+x+y+z*2+{+]+|+}+~+|,!,#,$,%,&,',(,),*,+,,,-,.,/!!!!,0,1,2!!!!!!!!",
"!!!!!!!!!!!!!!!!!!!!!!!!!!,3,4,5,6,7(A,8,9,:,;,<,=,>,?,@,A,B,C,D,E,F,G,H,I,J,K,L,M,N,O*I,P,Q,R,S,T(l,U,V,W,X,Y,Z,[(y,],^,_((,`,a+z,b$t,c*F,d,e,f,g+|%j(c%3(A,h,i(8)#,j!!,k,l,m!!!!!!!!!!!!!!!!",
"!!!!!!!!!!!!,n,o,p!!!!!!!!,q,r!!,t,u(8,v,w(A,x,y,z,{,|,},~-!-#-$-%-&-'-(-)-*-+-,---.-/-0-1-2-3-4-5-6-7-8-9-:-;-<-=->-?-@-A-B-C-D-E-F-G)7-H-I-J-K-L#N-M-N-O-P-Q-R-S-T!!!!!!-X-Y!!!!!!!!!!!!!!!!",
"!!!!!!!!!!-[-]-^-_-`!!!!!!-b-c-d-e-f-g-h-i(A-j-k-l-m-n-o-p-q-r-s-t-u-v-w-x-y-z-{-|-}-~.!.#.$.%.&.'.(.).*.+.,.-.../.0.1.2.3.4.5.6.7.8.9.:.;.<.=.>.?,B.@%o.A.B.C.D.E!!!!!!.I.J.K.L!!!!!!!!!!!!!!",
"!!!!!!!!.M.N.O.P.Q.R.S!!!!.T.U.V.W!!.Y.Z.[.].^._%4.`.a.b.c.d.e.f.g.h.i.j.k.l.m.n.o.p.q.r.s.t.u.v.w.x.y.*.z(8.{.|.}.~+'/!/#/$/%/&/'/(/)/*/+/,/-/.///0/1+}/2/3/4/5/6!!!!/9/:/;.C/</=!!!!!!!!!!!!",
"!!!!!!!!/>/?/@/A/B/C/D!!!!/E/F/G/H/I/J/K/L/M/N/O+u/P/Q/R/S/T/U/V/W/X/Y/Z/[/]/^/_/`/a/b/c/d/e/f*3/g/h/i/j/k$v/l-C/m/n/o/p('/q/r/s/t/u/v/w/x/y/z/{/|/}/~0!)`0#0$!!!!!!!!0)0*0+0,0-0.!!!!!!!!!!!!",
"!!!!!!!!0/0001020304!!!!05060708090:0;0<0=0>0?0@0A0A0B0C0D0E0F0G0H0I0J0K+l*B0L0M0N0O0P0Q0R0S0T0U-80V0W0X0Y0Z0[0]0^0_0`*K.z0a0b0c0d0e0f0g0h0i0j0k0l0m0n0o0p0q!!!!!!!!!!0v0w0x0y0z0{0|!!!!!!!!!!",
"!!!!!!!!0}0~1!1#1$1%!!!!1&1'!!1(1)1*+~1+1,1-1.(X1/101112131415161718191:1;1<1=1>1?1@1A1B1C1D1E-71F(A1G1H!!1J1K1L!!1N1O1P1Q1R1S1T1U1V1W1X1Y1Z1[1]1^1_1+1`1a1b1c!!!!!!!!1g1h1i1j#.1k1l!!!!!!!!!!",
"!!!!!!!!!!!!!!1m1n*01o!!!!!!!!!!1p1q1r1s1t+/1u1v1w1x1y1z1{1|1}1~2!2#2$2%2&2',`)B/V2(2(*w1C2))Y,'2*2+)$2,!!)k2.!!!!!!222324.]25262728292:2;2<2=2>2?2@2A2B2C2D2E2F2G!!2I2J!!2L2M#.2N2O!!!!!!!!!!",
"!!!!!!!!!!!!!!!!2P2Q2R!!!!!!!!!!2S2T2U2V2W2X,b2Y2Z2[2]2^2_2`2a2b2c2d2e2f2g2h2i1-2j2k2l*w2b2m2n2o2p2q2r!!!!2t2u!!!!!!!!2w+M2+.*2x2y2z2{2|2}2~3!3#3$3%3&3'.,3(3)*33*!!+D3,!!!!3.3/303132!!!!!!!!",
"!!!!!!!!!!!!!!!!353637!!!!!!!!!!!!!!393:3;3<3=3>3?3@3A3B3C3D3E3F3G3H/P*@3I3J3K3L+b3M3N*w3O1q,:3P3Q!|!!!!3R!!!!!!!!!!!!3U2n*43V3W3X3Y3Z3[3]3^2?2A3_3`3a3b3c)63d3e3f3g3h3i3j!!3l3m3n3o&(3p!!!!!!",
"!!!!!!!!!!!!3q3r3s3t3u3v!!!!!!!!!!!!3x3y3z%.3{3|3}3~4!4#4$4%4&4'4(4)4*4+4,4-4.4/404142*w43,x443P(9!|!!4647!!!!!!!!!!!!3U48494:4;4<4=4>4?4@%i#.4@#.%n(34A4B#u4C4D4E4F4G4H4I4J4K4L4M4N!!4O4P!!!!",
"!!!!!!!!!!!!4Q4R4S4T4U4V!!4W4X!!4Y4Z4[4]4^.@4_4`4a4b4c2;4d4e4f4g4h4i4j4k4l4m4n4o4p4q4r4s4t*;4u4v4w(94x2,4y!!!!!!!!!!!!2w4}4~5!5#5$5%5&5'5(#d5)5*#>5+%n5,5-5.4L5/50515253545556575859!!5:5;!!!!",
"!!!!!!!!!!!!5<5=5>5?5@5A!!5B5C!!5D5E5F1i5G5H5I5J5K5L5M+W5N5O5P5Q5R5S!!5T5U-k5V5W5X5Y0R5Z5[)#5]5^5_5`5a5b!!!!!!-T!!!!5g5h5i5j5k5l5m5n5o5'5p+X$($G5q#O#`5q5r%/5s5t5u$G5v5w5x2V5y5z0T5{!!5|5}!!!!",
"!!!!!!!!!!!!5~6!6#6$6%6&!!6'6(!!6)6*)i6+#L6,6-6.6/6061626364*t)B6566!!!!696:6;*}6<6=2o6>(A6?6@6A!!!!6C6D!!!!6F6G!!6I6J256K6L6M6N4n6O6P6Q6R6S(M#u#u$G$G$G*I6T#.6U6V$G)f6W1r6X6Y4L6Z6[!!!!!!!!!!",
"!!!!!!!!!!!!6]6^6_6`6a6b!!!!6c!!6d*Z-P6e6f5/6g6h6i6j6k6l6m6n6o6p6q6r!!!!!!6u6v6w6x6y6z6{6|))6}6~2t!!7!3R!!!!!!7%)n4I7&,87'7(7)7*7+7,7-7.5>7/.?70717273*I5v5v6T#O#O7475767778797:7;7<5;!!!!!!!!",
"!!!!!!!!!!!!7>7?7@7A7B!!7C7D7E7F7G7H*F&L5*7I7J7K7L7M7N7O7P7Q7R7S*~7T7U!!!!!!!!!!!!!!!!7Z7[7Z(=7]7^!!!!!!!!!!!!!!)#7b,m+94+7c7d7e7f7g7h7i7j7k7l7m7n7o7p7q7r7q7s7q#O7t7u7v7w7x7y7z!!7{7|7}!!!!!!",
"!!!!!!!!!!!!7~8!8#!!!!!!8%8&8''P%f,d*F8(8)8*8+8,7j8-8.(78/80818283848586!!!!!!!!!!!!!!!!!!!!!!!!!!!!!!!!!!!!!!!!47(:!!#)(98989/M.*'p8:8;7j8<8=8>.x8>.[8?)5#.8@8A-M*08B8C8D7:7z!!!!!!!!!!!!!!!!",
"!!!!!!!!!!!!8E8F8G!!!!!!8H8I+08J8K*E+r8L8M8N8O8P0z8Q8R8S8T8U8V8W8X8Y8Z8[!!!!!!!!!!!!!!!!!!!!!!!!!!!!!!!!!!!!!!!!!}!!!!-T8_8`!!8b8c'p8d8e6S8f8g8h+%8i8j8k8l8m8n8o8p+}8q8r8s8t8u!!!!!!!!!!!!!!!!",
"!!!!!!!!!!!!!!!!!!!!!!8v8w8x8y8z8{8|(b8}8~9!9#9$(b9%9&9',a6i9(9)9*9+9,9-!!!!!!!!!!!!!!!!!!!!!!!!!!!!!!!!!!!!!!!!!!!!!!!!!!!!909192939495(M969798999:9;9<9=9>*F9?9@,$9A9B9C!!!!!!!!!!!!!!!!!!!!",
"!!!!!!!!!!!!!!!!!!!!9D9E9F9G9H!!9J9K9L9M9N9O9P+U9Q9R9S/V/V*-9T9U9V.x9W9X!!!!!!!!!!!!!!!!!!!!!!!!!!!!!!!!!!!!!!!!!!!!!!!!!!9Y2+9Z9[9]9^9_9`9a9b9c9d9e9f9g9h-P6>(~2C2C(~9i(A9j!!!!!!!!!!!!!!!!!!",
"!!!!!!!!!!!!!!!!!!9k9l9m9n9o9p9q9r9s9t9u9v9w9x9y9z9{3J9|1k)B9]9}9~*>:!:#!!!!!!!!!!!!!!!!!!!!!!!!!!!!!!!!!!!!!!!!!!!!!!!!!!!!(A:&:':(:):*:+:,:-:.:/:0:1:2:3,:%f$0%x2C:4:5:6:7:8:93j!!!!!!!!!!!!",
"!!!!!!!!!!!!!!!!!!:::;:<:=:>:?:@:A:B:C:D:E:F:G:H:I:J:K:L:M19:N0K+-:O:P:Q!!!!!!!!!!!!!!!!!!!!!!!!!!!!!!!!!!!!!!!!!!!!!!!!:6:R%b:S93:T:U:V:W:X:Y*I:Z:[:]:^:_6>,i%x,h2C:`:a!!:b:c)$)u!!!!!!!!!!!!",
"!!!!!!!!!!!!!!!!!!:d:e:f!!:h:i:j:k:l*I:m:n.y:o:p2;:q:r:s:t:u9]:v0K*<:w:x!!!!!!!!!!!!!!!!!!!!!!!!!!!!!!!!!!!!!!!!!!!!!!!!:y,7%4:z***-:{:|:}8|:~,C;!;#;$;%;&$0(A,6;';'/k*a!!;()#6G9Y!!!!!!!!!!!!",
"!!!!!!!!!!!!!!!!!!;);*;+;,;-;.;/08;0;1;2;3%w;4;5;6;7;8;9;:-C;;;<;=;>;?!!!!!!!!!!!!!!!!!!!!!!!!!!!!!!!!!!!!!!!!!!!!!!!!;@;A;B;C*}+i;D;E;F;G;H;I3>;J(a#O3m$`%f6>;K;L;M;N;O!!!!!!!!!!!!!!!!!!!!!!",
"!!!!!!!!!!!!!!!!!!;P;Q;R;S;T;U;V;W;X;Y*I;Z;[;];^;_;`;a;b;c;d6/;e;f;g;h;i!!!!!!!!!!!!!!!!!!!!!!!!!!!!!!!!!!!!!!!!!!!!!!;j!!!!;m;n;o-r;p;q;r;s;t;u;v;w;x;y;z;{(70W;|;};~<!!!)u2,<#!!!!!!!!!!!!!!",
"!!!!!!!!!!!!!!!!!!!!<%<&<',G<(!!<)<*<+<,<-<.</9x<0<1<2<3<41?1u<5<6!!<8<9!!!!!!!!!!!!!!!!!!!!!!!!!!!!!!!!!!!!!!!!!!!!!!!!!!<;<<<=<><?<@<A<B<C<D<E,P<F75&V<G<H+n)!<I!!!!!!!!<J6?#)-T!!!!!!!!!!!!",
"!!!!!!!!!!!!!!!!!!!!!!<K3~<L!!!!<M<N.@<O<P9z<Q<R;6<S<T<U<V<W<X<Y<Z!!!!!!!!!!!!!!!!!!!!!!!!!!!!!!!!!!!!!!!!!!!!!!!!!!!!!!!!<`<a<b<c<d<e<f<g<h<i:+$G%&#u<j<k<l'Q<m+><n<o6G<p<q!!!!!!!!!!!!!!!!!!",
"!!!!!!!!!!!!<r<s<t!!!!!!<u<v<w<x<y<z<{<|<}2}<~=!;_9x=#=$=%0L=&='=(!!!!!!!!!!!!!!!!!!!!!!!!!!!!!!!!!!!!!!!!!!!!!!!!!!!!=+=,=-=.=/=0=1=2=3=4=5=6=7,P*I$G'F=8=9=:!!!!(B===>,u=?!!!!!!!!!!!!!!!!!!",
"!!!!!!!!!!!!=B=C<R=D!!!!!!=F=G=H1a)+=I=J=K=L=M2}=N2<=O=P=Q=R=S=T=U!!!!!!!!!!!!!!!!!!!!!!!!!!!!!!!!!!!!!!!!!!!!!!!!!!=Y=Z=[*|=]=^=_=`=a=b=c=d=e=f*I75=g=h=i=j!!!!!!:9(A2+=n7!!!!!!!!!!!!!!!!!!!",
"!!!!!!=p=q!!=r=s=t=u=v=w!!!!=x=y4+=z!!=|$k,P=}.s=~>!>#7r>$>%>&>'>(!!!!!!!!!!!!!!!!!!!!!!!!!!!!!!!!!!!!!!!!!!!!!!!!>+>,.y>->.>/>0>1>26O6O6O>36O>4>5>6>7>8>9>:!!!!!!!!>=>>!!!!!!!!!!!!!!!!!!!!!!",
"!!!!!!>@>A!!>B>C>D>E>F>G>H!!!!>K>L>M>N>O>P>Q>R>S>T+S>U>V>W>X>Y>Z>[>]>^>_!!!!!!!!!!!!!!!!!!!!!!!!!!!!!!!!!!!!!!!!!!>c>d>e8.>f+u.+>g>h>i=`>j,R>k+i>l>m>n>o>p>q>r>s,,!!3j>t!!!!!!!!!!!!!!!!!!!!!!",
"!!!!!!!!!!!!>u>v>w>x!!>y-7>z>{>|>}>~;S?!?#?$?%?&?'?(?)?*?+?,.}?-?.?/?0?1!!*O!!!!!!!!!!!!!!!!!!!!!!!!!!!!!}?5?6?7!!?9?:!q.D.D1Q,v?;?<?=?>>3???@/V1u?A?A?B?C?D?E?F?G!}!!!!!!!!!!!!!!!!!!!!!!!!!!",
"!!!!!!!!!!!!?H?I5q?J?K?L,8?M?N!!?O?P(A<+<G(7,6$`?Q?R;T3K1-?S,R-r?T?U?V?W?X2+4y!!!!!!!!!!!!!!!!!!!!!!!!?Y3Q?Z?[?]?^?_93'p?`*@?a?b?c?d?e?f>j?g6/*w*w*w*w*,?h+u?i?j!!?k?l!!!!!!!!!!!!!!!!!!!!!!!!",
"!!!!!!!!!!!!?m?n?o?p?q?r?s?t?u?v?w?x,d'3%n+|?y+t?z?{?|?}?~@!@#@$@%@&+x@'@(@)@*@+@,@-@.@/@0@1!!!!!!!!!!!!@4@5@6@7@8@9@:**9]@;@<@=@>@?@@@A?*@B@C@D@D6/*w*,@E@F@G@H!!9i@J!!!!!!!!!!!!!!!!!!!!!!!!",
"!!!!!!!!!!!!@K@L(8@M@N@O:D@P.x7:@Q@R*0@S'3+2@T@U@V@W@X@D@Y@Z@[@]@^@_@`@a3V@b(]@c@d43@e@f@g@h@i!!!!!!!!!!@k@l+/@m@n@o@p@q@r@s1K@t@u@v@w@x@y@z@{+i+i1-*w*,?h@|@}@~A!A#A$A%A&A'A(!!!!!!!!!!!!!!!!",
"!!!!!!!!!!!!!!A)A*!!A,A-A.A//!A0A15z+};{$02C(]>.*wA2*7*wA36jA4A5A66VA7A8A9A:A;<B>3A<A=*w0aA>A?A@!!!!!!AAABACADAEAFAGAH(2AI@E93AJAK;16MAL3%AMAN>26OAO6/*,AP93@cAQAR%x$`ASATAUAV!!!!!!!!!!!!!!!!",
"!!!!!!!!!!!!!!!!AWAXAYAZA[0+&5A]A^A_A`AaAb-PAcAdAeAfAgAhAiAj,i+8AkAlAmAnAoApAqAr:ZAsAtAuAvAwAxAyAz!!A{A|A}'}A~B!B#B$B%B&B'B(B)B*B+;13!B,B-B.B/B0;o?g*,B11~2('oB2B3-QB4'$B5+-B6!!!!!!!!!!!!!!!!",
"!!!!!!!!!!!!!!!!!!B7B8B9B:B;B<##B=B>B?B@BABBAkBCBDBEBFBGBHBIBJBK.],8BLBMBNBOBPBQ0CBRBSBTBUBV>LBWBX!!BY;@.*7gBZ-.B[B]B^5zB_B`Ba&#Bb=tBcBd@&BeBfBgBh7,0J2(=&BiBjBkBl$`,6BmBn4+Bo!!!!!!!!!!!!!!!!",
"!!!!!!!!!!!!!!!!!!!!!!!!!!BpBqBrBs!!BuBvBw6MBxBy2*BzB{B|B}B~C!C#&J.y+OC$C%C&C'C(C)C*C+C,*:&E9]C-C.!!!!C0C1C2C3C4C5<E#u#O%/C6#uC76M9t<F#u5vC8C9C:C;(W9]B|'|C<C=C>$0,h,6;KC?C@CA!!!!!!!!!!!!!!!!",
"!!!!!!!!!!!!!!!!!!!!CBCCCDCECFCGCHCICJCK%j)5CLCMCNCOCP@cCQCRCS#?CT*FCUCV6VBdCW5GCXCYCZ<CC[*w@EC]C^>=C_C`AgCaCbCc&SCdCeCfCgCh%25v75CiCj<F#tCkClCmCnCo<>CpCq7HCrCsCtA`CuCv!!!!!!!!!!!!!!!!!!!!!!",
"!!!!!!!!!!!!!!!!!!!!CxCy$OCzC{C|55C}C~D!D#D$$eD%D&D'=HD(D)D*A`A6D+0*D,D-D.D/)fD0(bD1D2D3D4:-D5D6D7D8D9D:D;D<D=D>D?D@DADBDCDD&ODE(cDF(cDGD.DHDIDJDKDLDM@ZDN)iC}DODP%oBvDQDRDSDT!!!!!!!!!!!!!!!!",
"!!!!!!!!!!!!!!!!!!!!!!!!DUDV#dDWDXDYDZD[D]6,D^1?D_?DD`Ct+|1r+}0*,ZDa$G$(8LDbDF%/%l%mDcA55.9=DdDeDf.x,94tDgDhDiDjDkDlDmDnDoDpDq<,Dr(3Ds#.(4DtDuDvDwDxDy1r+|-OA55xDz-Q<++)D{D|D}!!!!!!!!!!!!!!!!",
"!!!!!!!!!!!!!!!!!!!!!!!!D~E!6TE#E$E%!!E'E(E)<=E*E+E,E-*0C><+E.8L75E/<F3<C68L#OE0#.%m57A54LE1BaE2E3E4E5E6E7B+E8E9E:E;E<E=0C.uE>E?E@-O,gEAEBEC8)72EDEEEFEGEH%p!pEIEJ1rEK1r%yEL$%EMEN!!!!!!!!!!!!",
"!!!!!!!!!!!!!!!!!!!!!!!!EOEPEQERESETEUEV<5**EWEXEYEZ*q*F<+%oE[E]E^8A7qE_E_<FE`Ea%n%iE04LDFEbEcEdEeEfEgEhEiEjEkElEmEnEoEp>j*sEqErEs1`-P-HEtEuEvEwExEyEzE{E|E}E~F!F#*0F$F%<+F&F'F(F)!!!!!!!!!!!!",
"!!!!!!!!!!!!!!!!!!!!!!!!!!F*F+F,F-F.F/F0F193F2F3F4F5F6D*F7E[(z+|F8.@%.5H7u8@CiF9-GDs(44LF:F;1B1>F<F=F>,cF9#NF?F@FAFBFCFDFEFF*-8qFG,h+8FH%i3}FI(xFJFK:}FLFMFN!!FPFQEAFRFS*FFTFU-QFV!!!!!!!!!!!!",
"!!!!!!!!!!!!!!FWFXD*FY!!FZF[F]F^F_!!!!FbFcFdFeFfFg(3Fh.B8lBA+|Fi&P3dFjFkFlE.,Z%/%.)J-O,ZFmFnFoFpFq5v8n+},d-QFrFsFtFuFD,R<>Fv+/FwFx-Q(~$03;,dFy6MFzF{F|F}%(F~6CG!G#G$G%G&FQG'G(G)G*!!!!!!!!!!!!",
"!!!!!!!!!!!!G+G,G-G.G/G0G1G2G3G4G5G6G7G8G9G:G;G<G=,$G>BeG?G@GA5-3zGB4L,g+}BM5.GC#=GDGE+r+rGFC>*ED#GGGHGIGJGKGGGLGMGNGOGP4nGQGRGSDF+|$0,i%x24GTGUGVGWGXGYGZ1/G[G]!!G^!!G_G`GaGbGc!!!!!!!!!!!!!!",
"!!!!!!!!!!!!GdGe!!!!GhGi!!!!!!!!GjGkGlGm!!GnGoGp+|,hGq5r)hGr#>Gs3b.]-OF93d#uBM4A(3DcGt+}*0+}1rGu4DGv<HGwGxDrGyGzG{G|G}G~H!H#DFF:(z+~5xH$,'H%H&H''wFk(~H(H)H*G`H+!!!!!!H,H-H.!!!!!!!!!!!!!!!!!!",
"!!!!!!!!!!!!H/H0H1H2H3!!!!!!!!H5H6!!!!!!!!!!!!H7H8*q;z,[(3,ZDWGs$`,9(A;{H9#.H:-O,[+r@Z(3,Z%o1rH;,dDWDrEa4L4L(34C1i5rH<H=H>#$+}+2Fm(3%xH?+9H@HAHB3rHCHDHE&#HFHGHH!!!!!!!!!!!!!!!!!!!!!!!!!!!!!!",
"!!!!!!!!!!!!HIHJHKHLHM!!!!!!!!HN!!!!!!!!!!!!!!HP)R.CHQHR-Q3b3b1`+8(A2C%fEB#>HSHT*F+r%o0-A`+r*03bHU4DA6HVHW8CHX4L#$A`FxHYFxGF1r%o,Z<GHZH[H]!!!!H^A*H_H`<FHaHbHcHdHe!!!!!!!!!!!!!!HfHg!!!!!!!!!!",
"!!!!!!!!!!!!HhHi!!HjHk!!!!!!!!!!!!!!!!!!!!!!!!HlHmHnHoHp(~CU,9.].],6*0,dHqHrHs(~Ht1r+r,$,$,$-Q-O;{.y+~*F(_HuHv,gHwGwHx4DHyHz+|A`A`1rH{H|!!!!!!!!H}H~I!#.I#I$I%I&I'!!!!!!!!!!!!!!I(I)!!!!!!!!!!",
"!!!!!!!!!!!!!!!!!!!!!!!!!!!!!!!!!!!!!!!!!!!!!!!!!!I*4u(7(A.]6>Gu$0,h1r<+$`I+(A(A.](A,6,hHU,hHU1r3b.]Gu4D+|<+$`%xH;6>6>.]I,Fo*0*0+|+|%oI-I.!!!!!!!!I0I1I2I3I4I5I6!!!!!!!!!!!!!!!!!!!!!!!!!!!!!!",
"!!!!!!!!!!!!!!!!!!!!!!!!!!I7I8I9I:I;!!I<I=!!I>I?I@IAIB,6,:(7,6DzGw;z$0A0$0Ht,6HU+},dDzDzDzH;Dz5x,h.].]IC<+GwID(7,9IEIFI$IGIHIIIJ+(+|F9/:IKILIM!!!!!!IN'fIOIPIQ2t!!!!!!!!!!IRIS!!!!!!!!!!!!!!!!",
"!!!!!!!!!!!!!!!!!!!!!!!!!!ITIUIVIWIXIY(CIZI[I]I^I_I`Ia+EIb%xGwDz&J4AGu.y,8A0%fIC<G$`%fH;H;H;H;+8,6.]6>%x4D$0H;.]Ht%fIcIdIe!!IgIhIi+|+2IjIkIlImIn!!!!!!IoIp!!IrIsItIuIv!!!!5|Ix!!!!!!!!!!!!!!!!",
"!!!!!!!!!!!!!!!!!!!!!!!!!!IyIzI{DWI|I}I~J!*VJ#J$*V!!J&/P<l+|0*;{3b+}+}2C.y(A(A(A(A%f,h2C2C,h2CDz,86>$0+8(A(A,8Dz,$+2H<J'J(!!!!J*J++|+}J,J-!!J/J0!!!!!!!!!!!!J3;JJ4.lJ5J6!!!!!!!!!!!!!!!!!!!!!!",
"!!!!!!!!!!!!!!!!!!!!!!!!!!2rJ7J8J9?oJ:J;J<J=J>J?+)J@JAC],49'JBJCJDJEJFJG-Q(AJHIIHtH;HtHU,iDzDz6}JI%fJJJK2+JLJMJN+8EJJOJPJQJR!!!!JTJUJVJWJXJYJZJ[J]J^!!!!J_J`CuJaJbJcJdJe!!!!!!!!!!!!!!!!!!!!!!",
"!!!!!!!!!!!!!!!!!!!!!!!!!!JfJgJhG`JiJjJkJlJm!!=xJnJoJp#TJq!kJrJsJtJuJvI#3mJwJxJyJzAcJ{'$;L+#=GJ|J}J~K!K#K$K%K&CqH;K'K(K)K*K+!!!!8GK.1@1/%fK/K0K1J]K2!!!!K3K4K5K6!LK7K8K9!!!!!!!!!!!!!!!!!!!!!!",
"!!!!!!!!!!!!!!!!!!!!!!!!!!!!!!<o)Q=GK:(7K;K<K=K>89K?!!!!!!!!!!!!!!!!KAKBI|?DKC!!KEKFKG)%%fKHKI!!KKKI!!KM4I!!KN;M;'JJKO!!!!!!!!!!KQ;KKRKS*0+}KTKU!!!!!!!!KVKW!!!!KXKYKZK[!!!!!!!!!!!!!!!!!!!!!!",
"!!!!!!!!!!!!!!!!!!!!!!!!!!!!!!K]K^K_K`KaKbC}KcKdKe:aKf!!+?+<KgKhKiKjKkKlKmKn)pKoKpKqKrKsKt()ATKuKvKwKxKyKz!!K{K|1aK}!!!!L#L$L%!!!!KeL(L)L*L+L,H;!!!!!!!!!!!l!!L.L/C<L0!!!!!!!!!!!!!!!!!!!!!!!!",
"!!!!!!!!!!!!!!!!!!!!!!!!!!!!!!!!!!!!!!L1L2L3L4L5!!L6G%!!;@L7(BL8L97:L:L;L<,jL=L>!!!!!!!!L?L@J:LALBLC*<()LDLELFLGLG+=LHLILJ,|LKLL!!!!!!!!LO!kLPLQ!!!!!!!!!!!!!!LRLSLT!!!!?l!!!!!!!!!!!!!!!!!!!!",
"!!!!!!!!!!!!!!!!!!!!!!!!!!!!!!!!!!!!!!!!!!!!!!!!!!!!!!!!LU(9(ALVLWIbHyLX!!+:)$LZ!!!!!!!!!!L[L]L^L_LV3xL`LaLbLcA|?k(ALdLdDqLe4LLfLg!!!!!!!!!!!!!!!!!!!!!!!!!!!!LhLi!!!!#i*VLj!!!!!!!!!!!!!!!!!!",
"!!!!!!!!!!!!!!!!!!!!!!!!!!!!!!!!!!!!!!!!!!!!!!!!!!!!!!!!!!:y6?LkLlA0LmLnLoLpLq!!!!!!!!!!!!!!7{LrLs3jLtLu7{Lv2u+>!!Lw1GLx)gLyE[LzL{!!!!!!!!!!!!!!!!!!!!!!!!!!!!!!!!!!;jL~!!!!*O:8!}!!!!!!!!!!!!",
"!!!!!!!!!!!!!!!!!!!!!!!!!!!!!!!!!!!!!!!!!!!!!!!!!!!!!!!!!!9YM#!!M$M%M&M'M(M)M*!!!!!!!!!!!!!!!!!!!!!!!!!!!!!!!!!!!!LqLAM+M,M--OM.M/!!!!!!!!!!!!!!!!!!!!!!!!!!!!!!!!!!M0)nM1(:M2M3!!!!!!!!!!!!!!",
"!!!!!!!!!!!!!!!!!!!!!!!!!!!!!!!!!!!!!!!!!!!!!!!!!!!!!!!!!!!!!!!!!!!!M4I%M5M6M7!!!!!!!!!!!!!!!!!!!!!!!!!!!!!!!!!!!!M8,61r%p<HAk7fM9!!!!!!!!!!!!!!!!!!!!!!!!!!!!!!!!!!!!3R?kM:M;!!!!!!!!!!!!!!!!",
"!!!!!!!!!!!!!!!!!!!!!!!!!!!!!!!!!!!!!!!!!!!!!!!!!!!!!!!!!!!!!!!!!!!!!!!!!!!!!!!!!!!!!!!!!!!!!!!!!!!!!!!!!!!!!!!!!!!!M>%pM?M@@<MA!!!!!!!!!!!!!!!!!!!!!!!!!!!!!!!!!!!!!!!!!!MB!!!!!!!!!!!!!!!!!!",
"!!!!!!!!!!!!!!!!!!!!!!!!!!!!!!!!!!!!!!!!!!!!!!!!!!!!!!!!!!!!!!!!!!!!!!!!!!!!!!!!!!!!!!!!!!!!!!!!!!!!!!!!!!!!!!!!!!!!!!MCMDME#E!!!!!!!!!!!!!!!!!!!!!!!!MFMGMH!M7{!!!!!!!!!!!!!!!!!!!!!!!!!!!!!!",
"!!!!!!!!!!!!!!!!!!!!!!!!!!!!!!!!!!!!!!!!!!!!!!!!!!!!!!!!!!!!!!!!!!!!!!!!!!!!!!!!!!!!!!!!!!!!!!!!!!!!!!!!!!!!!!!!!!!!!!!!!!!!!!!!!!!!!!!!!!!!!!!!!!!!MIMJMKE|1QML!!!!!!!!!!!!!!!!!!!!!!!!!!!!!!",
"!!!!!!!!!!!!!!!!!!!!!!!!!!!!!!!!!!!!!!!!!!!!!!!!!!!!!!!!!!!!!!!!!!!!!!!!!!!!!!!!!!!!!!!!!!!!!!!!!!!!!!!!!!!!!!!!!!!!!!!!!!!!!!!!!!!!!!!!!!!!!!!!!!MMMNDqMOMPMQM0!!!!!!!!!!!!!!!!!!!!!!!!!!!!!!",
"!!!!!!!!!!!!!!!!!!!!!!!!!!!!!!!!!!!!!!!!!!!!!!!!!!!!!!!!!!!!!!!!!!!!!!!!!!!!!!!!!!!!!!!!!!!!!!!!!!!!!!!!!!!!!!!!!!!!!!!!!!!!!!!!!!!!!!!!!!!!!!!!!!7{MR;'/gK|5a!K!!!!!!!!!!!!!!!!!!!!!!!!!!!!!!",
"!!!!!!!!!!!!!!!!!!!!!!!!!!!!!!!!!!!!!!!!!!!!!!!!!!!!!!!!!!!!!!!!!!!!!!!!!!!!!!!!!!!!!!!!!!!!!!!!!!!!!!!!!!!!!!!!!!!!!!!!!!!!!!!!!!!!!!!!!!!!!!!!!!!!!!MSMTMUMV<q!!!!!!!!!!!!!!!!!!!!!!!!!!!!!!",
"!!!!!!!!!!!!!!!!!!!!!!!!!!!!!!!!!!!!!!!!!!!!!!!!!!!!!!!!!!!!!!!!!!!!!!!!!!!!!!!!!!!!!!!!!!!!!!!!!!!!!!!!!!!!!!!!!!!!!!!!!!!!!!!!!!!!!!!!!!!!!!!!!!!!!!!!!!!!!!!!!!!!!!!!!!!!!!!!!!!!!!!!!!!!!!",
"!!!!!!!!!!!!!!!!!!!!!!!!!!!!!!!!!!!!!!!!!!!!!!!!!!!!!!!!!!!!!!!!!!!!!!!!!!!!!!!!!!!!!!!!!!!!!!!!!!!!!!!!!!!!!!!!!!!!!!!!!!!!!!!!!!!!!!!!!!!!!!!!!!!!!!!!!!!!!!!!!!!!!!!!!!!!!!!!!!!!!!!!!!!!!!",
"!!!!!!!!!!!!!!!!!!!!!!!!!!!!!!!!!!!!!!!!!!!!!!!!!!!!!!!!!!!!!!!!!!!!!!!!!!!!!!!!!!!!!!!!!!!!!!!!!!!!!!!!!!!!!!!!!!!!!!!!!!!!!!!!!!!!!!!!!!!!!!!!!!!!!!!!!!!!!!!!!!!!!!!!!!!!!!!!!!!!!!!!!!!!!!",
"!!!!!!!!!!!!!!!!!!!!!!!!!!!!!!!!!!!!!!!!!!!!!!!!!!!!!!!!!!!!!!!!!!!!!!!!!!!!!!!!!!!!!!!!!!!!!!!!!!!!!!!!!!!!!!!!!!!!!!!!!!!!!!!!!!!!!!!!!!!!!!!!!!!!!!!!!!!!!!!!!!!!!!!!!!!!!!!!!!!!!!!!!!!!!!",
"!!!!!!!!!!!!!!!!!!!!!!!!!!!!!!!!!!!!!!!!!!!!!!!!!!!!!!!!!!!!!!!!!!!!!!!!!!!!!!!!!!!!!!!!!!!!!!!!!!!!!!!!!!!!!!!!!!!!!!!!!!!!!!!!!!!!!!!!!!!!!!!!!!!!!!!!!!!!!!!!!!!!!!!!!!!!!!!!!!!!!!!!!!!!!!",
"!!!!!!!!!!!!!!!!!!!!!!!!!!!!!!!!!!!!!!!!!!!!!!!!!!!!!!!!!!!!!!!!!!!!!!!!!!!!!!!!!!!!!!!!!!!!!!!!!!!!!!!!!!!!!!!!!!!!!!!!!!!!!!!!!!!!!!!!!!!!!!!!!!!!!!!!!!!!!!!!!!!!!!!!!!!!!!!!!!!!!!!!!!!!!!"
};