/* XPM */
static char *lunging_f01[] = {
"64 64 20 1",
"a	c None",
"b	c #6C8C00",
"c	c #587400",
"d	c #445C00",
"e	c #344400",
"f	c #202C00",
"g	c #0C0C0C",
"h	c #747804",
"i	c #505000",
"j	c #A4A814",
"k	c #0C1400",
"l	c #7CA400",
"m	c #646400",
"n	c #3C3C00",
"o	c #340000",
"p	c #480000",
"q	c #5C0000",
"r	c #040404",
"s	c #000000",
"t	c #141414",
"aaaaaaaaaaaaaaaaaaaaaaaaaaaaaaaaaaaaaaaaaaaaaaaaaaaaaaaaaaaaaaaa",
"aaaaaaaaaaaaaaaaaaaaaaaaaaaaaaaaaaaaaaaaaaaaaaaaaaaaaaaaaaaaaaaa",
"aaaaaaaaaaaaaaaaaaaaaaaaaaaaaaaaaaaaaaaaaaaaaaaaaaaaaaaaaaaaaaaa",
"aaaaaaaaaaaaaaaaaaaaaaaaaaaaaaaaaaaaaaaaaaaaaaaaaaaaaaaaaaaaaaaa",
"aaaaaaaaaaaaaaaaaaaaaaaaaaaaaaaaaaaaaaaaaaaaaaaaaaaaaaaaaaaaaaaa",
"aaaaaaaaaaaaaaaaaaaabbbbbbbaaaaaaaaaaabbbbbaaaaaaaaaaaaaaaaaaaaa",
"aaaaaaaaaaaaaaaaabbbcccccccbbbaaaaabbbcccccbbbbaaaaaaaaaaaaaaaaa",
"aaaaaaaaaaaaaaabbccccdcdcdccccbbbbbccccdcddccccbbaaaaaaaaaaaaaaa",
"aaaaaaaaaaaaaabccdcddddddecddcccccccddddecdddcdccbaaaaaaaaaaaaaa",
"aaaaaaaaaaaaabccddecdddddfedddddecddddddfeddecddccbaaaaaaaaaaaaa",
"aaaaaaaaaaaaacddddfeddecedeeceddfeedecdedecdfeddddcaaaaaaaaaaaaa",
"aaaaaaaaaaaaaeedecdedefeeeefeeeeeeeefeeeefededecdeeaaaaaaaaaaaaa",
"aaaaaaaaaacccefefeeeceeeeefeffggggffefeeeeeeeefeefecccaaaaaaaaaa",
"aaaaaaaaccddddgfefefefefffggggffffggggfffefeeefefgddddccaaaaaaaa",
"aaaaaaacddedeefggffffffgggffeeeeeeeeffgggffffffggfeededdcaaaaaaa",
"aaaaaacdeeeedefefggggggfeeeeeedededeeeeefggggggfefedeeeedcaaaaaa",
"aaaaaaceeeeeceedeefffeedeededdcdcdcdedeedeeefffedeeceeeeecaaaaaa",
"aaaaaadefeeecddffffeeffeededdcdcdcdddedeeffeeefffddceeefedaaaaaa",
"aaaaaadeefefegggggggggggfeeeddddddddeeefgggggggggggefefeedaaaaaa",
"aaaaaaadeffggfffffgfgghiggfeeeededeeefggihggfgfffffggffedaaaaaaa",
"aaaaaaaadddeedeeedefffghjhggffeeeeefgghjhgffffeeedeefggggaaaaaaa",
"aaaaaaaaefeddefeeeeeeeffffffeedcbbcdeefffffffedeedddddddefaaaaaa",
"aaaaaaafeedefggeeefggeeeeeddddeeeeeeddddeeeeeeedccceededddaaaaaa",
"aaaaaaadcddfdeefgdeeegedddefkkkkkkkkkkfedddbllbbddekkkkkeddaaaaa",
"aaaaaadeggddcbbcefgedeefkkkkhkmkmkmkhkkkkfbcccdccbbcfdddkfeeaaaa",
"aaaaaaefedcbcddcbdefgekkkkikkkkkkkkkkkikgjjcdedddeddcceeddkeaaaa",
"aaaaaaffdcdcbcdddcbdefgeefkkkkkkkkkkkkkgjhnffgffeeededbeeededaaa",
"aaaaaafeedcfedcddeccbbcgdkkkkkkkkkkkkkkfhngggfgfddedcdeeeeeedaaa",
"aaaaaaaffedededddedefeecgfkkkkoooookkkkfngfgggfeeedddedcdfeeeaaa",
"aaaaaaaeffedefeddeefffeefgkkkopqqqpokkkggggfecceccddcdedefedeaaa",
"aaaaaaaefefededecdefggffngdkmkmkhkhkmkinhjjhedbccbbddeccdfdeeaaa",
"aaaaaaaagfdeecfeeccegggfhgecneiememeincgggggfdfffefffefedfedfaaa",
"aaaaaaaaagcefcdgfdbcfgggjgeeccccbbbcccefddgggggegfeedddcdfdefaaa",
"aaaaaaaaagceedcegfdeefghnggeedddddddefgdggggeececccddeedfeefaaaa",
"aaaaaaaaagdcffbcggffhngngdfggfeeeefgggdgnhjjffebddfeffegfffgaaaa",
"aaaaaaaaaggbfgdeegggnjhggedeggggggggfdddgggggfggfeecdegffggaaaaa",
"aaaaaaaaafgdefgffegfghjngeddefggggfeddddggggggfffccegggggaaaaaaa",
"aaaaaaaaagfgfeggfhggfgnhggedddeeeeddddddfgnhjjeedggfffgaaaaaaaaa",
"aaaaaaaaagefghhgggjjgfggfgedddddddddcddefgggggggffffffgaaaaaaaaa",
"aaaaaaaaagfefgjjggghhgfgggfeecdccccddddefggffgffffffffffaaaaaaaa",
"aaaaaaaaaefffgfhjhgggeffggfeedddddddddeefgfffgffefefeffgaaaaaaaa",
"aaaaaaaaaagfecefggfffeffgfgfeeeddddddeefgfeegffefeededeffaaaaaaa",
"aaaaaaaaaaefefeefffefefegffgfeeeeeeeeefgfdeegfefecdeceeffaaaaaaa",
"aaaaaaaaaageecdeefefeeefgfffgfeeeeeeefgfeeefgffefeefedfefaaaaaaa",
"aaaaaaaaaagedfecfeeecdeegffffgggggggggfeeefgfaeeeddddfeefaaaaaaa",
"aaaaaaaaaafeedefdeddefefggfffefefffefedeeffggafefeecddcefaaaaaaa",
"aaaaaaaaaafeeecedddedeefggffeedeeeeeedeeffggfaafeefeeceffaaaaaaa",
"aaaaaaaaaafeedefdcedeeeggggffeedcccdeeeffggggaaffeefefeefaaaaaaa",
"aaaaaaaaafeeecededfeeefgggggffeedddeeeffgggggfaafeeeeeeefaaaaaaa",
"aaaaaaaaafeefefcfeedefgggggggffeeeeeeffggggggfaafffefecefaaaaaaa",
"aaaaaaaaafeeedeeedeeefggagggggffffffffggggggggaaffefcfefffaaaaaa",
"aaaaaaaaffeeceedeeeffgggaaggggggffffggggggggggfaffffffffeeaaaaaa",
"aaaaaaaafefedccfefeefggaaaagggggggggggggggggggfafefffffeedeaaaaa",
"aaaaafedcdeddddfedccfggaaaaaagggaaaggggggggggggffddeeddeeddeaaaa",
"aaaafedddfdldeefeddcdfggaaaaaaaaaaaagggggggggggfeddfeedldecdeaaa",
"aaaafedeefedeeeffeddefggaaaaaaaaaaafgggggggggggreeffeedeffeefaaa",
"aaaafeeffgfeeefggfeeefgsaaaaaaaaaaaggssggggggggfrfgffeeffgfgaaaa",
"aaaaffffgggfffgsggffffssssaaaaaaaaassssssssssssgfrsgffffgsgaaaaa",
"aaaaagggggggggggsssggtsssssaaaaaaaasssssssssssrsggrrggggtaaaaaaa",
"aaaaaaaggssssssssggtsssssssaaaaaaaarssssssssssrrrrraaaaaaaaaaaaa",
"aaaaaaaaagggggggtssssssssraaaaaaaaaaarrrrrrrrtaaaaaaaaaaaaaaaaaa",
"aaaaaaaaaaaaaaaaaaaaaaaaaaaaaaaaaaaaaaaaaaaaaaaaaaaaaaaaaaaaaaaa",
"aaaaaaaaaaaaaaaaaaaaaaaaaaaaaaaaaaaaaaaaaaaaaaaaaaaaaaaaaaaaaaaa",
"aaaaaaaaaaaaaaaaaaaaaaaaaaaaaaaaaaaaaaaaaaaaaaaaaaaaaaaaaaaaaaaa"
};