/* XPM */
static const char *robot_enemy_firing_f01[] = {
/* columns rows colors chars-per-pixel */
"64 64 46 1",
"! c None",
"# c #005C5C",
"$ c #007474",
"% c #008C8C",
"& c #00A4A4",
"' c #78E0E0",
"( c #B4ECEC",
") c #40D0D0",
"* c #28C8C8",
"+ c #10C0C0",
", c #00BCBC",
"- c #004444",
". c #002C2C",
"/ c #AC0C0C",
"0 c #840404",
"1 c #980808",
"2 c #C01010",
"3 c #CC3838",
"4 c #5CD8D8",
"5 c #C06410",
"6 c #AC580C",
"7 c #984C08",
"8 c #D89C64",
"9 c #CC8038",
": c #E4C098",
"; c #DCAC7C",
"< c #C47024",
"= c #C42424",
"> c #28CC28",
"? c #884404",
"@ c #743804",
"A c #643000",
"B c #98E4E4",
"C c #D05050",
"D c #A0A0A0",
"E c #8C8C8C",
"F c #001414",
"G c #4C4C4C",
"H c #545454",
"I c #747474",
"J c #980088",
"K c #7C7C7C",
"L c #D86464",
"M c #ECB4B4",
"N c #D8F4F4",
"O c #D09050",
"!!!!!!!!!!!!!!!!!!!!!!!!!!!!!!!!!!!!!!!!!!!!!!!!!!!!!!!!!!!!!!!!",
"!!!!!!!!!!!!!!!!!!!!!!!!!!!!#$%&%$#!!!!!!!!!!!!!!!!!!!!!!!!!!!!!",
"!!!!!!!!!!!!!!!!!!!!%#!!!!#$'(')*+,$#!!!!!!!!!!!!!!!!!!!!!!!!!!!",
"!!!!!!!!!!!!!!!!!!!!%#!!!$%)%%%%%%%%,$!!!!!!!!!!!!!!!!!!!!!!!!!!",
"!!!!!!!!!!!!!!!!!!!!%#!!$-------------$!!!!!!!!!!!!!!!!!!!!!!!!!",
"!!!!!!!!!!!!!!!!!!!!%#!#./0.........0/.#!!!!!!!!!!!!!!!!!!!!!!!!",
"!!!!!!!!!!!!!!!!!!!!%#!%-.1231-.-1321.-%!!!!!!!!!!!!!!!!!!!!!!!!",
"!!!!!!!!!!!!!!!!!!!!%#!&###############,!!!!!!!!!!!!!!!!!!!!!!!!",
"!!!!!!!!!!!!!!!!!!!!&#!$,&,+*4*+,&&&&&,$!!!!!!!!!!!!!!!!!!!!!!!!",
"!!!!!!!!!!!!!!!!!!!!,#!#&%%%%%%%%%%%%%&#!!!!!!!!!!!!!!!!!!!!!!!!",
"!!!!!!!!!!!!!!!!!!!!&#!!$&&&&&&&&&&&&&$!!!!!!!!!!!!!!!!!!!!!!!!!",
"!!!!!!!!!!!!!!!!!!!!%#!!!!-..#---#..-!!!!!!!!!!!!!!!!!!!!!!!!!!!",
"!!!!!!!!!!!!!!!!!!!!%#!!!!#-#%&*&%#-#!!!!!!!!!!!!!!!!!!!!!!!!!!!",
"!!!!!!!!!!!!!!!!!!!!%#!!!!%$-$###$-$%!!!!!!!!!!!!!!!!!!!!!!!!!!!",
"!!!!!!!!!!!!!!!!!!!########&$%&')%$&########!!!!!!!!!!!!!!!!!!!!",
"!!!!!!!!!!!!!!!!!!#%%%%%%%%##%&')%##%%%%%%%%#!!!!!!!!!!!!!!!!!!!",
"!!!!!!!!!!!!!5667#%-....-%#-.......-#%-....-%#5667!!!!!!!!!!!!!!",
"!!!!!!!!!!!!!8996########--...-#-...--########8996!!!!!!!!!!!!!!",
"!!!!!!!!!!!!!:;;<#$$$$$$$#--..#%#..--#$$$$$$$#:;;<!!!!!!!!!!!!!!",
"!!!!!!!!!!!!!:;;<#$%%%%%%$##---#---##$%%%%%%$#:;;<!!!!!!!!!!!!!!",
"!!!!!!!!!!!!!8996#$%&&&&&&&&&&&&&&&&&&=>>=&%$#8996!!!!!!!!!!!!!!",
"!!!!!!!!!!!!!<66?##$%&,,,+++++++++++++,,,,&%$#<66?!!!!!!!!!!!!!!",
"!!!!!!!!!!!!!@??A--#$%&,))4'B'4))))))))),&%$#-@??A!!!!!!!!!!!!!!",
"!!!!!!!!!!!!!.$#..-#$%&,,,,,&%$##$%&,,,,,&%$#..$2.!!!!!!!!!!!!!!",
"!!!!!!!!!!!!!#&$-.-#$%&&&&&&%$#--#$%&&&&&%$3-.#&=-!!!3!!!!!!!!!!",
"!!!!!!!!!!!!!#&$-!.-#$%%%%%%$#----#$%%%%%%$-C2#232!2C!!!!!!!!!!!",
"!!!!!!!!!!!!!D/E#!!.-#$$$$$$#-.FF.-#$$$$$$#.2C==C==C2!!!!!!!!!!!",
"!!!!!!!!!!!!DG2HI!!!.-######-.F#-F.-######-.!=C3C3C=!!!!!!!!!!!!",
"!!!!!!!!!!!!K2=2I!!!!.------.F..F-F.------.!2=3LLL3=2!!!!!!!!!!!",
"!!!!!!!!!!!!23L32!!!!!......-#%$#-........2=3CCLMLCC3=2!!!!!!!!!",
"!!!!!!!!!!/=3LML3=/!!!!!#%-..-#-...#&-!!!!!!2=3LLL3=2!!!!!!!!!!!",
"!!!!!!!!!!!!23L32!!!!!!!$&-!$*B*%-!$,-!!!!!!!=C3C3C=!!!!!!!!!!!!",
"!!!!!!!!!!!!%2=2#.!!!!!!$,-!.-#-..!$&-!!!!!!2C==C==C2!!!!!!!!!!!",
"!!!!!!!!!!!!&%2%#-!!!!!!#&-.$*B*%-.#%-!!!!!!C2#232&2C!!!!!!!!!!!",
"!!!!!!!!!!!!&,/$#.!!!!!!#%-..$&-...#%-!!!!!3!-#%=%&!!3!!!!!!!!!!",
"!!!!!!!!!!!!&%#%#-!!!6777@#.#,N,##..6777@!!!!!-#2&!!!!!!!!!!!!!!",
"!!!!!!!!!!!!!&$#-!!!!9555?$#-$&-.F--9555?!!!!!!!!!!!!!!!!!!!!!!!",
"!!!!!!!!!!!!!!!!!!!!!89997&$#-$###$#89997!!!!!!!!!!!!!!!!!!!!!!!",
"!!!!!!!!!!!!!!!!!!!!!:;;;6*&&&&&&&&$:;;;6!!!!!!!!!!!!!!!!!!!!!!!",
"!!!!!!!!!!!!!!!!!!!!!89997&$$$$$$$$#89997!!!!!!!!!!!!!!!!!!!!!!!",
"!!!!!!!!!!!!!!!!!!!!!97-#?#########-9777?!!!!!!!!!!!!!!!!!!!!!!!",
"!!!!!!!!!!!!!!!!!!!!!6-$#----------.6???@!!!!!!!!!!!!!!!!!!!!!!!",
"!!!!!!!!!!!!!!!!!!!!!?-%$-..........@@@@A!!!!!!!!!!!!!!!!!!!!!!!",
"!!!!!!!!!!!!!!!!!!!!!!#%$-!!!!!!!!!!#--.!!!!!!!!!!!!!!!!!!!!!!!!",
"!!!!!!!!!!!!!!!!!!!!!!#%$-!!!!!!!!!!##-.!!!!!!!!!!!!!!!!!!!!!!!!",
"!!!!!!!!!!!!!!!!!!!!!!#%$-!!!!!!!!!!#%#.!!!!!!!!!!!!!!!!!!!!!!!!",
"!!!!!!!!!!!!!!!!!!!!!!#%$-!!!!!!!!!!#%#.!!!!!!!!!!!!!!!!!!!!!!!!",
"!!!!!!!!!!!!!!!!!!!!!555555!!!!!!!!5#%#.5!!!!!!!!!!!!!!!!!!!!!!!",
"!!!!!!!!!!!!!!!!!!!!!O8;8OO!!!!!!!!O7%#?O!!!!!!!!!!!!!!!!!!!!!!!",
"!!!!!!!!!!!!!!!!!!!!!555555!!!!!!!!555555!!!!!!!!!!!!!!!!!!!!!!!",
"!!!!!!!!!!!!!!!!!!!!!777777!!!!!!!!777777!!!!!!!!!!!!!!!!!!!!!!!",
"!!!!!!!!!!!!!!!!!!!!!@@@@@@!!!!!!!!@@@@@@!!!!!!!!!!!!!!!!!!!!!!!",
"!!!!!!!!!!!!!!!!!!!!!!#%#-!!!!!!!!!!-$#.!!!!!!!!!!!!!!!!!!!!!!!!",
"!!!!!!!!!!!!!!!!!!!!!!#%$-!!!!!!!!!!-$#.!!!!!!!!!!!!!!!!!!!!!!!!",
"!!!!!!!!!!!!!!!!!!!!!!#%$-!!!!!!!!!!-$#.!!!!!!!!!!!!!!!!!!!!!!!!",
"!!!!!!!!!!!!!!!!!!!!!!#%$-!!!!!!!!!#-$#-#!!!!!!!!!!!!!!!!!!!!!!!",
"!!!!!!!!!!!!!!!!!!!!!!#%$-!!!!!!!!!$%$#&%!!!!!!!!!!!!!!!!!!!!!!!",
"!!!!!!!!!!!!!!!!!!!!!#$%$$#!!!!!!!!-%&##-!!!!!!!!!!!!!!!!!!!!!!!",
"!!!!!!!!!!!!!!!!!!!!!%&%$&%!!!!!!!!%$%#&!!!!!!!!!!!!!!!!!!!!!!!!",
"!!!!!!!!!!!!!!!!!!!!!-%%$#-!!!!!!%%$-&#$&%!!!!!!!!!!!!!!!!!!!!!!",
"!!!!!!!!!!!!!!!!!!!!!&$%#&!!!!!!%$#-!%!-&&%!!!!!!!!!!!!!!!!!!!!!",
"!!!!!!!!!!!!!!!!!!!&,$-,#$,%!!!!!!!!!!!!!!!!!!!!!!!!!!!!!!!!!!!!",
"!!!!!!!!!!!!!!!!!!%$#-!&!-$&%!!!!!!!!!!!!!!!!!!!!!!!!!!!!!!!!!!!",
"!!!!!!!!!!!!!!!!!!!!!!!!!!!!!!!!!!!!!!!!!!!!!!!!!!!!!!!!!!!!!!!!"
};