/* XPM */
static const char *robot_enemy_firing_sheet[] = {
/* columns rows colors chars-per-pixel */
"192 64 50 1",
"! c None",
"# c #005C5C",
"$ c #007474",
"% c #008C8C",
"& c #00A4A4",
"' c #78E0E0",
"( c #B4ECEC",
") c #40D0D0",
"* c #28C8C8",
"+ c #10C0C0",
", c #00BCBC",
"- c #004444",
". c #002C2C",
"/ c #AC0C0C",
"0 c #840404",
"1 c #980808",
"2 c #C01010",
"3 c #CC3838",
"4 c #5CD8D8",
"5 c #000000",
"6 c #001414",
"7 c #C06410",
"8 c #AC580C",
"9 c #984C08",
": c #D89C64",
"; c #CC8038",
"< c #E4C098",
"= c #DCAC7C",
"> c #C47024",
"? c #C42424",
"@ c #28CC28",
"A c #884404",
"B c #743804",
"C c #643000",
"D c #98E4E4",
"E c #8C8C8C",
"F c #989898",
"G c #A0A0A0",
"H c #D05050",
"I c #980088",
"J c #747474",
"K c #545454",
"L c #4C4C4C",
"M c #7C7C7C",
"N c #A8A8A8",
"O c #BCBCBC",
"P c #D86464",
"Q c #ECB4B4",
"R c #D8F4F4",
"S c #D09050",
"!!!!!!!!!!!!!!!!!!!!!!!!!!!!!!!!!!!!!!!!!!!!!!!!!!!!!!!!!!!!!!!!!!!!!!!!!!!!!!!!!!!!!!!!!!!!!!!!!!!!!!!!!!!!!!!!!!!!!!!!!!!!!!!!!!!!!!!!!!!!!!!!!!!!!!!!!!!!!!!!!!!!!!!!!!!!!!!!!!!!!!!!!!!!!!!!",
"!!!!!!!!!!!!!!!!!!!!!!!!!!!!!#$%&%$#!!!!!!!!!!!!!!!!!!!!!!!!!!!!!!!!!!!!!!!!!!!!!!!!!!!!!!!!#$%&%$#!!!!!!!!!!!!!!!!!!!!!!!!!!!!!!!!!!!!!!!!!!!!!!!!!!!!!!!!!!!#$%&%$#!!!!!!!!!!!!!!!!!!!!!!!!!!!",
"!!!!!!!!!!!!!!!!!!!!!%#!!!!#$'(')*+,$#!!!!!!!!!!!!!!!!!!!!!!!!!!!!!!!!!!!!!!!!!!!!!!%#!!!!#$'(')*+,$#!!!!!!!!!!!!!!!!!!!!!!!!!!!!!!!!!!!!!!!!!!!!!!!!!%#!!!!#$'(')*+,$#!!!!!!!!!!!!!!!!!!!!!!!!!",
"!!!!!!!!!!!!!!!!!!!!!%#!!!$%)%%%%%%%%,$!!!!!!!!!!!!!!!!!!!!!!!!!!!!!!!!!!!!!!!!!!!!!%#!!!$%)%%%%%%%%,$!!!!!!!!!!!!!!!!!!!!!!!!!!!!!!!!!!!!!!!!!!!!!!!!%#!!!$%)%%%%%%%%,$!!!!!!!!!!!!!!!!!!!!!!!!",
"!!!!!!!!!!!!!!!!!!!!!%#!!$-------------$!!!!!!!!!!!!!!!!!!!!!!!!!!!!!!!!!!!!!!!!!!!!%#!!$-------------$!!!!!!!!!!!!!!!!!!!!!!!!!!!!!!!!!!!!!!!!!!!!!!!%#!!$-------------$!!!!!!!!!!!!!!!!!!!!!!!",
"!!!!!!!!!!!!!!!!!!!!!%#!#./0.........0/.#!!!!!!!!!!!!!!!!!!!!!!!!!!!!!!!!!!!!!!!!!!!%#!#./0.........0/.#!!!!!!!!!!!!!!!!!!!!!!!!!!!!!!!!!!!!!!!!!!!!!!%#!#./0.........0/.#!!!!!!!!!!!!!!!!!!!!!!",
"!!!!!!!!!!!!!!!!!!!!!%#!%-.1231-.-1321.-%!!!!!!!!!!!!!!!!!!!!!!!!!!!!!!!!!!!!!!!!!!!%#!%-.1231-.-1321.-%!!!!!!!!!!!!!!!!!!!!!!!!!!!!!!!!!!!!!!!!!!!!!!%#!%-.1231-.-1321.-%!!!!!!!!!!!!!!!!!!!!!!",
"!!!!!!!!!!!!!!!!!!!!!%#!&###############,!!!!!!!!!!!!!!!!!!!!!!!!!!!!!!!!!!!!!!!!!!!%#!&###############,!!!!!!!!!!!!!!!!!!!!!!!!!!!!!!!!!!!!!!!!!!!!!!%#!&###############,!!!!!!!!!!!!!!!!!!!!!!",
"!!!!!!!!!!!!!!!!!!!!!&#!$,&,+*4*+,&&&&&,$!!!!!!!!!!!!!!!!!!!!!!!!!!!!!!!!!!!!!!!!!!!&#!$,&,+*4*+,&&&&&,$!!!!!!!!!!!!!!!!!!!!!!!!!!!!!!!!!!!!!!!!!!!!!!&#!$,&,+*4*+,&&&&&,$!!!!!!!!!!!!!!!!!!!!!!",
"!!!!!!!!!!!!!!!!!!!!!,#!#&%%%%%%%%%%%%%&#!!!!!!!!!!!!!!!!!!!!!!!!!!!!!!!!!!!!!!!!!!!,#!#&%%%%%%%%%%%%%&#!!!!!!!!!!!!!!!!!!!!!!!!!!!!!!!!!!!!!!!!!!!!!!,#!#&%%%%%%%%%%%%%&#!!!!!!!!!!!!!!!!!!!!!!",
"!!!!!!!!!!!!!!!!!!!!!&#!!$&&&&&&&&&&&&&$!!!!!!!!!!!!!!!!!!!!!!!!!!!!!!!!!!!!!!!!!!!!&#!!$&&&&&&&&&&&&&$!!!!!!!!!!!!!!!!!!!!!!!!!!!!!!!!!!!!!!!!!!!!!!!&#!!$&&&&&&&&&&&&&$!!!!!!!!!!!!!!!!!!!!!!!",
"!!!!!!!!!!!!!!!!!!!!!%#!!!!-..#---#..-!!!!!!!!!!!!!!!!!!!!!!!!!!!!!!!!!!!!!!!!!!!!!!%#!!!!-..#---#..-!!!!!!!!!!!!!!!!!!!!!!!!!!!!!!!!!!!!!!!!!!!!!!!!!%#!!!!-..#---#..-!!!!!!!!!!!!!!!!!!!!!!!!!",
"!!!!!!!!!!!!!!!!!!!!!%#!!!!#-#%&*&%#-#!!!!!!!!!!!!!!!!!!!!!!!!!!!!!!!!!!!!!!!!!!!!!!%#!!!!#-#%&*&%#-#!!!!!!!!!!!!!!!!!!!!!!!!!!!!!!!!!!!!!!!!!!!!!!!!!%#!!!!#$5$&*&%.-#!!!!!!!!!!!!!!!!!!!!!!!!!",
"!!!!!!!!!!!!!!!!!!!!!%#!!!!%$-$###$-$%!!!!!!!!!!!!!!!!!!!!!!!!!!!!!!!!!!!!!!!!!!!!!!%#!!!!%$-$###$-$%!!!!!!!!!!!!!!!!!!!!!!!!!!!!!!!!!!!!!!!!!!!!!!!!!%#!!!!%%5....65$%!!!!!!!!!!!!!!!!!!!!!!!!!",
"!!!!!!!!!!!!!!!!!!!!########&$%&')%$&########!!!!!!!!!!!!!!!!!!!!!!!!!!!!!!!!!!!!!!########&$%&')%$&########!!!!!!!!!!!!!!!!!!!!!!!!!!!!!!!!!!!!!!!!!########,5-##-55&########!!!!!!!!!!!!!!!!!!",
"!!!!!!!!!!!!!!!!!!!#%%%%%%%%##%&')%##%%%%%%%%#!!!!!!!!!!!!!!!!!!!!!!!!!!!!!!!!!!!!#%%%%%%%%##%&')%##%%%%%%%%#!!!!!!!!!!!!!!!!!!!!!!!!!!!!!!!!!!!!!!!#%%%%%%%%#%%&')%$#%%%%%%%%#!!!!!!!!!!!!!!!!!",
"!!!!!!!!!!!!!!7889#%-....-%#-.......-#%-....-%#7889!!!!!!!!!!!!!!!!!!!!!!!!!!7889#%-....-%#-.......-#%-....-%#7889!!!!!!!!!!!!!!!!!!!!!!!!!!!!!7889#%-....-%#-#%&')%#-#%-....-%#7889!!!!!!!!!!!!",
"!!!!!!!!!!!!!!:;;8########--...-#-...--########:;;8!!!!!!!!!!!!!!!!!!!!!!!!!!:;;8########--...-#-...--########:;;8!!!!!!!!!!!!!!!!!!!!!!!!!!!!!:;;8########--...-#-...--########:;;8!!!!!!!!!!!!",
"!!!!!!!!!!!!!!<==>#$$$$$$$#--..#%#..--#$$$$$$$#<==>!!!!!!!!!!!!!!!!!!!!!!!!!!<==>#$$$$$$$#--..#%#..--#$$$$$$$#<==>!!!!!!!!!!!!!!!!!!!!!!!!!!!!!<==>#$$$$$$$#--..#%#..--#$$$$$$$#<==>!!!!!!!!!!!!",
"!!!!!!!!!!!!!!<==>#$%%%%%%$##---#---##$%%%%%%$#<==>!!!!!!!!!!!!!!!!!!!!!!!!!!<==>#$%%%%%%$##---#---##$%%%%%%$#<==>!!!!!!!!!!!!!!!!!!!!!!!!!!!!!<==>#$%%%%%%$##---#---##$%%%%%%$#<==>!!!!!!!!!!!!",
"!!!!!!!!!!!!!!:;;8#$%&&&&&&&&&&&&&&&&&&?@@?&%$#:;;8!!!!!!!!!!!!!!!!!!!!!!!!!!:;;8#$%&&&&&&&&&&&&&&&&&&?@@?&%$#:;;8!!!!!!!!!!!!!!!!!!!!!!!!!!!!!:;;8#$%&&&&&&&&&&&&&&&&&&?@@?&%$#:;;8!!!!!!!!!!!!",
"!!!!!!!!!!!!!!>88A##$%&,,,+++++++++++++,,,,&%$#>88A!!!!!!!!!!!!!!!!!!!!!!!!!!>88A##$%&,,,+++++++++++++,,,,&%$#>88A!!!!!!!!!!!!!!!!!!!!!!!!!!!!!>88A##$%&,,,+++++++++++++,,,,&%$#>88A!!!!!!!!!!!!",
"!!!!!!!!!!!!!!BAAC--#$%&,))4'D'4))))))))),&%$#-BAAC!!!!!!!!!!!!!!!!!!!!!!!!!!BAAC--#$%&,))4'D'4))))))))),&%$#-BAAC!!!!!!!!!!!!!!!!!!!!!!!!!!!!!BAAC--#$%&,))4'D'4))))))))),&%$#-BAAC!!!!!!!!!!!!",
"!!!!!!!!!!!!!!.$#..-#$%&,,,,,&%$##$%&,,,,,&%$#..$#.!!!!!!!!!!!!!!!!!!!!!!!!!!.$#..-#$%&,,,,,&%$##$%&,,,,,&%$#..$2.!!!!!!!!!!!!!!!!!!!!!!!!!!!!!.$#..-#$%&,,,,,&%$##$%&,,,,,&%$#..$#.!!!!!!!!!!!!",
"!!!!!!!!!!!!!!#&$-.-#$%&&&&&&%$#--#$%&&&&&%$#-.#&$-!!!!!!!!!!!!!!!!!!!!!!!!!!#&$-.-#$%&&&&&&%$#--#$%&&&&&%$3-.#&?-!!!3!!!!!!!!!!!!!!!!!!!!!!!!!#2$-.-#$%&&&&&&%$#--#$%&&&&&%$#-.#&$-!!!!!!!!!!!!",
"!!!!!!!!!!!!!!#&$-!.-#$%%%%%%$#----#$%%%%%%$-..#EFG!!!!!!!!!!!!!!!!!!!!!!!!!!#&$-!.-#$%%%%%%$#----#$%%%%%%$-H2#232!2H!!!!!!!!!!!!!!!!!!!!!!3!!!#?$-!.3#$%%%%%%$#----#$%%%%%%$-..#E/G!!!!!!!!!!!!",
"!!!!!!!!!!!!!!GFE#!!.-#$$$$$$#-.66.-#$$$$$$#..!JK?LG!!!!!!!!!!!!!!!!!!!!!!!!!G/E#!!.-#$$$$$$#-.66.-#$$$$$$#.2H??H??H2!!!!!!!!!!!!!!!!!!!!!!!H2!232#2H.-#$$$$$$#-.66.-#$$$$$$#..!JK2LG!!!!!!!!!!!",
"!!!!!!!!!!!!!GL?KJ!!!.-######-.6#-6.-######-.!!JL1LM!!!!!!!!!!!!!!!!!!!!!!!!GL2KJ!!!.-######-.6#-6.-######-.!?H3H3H?!!!!!!!!!!!!!!!!!!!!!!!!2H??H??H2!.-######-.6#-6.-######-.!!J2?2M!!!!!!!!!!!",
"!!!!!!!!!!!!!ML1LJ!!!!.------.6..6-6.------.!!!*JNO!!!!!!!!!!!!!!!!!!!!!!!!!M2?2J!!!!.------.6..6-6.------.!2?3PPP3?2!!!!!!!!!!!!!!!!!!!!!!!!?H3H3H?!!!.------.6..6-6.------.!!!23P32!!!!!!!!!!!",
"!!!!!!!!!!!!!!ONJ!!!!!!......-#%$#-........!!!!ML5LO!!!!!!!!!!!!!!!!!!!!!!!!23P32!!!!!......-#%$#-........2?3HHPQPHH3?2!!!!!!!!!!!!!!!!!!!!!2?3PPP3?2!!!......-#%$#-........!!/?3PQP3?/!!!!!!!!!",
"!!!!!!!!!!!!!OL5LM!!!!!!!#%-..-#-...#&-!!!!!!!!-L5LG!!!!!!!!!!!!!!!!!!!!!!/?3PQP3?/!!!!!#%-..-#-...#&-!!!!!!2?3PPP3?2!!!!!!!!!!!!!!!!!!!!!2?3HHPQPHH3?2!!!#%-..-#-...#&-!!!!!!!!23P32!!!!!!!!!!!",
"!!!!!!!!!!!!!GL5L-!!!!!!!$&-!$*D*%-!$,-!!!!!!!.#MEG%!!!!!!!!!!!!!!!!!!!!!!!!23P32!!!!!!!$&-!$*D*%-!$,-!!!!!!!?H3H3H?!!!!!!!!!!!!!!!!!!!!!!!!2?3PPP3?2!!!!!#&-!$*D*%-!#,-!!!!!!!.#2?2%!!!!!!!!!!!",
"!!!!!!!!!!!!!%GEM#.!!!!!!$,-!.-#-..!$&-!!!!!!!-#%#%&!!!!!!!!!!!!!!!!!!!!!!!!%2?2#.!!!!!!$,-!.-#-..!$&-!!!!!!2H??H??H2!!!!!!!!!!!!!!!!!!!!!!!!?H3H3H?!!!!!!#,-!.-#-..!#&-!!!!!!!-#%2%&!!!!!!!!!!!",
"!!!!!!!!!!!!!&%#%#-!!!!!!#&-.$*D*%-.#%-!!!!!!!.#$#,&!!!!!!!!!!!!!!!!!!!!!!!!&%2%#-!!!!!!#&-.$*D*%-.#%-!!!!!!H2#232&2H!!!!!!!!!!!!!!!!!!!!!!!2H??H??H2!!!!!#&-.$*D*%-.#%-!!!!!!!.#$/,&!!!!!!!!!!!",
"!!!!!!!!!!!!!&,#$#.!!!!!!#%-..$&-...#%-!!!!!!!-#%#%&!!!!!!!!!!!!!!!!!!!!!!!!&,/$#.!!!!!!#%-..$&-...#%-!!!!!3!-#%?%&!!3!!!!!!!!!!!!!!!!!!!!!!H2&232#2H!!!!!#%-..$&-...#%-!!!!!!!-#%#%&!!!!!!!!!!!",
"!!!!!!!!!!!!!&%#%#-!!!8999B#.#,R,##..8999B!!!!!-#$&!!!!!!!!!!!!!!!!!!!!!!!!!&%#%#-!!!8999B#.#,R,##..8999B!!!!!-#2&!!!!!!!!!!!!!!!!!!!!!!!!!3!!&%?%#-!3!8999B#.#,R,##..8999B!!!!!-#$&!!!!!!!!!!!!",
"!!!!!!!!!!!!!!&$#-!!!!;777A$#-$&-.6--;777A!!!!!!!!!!!!!!!!!!!!!!!!!!!!!!!!!!!&$#-!!!!;777A$#-$&-.6--;777A!!!!!!!!!!!!!!!!!!!!!!!!!!!!!!!!!!!!!!&2#-!!!!;777A$#-$&-.6--;777A!!!!!!!!!!!!!!!!!!!!!",
"!!!!!!!!!!!!!!!!!!!!!!:;;;9&$#-$###$#:;;;9!!!!!!!!!!!!!!!!!!!!!!!!!!!!!!!!!!!!!!!!!!!:;;;9&$#-$###$#:;;;9!!!!!!!!!!!!!!!!!!!!!!!!!!!!!!!!!!!!!!!!!!!!!!:;;;9&$#-$###$#:;;;9!!!!!!!!!!!!!!!!!!!!!",
"!!!!!!!!!!!!!!!!!!!!!!<===8*&&&&&&&&$<===8!!!!!!!!!!!!!!!!!!!!!!!!!!!!!!!!!!!!!!!!!!!<===8*&&&&&&&&$<===8!!!!!!!!!!!!!!!!!!!!!!!!!!!!!!!!!!!!!!!!!!!!!!<===8*&&&&&&&&$<===8!!!!!!!!!!!!!!!!!!!!!",
"!!!!!!!!!!!!!!!!!!!!!!:;;;9&$$$$$$$$#:;;;9!!!!!!!!!!!!!!!!!!!!!!!!!!!!!!!!!!!!!!!!!!!:;;;9&$$$$$$$$#:;;;9!!!!!!!!!!!!!!!!!!!!!!!!!!!!!!!!!!!!!!!!!!!!!!:;;;9&$$$$$$$$#:;;;9!!!!!!!!!!!!!!!!!!!!!",
"!!!!!!!!!!!!!!!!!!!!!!;9-#A#########-;999A!!!!!!!!!!!!!!!!!!!!!!!!!!!!!!!!!!!!!!!!!!!;9-#A#########-;999A!!!!!!!!!!!!!!!!!!!!!!!!!!!!!!!!!!!!!!!!!!!!!!;9-#A#########-;999A!!!!!!!!!!!!!!!!!!!!!",
"!!!!!!!!!!!!!!!!!!!!!!8-$#----------.8AAAB!!!!!!!!!!!!!!!!!!!!!!!!!!!!!!!!!!!!!!!!!!!8-$#----------.8AAAB!!!!!!!!!!!!!!!!!!!!!!!!!!!!!!!!!!!!!!!!!!!!!!8-$#----------.8AAAB!!!!!!!!!!!!!!!!!!!!!",
"!!!!!!!!!!!!!!!!!!!!!!A-%$-..........BBBBC!!!!!!!!!!!!!!!!!!!!!!!!!!!!!!!!!!!!!!!!!!!A-%$-..........BBBBC!!!!!!!!!!!!!!!!!!!!!!!!!!!!!!!!!!!!!!!!!!!!!!A-%$-..........BBBBC!!!!!!!!!!!!!!!!!!!!!",
"!!!!!!!!!!!!!!!!!!!!!!!#%$-!!!!!!!!!!#--.!!!!!!!!!!!!!!!!!!!!!!!!!!!!!!!!!!!!!!!!!!!!!#%$-!!!!!!!!!!#--.!!!!!!!!!!!!!!!!!!!!!!!!!!!!!!!!!!!!!!!!!!!!!!!!#%$-!!!!!!!!!!#--.!!!!!!!!!!!!!!!!!!!!!!",
"!!!!!!!!!!!!!!!!!!!!!!!#%$-!!!!!!!!!!##-.!!!!!!!!!!!!!!!!!!!!!!!!!!!!!!!!!!!!!!!!!!!!!#%$-!!!!!!!!!!##-.!!!!!!!!!!!!!!!!!!!!!!!!!!!!!!!!!!!!!!!!!!!!!!!!#%$-!!!!!!!!!!##-.!!!!!!!!!!!!!!!!!!!!!!",
"!!!!!!!!!!!!!!!!!!!!!!!#%$-!!!!!!!!!!#%#.!!!!!!!!!!!!!!!!!!!!!!!!!!!!!!!!!!!!!!!!!!!!!#%$-!!!!!!!!!!#%#.!!!!!!!!!!!!!!!!!!!!!!!!!!!!!!!!!!!!!!!!!!!!!!!!#%$-!!!!!!!!!!#%#.!!!!!!!!!!!!!!!!!!!!!!",
"!!!!!!!!!!!!!!!!!!!!!!!#%$-!!!!!!!!!!#%#.!!!!!!!!!!!!!!!!!!!!!!!!!!!!!!!!!!!!!!!!!!!!!#%$-!!!!!!!!!!#%#.!!!!!!!!!!!!!!!!!!!!!!!!!!!!!!!!!!!!!!!!!!!!!!!!#%$-!!!!!!!!!!#%#.!!!!!!!!!!!!!!!!!!!!!!",
"!!!!!!!!!!!!!!!!!!!!!!777777!!!!!!!!7#%#.7!!!!!!!!!!!!!!!!!!!!!!!!!!!!!!!!!!!!!!!!!!!777777!!!!!!!!7#%#.7!!!!!!!!!!!!!!!!!!!!!!!!!!!!!!!!!!!!!!!!!!!!!!777777!!!!!!!!7#%#.7!!!!!!!!!!!!!!!!!!!!!",
"!!!!!!!!!!!!!!!!!!!!!!S:=:SS!!!!!!!!S9%#AS!!!!!!!!!!!!!!!!!!!!!!!!!!!!!!!!!!!!!!!!!!!S:=:SS!!!!!!!!S9%#AS!!!!!!!!!!!!!!!!!!!!!!!!!!!!!!!!!!!!!!!!!!!!!!S:=:SS!!!!!!!!S9%#AS!!!!!!!!!!!!!!!!!!!!!",
"!!!!!!!!!!!!!!!!!!!!!!777777!!!!!!!!777777!!!!!!!!!!!!!!!!!!!!!!!!!!!!!!!!!!!!!!!!!!!777777!!!!!!!!777777!!!!!!!!!!!!!!!!!!!!!!!!!!!!!!!!!!!!!!!!!!!!!!777777!!!!!!!!777777!!!!!!!!!!!!!!!!!!!!!",
"!!!!!!!!!!!!!!!!!!!!!!999999!!!!!!!!999999!!!!!!!!!!!!!!!!!!!!!!!!!!!!!!!!!!!!!!!!!!!999999!!!!!!!!999999!!!!!!!!!!!!!!!!!!!!!!!!!!!!!!!!!!!!!!!!!!!!!!999999!!!!!!!!999999!!!!!!!!!!!!!!!!!!!!!",
"!!!!!!!!!!!!!!!!!!!!!!BBBBBB!!!!!!!!BBBBBB!!!!!!!!!!!!!!!!!!!!!!!!!!!!!!!!!!!!!!!!!!!BBBBBB!!!!!!!!BBBBBB!!!!!!!!!!!!!!!!!!!!!!!!!!!!!!!!!!!!!!!!!!!!!!BBBBBB!!!!!!!!BBBBBB!!!!!!!!!!!!!!!!!!!!!",
"!!!!!!!!!!!!!!!!!!!!!!!#%#-!!!!!!!!!!-$#.!!!!!!!!!!!!!!!!!!!!!!!!!!!!!!!!!!!!!!!!!!!!!#%#-!!!!!!!!!!-$#.!!!!!!!!!!!!!!!!!!!!!!!!!!!!!!!!!!!!!!!!!!!!!!!!#%#-!!!!!!!!!!-$#.!!!!!!!!!!!!!!!!!!!!!!",
"!!!!!!!!!!!!!!!!!!!!!!!#%$-!!!!!!!!!!-$#.!!!!!!!!!!!!!!!!!!!!!!!!!!!!!!!!!!!!!!!!!!!!!#%$-!!!!!!!!!!-$#.!!!!!!!!!!!!!!!!!!!!!!!!!!!!!!!!!!!!!!!!!!!!!!!!#%$-!!!!!!!!!!-$#.!!!!!!!!!!!!!!!!!!!!!!",
"!!!!!!!!!!!!!!!!!!!!!!!#%$-!!!!!!!!!!-$#.!!!!!!!!!!!!!!!!!!!!!!!!!!!!!!!!!!!!!!!!!!!!!#%$-!!!!!!!!!!-$#.!!!!!!!!!!!!!!!!!!!!!!!!!!!!!!!!!!!!!!!!!!!!!!!!#%$-!!!!!!!!!!-$#.!!!!!!!!!!!!!!!!!!!!!!",
"!!!!!!!!!!!!!!!!!!!!!!!#%$-!!!!!!!!!#-$#-#!!!!!!!!!!!!!!!!!!!!!!!!!!!!!!!!!!!!!!!!!!!!#%$-!!!!!!!!!#-$#-#!!!!!!!!!!!!!!!!!!!!!!!!!!!!!!!!!!!!!!!!!!!!!!!#%$-!!!!!!!!!#-$#-#!!!!!!!!!!!!!!!!!!!!!",
"!!!!!!!!!!!!!!!!!!!!!!!#%$-!!!!!!!!!$%$#&%!!!!!!!!!!!!!!!!!!!!!!!!!!!!!!!!!!!!!!!!!!!!#%$-!!!!!!!!!$%$#&%!!!!!!!!!!!!!!!!!!!!!!!!!!!!!!!!!!!!!!!!!!!!!!!#%$-!!!!!!!!!$%$#&%!!!!!!!!!!!!!!!!!!!!!",
"!!!!!!!!!!!!!!!!!!!!!!#$%$$#!!!!!!!!-%&##-!!!!!!!!!!!!!!!!!!!!!!!!!!!!!!!!!!!!!!!!!!!#$%$$#!!!!!!!!-%&##-!!!!!!!!!!!!!!!!!!!!!!!!!!!!!!!!!!!!!!!!!!!!!!#$%$$#!!!!!!!!-%&##-!!!!!!!!!!!!!!!!!!!!!",
"!!!!!!!!!!!!!!!!!!!!!!%&%$&%!!!!!!!!%$%#&!!!!!!!!!!!!!!!!!!!!!!!!!!!!!!!!!!!!!!!!!!!!%&%$&%!!!!!!!!%$%#&!!!!!!!!!!!!!!!!!!!!!!!!!!!!!!!!!!!!!!!!!!!!!!!%&%$&%!!!!!!!!%$%#&!!!!!!!!!!!!!!!!!!!!!!",
"!!!!!!!!!!!!!!!!!!!!!!-%%$#-!!!!!!%%$-&#$&%!!!!!!!!!!!!!!!!!!!!!!!!!!!!!!!!!!!!!!!!!!-%%$#-!!!!!!%%$-&#$&%!!!!!!!!!!!!!!!!!!!!!!!!!!!!!!!!!!!!!!!!!!!!!-%%$#-!!!!!!%%$-&#$&%!!!!!!!!!!!!!!!!!!!!",
"!!!!!!!!!!!!!!!!!!!!!!&$%#&!!!!!!%$#-!%!-&&%!!!!!!!!!!!!!!!!!!!!!!!!!!!!!!!!!!!!!!!!!&$%#&!!!!!!%$#-!%!-&&%!!!!!!!!!!!!!!!!!!!!!!!!!!!!!!!!!!!!!!!!!!!!&$%#&!!!!!!%$#-!%!-&&%!!!!!!!!!!!!!!!!!!!",
"!!!!!!!!!!!!!!!!!!!!&,$-,#$,%!!!!!!!!!!!!!!!!!!!!!!!!!!!!!!!!!!!!!!!!!!!!!!!!!!!!!!&,$-,#$,%!!!!!!!!!!!!!!!!!!!!!!!!!!!!!!!!!!!!!!!!!!!!!!!!!!!!!!!!!&,$-,#$,%!!!!!!!!!!!!!!!!!!!!!!!!!!!!!!!!!!",
"!!!!!!!!!!!!!!!!!!!%$#-!&!-$&%!!!!!!!!!!!!!!!!!!!!!!!!!!!!!!!!!!!!!!!!!!!!!!!!!!!!%$#-!&!-$&%!!!!!!!!!!!!!!!!!!!!!!!!!!!!!!!!!!!!!!!!!!!!!!!!!!!!!!!%$#-!&!-$&%!!!!!!!!!!!!!!!!!!!!!!!!!!!!!!!!!",
"!!!!!!!!!!!!!!!!!!!!!!!!!!!!!!!!!!!!!!!!!!!!!!!!!!!!!!!!!!!!!!!!!!!!!!!!!!!!!!!!!!!!!!!!!!!!!!!!!!!!!!!!!!!!!!!!!!!!!!!!!!!!!!!!!!!!!!!!!!!!!!!!!!!!!!!!!!!!!!!!!!!!!!!!!!!!!!!!!!!!!!!!!!!!!!!!"
};