/* XPM */
static const char *robot_enemy_firing_f00[] = {
/* columns rows colors chars-per-pixel */
"64 64 47 1",
"! c None",
"# c #005C5C",
"$ c #007474",
"% c #008C8C",
"& c #00A4A4",
"' c #78E0E0",
"( c #B4ECEC",
") c #40D0D0",
"* c #28C8C8",
"+ c #10C0C0",
", c #00BCBC",
"- c #004444",
". c #002C2C",
"/ c #AC0C0C",
"0 c #840404",
"1 c #980808",
"2 c #C01010",
"3 c #CC3838",
"4 c #5CD8D8",
"5 c #C06410",
"6 c #AC580C",
"7 c #984C08",
"8 c #D89C64",
"9 c #CC8038",
": c #E4C098",
"; c #DCAC7C",
"< c #C47024",
"= c #C42424",
"> c #28CC28",
"? c #884404",
"@ c #743804",
"A c #643000",
"B c #98E4E4",
"C c #8C8C8C",
"D c #989898",
"E c #A0A0A0",
"F c #001414",
"G c #747474",
"H c #545454",
"I c #4C4C4C",
"J c #7C7C7C",
"K c #A8A8A8",
"L c #BCBCBC",
"M c #000000",
"N c #980088",
"O c #D8F4F4",
"P c #D09050",
"!!!!!!!!!!!!!!!!!!!!!!!!!!!!!!!!!!!!!!!!!!!!!!!!!!!!!!!!!!!!!!!!",
"!!!!!!!!!!!!!!!!!!!!!!!!!!!!!#$%&%$#!!!!!!!!!!!!!!!!!!!!!!!!!!!!",
"!!!!!!!!!!!!!!!!!!!!!%#!!!!#$'(')*+,$#!!!!!!!!!!!!!!!!!!!!!!!!!!",
"!!!!!!!!!!!!!!!!!!!!!%#!!!$%)%%%%%%%%,$!!!!!!!!!!!!!!!!!!!!!!!!!",
"!!!!!!!!!!!!!!!!!!!!!%#!!$-------------$!!!!!!!!!!!!!!!!!!!!!!!!",
"!!!!!!!!!!!!!!!!!!!!!%#!#./0.........0/.#!!!!!!!!!!!!!!!!!!!!!!!",
"!!!!!!!!!!!!!!!!!!!!!%#!%-.1231-.-1321.-%!!!!!!!!!!!!!!!!!!!!!!!",
"!!!!!!!!!!!!!!!!!!!!!%#!&###############,!!!!!!!!!!!!!!!!!!!!!!!",
"!!!!!!!!!!!!!!!!!!!!!&#!$,&,+*4*+,&&&&&,$!!!!!!!!!!!!!!!!!!!!!!!",
"!!!!!!!!!!!!!!!!!!!!!,#!#&%%%%%%%%%%%%%&#!!!!!!!!!!!!!!!!!!!!!!!",
"!!!!!!!!!!!!!!!!!!!!!&#!!$&&&&&&&&&&&&&$!!!!!!!!!!!!!!!!!!!!!!!!",
"!!!!!!!!!!!!!!!!!!!!!%#!!!!-..#---#..-!!!!!!!!!!!!!!!!!!!!!!!!!!",
"!!!!!!!!!!!!!!!!!!!!!%#!!!!#-#%&*&%#-#!!!!!!!!!!!!!!!!!!!!!!!!!!",
"!!!!!!!!!!!!!!!!!!!!!%#!!!!%$-$###$-$%!!!!!!!!!!!!!!!!!!!!!!!!!!",
"!!!!!!!!!!!!!!!!!!!!########&$%&')%$&########!!!!!!!!!!!!!!!!!!!",
"!!!!!!!!!!!!!!!!!!!#%%%%%%%%##%&')%##%%%%%%%%#!!!!!!!!!!!!!!!!!!",
"!!!!!!!!!!!!!!5667#%-....-%#-.......-#%-....-%#5667!!!!!!!!!!!!!",
"!!!!!!!!!!!!!!8996########--...-#-...--########8996!!!!!!!!!!!!!",
"!!!!!!!!!!!!!!:;;<#$$$$$$$#--..#%#..--#$$$$$$$#:;;<!!!!!!!!!!!!!",
"!!!!!!!!!!!!!!:;;<#$%%%%%%$##---#---##$%%%%%%$#:;;<!!!!!!!!!!!!!",
"!!!!!!!!!!!!!!8996#$%&&&&&&&&&&&&&&&&&&=>>=&%$#8996!!!!!!!!!!!!!",
"!!!!!!!!!!!!!!<66?##$%&,,,+++++++++++++,,,,&%$#<66?!!!!!!!!!!!!!",
"!!!!!!!!!!!!!!@??A--#$%&,))4'B'4))))))))),&%$#-@??A!!!!!!!!!!!!!",
"!!!!!!!!!!!!!!.$#..-#$%&,,,,,&%$##$%&,,,,,&%$#..$#.!!!!!!!!!!!!!",
"!!!!!!!!!!!!!!#&$-.-#$%&&&&&&%$#--#$%&&&&&%$#-.#&$-!!!!!!!!!!!!!",
"!!!!!!!!!!!!!!#&$-!.-#$%%%%%%$#----#$%%%%%%$-..#CDE!!!!!!!!!!!!!",
"!!!!!!!!!!!!!!EDC#!!.-#$$$$$$#-.FF.-#$$$$$$#..!GH=IE!!!!!!!!!!!!",
"!!!!!!!!!!!!!EI=HG!!!.-######-.F#-F.-######-.!!GI1IJ!!!!!!!!!!!!",
"!!!!!!!!!!!!!JI1IG!!!!.------.F..F-F.------.!!!*GKL!!!!!!!!!!!!!",
"!!!!!!!!!!!!!!LKG!!!!!!......-#%$#-........!!!!JIMIL!!!!!!!!!!!!",
"!!!!!!!!!!!!!LIMIJ!!!!!!!#%-..-#-...#&-!!!!!!!!-IMIE!!!!!!!!!!!!",
"!!!!!!!!!!!!!EIMI-!!!!!!!$&-!$*B*%-!$,-!!!!!!!.#JCE%!!!!!!!!!!!!",
"!!!!!!!!!!!!!%ECJ#.!!!!!!$,-!.-#-..!$&-!!!!!!!-#%#%&!!!!!!!!!!!!",
"!!!!!!!!!!!!!&%#%#-!!!!!!#&-.$*B*%-.#%-!!!!!!!.#$#,&!!!!!!!!!!!!",
"!!!!!!!!!!!!!&,#$#.!!!!!!#%-..$&-...#%-!!!!!!!-#%#%&!!!!!!!!!!!!",
"!!!!!!!!!!!!!&%#%#-!!!6777@#.#,O,##..6777@!!!!!-#$&!!!!!!!!!!!!!",
"!!!!!!!!!!!!!!&$#-!!!!9555?$#-$&-.F--9555?!!!!!!!!!!!!!!!!!!!!!!",
"!!!!!!!!!!!!!!!!!!!!!!89997&$#-$###$#89997!!!!!!!!!!!!!!!!!!!!!!",
"!!!!!!!!!!!!!!!!!!!!!!:;;;6*&&&&&&&&$:;;;6!!!!!!!!!!!!!!!!!!!!!!",
"!!!!!!!!!!!!!!!!!!!!!!89997&$$$$$$$$#89997!!!!!!!!!!!!!!!!!!!!!!",
"!!!!!!!!!!!!!!!!!!!!!!97-#?#########-9777?!!!!!!!!!!!!!!!!!!!!!!",
"!!!!!!!!!!!!!!!!!!!!!!6-$#----------.6???@!!!!!!!!!!!!!!!!!!!!!!",
"!!!!!!!!!!!!!!!!!!!!!!?-%$-..........@@@@A!!!!!!!!!!!!!!!!!!!!!!",
"!!!!!!!!!!!!!!!!!!!!!!!#%$-!!!!!!!!!!#--.!!!!!!!!!!!!!!!!!!!!!!!",
"!!!!!!!!!!!!!!!!!!!!!!!#%$-!!!!!!!!!!##-.!!!!!!!!!!!!!!!!!!!!!!!",
"!!!!!!!!!!!!!!!!!!!!!!!#%$-!!!!!!!!!!#%#.!!!!!!!!!!!!!!!!!!!!!!!",
"!!!!!!!!!!!!!!!!!!!!!!!#%$-!!!!!!!!!!#%#.!!!!!!!!!!!!!!!!!!!!!!!",
"!!!!!!!!!!!!!!!!!!!!!!555555!!!!!!!!5#%#.5!!!!!!!!!!!!!!!!!!!!!!",
"!!!!!!!!!!!!!!!!!!!!!!P8;8PP!!!!!!!!P7%#?P!!!!!!!!!!!!!!!!!!!!!!",
"!!!!!!!!!!!!!!!!!!!!!!555555!!!!!!!!555555!!!!!!!!!!!!!!!!!!!!!!",
"!!!!!!!!!!!!!!!!!!!!!!777777!!!!!!!!777777!!!!!!!!!!!!!!!!!!!!!!",
"!!!!!!!!!!!!!!!!!!!!!!@@@@@@!!!!!!!!@@@@@@!!!!!!!!!!!!!!!!!!!!!!",
"!!!!!!!!!!!!!!!!!!!!!!!#%#-!!!!!!!!!!-$#.!!!!!!!!!!!!!!!!!!!!!!!",
"!!!!!!!!!!!!!!!!!!!!!!!#%$-!!!!!!!!!!-$#.!!!!!!!!!!!!!!!!!!!!!!!",
"!!!!!!!!!!!!!!!!!!!!!!!#%$-!!!!!!!!!!-$#.!!!!!!!!!!!!!!!!!!!!!!!",
"!!!!!!!!!!!!!!!!!!!!!!!#%$-!!!!!!!!!#-$#-#!!!!!!!!!!!!!!!!!!!!!!",
"!!!!!!!!!!!!!!!!!!!!!!!#%$-!!!!!!!!!$%$#&%!!!!!!!!!!!!!!!!!!!!!!",
"!!!!!!!!!!!!!!!!!!!!!!#$%$$#!!!!!!!!-%&##-!!!!!!!!!!!!!!!!!!!!!!",
"!!!!!!!!!!!!!!!!!!!!!!%&%$&%!!!!!!!!%$%#&!!!!!!!!!!!!!!!!!!!!!!!",
"!!!!!!!!!!!!!!!!!!!!!!-%%$#-!!!!!!%%$-&#$&%!!!!!!!!!!!!!!!!!!!!!",
"!!!!!!!!!!!!!!!!!!!!!!&$%#&!!!!!!%$#-!%!-&&%!!!!!!!!!!!!!!!!!!!!",
"!!!!!!!!!!!!!!!!!!!!&,$-,#$,%!!!!!!!!!!!!!!!!!!!!!!!!!!!!!!!!!!!",
"!!!!!!!!!!!!!!!!!!!%$#-!&!-$&%!!!!!!!!!!!!!!!!!!!!!!!!!!!!!!!!!!",
"!!!!!!!!!!!!!!!!!!!!!!!!!!!!!!!!!!!!!!!!!!!!!!!!!!!!!!!!!!!!!!!!"
};