/* XPM */
static const char *robot_enemy_firing_f02[] = {
/* columns rows colors chars-per-pixel */
"64 64 47 1",
"! c None",
"# c #005C5C",
"$ c #007474",
"% c #008C8C",
"& c #00A4A4",
"' c #78E0E0",
"( c #B4ECEC",
") c #40D0D0",
"* c #28C8C8",
"+ c #10C0C0",
", c #00BCBC",
"- c #004444",
". c #002C2C",
"/ c #AC0C0C",
"0 c #840404",
"1 c #980808",
"2 c #C01010",
"3 c #CC3838",
"4 c #5CD8D8",
"5 c #000000",
"6 c #001414",
"7 c #C06410",
"8 c #AC580C",
"9 c #984C08",
": c #D89C64",
"; c #CC8038",
"< c #E4C098",
"= c #DCAC7C",
"> c #C47024",
"? c #C42424",
"@ c #28CC28",
"A c #884404",
"B c #743804",
"C c #643000",
"D c #98E4E4",
"E c #980088",
"F c #8C8C8C",
"G c #A0A0A0",
"H c #D05050",
"I c #747474",
"J c #545454",
"K c #4C4C4C",
"L c #7C7C7C",
"M c #D86464",
"N c #ECB4B4",
"O c #D8F4F4",
"P c #D09050",
"!!!!!!!!!!!!!!!!!!!!!!!!!!!!!!!!!!!!!!!!!!!!!!!!!!!!!!!!!!!!!!!!",
"!!!!!!!!!!!!!!!!!!!!!!!!!!!!!!#$%&%$#!!!!!!!!!!!!!!!!!!!!!!!!!!!",
"!!!!!!!!!!!!!!!!!!!!!!%#!!!!#$'(')*+,$#!!!!!!!!!!!!!!!!!!!!!!!!!",
"!!!!!!!!!!!!!!!!!!!!!!%#!!!$%)%%%%%%%%,$!!!!!!!!!!!!!!!!!!!!!!!!",
"!!!!!!!!!!!!!!!!!!!!!!%#!!$-------------$!!!!!!!!!!!!!!!!!!!!!!!",
"!!!!!!!!!!!!!!!!!!!!!!%#!#./0.........0/.#!!!!!!!!!!!!!!!!!!!!!!",
"!!!!!!!!!!!!!!!!!!!!!!%#!%-.1231-.-1321.-%!!!!!!!!!!!!!!!!!!!!!!",
"!!!!!!!!!!!!!!!!!!!!!!%#!&###############,!!!!!!!!!!!!!!!!!!!!!!",
"!!!!!!!!!!!!!!!!!!!!!!&#!$,&,+*4*+,&&&&&,$!!!!!!!!!!!!!!!!!!!!!!",
"!!!!!!!!!!!!!!!!!!!!!!,#!#&%%%%%%%%%%%%%&#!!!!!!!!!!!!!!!!!!!!!!",
"!!!!!!!!!!!!!!!!!!!!!!&#!!$&&&&&&&&&&&&&$!!!!!!!!!!!!!!!!!!!!!!!",
"!!!!!!!!!!!!!!!!!!!!!!%#!!!!-..#---#..-!!!!!!!!!!!!!!!!!!!!!!!!!",
"!!!!!!!!!!!!!!!!!!!!!!%#!!!!#$5$&*&%.-#!!!!!!!!!!!!!!!!!!!!!!!!!",
"!!!!!!!!!!!!!!!!!!!!!!%#!!!!%%5....65$%!!!!!!!!!!!!!!!!!!!!!!!!!",
"!!!!!!!!!!!!!!!!!!!!!########,5-##-55&########!!!!!!!!!!!!!!!!!!",
"!!!!!!!!!!!!!!!!!!!!#%%%%%%%%#%%&')%$#%%%%%%%%#!!!!!!!!!!!!!!!!!",
"!!!!!!!!!!!!!!!7889#%-....-%#-#%&')%#-#%-....-%#7889!!!!!!!!!!!!",
"!!!!!!!!!!!!!!!:;;8########--...-#-...--########:;;8!!!!!!!!!!!!",
"!!!!!!!!!!!!!!!<==>#$$$$$$$#--..#%#..--#$$$$$$$#<==>!!!!!!!!!!!!",
"!!!!!!!!!!!!!!!<==>#$%%%%%%$##---#---##$%%%%%%$#<==>!!!!!!!!!!!!",
"!!!!!!!!!!!!!!!:;;8#$%&&&&&&&&&&&&&&&&&&?@@?&%$#:;;8!!!!!!!!!!!!",
"!!!!!!!!!!!!!!!>88A##$%&,,,+++++++++++++,,,,&%$#>88A!!!!!!!!!!!!",
"!!!!!!!!!!!!!!!BAAC--#$%&,))4'D'4))))))))),&%$#-BAAC!!!!!!!!!!!!",
"!!!!!!!!!!!!!!!.$#..-#$%&,,,,,&%$##$%&,,,,,&%$#..$#.!!!!!!!!!!!!",
"!!!!!!!!!!!!!!!#2$-.-#$%&&&&&&%$#--#$%&&&&&%$#-.#&$-!!!!!!!!!!!!",
"!!!!!!!!!!!3!!!#?$-!.3#$%%%%%%$#----#$%%%%%%$-..#F/G!!!!!!!!!!!!",
"!!!!!!!!!!!!H2!232#2H.-#$$$$$$#-.66.-#$$$$$$#..!IJ2KG!!!!!!!!!!!",
"!!!!!!!!!!!!2H??H??H2!.-######-.6#-6.-######-.!!I2?2L!!!!!!!!!!!",
"!!!!!!!!!!!!!?H3H3H?!!!.------.6..6-6.------.!!!23M32!!!!!!!!!!!",
"!!!!!!!!!!!!2?3MMM3?2!!!......-#%$#-........!!/?3MNM3?/!!!!!!!!!",
"!!!!!!!!!!2?3HHMNMHH3?2!!!#%-..-#-...#&-!!!!!!!!23M32!!!!!!!!!!!",
"!!!!!!!!!!!!2?3MMM3?2!!!!!#&-!$*D*%-!#,-!!!!!!!.#2?2%!!!!!!!!!!!",
"!!!!!!!!!!!!!?H3H3H?!!!!!!#,-!.-#-..!#&-!!!!!!!-#%2%&!!!!!!!!!!!",
"!!!!!!!!!!!!2H??H??H2!!!!!#&-.$*D*%-.#%-!!!!!!!.#$/,&!!!!!!!!!!!",
"!!!!!!!!!!!!H2&232#2H!!!!!#%-..$&-...#%-!!!!!!!-#%#%&!!!!!!!!!!!",
"!!!!!!!!!!!3!!&%?%#-!3!8999B#.#,O,##..8999B!!!!!-#$&!!!!!!!!!!!!",
"!!!!!!!!!!!!!!!&2#-!!!!;777A$#-$&-.6--;777A!!!!!!!!!!!!!!!!!!!!!",
"!!!!!!!!!!!!!!!!!!!!!!!:;;;9&$#-$###$#:;;;9!!!!!!!!!!!!!!!!!!!!!",
"!!!!!!!!!!!!!!!!!!!!!!!<===8*&&&&&&&&$<===8!!!!!!!!!!!!!!!!!!!!!",
"!!!!!!!!!!!!!!!!!!!!!!!:;;;9&$$$$$$$$#:;;;9!!!!!!!!!!!!!!!!!!!!!",
"!!!!!!!!!!!!!!!!!!!!!!!;9-#A#########-;999A!!!!!!!!!!!!!!!!!!!!!",
"!!!!!!!!!!!!!!!!!!!!!!!8-$#----------.8AAAB!!!!!!!!!!!!!!!!!!!!!",
"!!!!!!!!!!!!!!!!!!!!!!!A-%$-..........BBBBC!!!!!!!!!!!!!!!!!!!!!",
"!!!!!!!!!!!!!!!!!!!!!!!!#%$-!!!!!!!!!!#--.!!!!!!!!!!!!!!!!!!!!!!",
"!!!!!!!!!!!!!!!!!!!!!!!!#%$-!!!!!!!!!!##-.!!!!!!!!!!!!!!!!!!!!!!",
"!!!!!!!!!!!!!!!!!!!!!!!!#%$-!!!!!!!!!!#%#.!!!!!!!!!!!!!!!!!!!!!!",
"!!!!!!!!!!!!!!!!!!!!!!!!#%$-!!!!!!!!!!#%#.!!!!!!!!!!!!!!!!!!!!!!",
"!!!!!!!!!!!!!!!!!!!!!!!777777!!!!!!!!7#%#.7!!!!!!!!!!!!!!!!!!!!!",
"!!!!!!!!!!!!!!!!!!!!!!!P:=:PP!!!!!!!!P9%#AP!!!!!!!!!!!!!!!!!!!!!",
"!!!!!!!!!!!!!!!!!!!!!!!777777!!!!!!!!777777!!!!!!!!!!!!!!!!!!!!!",
"!!!!!!!!!!!!!!!!!!!!!!!999999!!!!!!!!999999!!!!!!!!!!!!!!!!!!!!!",
"!!!!!!!!!!!!!!!!!!!!!!!BBBBBB!!!!!!!!BBBBBB!!!!!!!!!!!!!!!!!!!!!",
"!!!!!!!!!!!!!!!!!!!!!!!!#%#-!!!!!!!!!!-$#.!!!!!!!!!!!!!!!!!!!!!!",
"!!!!!!!!!!!!!!!!!!!!!!!!#%$-!!!!!!!!!!-$#.!!!!!!!!!!!!!!!!!!!!!!",
"!!!!!!!!!!!!!!!!!!!!!!!!#%$-!!!!!!!!!!-$#.!!!!!!!!!!!!!!!!!!!!!!",
"!!!!!!!!!!!!!!!!!!!!!!!!#%$-!!!!!!!!!#-$#-#!!!!!!!!!!!!!!!!!!!!!",
"!!!!!!!!!!!!!!!!!!!!!!!!#%$-!!!!!!!!!$%$#&%!!!!!!!!!!!!!!!!!!!!!",
"!!!!!!!!!!!!!!!!!!!!!!!#$%$$#!!!!!!!!-%&##-!!!!!!!!!!!!!!!!!!!!!",
"!!!!!!!!!!!!!!!!!!!!!!!%&%$&%!!!!!!!!%$%#&!!!!!!!!!!!!!!!!!!!!!!",
"!!!!!!!!!!!!!!!!!!!!!!!-%%$#-!!!!!!%%$-&#$&%!!!!!!!!!!!!!!!!!!!!",
"!!!!!!!!!!!!!!!!!!!!!!!&$%#&!!!!!!%$#-!%!-&&%!!!!!!!!!!!!!!!!!!!",
"!!!!!!!!!!!!!!!!!!!!!&,$-,#$,%!!!!!!!!!!!!!!!!!!!!!!!!!!!!!!!!!!",
"!!!!!!!!!!!!!!!!!!!!%$#-!&!-$&%!!!!!!!!!!!!!!!!!!!!!!!!!!!!!!!!!",
"!!!!!!!!!!!!!!!!!!!!!!!!!!!!!!!!!!!!!!!!!!!!!!!!!!!!!!!!!!!!!!!!"
};