/* XPM */
static const char *boss_floor3_firing_f02[] = {
/* columns rows colors chars-per-pixel */
"64 64 34 1",
"! c None",
"# c #C01010",
"$ c #A06C3C",
"% c #A8784C",
"& c #B08458",
"' c #C4A080",
"( c #C06410",
") c #D0B094",
"* c #E4D0C0",
"+ c #BCBCBC",
", c #CC8038",
"- c #D8D8D8",
". c #848484",
"/ c #C4C824",
"0 c #94602C",
"1 c #805424",
"2 c #7CA400",
"3 c #B0D040",
"4 c #603814",
"5 c #FCFCFC",
"6 c #346090",
"7 c #4C78A8",
"8 c #2C5480",
"9 c #3C6CA0",
": c #244870",
"; c #204060",
"< c #980088",
"= c #80A0C4",
"> c #700404",
"? c #142840",
"@ c #000000",
"A c #2C2C2C",
"B c #4C4C4C",
"C c #3C3C3C",
"!!!!!!!!!!!!!!!!!!!!!!!!!!!!!!!!!!!!!!!!!!!!!!!!!!!!!!!!!!!!!!!!",
"!!!!!!!!!!!!!!!!!!!!!!!!!!!!!!!!!!!!!!!!!!!!!!!!!!!!!!!!!!!!!!!!",
"!!!!!!!!!!!!!!!!!!!!!!!!!!!!!!!!!!!!!!!!!!!!!!!!!!!!!!!!!!!!!!!!",
"!!!!!!!!!!!!!!!!!!!!!!!!!!!!!!!!!!!!!!!!!!!!!!!!!!!!!!!!!!!!!!!!",
"!!!!!!!!!!!!!!!!!!!!!!!!!!!!!!!!!!!!!!!!!!!!!!!!!!!!!!!!!!!!!!!!",
"!!!!!!!!!!!!!!!!!!!!!!!!!!!!!!!!!!!!!!!!!!!!!!!!!!!!!!!!!!!!!!!!",
"!!!!!!!!!!!!!!!!!!!!!!!!!!!!!!!!!!!!!!!!!!!!!!!!!!!!!!!!!!!!!!!!",
"!!!!!!!!!!!!!!!!!!!!!!!!!!!!!!!!!!!!!!!!!!!!!!!!!!!!!!!!!!!!!!!!",
"!!!!!!!!!!!!!!!!!!!!!!!!!!!!!!!!!!!!!!!!!!!!!!!!!!!!!!!!!!!!!!!!",
"!!!!!!!!!!!!!!!!!!!!!!!!!!!!!!!!!!!!!!!!!!!!!!!!!!!!!!!!!!!!!!!!",
"!!!!!!!!!!!!!!!!!!!!!!!!!!!!!!!!!!!!!!!!!!!!!!!!!!!!!!!!!!!!!!!!",
"!!!!!!!!!!!!!!!!!!!!!!!!!!!!!!!!!!!!!!!!!!!!!!!!!!!!!!!!!!!!!!!!",
"!!!!!!!!!!!!!!!!!!!!!!!!!!!!!!!!!!!!!!!!!!!!!!!!!!!!!!!!!!!!!!!!",
"!!!!!!!!!!!!!!!!!!!!!!!!!!!!!!!#!!!!!!!!!!!!!!!!!!!!!!!!!!!!!!!!",
"!!!!!!!!!!!!!!!!!!!!!!!!!!!!!!!!!!!!!!!!!!!!!!!!!!!!!!!!!!!!!!!!",
"!!!!!!!!!!!!!!!!!!!!!!!!!!!!!!!#!!!!!!!!!!!!!!!!!!!!!!!!!!!!!!!!",
"!!!!!!!!!!!!!!!!!!!!!!!!!!!$%&'('''$!!!!!!!!!!!!!!!!!!!!!!!!!!!!",
"!!!!!!!!!!!!!!!!!!!!!!!!!!$%&')(*))&$!!!!!!!!!!!!!!!!!!!!!!!!!!!",
"!!!!!!!!!!!!!!!!!!!!!!!!!!+$&&','''&+!!!!!!!!!!!!!!!!!!!!!!!!!!!",
"!!!!!!!!!!!!!!!!!!!!!!!!!!-$.+&,&&&.-!!!!!!!!!!!!!!!!!!!!!!!!!!!",
"!!!!!!!!!!!!!!!!!!!!!!!!!!+$$.#/#+-&+!!!!!!!!!!!!!!!!!!!!!!!!!!!",
"!!!!!!!!!!!!!!!!!!!!!!!!!!.012(/(340.!!!!!!!!!!!!!!!!!!!!!!!!!!!",
"!!!!!!!!!!!!!!!!!!!!!!!!!!$&#,/5/,#&$!!!!!!!!!!!!!!!!!!!!!!!!!!!",
"!!!!!!!!!!!!!!!!!!!!!!!#!#(,,/555/,,(#!#!!!!!!!!!!!!!!!!!!!!!!!!",
"!!!!!!!!!!!!!!!!!!!!!!!+6670#,/5/,#0768!!!!!!!!!!!!!!!!!!!!!!!!!",
"!!!!!!!!!!!!!!!!!!!!!979796912(/(2)9697979!!!!!!!!!!!!!!!!!!!!!!",
"!!!!!!!!!!!!!!!!!!!!9769686+1$#/#1&+6869679!!!!!!!!!!!!!!!!!!!!!",
"!!!!!!!!!!!!!!!!!!!!68868:8-11$,1$&-8:86866!!!!!!!!!!!!!!!!!!!!!",
"!!!!!!!!!!!!!!!!!!!!8:8::::+1$&,41$+::::8:8!!!!!!!!!!!!!!!!!!!!!",
"!!!!!!!!!!!!!!!!!!!!;::;;;;;<<<(<<<;;;;;::;!!!!!!!!!!!!!!!!!!!!!",
"!!!!!!!!!!!!!!!!!!!!!;;;;::8=55(55=8::;;;;!!!!!!!!!!!!!!!!!!!!!!",
"!!!!!!!!!!!!!!!!!!!!!!!:88:86=5#5=68:88:!!!!!!!!!!!!!!!!!!!!!!!!",
"!!!!!!!!!!!!!!!!!!!!!!!8:88:86=#=68:88:8!!!!!!!!!!!!!!!!!!!!!!!!",
"!!!!!!!!!!!!!!!!!!!!!!!;;:88:86#68:88:;;!!!!!!!!!!!!!!!!!!!!!!!!",
"!!!!!!!!!!!!!!!!!!!!!!!8:;:::::>6::::;:8!!!!!!!!!!!!!!!!!!!!!!!!",
"!!!!!!!!!!!!!!!!!!!!!!!68:;??;:6:;??;:86!!!!!!!!!!!!!!!!!!!!!!!!",
"!!!!!!!!!!!!!!!!!!!!!!!986888886:8888689!!!!!!!!!!!!!!!!!!!!!!!!",
"!!!!!!!!!!!!!!!!!!!!!!!!68888;6:8;88886!!!!!!!!!!!!!!!!!!!!!!!!!",
"!!!!!!!!!!!!!!!!!!!!!!!!9688:6:::::8869!!!!!!!!!!!!!!!!!!!!!!!!!",
"!!!!!!!!!!!!!!!!!!!!!!!!98:;6:;;;;;;:89!!!!!!!!!!!!!!!!!!!!!!!!!",
"!!!!!!!!!!!!!!!!!!!!!!!!76868;888;88867!!!!!!!!!!!!!!!!!!!!!!!!!",
"!!!!!!!!!!!!!!!!!!!!!!!!9886:::;:::8689!!!!!!!!!!!!!!!!!!!!!!!!!",
"!!!!!!!!!!!!!!!!!!!!!!!!768:;8:888:;:867!!!!!!!!!!!!!!!!!!!!!!!!",
"!!!!!!!!!!!!!!!!!!!!!!!!98688;????;88889!!!!!!!!!!!!!!!!!!!!!!!!",
"!!!!!!!!!!!!!!!!!!!!!!!968888::;;::888869!!!!!!!!!!!!!!!!!!!!!!!",
"!!!!!!!!!!!!!!!!!!!!!!!986888:;!!;:888689!!!!!!!!!!!!!!!!!!!!!!!",
"!!!!!!!!!!!!!!!!!!!!!!!988888:;!!;:888889!!!!!!!!!!!!!!!!!!!!!!!",
"!!!!!!!!!!!!!!!!!!!!!!96688:8;!!!!;8:88669!!!!!!!!!!!!!!!!!!!!!!",
"!!!!!!!!!!!!!!!!!!!!!!986888:;!!!!;:888689!!!!!!!!!!!!!!!!!!!!!!",
"!!!!!!!!!!!!!!!!!!!!!!988688;!!!!!!;886889!!!!!!!!!!!!!!!!!!!!!!",
"!!!!!!!!!!!!!!!!!!!!!68:888:?!!!!!!?:888:86!!!!!!!!!!!!!!!!!!!!!",
"!!!!!!!!!!!!!!!!!!!!!6::88:;?!!!!!!?;:88::6!!!!!!!!!!!!!!!!!!!!!",
"!!!!!!!!!!!!!!!!!!!!!6::8::;?!!!!!!?;::8::6!!!!!!!!!!!!!!!!!!!!!",
"!!!!!!!!!!!!!!!!!!!!!6:8::;;;!!!!!!;;;::8:6!!!!!!!!!!!!!!!!!!!!!",
"!!!!!!!!!!!!!!!!!!!!!6::::;;;!!!!!!;;;::::6!!!!!!!!!!!!!!!!!!!!!",
"!!!!!!!!!!!!!!!!!!!!!6:::;:;!!!!!!!!;:;:::6!!!!!!!!!!!!!!!!!!!!!",
"!!!!!!!!!!!!!!!!!!!!!6:::;:;!!!!!!!!;:;:::6!!!!!!!!!!!!!!!!!!!!!",
"!!!!!!!!!!!!!!!!!!!!68::;::;!!!!!!!!;::;::86!!!!!!!!!!!!!!!!!!!!",
"!!!!!!!!!!!!!!!!!!!!6:::;:;!!!!!!!!!!;:;:::6!!!!!!!!!!!!!!!!!!!!",
"!!!!!!!!!!!!!!!!!!!!6::;::@!!!!!!!!!!@::;::6!!!!!!!!!!!!!!!!!!!!",
"!!!!!!!!!!!!!!!!!!!!!::;AA@!!!!!!!!!!@AA;::!!!!!!!!!!!!!!!!!!!!!",
"!!!!!!!!!!!!!!!!!!!!@AAAA@!!!!!!!!!!!!@AAAA@!!!!!!!!!!!!!!!!!!!!",
"!!!!!!!!!!!!!!!!!!!!@BCA@!!!!!!!!!!!!!!@ACB@!!!!!!!!!!!!!!!!!!!!",
"!!!!!!!!!!!!!!!!!!!!!@@@!!!!!!!!!!!!!!!!@@@!!!!!!!!!!!!!!!!!!!!!"
};