/* XPM */
static const char *boss_floor3_firing_f01[] = {
/* columns rows colors chars-per-pixel */
"64 64 41 1",
"! c None",
"# c #A06C3C",
"$ c #A8784C",
"% c #B08458",
"& c #C4A080",
"' c #D0B094",
"( c #E4D0C0",
") c #BCBCBC",
"* c #D8D8D8",
"+ c #848484",
", c #94602C",
"- c #805424",
". c #603814",
"/ c #7CA400",
"0 c #C42424",
"1 c #D86464",
"2 c #DC7C7C",
"3 c #B0D040",
"4 c #704820",
"5 c #840404",
"6 c #980808",
"7 c #989898",
"8 c #700404",
"9 c #3C6CA0",
": c #4C78A8",
"; c #346090",
"< c #5C0000",
"= c #502400",
"> c #2C5480",
"? c #005C5C",
"@ c #244870",
"A c #008C8C",
"B c #204060",
"C c #80A0C4",
"D c #FCFCFC",
"E c #C01010",
"F c #142840",
"G c #000000",
"H c #2C2C2C",
"I c #4C4C4C",
"J c #3C3C3C",
"!!!!!!!!!!!!!!!!!!!!!!!!!!!!!!!!!!!!!!!!!!!!!!!!!!!!!!!!!!!!!!!!",
"!!!!!!!!!!!!!!!!!!!!!!!!!!!!!!!!!!!!!!!!!!!!!!!!!!!!!!!!!!!!!!!!",
"!!!!!!!!!!!!!!!!!!!!!!!!!!!!!!!!!!!!!!!!!!!!!!!!!!!!!!!!!!!!!!!!",
"!!!!!!!!!!!!!!!!!!!!!!!!!!!!!!!!!!!!!!!!!!!!!!!!!!!!!!!!!!!!!!!!",
"!!!!!!!!!!!!!!!!!!!!!!!!!!!!!!!!!!!!!!!!!!!!!!!!!!!!!!!!!!!!!!!!",
"!!!!!!!!!!!!!!!!!!!!!!!!!!!!!!!!!!!!!!!!!!!!!!!!!!!!!!!!!!!!!!!!",
"!!!!!!!!!!!!!!!!!!!!!!!!!!!!!!!!!!!!!!!!!!!!!!!!!!!!!!!!!!!!!!!!",
"!!!!!!!!!!!!!!!!!!!!!!!!!!!!!!!!!!!!!!!!!!!!!!!!!!!!!!!!!!!!!!!!",
"!!!!!!!!!!!!!!!!!!!!!!!!!!!!!!!!!!!!!!!!!!!!!!!!!!!!!!!!!!!!!!!!",
"!!!!!!!!!!!!!!!!!!!!!!!!!!!!!!!!!!!!!!!!!!!!!!!!!!!!!!!!!!!!!!!!",
"!!!!!!!!!!!!!!!!!!!!!!!!!!!!!!!!!!!!!!!!!!!!!!!!!!!!!!!!!!!!!!!!",
"!!!!!!!!!!!!!!!!!!!!!!!!!!!!!!!!!!!!!!!!!!!!!!!!!!!!!!!!!!!!!!!!",
"!!!!!!!!!!!!!!!!!!!!!!!!!!!!!!!!!!!!!!!!!!!!!!!!!!!!!!!!!!!!!!!!",
"!!!!!!!!!!!!!!!!!!!!!!!!!!!!!!!!!!!!!!!!!!!!!!!!!!!!!!!!!!!!!!!!",
"!!!!!!!!!!!!!!!!!!!!!!!!!!!!!!!!!!!!!!!!!!!!!!!!!!!!!!!!!!!!!!!!",
"!!!!!!!!!!!!!!!!!!!!!!!!!!!!!!!!!!!!!!!!!!!!!!!!!!!!!!!!!!!!!!!!",
"!!!!!!!!!!!!!!!!!!!!!!!!!!!#$%&&&&&#!!!!!!!!!!!!!!!!!!!!!!!!!!!!",
"!!!!!!!!!!!!!!!!!!!!!!!!!!#$%&''(''%#!!!!!!!!!!!!!!!!!!!!!!!!!!!",
"!!!!!!!!!!!!!!!!!!!!!!!!!!)#%%&&&&&%)!!!!!!!!!!!!!!!!!!!!!!!!!!!",
"!!!!!!!!!!!!!!!!!!!!!!!!!!*#+)%%%%%+*!!!!!!!!!!!!!!!!!!!!!!!!!!!",
"!!!!!!!!!!!!!!!!!!!!!!!!!!)##+**$)*%)!!!!!!!!!!!!!!!!!!!!!!!!!!!",
"!!!!!!!!!!!!!!!!!!!!!!!!!!+,-..-,-.,+!!!!!!!!!!!!!!!!!!!!!!!!!!!",
"!!!!!!!!!!!!!!!!!!!!!!!!!!#%&/0123$%#!!!!!!!!!!!!!!!!!!!!!!!!!!!",
"!!!!!!!!!!!!!!!!!!!!!!!!!!4,$56012#,4!!!!!!!!!!!!!!!!!!!!!!!!!!!",
"!!!!!!!!!!!!!!!!!!!!!!!)!+7,#88201,,!!!!!!!!!!!!!!!!!!!!!!!!!!!!",
"!!!!!!!!!!!!!!!!!!!!!9:9;;:-#8<860=-:;>9:9!!!!!!!!!!!!!!!!!!!!!!",
"!!!!!!!!!!!!!!!!!!!!9:;9:9;9-/885/'9;9:9;:9!!!!!!!!!!!!!!!!!!!!!",
"!!!!!!!!!!!!!!!!!!!!;>>9;>;)-#-?.-%);>;9>;;!!!!!!!!!!!!!!!!!!!!!",
"!!!!!!!!!!!!!!!!!!!!>@>;>@>*--#A-#%*>@>;>@>!!!!!!!!!!!!!!!!!!!!!",
"!!!!!!!!!!!!!!!!!!!!B@@@@@@)-#%-.-#)@@@@@@B!!!!!!!!!!!!!!!!!!!!!",
"!!!!!!!!!!!!!!!!!!!!!BBBBBBBCDDEDDCBBBBBBB!!!!!!!!!!!!!!!!!!!!!!",
"!!!!!!!!!!!!!!!!!!!!!!!>>>@>;CDEDC;>@>>>!!!!!!!!!!!!!!!!!!!!!!!!",
"!!!!!!!!!!!!!!!!!!!!!!!>@>>@>;CEC;>@>>@>!!!!!!!!!!!!!!!!!!!!!!!!",
"!!!!!!!!!!!!!!!!!!!!!!!BB@>>@>;6;>@>>@BB!!!!!!!!!!!!!!!!!!!!!!!!",
"!!!!!!!!!!!!!!!!!!!!!!!>@B@@@@@8;@@@@B@>!!!!!!!!!!!!!!!!!!!!!!!!",
"!!!!!!!!!!!!!!!!!!!!!!!;>@BFFB@;@BFFB@>;!!!!!!!!!!!!!!!!!!!!!!!!",
"!!!!!!!!!!!!!!!!!!!!!!!9>;>>>>>;@>>>>;>9!!!!!!!!!!!!!!!!!!!!!!!!",
"!!!!!!!!!!!!!!!!!!!!!!!!;>>>>B;@>B>>>>;!!!!!!!!!!!!!!!!!!!!!!!!!",
"!!!!!!!!!!!!!!!!!!!!!!!!9;>>@;@@@@@>>;9!!!!!!!!!!!!!!!!!!!!!!!!!",
"!!!!!!!!!!!!!!!!!!!!!!!!9>@B;@BBBBBB@>9!!!!!!!!!!!!!!!!!!!!!!!!!",
"!!!!!!!!!!!!!!!!!!!!!!!!:;>;>B>>>B>>>;:!!!!!!!!!!!!!!!!!!!!!!!!!",
"!!!!!!!!!!!!!!!!!!!!!!!!9>>;@@@B@@@>;>9!!!!!!!!!!!!!!!!!!!!!!!!!",
"!!!!!!!!!!!!!!!!!!!!!!!!:;>@B>@>>>@B@>;:!!!!!!!!!!!!!!!!!!!!!!!!",
"!!!!!!!!!!!!!!!!!!!!!!!!9>;>>BFFFFB>>>>9!!!!!!!!!!!!!!!!!!!!!!!!",
"!!!!!!!!!!!!!!!!!!!!!!!9;>>>>@@BB@@>>>>;9!!!!!!!!!!!!!!!!!!!!!!!",
"!!!!!!!!!!!!!!!!!!!!!!!9>;>>>@B!!B@>>>;>9!!!!!!!!!!!!!!!!!!!!!!!",
"!!!!!!!!!!!!!!!!!!!!!!!9>>>>>@B!!B@>>>>>9!!!!!!!!!!!!!!!!!!!!!!!",
"!!!!!!!!!!!!!!!!!!!!!!9;;>>@>B!!!!B>@>>;;9!!!!!!!!!!!!!!!!!!!!!!",
"!!!!!!!!!!!!!!!!!!!!!!9>;>>>@B!!!!B@>>>;>9!!!!!!!!!!!!!!!!!!!!!!",
"!!!!!!!!!!!!!!!!!!!!!!9>>;>>B!!!!!!B>>;>>9!!!!!!!!!!!!!!!!!!!!!!",
"!!!!!!!!!!!!!!!!!!!!!;>@>>>@F!!!!!!F@>>>@>;!!!!!!!!!!!!!!!!!!!!!",
"!!!!!!!!!!!!!!!!!!!!!;@@>>@BF!!!!!!FB@>>@@;!!!!!!!!!!!!!!!!!!!!!",
"!!!!!!!!!!!!!!!!!!!!!;@@>@@BF!!!!!!FB@@>@@;!!!!!!!!!!!!!!!!!!!!!",
"!!!!!!!!!!!!!!!!!!!!!;@>@@BBB!!!!!!BBB@@>@;!!!!!!!!!!!!!!!!!!!!!",
"!!!!!!!!!!!!!!!!!!!!!;@@@@BBB!!!!!!BBB@@@@;!!!!!!!!!!!!!!!!!!!!!",
"!!!!!!!!!!!!!!!!!!!!!;@@@B@B!!!!!!!!B@B@@@;!!!!!!!!!!!!!!!!!!!!!",
"!!!!!!!!!!!!!!!!!!!!!;@@@B@B!!!!!!!!B@B@@@;!!!!!!!!!!!!!!!!!!!!!",
"!!!!!!!!!!!!!!!!!!!!;>@@B@@B!!!!!!!!B@@B@@>;!!!!!!!!!!!!!!!!!!!!",
"!!!!!!!!!!!!!!!!!!!!;@@@B@B!!!!!!!!!!B@B@@@;!!!!!!!!!!!!!!!!!!!!",
"!!!!!!!!!!!!!!!!!!!!;@@B@@G!!!!!!!!!!G@@B@@;!!!!!!!!!!!!!!!!!!!!",
"!!!!!!!!!!!!!!!!!!!!!@@BHHG!!!!!!!!!!GHHB@@!!!!!!!!!!!!!!!!!!!!!",
"!!!!!!!!!!!!!!!!!!!!GHHHHG!!!!!!!!!!!!GHHHHG!!!!!!!!!!!!!!!!!!!!",
"!!!!!!!!!!!!!!!!!!!!GIJHG!!!!!!!!!!!!!!GHJIG!!!!!!!!!!!!!!!!!!!!",
"!!!!!!!!!!!!!!!!!!!!!GGG!!!!!!!!!!!!!!!!GGG!!!!!!!!!!!!!!!!!!!!!"
};