/* XPM */
static const char *boss_floor3_firing_sheet[] = {
/* columns rows colors chars-per-pixel */
"192 64 57 1",
"! c None",
"# c #C01010",
"$ c #A06C3C",
"% c #B08458",
"& c #C4A080",
"' c #D0B094",
"( c #E4D0C0",
") c #A8784C",
"* c #C06410",
"+ c #BCBCBC",
", c #D8D8D8",
"- c #848484",
". c #CC8038",
"/ c #94602C",
"0 c #603814",
"1 c #805424",
"2 c #C4C824",
"3 c #7CA400",
"4 c #B0D040",
"5 c #704820",
"6 c #D8BCA8",
"7 c #C42424",
"8 c #D86464",
"9 c #DC7C7C",
": c #FCFCFC",
"; c #989898",
"< c #840404",
"= c #980808",
"> c #3C6CA0",
"? c #4C78A8",
"@ c #502400",
"A c #743804",
"B c #700404",
"C c #346090",
"D c #2C5480",
"E c #80A0C4",
"F c #5C0000",
"G c #A8BCD8",
"H c #244870",
"I c #005C5C",
"J c #008C8C",
"K c #98084C",
"L c #3C001C",
"M c #D8F4F4",
"N c #204060",
"O c #980088",
"P c #740438",
"Q c #5CD8D8",
"R c #004444",
"S c #E49898",
"T c #00BCBC",
"U c #142840",
"V c #007474",
"W c #000000",
"X c #2C2C2C",
"Y c #3C3C3C",
"Z c #4C4C4C",
"!!!!!!!!!!!!!!!!!!!!!!!!!!!!!!!!!!!!!!!!!!!!!!!!!!!!!!!!!!!!!!!!!!!!!!!!!!!!!!!!!!!!!!!!!!!!!!!!!!!!!!!!!!!!!!!!!!!!!!!!!!!!!!!!!!!!!!!!!!!!!!!!!!!!!!!!!!!!!!!!!!!!!!!!!!!!!!!!!!!!!!!!!!!!!!!!",
"!!!!!!!!!!!!!!!!!!!!!!!!!!!!!!!!!!!!!!!!!!!!!!!!!!!!!!!!!!!!!!!!!!!!!!!!!!!!!!!!!!!!!!!!!!!!!!!!!!!!!!!!!!!!!!!!!!!!!!!!!!!!!!!!!!!!!!!!!!!!!!!!!!!!!!!!!!!!!!!!!!!!!!!!!!!!!!!!!!!!!!!!!!!!!!!!",
"!!!!!!!!!!!!!!!!!!!!!!!!!!!!!!!!!!!!!!!!!!!!!!!!!!!!!!!!!!!!!!!!!!!!!!!!!!!!!!!!!!!!!!!!!!!!!!!!!!!!!!!!!!!!!!!!!!!!!!!!!!!!!!!!!!!!!!!!!!!!!!!!!!!!!!!!!!!!!!!!!!!!!!!!!!!!!!!!!!!!!!!!!!!!!!!!",
"!!!!!!!!!!!!!!!!!!!!!!!!!!!!!!!!!!!!!!!!!!!!!!!!!!!!!!!!!!!!!!!!!!!!!!!!!!!!!!!!!!!!!!!!!!!!!!!!!!!!!!!!!!!!!!!!!!!!!!!!!!!!!!!!!!!!!!!!!!!!!!!!!!!!!!!!!!!!!!!!!!!!!!!!!!!!!!!!!!!!!!!!!!!!!!!!",
"!!!!!!!!!!!!!!!!!!!!!!!!!!!!!!!!!!!!!!!!!!!!!!!!!!!!!!!!!!!!!!!!!!!!!!!!!!!!!!!!!!!!!!!!!!!!!!!!!!!!!!!!!!!!!!!!!!!!!!!!!!!!!!!!!!!!!!!!!!!!!!!!!!!!!!!!!!!!!!!!!!!!!!!!!!!!!!!!!!!!!!!!!!!!!!!!",
"!!!!!!!!!!!!!!!!!!!!!!!!!!!!!!!!!!!!!!!!!!!!!!!!!!!!!!!!!!!!!!!!!!!!!!!!!!!!!!!!!!!!!!!!!!!!!!!!!!!!!!!!!!!!!!!!!!!!!!!!!!!!!!!!!!!!!!!!!!!!!!!!!!!!!!!!!!!!!!!!!!!!!!!!!!!!!!!!!!!!!!!!!!!!!!!!",
"!!!!!!!!!!!!!!!!!!!!!!!!!!!!!!!!!!!!!!!!!!!!!!!!!!!!!!!!!!!!!!!!!!!!!!!!!!!!!!!!!!!!!!!!!!!!!!!!!!!!!!!!!!!!!!!!!!!!!!!!!!!!!!!!!!!!!!!!!!!!!!!!!!!!!!!!!!!!!!!!!!!!!!!!!!!!!!!!!!!!!!!!!!!!!!!!",
"!!!!!!!!!!!!!!!!!!!!!!!!!!!!!!!!!!!!!!!!!!!!!!!!!!!!!!!!!!!!!!!!!!!!!!!!!!!!!!!!!!!!!!!!!!!!!!!!!!!!!!!!!!!!!!!!!!!!!!!!!!!!!!!!!!!!!!!!!!!!!!!!!!!!!!!!!!!!!!!!!!!!!!!!!!!!!!!!!!!!!!!!!!!!!!!!",
"!!!!!!!!!!!!!!!!!!!!!!!!!!!!!!!!!!!!!!!!!!!!!!!!!!!!!!!!!!!!!!!!!!!!!!!!!!!!!!!!!!!!!!!!!!!!!!!!!!!!!!!!!!!!!!!!!!!!!!!!!!!!!!!!!!!!!!!!!!!!!!!!!!!!!!!!!!!!!!!!!!!!!!!!!!!!!!!!!!!!!!!!!!!!!!!!",
"!!!!!!!!!!!!!!!!!!!!!!!!!!!!!!!!!!!!!!!!!!!!!!!!!!!!!!!!!!!!!!!!!!!!!!!!!!!!!!!!!!!!!!!!!!!!!!!!!!!!!!!!!!!!!!!!!!!!!!!!!!!!!!!!!!!!!!!!!!!!!!!!!!!!!!!!!!!!!!!!!!!!!!!!!!!!!!!!!!!!!!!!!!!!!!!!",
"!!!!!!!!!!!!!!!!!!!!!!!!!!!!!!!!!!!!!!!!!!!!!!!!!!!!!!!!!!!!!!!!!!!!!!!!!!!!!!!!!!!!!!!!!!!!!!!!!!!!!!!!!!!!!!!!!!!!!!!!!!!!!!!!!!!!!!!!!!!!!!!!!!!!!!!!!!!!!!!!!!!!!!!!!!!!!!!!!!!!!!!!!!!!!!!!",
"!!!!!!!!!!!!!!!!!!!!!!!!!!!!!!!!!!!!!!!!!!!!!!!!!!!!!!!!!!!!!!!!!!!!!!!!!!!!!!!!!!!!!!!!!!!!!!!!!!!!!!!!!!!!!!!!!!!!!!!!!!!!!!!!!!!!!!!!!!!!!!!!!!!!!!!!!!!!!!!!!!!!!!!!!!!!!!!!!!!!!!!!!!!!!!!!",
"!!!!!!!!!!!!!!!!!!!!!!!!!!!!!!!!!!!!!!!!!!!!!!!!!!!!!!!!!!!!!!!!!!!!!!!!!!!!!!!!!!!!!!!!!!!!!!!!!!!!!!!!!!!!!!!!!!!!!!!!!!!!!!!!!!!!!!!!!!!!!!!!!!!!!!!!!!!!!!!!!!!!!!!!!!!!!!!!!!!!!!!!!!!!!!!!",
"!!!!!!!!!!!!!!!!!!!!!!!!!!!!!!!!!!!!!!!!!!!!!!!!!!!!!!!!!!!!!!!!!!!!!!!!!!!!!!!!!!!!!!!!!!!!!!!!!!!!!!!!!!!!!!!!!!!!!!!!!!!!!!!!!!!!!!!!!!!!!!!!!!!!!!!!!!!!!!!#!!!!!!!!!!!!!!!!!!!!!!!!!!!!!!!!",
"!!!!!!!!!!!!!!!!!!!!!!!!!!!!!!!!!!!!!!!!!!!!!!!!!!!!!!!!!!!!!!!!!!!!!!!!!!!!!!!!!!!!!!!!!!!!!!!!!!!!!!!!!!!!!!!!!!!!!!!!!!!!!!!!!!!!!!!!!!!!!!!!!!!!!!!!!!!!!!!!!!!!!!!!!!!!!!!!!!!!!!!!!!!!!!!!",
"!!!!!!!!!!!!!!!!!!!!!!!!!!!!$%&&&&&%$!!!!!!!!!!!!!!!!!!!!!!!!!!!!!!!!!!!!!!!!!!!!!!!!!!!!!!!!!!!!!!!!!!!!!!!!!!!!!!!!!!!!!!!!!!!!!!!!!!!!!!!!!!!!!!!!!!!!!!!!!!#!!!!!!!!!!!!!!!!!!!!!!!!!!!!!!!!",
"!!!!!!!!!!!!!!!!!!!!!!!!!!!$%&''(''&%$!!!!!!!!!!!!!!!!!!!!!!!!!!!!!!!!!!!!!!!!!!!!!!!!!!!!!$)%&&&&&$!!!!!!!!!!!!!!!!!!!!!!!!!!!!!!!!!!!!!!!!!!!!!!!!!!!!!!!$)%&*&&&$!!!!!!!!!!!!!!!!!!!!!!!!!!!!",
"!!!!!!!!!!!!!!!!!!!!!!!!!!!+%%&&&&&%%+!!!!!!!!!!!!!!!!!!!!!!!!!!!!!!!!!!!!!!!!!!!!!!!!!!!!$)%&''(''%$!!!!!!!!!!!!!!!!!!!!!!!!!!!!!!!!!!!!!!!!!!!!!!!!!!!!!$)%&'*(''%$!!!!!!!!!!!!!!!!!!!!!!!!!!!",
"!!!!!!!!!!!!!!!!!!!!!!!!!!!,-+%%%%%+-,!!!!!!!!!!!!!!!!!!!!!!!!!!!!!!!!!!!!!!!!!!!!!!!!!!!!+$%%&&&&&%+!!!!!!!!!!!!!!!!!!!!!!!!!!!!!!!!!!!!!!!!!!!!!!!!!!!!!+$%%&.&&&%+!!!!!!!!!!!!!!!!!!!!!!!!!!!",
"!!!!!!!!!!!!!!!!!!!!!!!!!!!+%-,,),,-%+!!!!!!!!!!!!!!!!!!!!!!!!!!!!!!!!!!!!!!!!!!!!!!!!!!!!,$-+%%%%%-,!!!!!!!!!!!!!!!!!!!!!!!!!!!!!!!!!!!!!!!!!!!!!!!!!!!!!,$-+%.%%%-,!!!!!!!!!!!!!!!!!!!!!!!!!!!",
"!!!!!!!!!!!!!!!!!!!!!!!!!!!-/001/100/-!!!!!!!!!!!!!!!!!!!!!!!!!!!!!!!!!!!!!!!!!!!!!!!!!!!!+$$-,,)+,%+!!!!!!!!!!!!!!!!!!!!!!!!!!!!!!!!!!!!!!!!!!!!!!!!!!!!!+$$-#2#+,%+!!!!!!!!!!!!!!!!!!!!!!!!!!!",
"!!!!!!!!!!!!!!!!!!!!!!!!!!!$%&))&))&%$!!!!!!!!!!!!!!!!!!!!!!!!!!!!!!!!!!!!!!!!!!!!!!!!!!!!-/1001/10/-!!!!!!!!!!!!!!!!!!!!!!!!!!!!!!!!!!!!!!!!!!!!!!!!!!!!!-/13*2*40/-!!!!!!!!!!!!!!!!!!!!!!!!!!!",
"!!!!!!!!!!!!!!!!!!!!!!!!!!!5/)$/6/$)/5!!!!!!!!!!!!!!!!!!!!!!!!!!!!!!!!!!!!!!!!!!!!!!!!!!!!$%&37894)%$!!!!!!!!!!!!!!!!!!!!!!!!!!!!!!!!!!!!!!!!!!!!!!!!!!!!!$%#.2:2.#%$!!!!!!!!!!!!!!!!!!!!!!!!!!!",
"!!!!!!!!!!!!!!!!!!!!!!!!+!-;/$/)1)/$/!!!!!!!!!!!!!!!!!!!!!!!!!!!!!!!!!!!!!!!!!!!!!!!!!!!!!5/)<=789$/5!!!!!!!!!!!!!!!!!!!!!!!!!!!!!!!!!!!!!!!!!!!!!!!!!!#!#*..2:::2..*#!#!!!!!!!!!!!!!!!!!!!!!!!!",
"!!!!!!!!!!!!!!!!!!!!!>??>+,?1$@@A@@$1?!!>??>!!!!!!!!!!!!!!!!!!!!!!!!!!!!!!!!!!!!!!!!!!!+!-;/$BB978//!!!!!!!!!!!!!!!!!!!!!!!!!!!!!!!!!!!!!!!!!!!!!!!!!!!+CC?/#.2:2.#/?CD!!!!!!!!!!!!!!!!!!!!!!!!!",
"!!!!!!!!!!!!!!!!!!!!?CCCC>C>E5%%'%%5E>C>CCCC>!!!!!!!!!!!!!!!!!!!!!!!!!!!!!!!!!!!!!!!!>?>CC?1$BFB=7@1?CD>?>!!!!!!!!!!!!!!!!!!!!!!!!!!!!!!!!!!!!!!!!!!!>?>?>C>13*2*3'>C>?>?>!!!!!!!!!!!!!!!!!!!!!!",
"!!!!!!!!!!!!!!!!!!!>CCCDDCDCGE55555EGCDCDDCCC?!!!!!!!!!!!!!!!!!!!!!!!!!!!!!!!!!!!!!!>?C>?>C>13BB<3'>C>?>C?>!!!!!!!!!!!!!!!!!!!!!!!!!!!!!!!!!!!!!!!!!>?C>CDC+1$#2#1%+CDC>C?>!!!!!!!!!!!!!!!!!!!!!",
"!!!!!!!!!!!!!!!!!!>CCDCDDHCDE::B#B::EDCHDDCDCC>!!!!!!!!!!!!!!!!!!!!!!!!!!!!!!!!!!!!!CDD>CDC+1$1I01%+CDC>DCC!!!!!!!!!!!!!!!!!!!!!!!!!!!!!!!!!!!!!!!!!CDDCDHD,11$.1$%,DHDCDCC!!!!!!!!!!!!!!!!!!!!!",
"!!!!!!!!!!!!!!!!!!>DDDDCDDD44:EEBEE:CDDDDCDDDC>!!!!!!!!!!!!!!!!!!!!!!!!!!!!!!!!!!!!!DHDCDHD,11$J1$%,DHDCDHD!!!!!!!!!!!!!!!!!!!!!!!!!!!!!!!!!!!!!!!!!DHDHHHH+1$%.01$+HHHHDHD!!!!!!!!!!!!!!!!!!!!!",
"!!!!!!!!!!!!!!!!!?CCDHKLKM3LL3M8#B:EDDDCHDDDDDC>!!!!!!!!!!!!!!!!!!!!!!!!!!!!!!!!!!!!NHHHHHH+1$%101$+HHHHHHN!!!!!!!!!!!!!!!!!!!!!!!!!!!!!!!!!!!!!!!!!NHHNNNNNOOO*OOONNNNNHHN!!!!!!!!!!!!!!!!!!!!!",
"!!!!!!!!!!!!!!!!>CDHDJPLPQRPPRQS998#BHDDNHDDDHDC>!!!!!!!!!!!!!!!!!!!!!!!!!!!!!!!!!!!!NNNNNNNE::#::ENNNNNNN!!!!!!!!!!!!!!!!!!!!!!!!!!!!!!!!!!!!!!!!!!!NNNNHHDE::*::EDHHNNNN!!!!!!!!!!!!!!!!!!!!!!",
"!!!!!!!!!!!!!!!!??>DHDLLLT3LL3T8#BCDHDDHUUNNHDCD>!!!!!!!!!!!!!!!!!!!!!!!!!!!!!!!!!!!!!!DDDHDCE:#:ECDHDDD!!!!!!!!!!!!!!!!!!!!!!!!!!!!!!!!!!!!!!!!!!!!!!!HDDHDCE:#:ECDHDDH!!!!!!!!!!!!!!!!!!!!!!!!",
"!!!!!!!!!!!!!!!>CCC>>HNOJVR44RJR=CDHDDHNN!NHHDDDC>!!!!!!!!!!!!!!!!!!!!!!!!!!!!!!!!!!!!!DHDDHDCE#ECDHDDHD!!!!!!!!!!!!!!!!!!!!!!!!!!!!!!!!!!!!!!!!!!!!!!!DHDDHDCE#ECDHDDHD!!!!!!!!!!!!!!!!!!!!!!!!",
"!!!!!!!!!!!!!!!?CDDCC>>O&&&&IIIJRCHHHHNHD!!NHHHHD?!!!!!!!!!!!!!!!!!!!!!!!!!!!!!!!!!!!!!NNHDDHDC=CDHDDHNN!!!!!!!!!!!!!!!!!!!!!!!!!!!!!!!!!!!!!!!!!!!!!!!NNHDDHDC#CDHDDHNN!!!!!!!!!!!!!!!!!!!!!!!!",
"!!!!!!!!!!!!!!!>DDDDDCC$$$%%&UNHCHNUUNHDC!!!NNHDC?!!!!!!!!!!!!!!!!!!!!!!!!!!!!!!!!!!!!!DHNHHHHHBCHHHHNHD!!!!!!!!!!!!!!!!!!!!!!!!!!!!!!!!!!!!!!!!!!!!!!!DHNHHHHHBCHHHHNHD!!!!!!!!!!!!!!!!!!!!!!!!",
"!!!!!!!!!!!!!!!!HHDDDCD1$%1DDDDDCHDDDDCD>!!!!HDDD>!!!!!!!!!!!!!!!!!!!!!!!!!!!!!!!!!!!!!CDHNUUNHCHNUUNHDC!!!!!!!!!!!!!!!!!!!!!!!!!!!!!!!!!!!!!!!!!!!!!!!CDHNUUNHCHNUUNHDC!!!!!!!!!!!!!!!!!!!!!!!!",
"!!!!!!!!!!!!!!!!!NNHDD1$%%%&DDNCHDNDDDDC!!!!!HHDD>!!!!!!!!!!!!!!!!!!!!!!!!!!!!!!!!!!!!!>DCDDDDDCHDDDDCD>!!!!!!!!!!!!!!!!!!!!!!!!!!!!!!!!!!!!!!!!!!!!!!!>DCDDDDDCHDDDDCD>!!!!!!!!!!!!!!!!!!!!!!!!",
"!!!!!!!!!!!!!!!!!!!NNH1$$%&DDHCHHHHHDDC>!!!!!HDDD>!!!!!!!!!!!!!!!!!!!!!!!!!!!!!!!!!!!!!!CDDDDNCHDNDDDDC!!!!!!!!!!!!!!!!!!!!!!!!!!!!!!!!!!!!!!!!!!!!!!!!!CDDDDNCHDNDDDDC!!!!!!!!!!!!!!!!!!!!!!!!!",
"!!!!!!!!!!!!!!!!!!!!!NN1$$DHNCHNNNNNNHD>!!!!!HDDC!!!!!!!!!!!!!!!!!!!!!!!!!!!!!!!!!!!!!!!>CDDHCHHHHHDDC>!!!!!!!!!!!!!!!!!!!!!!!!!!!!!!!!!!!!!!!!!!!!!!!!!>CDDHCHHHHHDDC>!!!!!!!!!!!!!!!!!!!!!!!!!",
"!!!!!!!!!!!!!!!!!!!!!!!!!?CDCDNDDDNDDDC?!!!!!!$&&!!!!!!!!!!!!!!!!!!!!!!!!!!!!!!!!!!!!!!!>DHNCHNNNNNNHD>!!!!!!!!!!!!!!!!!!!!!!!!!!!!!!!!!!!!!!!!!!!!!!!!!>DHNCHNNNNNNHD>!!!!!!!!!!!!!!!!!!!!!!!!!",
"!!!!!!!!!!!!!!!!!!!!!!!!!>DDCHHHNHHHDCD>!!!!!$%%%&!!!!!!!!!!!!!!!!!!!!!!!!!!!!!!!!!!!!!!?CDCDNDDDNDDDC?!!!!!!!!!!!!!!!!!!!!!!!!!!!!!!!!!!!!!!!!!!!!!!!!!?CDCDNDDDNDDDC?!!!!!!!!!!!!!!!!!!!!!!!!!",
"!!!!!!!!!!!!!!!!!!!!!!!!>CHDCHDDDDDDDDHC>!!!!11$%&!!!!!!!!!!!!!!!!!!!!!!!!!!!!!!!!!!!!!!>DDCHHHNHHHDCD>!!!!!!!!!!!!!!!!!!!!!!!!!!!!!!!!!!!!!!!!!!!!!!!!!>DDCHHHNHHHDCD>!!!!!!!!!!!!!!!!!!!!!!!!!",
"!!!!!!!!!!!!!!!!!!!!!!!!?CDHNDHDDDDHNHDC?!!!!1!!$&!!!!!!!!!!!!!!!!!!!!!!!!!!!!!!!!!!!!!!?CDHNDHDDDHNHDC?!!!!!!!!!!!!!!!!!!!!!!!!!!!!!!!!!!!!!!!!!!!!!!!!?CDHNDHDDDHNHDC?!!!!!!!!!!!!!!!!!!!!!!!!",
"!!!!!!!!!!!!!!!!!!!!!!!!>DCDDNUUUUUNDDDD>!!!!!!!!$!!!!!!!!!!!!!!!!!!!!!!!!!!!!!!!!!!!!!!>DCDDNUUUUNDDDD>!!!!!!!!!!!!!!!!!!!!!!!!!!!!!!!!!!!!!!!!!!!!!!!!>DCDDNUUUUNDDDD>!!!!!!!!!!!!!!!!!!!!!!!!",
"!!!!!!!!!!!!!!!!!!!!!!!>CDDDDHHUNUHHDDDDC>!!!!!!1!!!!!!!!!!!!!!!!!!!!!!!!!!!!!!!!!!!!!!>CDDDDHHNNHHDDDDC>!!!!!!!!!!!!!!!!!!!!!!!!!!!!!!!!!!!!!!!!!!!!!!>CDDDDHHNNHHDDDDC>!!!!!!!!!!!!!!!!!!!!!!!",
"!!!!!!!!!!!!!!!!!!!!!!!>CDDDDHN!!!NHDDDCD>!!!!!!!!!!!!!!!!!!!!!!!!!!!!!!!!!!!!!!!!!!!!!>DCDDDHN!!NHDDDCD>!!!!!!!!!!!!!!!!!!!!!!!!!!!!!!!!!!!!!!!!!!!!!!>DCDDDHN!!NHDDDCD>!!!!!!!!!!!!!!!!!!!!!!!",
"!!!!!!!!!!!!!!!!!!!!!!!>CDDDDHN!!!NHDDDDD>!!!!!!!!!!!!!!!!!!!!!!!!!!!!!!!!!!!!!!!!!!!!!>DDDDDHN!!NHDDDDD>!!!!!!!!!!!!!!!!!!!!!!!!!!!!!!!!!!!!!!!!!!!!!!>DDDDDHN!!NHDDDDD>!!!!!!!!!!!!!!!!!!!!!!!",
"!!!!!!!!!!!!!!!!!!!!!!>CDDDHDN!!!!!NDHDDCC>!!!!!!!!!!!!!!!!!!!!!!!!!!!!!!!!!!!!!!!!!!!>CCDDHDN!!!!NDHDDCC>!!!!!!!!!!!!!!!!!!!!!!!!!!!!!!!!!!!!!!!!!!!!>CCDDHDN!!!!NDHDDCC>!!!!!!!!!!!!!!!!!!!!!!",
"!!!!!!!!!!!!!!!!!!!!!!>DDDDDHN!!!!!NHDDDCD>!!!!!!!!!!!!!!!!!!!!!!!!!!!!!!!!!!!!!!!!!!!>DCDDDHN!!!!NHDDDCD>!!!!!!!!!!!!!!!!!!!!!!!!!!!!!!!!!!!!!!!!!!!!>DCDDDHN!!!!NHDDDCD>!!!!!!!!!!!!!!!!!!!!!!",
"!!!!!!!!!!!!!!!!!!!!!!>DCCDDN!!!!!!!NDDCDD>!!!!!!!!!!!!!!!!!!!!!!!!!!!!!!!!!!!!!!!!!!!>DDCDDN!!!!!!NDDCDD>!!!!!!!!!!!!!!!!!!!!!!!!!!!!!!!!!!!!!!!!!!!!>DDCDDN!!!!!!NDDCDD>!!!!!!!!!!!!!!!!!!!!!!",
"!!!!!!!!!!!!!!!!!!!!!CDHDDDHU!!!!!!!UHDDDHDC!!!!!!!!!!!!!!!!!!!!!!!!!!!!!!!!!!!!!!!!!CDHDDDHU!!!!!!UHDDDHDC!!!!!!!!!!!!!!!!!!!!!!!!!!!!!!!!!!!!!!!!!!CDHDDDHU!!!!!!UHDDDHDC!!!!!!!!!!!!!!!!!!!!!",
"!!!!!!!!!!!!!!!!!!!!!CHHHHHNU!!!!!!!UNHHHHHC!!!!!!!!!!!!!!!!!!!!!!!!!!!!!!!!!!!!!!!!!CHHDDHNU!!!!!!UNHDDHHC!!!!!!!!!!!!!!!!!!!!!!!!!!!!!!!!!!!!!!!!!!CHHDDHNU!!!!!!UNHDDHHC!!!!!!!!!!!!!!!!!!!!!",
"!!!!!!!!!!!!!!!!!!!!!CHHHHNUU!!!!!!!UUNHHHHC!!!!!!!!!!!!!!!!!!!!!!!!!!!!!!!!!!!!!!!!!CHHDHHNU!!!!!!UNHHDHHC!!!!!!!!!!!!!!!!!!!!!!!!!!!!!!!!!!!!!!!!!!CHHDHHNU!!!!!!UNHHDHHC!!!!!!!!!!!!!!!!!!!!!",
"!!!!!!!!!!!!!!!!!!!!!CHHNNUUN!!!!!!!NUUNNHHC!!!!!!!!!!!!!!!!!!!!!!!!!!!!!!!!!!!!!!!!!CHDHHNNN!!!!!!NNNHHDHC!!!!!!!!!!!!!!!!!!!!!!!!!!!!!!!!!!!!!!!!!!CHDHHNNN!!!!!!NNNHHDHC!!!!!!!!!!!!!!!!!!!!!",
"!!!!!!!!!!!!!!!!!!!!!CHHHNUNN!!!!!!!NNUNHHHC!!!!!!!!!!!!!!!!!!!!!!!!!!!!!!!!!!!!!!!!!CHHHHNNN!!!!!!NNNHHHHC!!!!!!!!!!!!!!!!!!!!!!!!!!!!!!!!!!!!!!!!!!CHHHHNNN!!!!!!NNNHHHHC!!!!!!!!!!!!!!!!!!!!!",
"!!!!!!!!!!!!!!!!!!!!!CHHHUHN!!!!!!!!!NHUHHHC!!!!!!!!!!!!!!!!!!!!!!!!!!!!!!!!!!!!!!!!!CHHHNHN!!!!!!!!NHNHHHC!!!!!!!!!!!!!!!!!!!!!!!!!!!!!!!!!!!!!!!!!!CHHHNHN!!!!!!!!NHNHHHC!!!!!!!!!!!!!!!!!!!!!",
"!!!!!!!!!!!!!!!!!!!!!CHHNNHN!!!!!!!!!NHNNHHC!!!!!!!!!!!!!!!!!!!!!!!!!!!!!!!!!!!!!!!!!CHHHNHN!!!!!!!!NHNHHHC!!!!!!!!!!!!!!!!!!!!!!!!!!!!!!!!!!!!!!!!!!CHHHNHN!!!!!!!!NHNHHHC!!!!!!!!!!!!!!!!!!!!!",
"!!!!!!!!!!!!!!!!!!!!CDHHUHHN!!!!!!!!!NHHUHHDC!!!!!!!!!!!!!!!!!!!!!!!!!!!!!!!!!!!!!!!CDHHNHHN!!!!!!!!NHHNHHDC!!!!!!!!!!!!!!!!!!!!!!!!!!!!!!!!!!!!!!!!CDHHNHHN!!!!!!!!NHHNHHDC!!!!!!!!!!!!!!!!!!!!",
"!!!!!!!!!!!!!!!!!!!!CHHHNHN!!!!!!!!!!!NHNHHHC!!!!!!!!!!!!!!!!!!!!!!!!!!!!!!!!!!!!!!!CHHHNHN!!!!!!!!!!NHNHHHC!!!!!!!!!!!!!!!!!!!!!!!!!!!!!!!!!!!!!!!!CHHHNHN!!!!!!!!!!NHNHHHC!!!!!!!!!!!!!!!!!!!!",
"!!!!!!!!!!!!!!!!!!!!CHHNHHW!!!!!!!!!!!WHHNHHC!!!!!!!!!!!!!!!!!!!!!!!!!!!!!!!!!!!!!!!CHHNHHW!!!!!!!!!!WHHNHHC!!!!!!!!!!!!!!!!!!!!!!!!!!!!!!!!!!!!!!!!CHHNHHW!!!!!!!!!!WHHNHHC!!!!!!!!!!!!!!!!!!!!",
"!!!!!!!!!!!!!!!!!!!!!HHNXXW!!!!!!!!!!!WXXNHH!!!!!!!!!!!!!!!!!!!!!!!!!!!!!!!!!!!!!!!!!HHNXXW!!!!!!!!!!WXXNHH!!!!!!!!!!!!!!!!!!!!!!!!!!!!!!!!!!!!!!!!!!HHNXXW!!!!!!!!!!WXXNHH!!!!!!!!!!!!!!!!!!!!!",
"!!!!!!!!!!!!!!!!!!!!WXXXYW!!!!!!!!!!!!!WXXXXW!!!!!!!!!!!!!!!!!!!!!!!!!!!!!!!!!!!!!!!WXXXXW!!!!!!!!!!!!WXXXXW!!!!!!!!!!!!!!!!!!!!!!!!!!!!!!!!!!!!!!!!WXXXXW!!!!!!!!!!!!WXXXXW!!!!!!!!!!!!!!!!!!!!",
"!!!!!!!!!!!!!!!!!!!!WXYZW!!!!!!!!!!!!!!!WXYZW!!!!!!!!!!!!!!!!!!!!!!!!!!!!!!!!!!!!!!!WZYXW!!!!!!!!!!!!!!WXYZW!!!!!!!!!!!!!!!!!!!!!!!!!!!!!!!!!!!!!!!!WZYXW!!!!!!!!!!!!!!WXYZW!!!!!!!!!!!!!!!!!!!!",
"!!!!!!!!!!!!!!!!!!!!!WWW!!!!!!!!!!!!!!!!!WWW!!!!!!!!!!!!!!!!!!!!!!!!!!!!!!!!!!!!!!!!!WWW!!!!!!!!!!!!!!!!WWW!!!!!!!!!!!!!!!!!!!!!!!!!!!!!!!!!!!!!!!!!!WWW!!!!!!!!!!!!!!!!WWW!!!!!!!!!!!!!!!!!!!!!"
};