/* XPM */
static const char *boss_floor2_death_f00[] = {
/* columns rows colors chars-per-pixel */
"64 64 29 1",
"! c None",
"# c #684018",
"$ c #5C340C",
"% c #402810",
"& c #000000",
"' c #805424",
"( c #A8784C",
") c #C4A080",
"* c #D0B094",
"+ c #E4C098",
", c #A06C3C",
"- c #643000",
". c #884404",
"/ c #94602C",
"0 c #6C6C6C",
"1 c #D8D8D8",
"2 c #E8E8E8",
"3 c #A0A0A0",
"4 c #C01010",
"5 c #CCCCCC",
"6 c #FCFCFC",
"7 c #BCBCBC",
"8 c #4C4C4C",
"9 c #980088",
": c #8C8C8C",
"; c #3C3C3C",
"< c #2C2C2C",
"= c #5C5C5C",
"> c #141414",
"!!!!!!!!!!!!!!!!!!!!!!!!!!!!!!!!!!!!!!!!!!!!!!!!!!!!!!!!!!!!!!!!",
"!!!!!!!!!!!!!!!!!!!!!!!!!!!!!!!!!!!!!!!!!!!!!!!!!!!!!!!!!!!!!!!!",
"!!!!!!!!!!!!!!!!!!!!!!!!!!!!!!!!!!!!!!!!!!!!!!!!!!!!!!!!!!!!!!!!",
"!!!!!!!!!!!!!!!!!!!!!!!!!!!!!!!!!!!!!!!!!!!!!!!!!!!!!!!!!!!!!!!!",
"!!!!!!!!!!!!!!!!!!!!!!!!!!!!!!!!!!!!!!!!!!!!!!!!!!!!!!!!!!!!!!!!",
"!!!!!!!!!!!!!!!!!!!!!!!!!!!!!!!!!!!!!!!!!!!!!!!!!!!!!!!!!!!!!!!!",
"!!!!!!!!!!!!!!!!!!!!!!!!!!!!!!!!!!!!!!!!!!!!!!!!!!!!!!!!!!!!!!!!",
"!!!!!!!!!!!!!!!!!!!!!!!!!!!!!!!!!!!!!!!!!!!!!!!!!!!!!!!!!!!!!!!!",
"!!!!!!!!!!!!!!!!!!!!!!!!!!!!!!!!!!!!!!!!!!!!!!!!!!!!!!!!!!!!!!!!",
"!!!!!!!!!!!!!!!!!!!!!!!!!!!!!!!!!!!!!!!!!!!!!!!!!!!!!!!!!!!!!!!!",
"!!!!!!!!!!!!!!!!!!!!!!!!!!!!!!!!!!!!!!!!!!!!!!!!!!!!!!!!!!!!!!!!",
"!!!!!!!!!!!!!!!!!!!!!!!!!!!!!!!!!!!!!!!!!!!!!!!!!!!!!!!!!!!!!!!!",
"!!!!!!!!!!!!!!!!!!!!!!!!!!!!!!!!!!!!!!!!!!!!!!!!!!!!!!!!!!!!!!!!",
"!!!!!!!!!!!!!!!!!!!!!!!!!!!!!!!!!!!!!!!!!!!!!!!!!!!!!!!!!!!!!!!!",
"!!!!!!!!!!!!!!!!!!!!!!!!!!!!!!!!!!!!!!!!!!!!!!!!!!!!!!!!!!!!!!!!",
"!!!!!!!!!!!!!!!!!!!!!!!!!!!!!!!!!!!!!!!!!!!!!!!!!!!!!!!!!!!!!!!!",
"!!!!!!!!!!!!!!!!!!!!!!!!!!!!!!!!!!!!!!!!!!!!!!!!!!!!!!!!!!!!!!!!",
"!!!!!!!!!!!!!!!!!!!!!!!!!!!!!!#$%&&&!!!!!!!!!!!!!!!!!!!!!!!!!!!!",
"!!!!!!!!!!!!!!!!!!!!!!!!!!!!!'()**(&&!!!!!!!!!!!!!!!!!!!!!!!!!!!",
"!!!!!!!!!!!!!!!!!!!!!!!!!!!!'()*++*(&&!!!!!!!!!!!!!!!!!!!!!!!!!!",
"!!!!!!!!!!!!!!!!!!!!!!!!!!!!'(('#*+)'&!!!!!!!!!!!!!!!!!!!!!!!!!!",
"!!!!!!!!!!!!!!!!!!!!!!!!!!!!'#),()*(+&!!!!!!!!!!!!!!!!!!!!!!!!!!",
"!!!!!!!!!!!!!!!!!!!!!!!!!!!!#,'-.()*)$!!!!!!!!!!!!!!!!!!!!!!!!!!",
"!!!!!!!!!!!!!!!!!!!!!!!!!!!!!'.())*)('!!!!!!!!!!!!!!!!!!!!!!!!!!",
"!!!!!!!!!!!!!!!!!!!!!!!!!!!!!',)(()*)'!!!!!!!!!!!!!!!!!!!!!!!!!!",
"!!!!!!!!!!!!!!!!!!!!!!!!!!!!!!'//'01213!!!!!!!!!!!!!!!!!!!!!!!!!",
"!!!!!!!!!!!!!!!!!!!!!!!!!!!!!01&##1010000!!!!!!!!!!!!!!!!!!!!!!!",
"!!!!!!!!!!!!!!!!!!!!!!!!!!!!0301&0103131130!!!!!!!!!!!!!!!!!!!!!",
"!!!!!!!!!!!!!!!!!!!!!!!!!!003132&101435126130!!!!!!!!!!!!!!!!!!!",
"!!!!!!!!!!!!!!!!!!!!!!!!!0710172&1340335712610!!!!!!!!!!!!!!!!!!",
"!!!!!!!!!!!!!!!!!!!!!!!!0310311201122103351#&'0!!!!!!!!!!!!!!!!!",
"!!!!!!!!!!!!!!!!!!!!!!!!0330115111573338371&()(!!!!!!!!!!!!!!!!!",
"!!!!!!!!!!!!!!!!!!!!!!!03108332131215733880')()(!!!!!!!!!!!!!!!!",
"!!!!!!!!!!!!!!!!!!!!!!!37710311&1112621730!('))(!!!!!!!!!!!!!!!!",
"!!!!!!!!!!!!!!!!!!!!!!05113811117711712130!!!'(!!!!!!!!!!!!!!!!!",
"!!!!!!!!!!!!!!!!!!!!!03123081321117111310!!!!!!!!!!!!!!!!!!!!!!!",
"!!!!!!!!!!!!!!!!!!!!&'&#10903111111111130!!!!!!!!!!!!!!!!!!!!!!!",
"!!!!!!!!!!!!!!!!!!:&&&)&0990511&111117130!!!!!!!!!!!!!!!!!!!!!!!",
"!!!!!!!!!!!!!!!!!!&&&&&)9990112171111130!!!!!!!!!!!!!!!!!!!!!!!!",
"!!!!!!!!!!!!!!!!!&&&&&&(9903112011111118!!!!!!!!!!!!!!!!!!!!!!!!",
"!!!!!!!!!!!!!!!!!!&&&&&&&901511;51111513!!!!!!!!!!!!!!!!!!!!!!!!",
"!!!!!!!!!!!!!!!!!!!&&&&&!035110&315115110!!!!!!!!!!!!!!!!!!!!!!!",
"!!!!!!!!!!!!!!!!!!!!&&&!!01511;&3111117130!!!!!!!!!!!!!!!!!!!!!!",
"!!!!!!!!!!!!!!!!!!!!!&!!!37110&&0515111313!!!!!!!!!!!!!!!!!!!!!!",
"!!!!!!!!!!!!!!!!!!!!!!!!03513&&&&3151211330!!!!!!!!!!!!!!!!!!!!!",
"!!!!!!!!!!!!!!!!!!!!!!!!0711;&&&&3117121133!!!!!!!!!!!!!!!!!!!!!",
"!!!!!!!!!!!!!!!!!!!!!!!!3520&&&&&05213122130!!!!!!!!!!!!!!!!!!!!",
"!!!!!!!!!!!!!!!!!!!!!!!0711;&&&&<&3121331213!!!!!!!!!!!!!!!!!!!!",
"!!!!!!!!!!!!!!!!!!!!!!!0523&&&&<8<05121133110!!!!!!!!!!!!!!!!!!!",
"!!!!!!!!!!!!!!!!!!!!!!!0120&&&&8=8&0512211333!!!!!!!!!!!!!!!!!!!",
"!!!!!!!!!!!!!!!!!!!!!!!321;&&&<===<&0511261130!!!!!!!!!!!!!!!!!!",
"!!!!!!!!!!!!!!!!!!!!!!0323&&&&8=0=8&&035112613!!!!!!!!!!!!!!!!!!",
"!!!!!!!!!!!!!!!!!!!!!!0723&&&&<=00=&&&&03351110!!!!!!!!!!!!!!!!!",
"!!!!!!!!!!!!!!!!!!!!!!0720&&&&&=00=<&&&&&&03513!!!!!!!!!!!!!!!!!",
"!!!!!!!!!!!!!!!!!!!!!!071;&&&&&&!!0=&&&&&&&03350!!!!!!!!!!!!!!!!",
"!!!!!!!!!!!!!!!!!!!!!!073&&&&&<>&!!0<&&&&&&<8=03!!!!!!!!!!!!!!!!",
"!!!!!!!!!!!!!!!!!!!!!!!30&&&&><;&!!0=&&&&&&&80=0!!!!!!!!!!!!!!!!",
"!!!!!!!!!!!!!!!!!!!!!!!03!&&&<;>&!!!0<&&&&&&=00!!!!!!!!!!!!!!!!!",
"!!!!!!!!!!!!!!!!!!!!!!!!0!!!&<;;&!!!!!&&&&&&0!!!!!!!!!!!!!!!!!!!",
"!!!!!!!!!!!!!!!!!!!!!!!!!!!&<;8;&!!!!!&&&&&&!!!!!!!!!!!!!!!!!!!!",
"!!!!!!!!!!!!!!!!!!!!!!!!!!!&&&&&!!!!!!<&;8;&!!!!!!!!!!!!!!!!!!!!",
"!!!!!!!!!!!!!!!!!!!!!!!!!!!!!!!!!!!!!!&<<;;&&!!!!!!!!!!!!!!!!!!!",
"!!!!!!!!!!!!!!!!!!!!!!!!!!!!!!!!!!!!!!&<;88;&!!!!!!!!!!!!!!!!!!!",
"!!!!!!!!!!!!!!!!!!!!!!!!!!!!!!!!!!!!!!!&&&&&!!!!!!!!!!!!!!!!!!!!"
};