/* XPM */
static const char *boss_floor2_death_f02[] = {
/* columns rows colors chars-per-pixel */
"64 64 31 1",
"! c None",
"# c #CC3838",
"$ c #840404",
"% c #C01010",
"& c #A06C3C",
"' c #A8784C",
"( c #AC0C0C",
") c #5C340C",
"* c #C4A080",
"+ c #E4C098",
", c #000000",
"- c #684018",
". c #980808",
"/ c #805424",
"0 c #6C6C6C",
"1 c #A0A0A0",
"2 c #D8D8D8",
"3 c #CCCCCC",
"4 c #884404",
"5 c #980088",
"6 c #DC7C7C",
"7 c #BCBCBC",
"8 c #E8E8E8",
"9 c #4C4C4C",
": c #7C7C7C",
"; c #141414",
"< c #2C2C2C",
"= c #3C3C3C",
"> c #040404",
"? c #5C5C5C",
"@ c #8C8C8C",
"!!!!!!!!!!!!!!!!!!!!!!!!!!!!!!!!!!!!!!!!!!!!!!!!!!!!!!!!!!!!!!!!",
"!!!!!!!!!!!!!!!!!!!!!!!!!!!!!!!!!!!!!!!!!!!!!!!!!!!!!!!!!!!!!!!!",
"!!!!!!!!!!!!!!!!!!!!!!!!!!!!!!!!!!!!!!!!!!!!!!!!!!!!!!!!!!!!!!!!",
"!!!!!!!!!!!!!!!!!!!!!!!!!!!!!!!!!!!!!!!!!!!!!!!!!!!!!!!!!!!!!!!!",
"!!!!!!!!!!!!!!!!!!!!!!!!!!!!!!!!!!!!!!!!!!!!!!!!!!!!!!!!!!!!!!!!",
"!!!!!!!!!!!!!!!!!!!!!!!!!!!!!!!!!!!!!!!!!!!!!!!!!!!!!!!!!!!!!!!!",
"!!!!!!!!!!!!!!!!!!!!!!!!!!!!!!!!!!!!!!!!!!!!!!!!!!!!!!!!!!!!!!!!",
"!!!!!!!!!!!!!!!!!!!!!!!!!!!!!!!!!!!!!!!!!!!!!!!!!!!!!!!!!!!!!!!!",
"!!!!!!!!!!!!!!!!!!!!!!!!!!!!!!!!!!!!!!!!!!!!!!!!!!!!!!!!!!!!!!!!",
"!!!!!!!!!!!!!!!!!!!!!!!!!!!!!!!!!!!!!!!!!!!!!!!!!!!!!!!!!!!!!!!!",
"!!!!!!!!!!!!!!!!!!!!!!!!!!!!!!!!!!!!!!!!!!!!!!!!!!!!!!!!!!!!!!!!",
"!!!!!!!!!!!!!!!!!!!!!!!!!!!!!!!!!!!!!!!!!!!!!!!!!!!!!!!!!!!!!!!!",
"!!!!!!!!!!!!!!!!!!!!!!!!!!!!!!!!!!!!!!!!!!!!!!!!!!!!!!!!!!!!!!!!",
"!!!!!!!!!!!!!!!!!!!!!!!!!!!!!!!!!!!!!!!!!!!!!!!!!!!!!!!!!!!!!!!!",
"!!!!!!!!!!!!!!!!!!!!!!!!!!!!!!!!!!!!!!!!!!!!!!!!!!!!!!!!!!!!!!!!",
"!!!!!!!!!!!!!!!!!!!!!!!!!!!!!!!!!!!!!!!!!!!!!!!!!!!!!!!!!!!!!!!!",
"!!!!!!!!!!!!!!!!!!!!!!!!!!!!!!!!!!!!!!!!!!!!!!!!!!!!!!!!!!!!!!!!",
"!!!!!!!!!!!!!!!!!!!!!!!!!!!!!!!!!!!!!!!!!!!!!!!!!!!!!!!!!!!!!!!!",
"!!!!!!!!!!!!!!!!!!!!!!!!!!!!!!!!!!!!!!!!!!!!!!!!!!!!!!!!!!!!!!!!",
"!!!!!!!!!!!!!!!!!!!!!!!!!!!!!!!!!!!!!!!!!!!!!!!!!!!!!!!!!!!!!!!!",
"!!!!!!!!!!!!!!!!!!!!!!!!!!!!!!!!!!!!!!!!!!!!!!!!!!!!!!!!!!!!!!!!",
"!!!!!!!!!!!!!!!!!!!!!!!!!!!!!!!!!!!!!!#!!!!!!!!!!!!!!!!!!!!!!!!!",
"!!!!!!!!!!!!!!!!!!!!!!!!!!!!!!!!!!!!!$!!!%!!!!!!!!!!!!!!!!!!!!!!",
"!!!!!!!!!!!!!!!!!!!!!!!!!!!!!!!&'#&!!!(!!!!!!!!!!!!!!!!!!!!!!!!!",
"!!!!!!!!!!!!!!!!!!!!!!!!!!!!!!)*+(%$(!$%$!!!!!!!!!!!!!!!!!!!!!!!",
"!!!!!!!!!!!!!!!!!!!!!!!!!!!!!,*&-&'%&#!.!%!!!!!!!!!!!!!!!!!!!!!!",
"!!!!!!!!!!!!!!!!!!!!!!!!!!!!!/*+*(/(&(!!!!!!!!!!!!!!!!!!!!!!!!!!",
"!!!!!!!!!!!!!!!!!!!!!!!!!01110'*#($#/$!#!(!!!!!!!!!!!!!!!!!!!!!!",
"!!!!!!!!!!!!!!!!!!!!!!0012322(11*4($(5$!!!!!!!!!!!!!!!!!!!!!!!!!",
"!!!!!!!!!!!!!!!!!!!!0121212212(#(#/1((!!!!!!!!!!!!!!!!!!!!!!!!!!",
"!!!!!!!!!!!!!!!!!!!01322021022$6(($((#!!!!!!!!!!!!!!!!!!!!!!!!!!",
"!!!!!!!!!!!!!!!!!!0122210000013(6,(#$210!!!!!!!!!!!!!!!!!!!!!!!!",
"!!!!!!!!!!!!!!!!!!/,-3005$011223((1((2220!!!!!!!!!!!!!!!!!!!!!!!",
"!!!!!!!!!!!!!!!!!/**,0555$,,,,,22$(#6127110!!!!!!!!!!!!!!!!!!!!!",
"!!!!!!!!!!!!!!!!/**'/55(5,,,,,,,0#2621112820!!!!!!!!!!!!!!!!!!!!",
"!!!!!!!!!!!!!!!!/'*/'55#9,,,,,,,,,12100121820!!!!!!!!!!!!!!!!!!!",
"!!!!!!!!!!!!!!!!!//!!$.:,,,,,,,,;,0210!0012820!!!!!!!!!!!!!!!!!!",
"!!!!!!!!!!!!!!!!!!!!!.2<,,,,,,,,<,,120!!!002-,/!!!!!!!!!!!!!!!!!",
"!!!!!!!!!!!!!!!!!!!!!20,,,,,,,,;<<;,21!!!!!0,*'/!!!!!!!!!!!!!!!!",
"!!!!!!!!!!!!!!!!!!!!1=,,,,,,,,,<;<<,,20!!!!!''*'!!!!!!!!!!!!!!!!",
"!!!!!!!!!!!!!!!!!!!:9>>,,,,,,,,,<;<;,,2!!!!!!/'!!!!!!!!!!!!!!!!!",
"!!!!!!!!!!!!!!!!!!!0;;;,,,,,,,,,;,;<<,,2!!!!!!!!!!!!!!!!!!!!!!!!",
"!!!!!!!!!!!!!!!!!!0?<<<,,,,,,,,,,,,;<<,02!!!!!!!!!!!!!!!!!!!!!!!",
"!!!!!!!!!!!!!!!!!!0=====,,,,,,,,,,,<<<,;02!!!!!!!!!!!!!!!!!!!!!!",
"!!!!!!!!!!!!!!!!!!09999,<,,,,=,,,,,;<;,<<1!!!!!!!!!!!!!!!!!!!!!!",
"!!!!!!!!!!!!!!!!!!0????,<=,,,9,,,,,<<<,==02!!!!!!!!!!!!!!!!!!!!!",
"!!!!!!!!!!!!!!!!!!!0000,<<<<,?,,,;,;<<,9991!!!!!!!!!!!!!!!!!!!!!",
"!!!!!!!!!!!!!!!!!!!0:::,<=<,00,,,,;<<;,??902!!!!!!!!!!!!!!!!!!!!",
"!!!!!!!!!!!!!!!!!!!!@@@@,,,::=,,,,,;;,=00092!!!!!!!!!!!!!!!!!!!!",
"!!!!!!!!!!!!!!!!!!!!!1111!!@@,,,,,,,,,::::?1!!!!!!!!!!!!!!!!!!!!",
"!!!!!!!!!!!!!!!!!!!!!!77!!!1=,,,,,,,,=@@@@0!!!!!!!!!!!!!!!!!!!!!",
"!!!!!!!!!!!!!!!!!!!!!!!!!!!7,,,,,,;,=111110!!!!!!!!!!!!!!!!!!!!!",
"!!!!!!!!!!!!!!!!!!!!!!!!!!!!,<,,,<,=777770!!!!!!!!!!!!!!!!!!!!!!",
"!!!!!!!!!!!!!!!!!!!!!!!!!!!,<,;<<,=333333!!!!!!!!!!!!!!!!!!!!!!!",
"!!!!!!!!!!!!!!!!!!!!!!!!!!!,<,,,,=22222!!!!!!!!!!!!!!!!!!!!!!!!!",
"!!!!!!!!!!!!!!!!!!!!!!!!!!!,<=,,,!!!!!!!!!!!!!!!!!!!!!!!!!!!!!!!",
"!!!!!!!!!!!!!!!!!!!!!!!!!!!,<==,!!!!!!!!!!!!!!!!!!!!!!!!!!!!!!!!",
"!!!!!!!!!!!!!!!!!!!!!!!!!!!,<<<,!!!!!!!!!!!!!!!!!!!!!!!!!!!!!!!!",
"!!!!!!!!!!!!!!!!!!!!!!!!!!!,<=<,!!!!!!!!!!!!!!!!!!!!!!!!!!!!!!!!",
"!!!!!!!!!!!!!!!!!!!!!!!!!!!!,,,!!!!!!!!!!!!!!!!!!!!!!!!!!!!!!!!!",
"!!!!!!!!!!!!!!!!!!!!!!!!!!!!!!!!!!!!!!!!!!!!!!!!!!!!!!!!!!!!!!!!",
"!!!!!!!!!!!!!!!!!!!!!!!!!!!!!!!!!!!!!!!!!!!!!!!!!!!!!!!!!!!!!!!!",
"!!!!!!!!!!!!!!!!!!!!!!!!!!!!!!!!!!!!!!!!!!!!!!!!!!!!!!!!!!!!!!!!",
"!!!!!!!!!!!!!!!!!!!!!!!!!!!!!!!!!!!!!!!!!!!!!!!!!!!!!!!!!!!!!!!!"
};