/* XPM */
static const char *enemy_floor3_blue_guard_firing_sheet[] = {
/* columns rows colors chars-per-pixel */
"192 64 70 1",
"! c None",
"# c #000000",
"$ c #5C340C",
"% c #C01010",
"& c #805424",
"' c #A06C3C",
"( c #A8784C",
") c #B08458",
"* c #C06410",
"+ c #60401C",
", c #94602C",
"- c #402810",
". c #CC8038",
"/ c #C4A080",
"0 c #684018",
"1 c #C4C824",
"2 c #BC906C",
"3 c #643000",
"4 c #FCFCFC",
"5 c #3C6CA0",
"6 c #7CA400",
"7 c #C42424",
"8 c #D05050",
"9 c #DC7C7C",
": c #B0D040",
"; c #6C90BC",
"< c #5884B0",
"= c #4C78A8",
"> c #2C5480",
"? c #840404",
"@ c #980808",
"A c #704820",
"B c #346090",
"C c #244870",
"D c #980088",
"E c #700404",
"F c #80A0C4",
"G c #142840",
"H c #343434",
"I c #747474",
"J c #2C2C2C",
"K c #5C0000",
"L c #3C3C3C",
"M c #5C5C5C",
"N c #545454",
"O c #008C8C",
"P c #183450",
"Q c #0C1C30",
"R c #4C4C4C",
"S c #444444",
"T c #204060",
"U c #10C0C0",
"V c #500024",
"W c #3C001C",
"X c #AC0C58",
"Y c #98084C",
"Z c #5CD8D8",
"[ c #640030",
"] c #880444",
"^ c #98E4E4",
"_ c #005C5C",
"` c #00BCBC",
"a c #007474",
"b c #004444",
"c c #7C7C7C",
"d c #28C8C8",
"e c #848484",
"f c #CC3838",
"g c #00002C",
"h c #141414",
"!!!!!!!!!!!!!!!!!!!!!!!!!!!!!!!!!!!!!!!!!!!!!!!!!!!!!!!!!!!!!!!!!!!!!!!!!!!!!!!!!!!!!!!!!!!!!!!!!!!!!!!!!!!!!!!!!!!!!!!!!!!!!!!!!!!!!!!!!!!!!!!!!!!!!!!!!!!!!!!!!!!!!!!!!!!!!!!!!!!!!!!!!!!!!!!!",
"!!!!!!!!!!!!!!!!!!!!!!!!!!!!!!!!!!!!!!!!!!!!!!!!!!!!!!!!!!!!!!!!!!!!!!!!!!!!!!!!!!!!!!!!!!!!!!!!!!!!!!!!!!!!!!!!!!!!!!!!!!!!!!!!!!!!!!!!!!!!!!!!!!!!!!!!!!!!!!!!!!!!!!!!!!!!!!!!!!!!!!!!!!!!!!!!",
"!!!!!!!!!!!!!!!!!!!!!!!!!!!!!!!!!!!!!!!!!!!!!!!!!!!!!!!!!!!!!!!!!!!!!!!!!!!!!!!!!!!!!!!!!!!!!!!!!!!!!!!!!!!!!!!!!!!!!!!!!!!!!!!!!!!!!!!!!!!!!!!!!!!!!!!!!!!!!!!!!!!!!!!!!!!!!!!!!!!!!!!!!!!!!!!!",
"!!!!!!!!!!!!!!!!!!!!!!!!!!!!!!!!!!!!!!!!!!!!!!!!!!!!!!!!!!!!!!!!!!!!!!!!!!!!!!!!!!!!!!!!!!!!!!!!!!!!!!!!!!!!!!!!!!!!!!!!!!!!!!!!!!!!!!!!!!!!!!!!!!!!!!!!!!!!!!!!!!!!!!!!!!!!!!!!!!!!!!!!!!!!!!!!",
"!!!!!!!!!!!!!!!!!!!!!!!!!!!!!!!!!!!!!!!!!!!!!!!!!!!!!!!!!!!!!!!!!!!!!!!!!!!!!!!!!!!!!!!!!!!!!!!!!!!!!!!!!!!!!!!!!!!!!!!!!!!!!!!!!!!!!!!!!!!!!!!!!!!!!!!!!!!!!!!!!!!!!!!!!!!!!!!!!!!!!!!!!!!!!!!!",
"!!!!!!!!!!!!!!!!!!!!!!!!!!!!!!!!!!!!!!!!!!!!!!!!!!!!!!!!!!!!!!!!!!!!!!!!!!!!!!!!!!!!!!!!!!!!!!!!!!!!!!!!!!!!!!!!!!!!!!!!!!!!!!!!!!!!!!!!!!!!!!!!!!!!!!!!!!!!!!!!!!!!!!!!!!!!!!!!!!!!!!!!!!!!!!!!",
"!!!!!!!!!!!!!!!!!!!!!!!!!!!!!!!!!!!!!!!!!!!!!!!!!!!!!!!!!!!!!!!!!!!!!!!!!!!!!!!!!!!!!!!!!!!!!!!!!!!!!!!!!!!!!!!!!!!!!!!!!!!!!!!!!!!!!!!!!!!!!!!!!!!!!!!!!!!!!!!!!!!!!!!!!!!!!!!!!!!!!!!!!!!!!!!!",
"!!!!!!!!!!!!!!!!!!!!!!!!!!!!!!!!!!!!!!!!!!!!!!!!!!!!!!!!!!!!!!!!!!!!!!!!!!!!!!!!!!!!!!!!!!!!!!!!!!!!!!!!!!!!!!!!!!!!!!!!!!!!!!!!!!!!!!!!!!!!!!!!!!!!!!!!!!!!!!!!!!!!!!!!!!!!!!!!!!!!!!!!!!!!!!!!",
"!!!!!!!!!!!!!!!!!!!!!!!!!!!!!!!!!!!!!!!!!!!!!!!!!!!!!!!!!!!!!!!!!!!!!!!!!!!!!!!!!!!!!!!!!!!!!!!!!!!!!!!!!!!!!!!!!!!!!!!!!!!!!!!!!!!!!!!!!!!!!!!!!!!!!!!!!!!!!!!!!!!!!!!!!!!!!!!!!!!!!!!!!!!!!!!!",
"!!!!!!!!!!!!!!!!!!!!!!!!!!!!!!!!!!!!!!!!!!!!!!!!!!!!!!!!!!!!!!!!!!!!!!!!!!!!!!!!!!!!!!!!!!!!!!!!!!!!!!!!!!!!!!!!!!!!!!!!!!!!!!!!!!!!!!!!!!!!!!!!!!!!!!!!!!!!!!!!!!!!!!!!!!!!!!!!!!!!!!!!!!!!!!!!",
"!!!!!!!!!!!!!!!!!!!!!!!!!!!!!!!!!!!!!!!!!!!!!!!!!!!!!!!!!!!!!!!!!!!!!!!!!!!!!!!!!!!!!!!!!!!!!!!!!!!!!!!!!!!!!!!!!!!!!!!!!!!!!!!!!!!!!!!!!!!!!!!!!!!!!!!!!!!!!!!!!!!!!!!!!!!!!!!!!!!!!!!!!!!!!!!!",
"!!!!!!!!!!!!!!!!!!!!!!!!!!!!!!!!!!!!!!!!!!!!!!!!!!!!!!!!!!!!!!!!!!!!!!!!!!!!!!!!!!!!!!!!!!!!!!!!!!!!!!!!!!!!!!!!!!!!!!!!!!!!!!!!!!!!!!!!!!!!!!!!!!!!!!!!!!!!!!!!!!!!!!!!!!!!!!!!!!!!!!!!!!!!!!!!",
"!!!!!!!!!!!!!!!!!!!!!!!!!!!!!!!!!#!!!!!!!!!!!!!!!!!!!!!!!!!!!!!!!!!!!!!!!!!!!!!!!!!!!!!!!!!!!!!!!!!!!!!!!!!!!!!!!!!!!!!!!!!!!!!!!!!!!!!!!!!!!!!!!!!!!!!!!!!!!!!!!!!!!!!!!!!!!!!!!!!!!!!!!!!!!!!!",
"!!!!!!!!!!!!!!!!!!!!!!!!!!!!!!!##$##$#!!!!!!!!!!!!!!!!!!!!!!!!!!!!!!!!!!!!!!!!!!!!!!!!!!!!!!!!!!!!!!!!!!!!!!!!!!!!!!!!!!!!!!!!!!!!!!!!!!!!!!!!!!!!!!!!!!!!!!!!!%!!!!!!!!!!!!!!!!!!!!!!!!!!!!!!!!",
"!!!!!!!!!!!!!!!!!!!!!!!!!!!!!!##$##$####!!!!!!!!!!!!!!!!!!!!!!!!!!!!!!!!!!!!!!!!!!!!!!!!!!!!!!!!!!!!!!!!!!!!!!!!!!!!!!!!!!!!!!!!!!!!!!!!!!!!!!!!!!!!!!!!!!!!!!!!!!!!!!!!!!!!!!!!!!!!!!!!!!!!!!!!",
"!!!!!!!!!!!!!!!!!!!!!!!!!!!!!##&''##'##$#!!!!!!!!!!!!!!!!!!!!!!!!!!!!!!!!!!!!!!!!!!!!!!!!!!!!!!!!!!!!!!!!!!!!!!!!!!!!!!!!!!!!!!!!!!!!!!!!!!!!!!!!!!!!!!!!!!!!!!%!!!!!!!!!!!!!!!!!!!!!!!!!!!!!!!!",
"!!!!!!!!!!!!!!!!!!!!!!!!!!!!!#&'()#)('&#!!!!!!!!!!!!!!!!!!!!!!!!!!!!!!!!!!!!!!!!!!!!!!!!!!!!!!!#!!!!!!!!!!!!!!!!!!!!!!!!!!!!!!!!!!!!!!!!!!!!!!!!!!!!!!!!!!!!!!!*!!!!!!!!!!!!!!!!!!!!!!!!!!!!!!!!",
"!!!!!!!!!!!!!!!!!!!!!!!!!!!!##'$#$)$#$'$#!!!!!!!!!!!!!!!!!!!!!!!!!!!!!!!!!!!!!!!!!!!!!!!!!!!!##$##$#!!!!!!!!!!!!!!!!!!!!!!!!!!!!!!!!!!!!!!!!!!!!!!!!!!!!!!!!!##*##+#!!!!!!!!!!!!!!!!!!!!!!!!!!!!",
"!!!!!!!!!!!!!!!!!!!!!!!!!!!!#$,&-&'&-&,#$!!!!!!!!!!!!!!!!!!!!!!!!!!!!!!!!!!!!!!!!!!!!!!!!!!!##$##$####!!!!!!!!!!!!!!!!!!!!!!!!!!!!!!!!!!!!!!!!!!!!!!!!!!!!!!##+.#+####!!!!!!!!!!!!!!!!!!!!!!!!!!",
"!!!!!!!!!!!!!!!!!!!!!!!!!!!!'#(/)'/')/(#'!!!!!!!!!!!!!!!!!!!!!!!!!!!!!!!!!!!!!!!!!!!!!!!!!!##&''##'##$#!!!!!!!!!!!!!!!!!!!!!!!!!!!!!!!!!!!!!!!!!!!!!!!!!!!!##,(.##(##+#!!!!!!!!!!!!!!!!!!!!!!!!!",
"!!!!!!!!!!!!!!!!!!!!!!!!!!!!0$')$#&#$)'$0!!!!!!!!!!!!!!!!!!!!!!!!!!!!!!!!!!!!!!!!!!!!!!!!!!#&'()#)('&#!!!!!!!!!!!!!!!!!!!!!!!!!!!!!!!!!!!!!!!!!!!!!!!!!!!!!#,(%1%2)(,#!!!!!!!!!!!!!!!!!!!!!!!!!!",
"!!!!!!!!!!!!!!!!!!!!!!!!!!!!!0&(&333&(&0!!!!!!!!!!!!!!!!!!!!!!!!!!!!!!!!!!!!!!!!!!!!!!!!!!##'$#$)))('$#!!!!!!!!!!!!!!!!!!!!!!!!!!!!!!!!!!!!!!!!!!!!!!!!!!!##(+*1*22)(+#!!!!!!!!!!!!!!!!!!!!!!!!!",
"!!!!!!!!!!!!!!!!!!!!!!!!!!!!!!0&'()('&0!!!!!!!!!!!!!!!!!!!!!!!!!!!!!!!!!!!!!!!!!!!!!!!!!!!#$,&-&'$-$,#$!!!!!!!!!!!!!!!!!!!!!!!!!!!!!!!!!!!!!!!!!!!!!!!!!!!#+%.141.%+,#+!!!!!!!!!!!!!!!!!!!!!!!!!",
"!!!!!!!!!!!!!!!!!!!!!!!!!!!!!!5$0&,&0$5!!!!!!!!!!!!!!!!!!!!!!!!!!!!!!!!!!!!!!!!!!!!!!!!!!!'#(/6789:/(#'!!!!!!!!!!!!!!!!!!!!!!!!!!!!!!!!!!!!!!!!!!!!!!!!%!%*..14441..*%'%!!!!!!!!!!!!!!!!!!!!!!!!",
"!!!!!!!!!!!!!!!!!!!!!!!!;;;<!5=>&,',&>=5!!5<;!!!!!!!!!!!!!!!!!!!!!!!!!!!!!!!!!!!!!!!!!!!!!0$')?@789)'$0!!!!!!!!!!!!!!!!!!!!!!!!!!!!!!!!!!!!!!!!!!!!!!!!!!!A+%.141.%2)+A!!!!!!!!!!!!!!!!!!!!!!!!!",
"!!!!!!!!!!!!!!!!!!!!!;;<<==5>BB=======5=BC5=<;;!!!!!!!!!!!!!!!!!!!!!!!!!!!!!!!!!!!!!!!!;<5D0&(EE978(&0D5<;!!!!!!!!!!!!!!!!!!!!!!!!!!!!!!!!!!!!!!!!!!!!!F<5GA&H*1*IH),AG5<F!!!!!!!!!!!!!!!!!!!!!!",
"!!!!!!!!!!!!!!!!!!!!<<==555B>>BBBBBBB5=BBGB5==<;!!!!!!!!!!!!!!!!!!!!!!!!!!!!!!!!!!!!!;;<=5C50JEKE@7&05C5=<;;!!!!!!!!!!!!!!!!!!!!!!!!!!!!!!!!!!!!!!!!!FF<=5CGHI%1%HIJ#GC5=<FF!!!!!!!!!!!!!!!!!!!!",
"!!!!!!!!!!!!!!!!!!!!>5555B>>BB5=======B>BG>B5===<!!!!!!!!!!!!!!!!!!!!!!!!!!!!!!!!!!!;<==5CGJJLLEE?LJJ=GC5==<;!!!!!!!!!!!!!!!!!!!!!!!!!!!!!!!!!!!!!!!F<==<<JMIMN.ONHIJJB<<==<F!!!!!!!!!!!!!!!!!!!",
"!!!!!!!!!!!!!!!!!!!!!GPGQGPCBCBBBBBBB>>BBCGCBBB>C!!!!!!!!!!!!!!!!!!!!!!!!!!!!!!!!!!;==<<<<JLRLROOJ#RLJ<<<<===;!!!!!!!!!!!!!!!!!!!!!!!!!!!!!!!!!!!!!F==<<=JMIMSS.SJMIMRJ5=<<<=F!!!!!!!!!!!!!!!!!!",
"!!!!!!!!!!!!!!!!!!!GPCCCQCCBBGBC'C>C'CCB111PGGPC!!!!!!!!!!!!!!!!!!!!!!!!!!!!!!!!!!!!<<=5BJRLLJLLJ#LRLLJB5=<<<!!!!!!!!!!!!!!!!!!!!!!!!!!!!!!!!!!!!!!!<<=B5RIMLJJ*JJJMIMJB5B5=<!!!!!!!!!!!!!!!!!!!",
"!!!!!!!!!!!!!!!!!!GC>55CQ>B5BGB>>B555BBP111GC>>CG!!!!!!!!!!!!!!!!!!!!!!!!!!!!!!!!!!=5B5BBJRLLJJ##JJLLRJBB5BB5=!!!!!!!!!!!!!!!!!!!!!!!!!!!!!!!!!!!!!=5B5BBJJLJJ#*##JJMLJ>BBB5B=!!!!!!!!!!!!!!!!!!",
"!!!!!!!!!!!!!!!!!G>B>BB>G>BBCGB>BBBBBBBPPPBG>BB>G!!!!!!!!!!!!!!!!!!!!!!!!!!!!!!!!!!>5BB>BJLJJ##G##JJLLJB>BBBB>!!!!!!!!!!!!!!!!!!!!!!!!!!!!!!!!!!!!!CBBB>B#JJ##T%CT####BBB>BBBC!!!!!!!!!!!!!!!!!!",
"!!!!!!!!!!!!!!!!GBB>CGCPG>BBCGBC'CBC'CCBBBB>GPCCG!!!!!!!!!!!!!!!!!!!!!!!!!!!!!!!!!!G>BBB>CJ##GPCPG###JC>BB>B>G!!!!!!!!!!!!!!!!!!!!!!!!!!!!!!!!!!!!!G>BBB>C##TC>>>>>CTGGC>BBB>G!!!!!!!!!!!!!!!!!!",
"!!!!!!!!!!!!!!!!G>B5B>GGGCBBCGB>BBB55BBBB5B>G>B>G!!!!!!!!!!!!!!!!!!!!!!!!!!!!!!!!!!!G>>CGGPGC>BBBBBBCPGGC>B>G!!!!!!!!!!!!!!!!!!!!!!!!!!!!!!!!!!!!!!!GC>CGGCGC>B%BBBBB>CGGC>CG!!!!!!!!!!!!!!!!!!!",
"!!!!!!!!!!!!!!!!!G>B5#UVWP>BCGCBBBBBBBBB5BBCPB5BG!!!!!!!!!!!!!!!!!!!!!!!!!!!!!!!!!!!!GGGCBCGBC'CBC'CCBBBGGGG!!!!!!!!!!!!!!!!!!!!!!!!!!!!!!!!!!!!!!!!!GGGC>CGBC'CBC'CCBBB>GGG!!!!!!!!!!!!!!!!!!!!",
"!!!!!!!!!!!!!!!!!GC>#JWVXYZ>CCGC'CBC'CCBBB>PGC>>G!!!!!!!!!!!!!!!!!!!!!!!!!!!!!!!!!!!!!GCBBCGB>BBB55BBB55BCG!!!!!!!!!!!!!!!!!!!!!!!!!!!!!!!!!!!!!!!!!!!GCBBCGB>BBB55BBB55BCG!!!!!!!!!!!!!!!!!!!!!",
"!!!!!!!!!!!!!!!!!!G#JLJ[]^:6CCGC>BBBBB>BB>CG#JJJG!!!!!!!!!!!!!!!!!!!!!!!!!!!!!!!!!!!!!GP>BCGCBBBBBBBB55B>PG!!!!!!!!!!!!!!!!!!!!!!!!!!!!!!!!!!!!!!!!!!!GT>BCGCBBBBBBBB55B>TG!!!!!!!!!!!!!!!!!!!!!",
"!!!!!!!!!!!!!!!!!!!#JJ__`VVP:CCGCCCCCCC>CCG#JLRL#!!!!!!!!!!!!!!!!!!!!!!!!!!!!!!!!!!!!!GPC>CCGC'CBC'CCBB>CPG!!!!!!!!!!!!!!!!!!!!!!!!!!!!!!!!!!!!!!!!!!!GTC>CCGC'CBC'CCBB>CTG!!!!!!!!!!!!!!!!!!!!!",
"!!!!!!!!!!!!!!!!!!!!#J_aO6YX:ZGGQGGGGGGCG##JL#LL#!!!!!!!!!!!!!!!!!!!!!!!!!!!!!!!!!!!!!!GPCCCGC>BBBBB>>CCPG!!!!!!!!!!!!!!!!!!!!!!!!!!!!!!!!!!!!!!!!!!!!!GTCCCGC>BBBBB>>CCTG!!!!!!!!!!!!!!!!!!!!!!",
"!!!!!!!!!!!!!!!!!!!!#JR_aO6b^###c###c####G###LLR#!!!!!!!!!!!!!!!!!!!!!!!!!!!!!!!!!!!!!!GGPPCCGCCCCCCCCPPGG!!!!!!!!!!!!!!!!!!!!!!!!!!!!!!!!!!!!!!!!!!!!!GGTTCCGCCCCCCCCTTGG!!!!!!!!!!!!!!!!!!!!!!",
"!!!!!!!!!!!!!!!!!!!!#JJL_abda9##M###M###GCCG#JJL#!!!!!!!!!!!!!!!!!!!!!!!!!!!!!!!!!!!!!!!G#QQGGGPPPPGGQQ#G!!!!!!!!!!!!!!!!!!!!!!!!!!!!!!!!!!!!!!!!!!!!!!!G#QQGGGTTTTGGQQ#G!!!!!!!!!!!!!!!!!!!!!!!",
"!!!!!!!!!!!!!!!!!!!!!###O_b#9985B>G>B55B>CGG!###!!!!!!!!!!!!!!!!!!!!!!!!!!!!!!!!!!!!!!!!CC####c###c####CC!!!!!!!!!!!!!!!!!!!!!!!!!!!!!!!!!!!!!!!!!!!!!!!CC####e###e####CC!!!!!!!!!!!!!!!!!!!!!!!",
"!!!!!!!!!!!!!!!!!!!!!!!!!P_bG88@>GPG>B>CGGCG!!!!!!!!!!!!!!!!!!!!!!!!!!!!!!!!!!!!!!!!!!!!>B>C##M###M##C>B>!!!!!!!!!!!!!!!!!!!!!!!!!!!!!!!!!!!!!!!!!!!!!!!>B>C##M###M##C>B>!!!!!!!!!!!!!!!!!!!!!!!",
"!!!!!!!!!!!!!!!!!!!!!!!!!P>bBG@fPCCCGGGG>B>G!!!!!!!!!!!!!!!!!!!!!!!!!!!!!!!!!!!!!!!!!!!!G>B555B>G>B555B>G!!!!!!!!!!!!!!!!!!!!!!!!!!!!!!!!!!!!!!!!!!!!!!!G>B555B>G>B555B>G!!!!!!!!!!!!!!!!!!!!!!!",
"!!!!!!!!!!!!!!!!!!!!!!!!!PB55>CPGGGCC>B55BBG!!!!!!!!!!!!!!!!!!!!!!!!!!!!!!!!!!!!!!!!!!!!GGG>BB>GPG>BB>GGG!!!!!!!!!!!!!!!!!!!!!!!!!!!!!!!!!!!!!!!!!!!!!!!GGG>BB>GTG>BB>GGG!!!!!!!!!!!!!!!!!!!!!!!",
"!!!!!!!!!!!!!!!!!!!!!!!!!CB5BBB>CGGC>BB>>BBG!!!!!!!!!!!!!!!!!!!!!!!!!!!!!!!!!!!!!!!!!!!!GPCGGGGPCPGGGG>CG!!!!!!!!!!!!!!!!!!!!!!!!!!!!!!!!!!!!!!!!!!!!!!!GTCGGGGTCTGGGG>CG!!!!!!!!!!!!!!!!!!!!!!!",
"!!!!!!!!!!!!!!!!!!!!!!!!!C>BBBBB>G!G>BBBBB>G!!!!!!!!!!!!!!!!!!!!!!!!!!!!!!!!!!!!!!!!!!!GPC>>CCP>>>C>B5BBCG!!!!!!!!!!!!!!!!!!!!!!!!!!!!!!!!!!!!!!!!!!!!!GTC>>CCT>>>C>B5BBCG!!!!!!!!!!!!!!!!!!!!!!",
"!!!!!!!!!!!!!!!!!!!!!!!!!PCB>BBBBG!G>BB555BCG!!!!!!!!!!!!!!!!!!!!!!!!!!!!!!!!!!!!!!!!!!GC>>>>>CPGP>BBBB>>G!!!!!!!!!!!!!!!!!!!!!!!!!!!!!!!!!!!!!!!!!!!!!GC>>>>>CTGT>BBBB>>G!!!!!!!!!!!!!!!!!!!!!!",
"!!!!!!!!!!!!!!!!!!!!!!!!!G>BB>B>G!!GCB5BBBB>G!!!!!!!!!!!!!!!!!!!!!!!!!!!!!!!!!!!!!!!!!!G>BBBB>>G!G>B>B55BCG!!!!!!!!!!!!!!!!!!!!!!!!!!!!!!!!!!!!!!!!!!!!G>BBBB>>G!G>B>B55BCG!!!!!!!!!!!!!!!!!!!!!",
"!!!!!!!!!!!!!!!!!!!!!!!!!GCB5B>>G!!GC>BBB>>BG!!!!!!!!!!!!!!!!!!!!!!!!!!!!!!!!!!!!!!!!!GPB>BBBB>G!GC>BBBBB>G!!!!!!!!!!!!!!!!!!!!!!!!!!!!!!!!!!!!!!!!!!!GTB>BBBB>G!GC>BBBBB>G!!!!!!!!!!!!!!!!!!!!!",
"!!!!!!!!!!!!!!!!!!!!!!!!C>C>B5BCG!!!GC>B55B>G!!!!!!!!!!!!!!!!!!!!!!!!!!!!!!!!!!!!!!!!!GCBBBB>>CG!!G>BBB55BCG!!!!!!!!!!!!!!!!!!!!!!!!!!!!!!!!!!!!!!!!!!GCBBBB>>CG!!G>BBB55BCG!!!!!!!!!!!!!!!!!!!!",
"!!!!!!!!!!!!!!!!!!!!!!!!CBB>CC>BG!!!G>BBBB5BG!!!!!!!!!!!!!!!!!!!!!!!!!!!!!!!!!!!!!!!!!G>BBBBB>G!!!GC>5BBB>>G!!!!!!!!!!!!!!!!!!!!!!!!!!!!!!!!!!!!!!!!!!G>BBBBB>G!!!GC>5BBB>>G!!!!!!!!!!!!!!!!!!!!",
"!!!!!!!!!!!!!!!!!!!!!!!!CBB>BBB>G!!!GCBB>>B>G!!!!!!!!!!!!!!!!!!!!!!!!!!!!!!!!!!!!!!!!!GC>BBB>CG!!!!G>B>>5B>G!!!!!!!!!!!!!!!!!!!!!!!!!!!!!!!!!!!!!!!!!!GC>BBB>CG!!!!G>B>>5B>G!!!!!!!!!!!!!!!!!!!!",
"!!!!!!!!!!!!!!!!!!!!!!!!P>BBBB>CG!!!GC>BBB>CG!!!!!!!!!!!!!!!!!!!!!!!!!!!!!!!!!!!!!!!!!GPCC>CPG!!!!!GC>BBBBCG!!!!!!!!!!!!!!!!!!!!!!!!!!!!!!!!!!!!!!!!!!GTCC>CTG!!!!!GC>BBBBCG!!!!!!!!!!!!!!!!!!!!",
"!!!!!!!!!!!!!!!!!!!!!!!!GC>BCPGG!!!!!GCC>>CCG!!!!!!!!!!!!!!!!!!!!!!!!!!!!!!!!!!!!!!!!!!GGGGGGG!!!!!!GPC>>CPG!!!!!!!!!!!!!!!!!!!!!!!!!!!!!!!!!!!!!!!!!!!GGGGGGG!!!!!!GTC>>CTG!!!!!!!!!!!!!!!!!!!!",
"!!!!!!!!!!!!!!!!!!!!!!!!!GGPRLJ#!!!!!#GGGGGG!!!!!!!!!!!!!!!!!!!!!!!!!!!!!!!!!!!!!!!!!!!#JJJJ#!!!!!!!#GGGGG#!!!!!!!!!!!!!!!!!!!!!!!!!!!!!!!!!!!!!!!!!!!!#JJJJ#!!!!!!!#GGGGG#!!!!!!!!!!!!!!!!!!!!!",
"!!!!!!!!!!!!!!!!!!!!!!!!!!#LLLLJ#!!!!#JJJJJ#!!!!!!!!!!!!!!!!!!!!!!!!!!!!!!!!!!!!!!!!!!!!#JJJJ#!!!!!!!#JJJJ#!!!!!!!!!!!!!!!!!!!!!!!!!!!!!!!!!!!!!!!!!!!!!#JJJJ#!!!!!!!#JJJJ#!!!!!!!!!!!!!!!!!!!!!",
"!!!!!!!!!!!!!!!!!!!!!!!!!!#JLLJJ#!!!!#JLRL#!!!!!!!!!!!!!!!!!!!!!!!!!!!!!!!!!!!!!!!!!!!!!#JLLJ#!!!!!!!#JLRJ#!!!!!!!!!!!!!!!!!!!!!!!!!!!!!!!!!!!!!!!!!!!!!#JMLJ#!!!!!!!#JMIJ#!!!!!!!!!!!!!!!!!!!!!",
"!!!!!!!!!!!!!!!!!!!!!!!!!!#LRRL#!!!!!!#LLJ#!!!!!!!!!!!!!!!!!!!!!!!!!!!!!!!!!!!!!!!!!!!!#JJJJJ#!!!!!!!!#JJL#!!!!!!!!!!!!!!!!!!!!!!!!!!!!!!!!!!!!!!!!!!!!#JJJJJ#!!!!!!!!#JMM#!!!!!!!!!!!!!!!!!!!!!",
"!!!!!!!!!!!!!!!!!!!!!!!!!!!#LLJJ#!!!!#JJJJ#!!!!!!!!!!!!!!!!!!!!!!!!!!!!!!!!!!!!!!!!!!!!#LRLJ#!!!!!!!!!#JLJ#!!!!!!!!!!!!!!!!!!!!!!!!!!!!!!!!!!!!!!!!!!!!#MIMJ#!!!!!!!!!#JIJ#!!!!!!!!!!!!!!!!!!!!!",
"!!!!!!!!!!!!!!!!!!!!!!!!!!#RMRLJ#!!!!#JLRL#!!!!!!!!!!!!!!!!!!!!!!!!!!!!!!!!!!!!!!!!!!!!####g!!!!!!!!!!#LRLJ#!!!!!!!!!!!!!!!!!!!!!!!!!!!!!!!!!!!!!!!!!!!####g!!!!!!!!!!#MIMJ#!!!!!!!!!!!!!!!!!!!!",
"!!!!!!!!!!!!!!!!!!!!!!!!!#JLLJJ##!!!!#JJJLJ#!!!!!!!!!!!!!!!!!!!!!!!!!!!!!!!!!!!!!!!!!!!!!!!!!!!!!!!!!!#JJLL#!!!!!!!!!!!!!!!!!!!!!!!!!!!!!!!!!!!!!!!!!!!!!!!!!!!!!!!!!!#JJML#!!!!!!!!!!!!!!!!!!!!",
"!!!!!!!!!!!!!!!!!!!!!!!!h######h!!!!!#JLRRL#!!!!!!!!!!!!!!!!!!!!!!!!!!!!!!!!!!!!!!!!!!!!!!!!!!!!!!!!!!JLRLJ#!!!!!!!!!!!!!!!!!!!!!!!!!!!!!!!!!!!!!!!!!!!!!!!!!!!!!!!!!#JMIMJ#!!!!!!!!!!!!!!!!!!!!",
"!!!!!!!!!!!!!!!!!!!!!!!!!!!!!!!!!!!!!!#####!!!!!!!!!!!!!!!!!!!!!!!!!!!!!!!!!!!!!!!!!!!!!!!!!!!!!!!!!!!#####!!!!!!!!!!!!!!!!!!!!!!!!!!!!!!!!!!!!!!!!!!!!!!!!!!!!!!!!!!#######!!!!!!!!!!!!!!!!!!!!"
};