/* XPM */
static const char *enemy_floor3_blue_guard_firing_f00[] = {
/* columns rows colors chars-per-pixel */
"64 64 50 1",
"! c None",
"# c #000000",
"$ c #5C340C",
"% c #805424",
"& c #A06C3C",
"' c #A8784C",
"( c #B08458",
") c #94602C",
"* c #402810",
"+ c #C4A080",
", c #684018",
"- c #643000",
". c #3C6CA0",
"/ c #6C90BC",
"0 c #5884B0",
"1 c #4C78A8",
"2 c #2C5480",
"3 c #346090",
"4 c #244870",
"5 c #142840",
"6 c #183450",
"7 c #0C1C30",
"8 c #C4C824",
"9 c #10C0C0",
": c #500024",
"; c #3C001C",
"< c #2C2C2C",
"= c #AC0C58",
"> c #98084C",
"? c #5CD8D8",
"@ c #3C3C3C",
"A c #640030",
"B c #880444",
"C c #98E4E4",
"D c #B0D040",
"E c #7CA400",
"F c #005C5C",
"G c #00BCBC",
"H c #4C4C4C",
"I c #007474",
"J c #008C8C",
"K c #004444",
"L c #7C7C7C",
"M c #28C8C8",
"N c #DC7C7C",
"O c #5C5C5C",
"P c #D05050",
"Q c #980808",
"R c #CC3838",
"S c #141414",
"!!!!!!!!!!!!!!!!!!!!!!!!!!!!!!!!!!!!!!!!!!!!!!!!!!!!!!!!!!!!!!!!",
"!!!!!!!!!!!!!!!!!!!!!!!!!!!!!!!!!!!!!!!!!!!!!!!!!!!!!!!!!!!!!!!!",
"!!!!!!!!!!!!!!!!!!!!!!!!!!!!!!!!!!!!!!!!!!!!!!!!!!!!!!!!!!!!!!!!",
"!!!!!!!!!!!!!!!!!!!!!!!!!!!!!!!!!!!!!!!!!!!!!!!!!!!!!!!!!!!!!!!!",
"!!!!!!!!!!!!!!!!!!!!!!!!!!!!!!!!!!!!!!!!!!!!!!!!!!!!!!!!!!!!!!!!",
"!!!!!!!!!!!!!!!!!!!!!!!!!!!!!!!!!!!!!!!!!!!!!!!!!!!!!!!!!!!!!!!!",
"!!!!!!!!!!!!!!!!!!!!!!!!!!!!!!!!!!!!!!!!!!!!!!!!!!!!!!!!!!!!!!!!",
"!!!!!!!!!!!!!!!!!!!!!!!!!!!!!!!!!!!!!!!!!!!!!!!!!!!!!!!!!!!!!!!!",
"!!!!!!!!!!!!!!!!!!!!!!!!!!!!!!!!!!!!!!!!!!!!!!!!!!!!!!!!!!!!!!!!",
"!!!!!!!!!!!!!!!!!!!!!!!!!!!!!!!!!!!!!!!!!!!!!!!!!!!!!!!!!!!!!!!!",
"!!!!!!!!!!!!!!!!!!!!!!!!!!!!!!!!!!!!!!!!!!!!!!!!!!!!!!!!!!!!!!!!",
"!!!!!!!!!!!!!!!!!!!!!!!!!!!!!!!!!!!!!!!!!!!!!!!!!!!!!!!!!!!!!!!!",
"!!!!!!!!!!!!!!!!!!!!!!!!!!!!!!!!!#!!!!!!!!!!!!!!!!!!!!!!!!!!!!!!",
"!!!!!!!!!!!!!!!!!!!!!!!!!!!!!!!##$##$#!!!!!!!!!!!!!!!!!!!!!!!!!!",
"!!!!!!!!!!!!!!!!!!!!!!!!!!!!!!##$##$####!!!!!!!!!!!!!!!!!!!!!!!!",
"!!!!!!!!!!!!!!!!!!!!!!!!!!!!!##%&&##&##$#!!!!!!!!!!!!!!!!!!!!!!!",
"!!!!!!!!!!!!!!!!!!!!!!!!!!!!!#%&'(#('&%#!!!!!!!!!!!!!!!!!!!!!!!!",
"!!!!!!!!!!!!!!!!!!!!!!!!!!!!##&$#$($#$&$#!!!!!!!!!!!!!!!!!!!!!!!",
"!!!!!!!!!!!!!!!!!!!!!!!!!!!!#$)%*%&%*%)#$!!!!!!!!!!!!!!!!!!!!!!!",
"!!!!!!!!!!!!!!!!!!!!!!!!!!!!&#'+(&+&(+'#&!!!!!!!!!!!!!!!!!!!!!!!",
"!!!!!!!!!!!!!!!!!!!!!!!!!!!!,$&($#%#$(&$,!!!!!!!!!!!!!!!!!!!!!!!",
"!!!!!!!!!!!!!!!!!!!!!!!!!!!!!,%'%---%'%,!!!!!!!!!!!!!!!!!!!!!!!!",
"!!!!!!!!!!!!!!!!!!!!!!!!!!!!!!,%&'('&%,!!!!!!!!!!!!!!!!!!!!!!!!!",
"!!!!!!!!!!!!!!!!!!!!!!!!!!!!!!.$,%)%,$.!!!!!!!!!!!!!!!!!!!!!!!!!",
"!!!!!!!!!!!!!!!!!!!!!!!!///0!.12%)&)%21.!!.0/!!!!!!!!!!!!!!!!!!!",
"!!!!!!!!!!!!!!!!!!!!!//0011.2331111111.134.10//!!!!!!!!!!!!!!!!!",
"!!!!!!!!!!!!!!!!!!!!0011...3223333333.13353.110/!!!!!!!!!!!!!!!!",
"!!!!!!!!!!!!!!!!!!!!2....32233.1111111323523.1110!!!!!!!!!!!!!!!",
"!!!!!!!!!!!!!!!!!!!!!5657564343333333223345433324!!!!!!!!!!!!!!!",
"!!!!!!!!!!!!!!!!!!!5644474433534&424&44388865564!!!!!!!!!!!!!!!!",
"!!!!!!!!!!!!!!!!!!542..4723.353223...336888542245!!!!!!!!!!!!!!!",
"!!!!!!!!!!!!!!!!!52323325233453233333336663523325!!!!!!!!!!!!!!!",
"!!!!!!!!!!!!!!!!5332454652334534&434&443333256445!!!!!!!!!!!!!!!",
"!!!!!!!!!!!!!!!!523.325554334532333..3333.3252325!!!!!!!!!!!!!!!",
"!!!!!!!!!!!!!!!!!523.#9:;623454333333333.33463.35!!!!!!!!!!!!!!!",
"!!!!!!!!!!!!!!!!!542#<;:=>?24454&434&443332654225!!!!!!!!!!!!!!!",
"!!!!!!!!!!!!!!!!!!5#<@<ABCDE4454233333233245#<<<5!!!!!!!!!!!!!!!",
"!!!!!!!!!!!!!!!!!!!#<<FFG::6D44544444442445#<@H@#!!!!!!!!!!!!!!!",
"!!!!!!!!!!!!!!!!!!!!#<FIJE>=D?55755555545##<@#@@#!!!!!!!!!!!!!!!",
"!!!!!!!!!!!!!!!!!!!!#<HFIJEKC###L###L####5###@@H#!!!!!!!!!!!!!!!",
"!!!!!!!!!!!!!!!!!!!!#<<@FIKMIN##O###O###5445#<<@#!!!!!!!!!!!!!!!",
"!!!!!!!!!!!!!!!!!!!!!###JFK#NNP.32523..32455!###!!!!!!!!!!!!!!!!",
"!!!!!!!!!!!!!!!!!!!!!!!!!6FK5PPQ256523245545!!!!!!!!!!!!!!!!!!!!",
"!!!!!!!!!!!!!!!!!!!!!!!!!62K35QR644455552325!!!!!!!!!!!!!!!!!!!!",
"!!!!!!!!!!!!!!!!!!!!!!!!!63..2465554423..335!!!!!!!!!!!!!!!!!!!!",
"!!!!!!!!!!!!!!!!!!!!!!!!!43.3332455423322335!!!!!!!!!!!!!!!!!!!!",
"!!!!!!!!!!!!!!!!!!!!!!!!!423333325!523333325!!!!!!!!!!!!!!!!!!!!",
"!!!!!!!!!!!!!!!!!!!!!!!!!643233335!5233...345!!!!!!!!!!!!!!!!!!!",
"!!!!!!!!!!!!!!!!!!!!!!!!!52332325!!543.333325!!!!!!!!!!!!!!!!!!!",
"!!!!!!!!!!!!!!!!!!!!!!!!!543.3225!!5423332235!!!!!!!!!!!!!!!!!!!",
"!!!!!!!!!!!!!!!!!!!!!!!!42423.345!!!5423..325!!!!!!!!!!!!!!!!!!!",
"!!!!!!!!!!!!!!!!!!!!!!!!433244235!!!523333.35!!!!!!!!!!!!!!!!!!!",
"!!!!!!!!!!!!!!!!!!!!!!!!433233325!!!543322325!!!!!!!!!!!!!!!!!!!",
"!!!!!!!!!!!!!!!!!!!!!!!!623333245!!!542333245!!!!!!!!!!!!!!!!!!!",
"!!!!!!!!!!!!!!!!!!!!!!!!54234655!!!!!54422445!!!!!!!!!!!!!!!!!!!",
"!!!!!!!!!!!!!!!!!!!!!!!!!556H@<#!!!!!#555555!!!!!!!!!!!!!!!!!!!!",
"!!!!!!!!!!!!!!!!!!!!!!!!!!#@@@@<#!!!!#<<<<<#!!!!!!!!!!!!!!!!!!!!",
"!!!!!!!!!!!!!!!!!!!!!!!!!!#<@@<<#!!!!#<@H@#!!!!!!!!!!!!!!!!!!!!!",
"!!!!!!!!!!!!!!!!!!!!!!!!!!#@HH@#!!!!!!#@@<#!!!!!!!!!!!!!!!!!!!!!",
"!!!!!!!!!!!!!!!!!!!!!!!!!!!#@@<<#!!!!#<<<<#!!!!!!!!!!!!!!!!!!!!!",
"!!!!!!!!!!!!!!!!!!!!!!!!!!#HOH@<#!!!!#<@H@#!!!!!!!!!!!!!!!!!!!!!",
"!!!!!!!!!!!!!!!!!!!!!!!!!#<@@<<##!!!!#<<<@<#!!!!!!!!!!!!!!!!!!!!",
"!!!!!!!!!!!!!!!!!!!!!!!!S######S!!!!!#<@HH@#!!!!!!!!!!!!!!!!!!!!",
"!!!!!!!!!!!!!!!!!!!!!!!!!!!!!!!!!!!!!!#####!!!!!!!!!!!!!!!!!!!!!"
};