/* XPM */
static const char *snotball_f05[] = {
/* columns rows colors chars-per-pixel */
"103 102 1072 2",
"!! c None",
"!# c #BBA237",
"!$ c #B89041",
"!% c #C2B82E",
"!& c #BCC819",
"!' c #93563F",
"!( c #B37C4A",
"!) c #BA717A",
"!* c #C0945F",
"!+ c #B37C49",
"!, c #B88748",
"!- c #B6BE19",
"!. c #9AA906",
"!/ c #964D47",
"!0 c #C1BA2B",
"!1 c #CBA973",
"!2 c #D3DC4B",
"!3 c #C1B92B",
"!4 c #C2AF34",
"!5 c #A19A1A",
"!6 c #90573A",
"!7 c #BABF1A",
"!8 c #A1A808",
"!9 c #8D5E29",
"!: c #A7C207",
"!; c #ABCB03",
"!< c #A59B1E",
"!= c #94414C",
"!> c #B57357",
"!? c #D1D247",
"!@ c #C5DB46",
"!A c #B3B24D",
"!B c #842C50",
"!C c #757A03",
"!D c #AEB718",
"!E c #BEC71C",
"!F c #98A409",
"!G c #94474D",
"!H c #B99D33",
"!I c #D0E038",
"!J c #E0E080",
"!K c #ECECB3",
"!L c #E8ECA3",
"!M c #CDDB30",
"!N c #AF7243",
"!O c #C2BF29",
"!P c #CAE217",
"!Q c #C0B42E",
"!R c #836A1C",
"!S c #9CAA1D",
"!T c #CDD65D",
"!U c #C7BA4A",
"!V c #AE723F",
"!W c #B9953C",
"!X c #CFCF4C",
"!Y c #E3EB7C",
"!Z c #F0EFB6",
"![ c #EBE9AA",
"!] c #DFE377",
"!^ c #CFE625",
"!_ c #B3AE1D",
"!` c #9E6F38",
"!a c #B1863F",
"!b c #B57651",
"!c c #BA9C3A",
"!d c #C9E118",
"!e c #BFB130",
"!f c #B48047",
"!g c #B1734F",
"!h c #845A27",
"!i c #92A416",
"!j c #C6C765",
"!k c #D5E656",
"!l c #CCCD43",
"!m c #B48347",
"!n c #D0E331",
"!o c #E1E87B",
"!p c #E3E29F",
"!q c #D9DA96",
"!r c #D6DA6F",
"!s c #CFC94C",
"!t c #BD9B42",
"!u c #B1A326",
"!v c #AEC30B",
"!w c #BDDD0B",
"!x c #B38E3C",
"!y c #BBA334",
"!z c #AF6852",
"!{ c #BB9D3D",
"!| c #B37A4A",
"!} c #BA963E",
"!~ c #ADC20B",
"#! c #777C03",
"## c #B4B76C",
"#$ c #ECEDAB",
"#% c #CCC742",
"#& c #ACAC0F",
"#' c #928B14",
"#( c #AF9A2B",
"#) c #C5CC37",
"#* c #DADC6D",
"#+ c #EEEEB1",
"#, c #D2D38B",
"#- c #9A9E1B",
"#. c #B4C314",
"#/ c #C2AA3B",
"#0 c #9D1380",
"#1 c #AA5160",
"#2 c #C4D41A",
"#3 c #B0C80B",
"#4 c #9E7732",
"#5 c #D7C186",
"#6 c #E1EC75",
"#7 c #D1C369",
"#8 c #B06D52",
"#9 c #AC704F",
"#: c #A19E34",
"#; c #C8D369",
"#< c #EBF598",
"#= c #E4EF80",
"#> c #C9D941",
"#? c #AAB707",
"#@ c #B7855E",
"#A c #B87B72",
"#B c #A2A812",
"#C c #BDC933",
"#D c #E2E07B",
"#E c #EFEEA8",
"#F c #CFD074",
"#G c #949902",
"#H c #A1AB01",
"#I c #B1A822",
"#J c #AB664C",
"#K c #AB4D61",
"#L c #AC595D",
"#M c #AFA022",
"#N c #B4AB2C",
"#O c #BC777B",
"#P c #BF738D",
"#Q c #C57DA5",
"#R c #C07594",
"#S c #C49077",
"#T c #D8E153",
"#U c #CEBB5F",
"#V c #B6657A",
"#W c #BFB030",
"#X c #B68645",
"#Y c #D8D168",
"#Z c #D8D760",
"#[ c #D3C572",
"#] c #E9E6B3",
"#^ c #E1E38A",
"#_ c #CACE33",
"#` c #DFE668",
"#a c #D4DC6C",
"#b c #9B9F14",
"#c c #AEB02D",
"#d c #D5D565",
"#e c #DDDD77",
"#f c #CCCD5B",
"#g c #ACAF21",
"#h c #A2A613",
"#i c #ABB315",
"#j c #C7DB1F",
"#k c #B47455",
"#l c #9A0982",
"#m c #B88D41",
"#n c #D3E33E",
"#o c #E4EC82",
"#p c #EAFC85",
"#q c #DACF7E",
"#r c #F0FAB6",
"#s c #EDFB99",
"#t c #DBE762",
"#u c #C3D01E",
"#v c #A7584D",
"#w c #AE6655",
"#x c #BFB22F",
"#y c #BEA536",
"#z c #C2B038",
"#{ c #CCD231",
"#| c #B16461",
"#} c #A5268A",
"#~ c #D1B67C",
"$! c #E5EE89",
"$# c #E6E7A0",
"$$ c #E7E994",
"$% c #DADD69",
"$& c #BEC224",
"$' c #A9AC15",
"$( c #9FA21D",
"$) c #A9AC20",
"$* c #BFC144",
"$+ c #D7D872",
"$, c #C6C93B",
"$- c #BFC422",
"$. c #D8DF60",
"$/ c #CCC053",
"$0 c #B99B34",
"$1 c #CFC654",
"$2 c #E3E685",
"$3 c #EEF1B6",
"$4 c #E4EA8D",
"$5 c #DBDA72",
"$6 c #DFC4AE",
"$7 c #E5D1B3",
"$8 c #E8EC93",
"$9 c #E5E983",
"$: c #CED854",
"$; c #A2B708",
"$< c #954F41",
"$= c #B9973C",
"$> c #B8C219",
"$? c #B9D20C",
"$@ c #BEC719",
"$A c #AC6B46",
"$B c #A7406B",
"$C c #CCB662",
"$D c #E3EA83",
"$E c #ECEBB2",
"$F c #E8E79D",
"$G c #DFE073",
"$H c #D3D641",
"$I c #B4B81E",
"$J c #989C08",
"$K c #949E00",
"$L c #ADB821",
"$M c #D5DD5F",
"$N c #D5D951",
"$O c #D5D657",
"$P c #E5E497",
"$Q c #DEE475",
"$R c #D3E042",
"$S c #E3E786",
"$T c #E8E7A2",
"$U c #DFE089",
"$V c #DBDB73",
"$W c #DADB6C",
"$X c #DBE581",
"$Y c #D4E072",
"$Z c #CBD350",
"$[ c #D4E14C",
"$] c #C5C343",
"$^ c #976D33",
"$_ c #936A2F",
"$` c #9BAB07",
"$a c #B2B61A",
"$b c #BDC11D",
"$c c #C7CB2B",
"$d c #D4D55A",
"$e c #DCDC76",
"$f c #E2E185",
"$g c #DDDE78",
"$h c #D3D657",
"$i c #C3C835",
"$j c #B0B418",
"$k c #989C0D",
"$l c #9A9E0C",
"$m c #B3B71A",
"$n c #CFD156",
"$o c #E5E591",
"$p c #ECECB6",
"$q c #E7E7A1",
"$r c #E0E081",
"$s c #EBEBB2",
"$t c #E2E393",
"$u c #C5C929",
"$v c #D0D247",
"$w c #D3D362",
"$x c #ADB023",
"$y c #9FA30D",
"$z c #A4A914",
"${ c #BDCC17",
"$| c #BD9F3B",
"$} c #9C5C46",
"$~ c #B3BD17",
"%! c #BBCF12",
"%# c #C0CA1F",
"%$ c #C8CC34",
"%% c #D3D54F",
"%& c #D9DC63",
"%' c #C6C94B",
"%( c #B3B633",
"%) c #A8AC27",
"%* c #AFB91B",
"%+ c #B2AE21",
"%, c #9B4853",
"%- c #92196B",
"%. c #9C2E65",
"%/ c #BC9A49",
"%0 c #DAF04E",
"%1 c #E9F78F",
"%2 c #E3EA7B",
"%3 c #D1D348",
"%4 c #C2C44E",
"%5 c #C0C349",
"%6 c #C8CD34",
"%7 c #BFC331",
"%8 c #AEB227",
"%9 c #97A203",
"%: c #906A24",
"%; c #AE873A",
"%< c #ADA91F",
"%= c #AEB417",
"%> c #BEC31A",
"%? c #C6CA2D",
"%@ c #C3C73F",
"%A c #ADB11F",
"%B c #9B9F08",
"%C c #959909",
"%D c #A7B40E",
"%E c #B7B125",
"%F c #A54265",
"%G c #9C0D83",
"%H c #9F1D7B",
"%I c #AE6B48",
"%J c #BFAB3A",
"%K c #D0B279",
"%L c #CABC57",
"%M c #B7BF12",
"%N c #A0A701",
"%O c #D6D967",
"%P c #C1C542",
"%Q c #A5AB13",
"%R c #9FAC10",
"%S c #9F713D",
"%T c #B8923F",
"%U c #C7D220",
"%V c #C3BC2D",
"%W c #945442",
"%X c #99A608",
"%Y c #BEC51C",
"%Z c #B7BB1D",
"%[ c #999D12",
"%] c #9DA112",
"%^ c #A7AB14",
"%_ c #AFB319",
"%` c #BCC01F",
"%a c #C3C624",
"%b c #B6B422",
"%c c #B8B821",
"%d c #C2C028",
"%e c #AB565C",
"%f c #9A0687",
"%g c #9E0A8E",
"%h c #9C5350",
"%i c #98A803",
"%j c #99A500",
"%k c #B6B93F",
"%l c #E8E9AF",
"%m c #DDDF80",
"%n c #C9CD41",
"%o c #CACF47",
"%p c #C8CD39",
"%q c #C0B230",
"%r c #B0A02A",
"%s c #B49E30",
"%t c #B0C90A",
"%u c #9E5B47",
"%v c #9D7C2D",
"%w c #AEB717",
"%x c #C8CE35",
"%y c #B5B929",
"%z c #8E9206",
"%{ c #9A9D0E",
"%| c #A8AE15",
"%} c #AEBB12",
"%~ c #B8C616",
"&! c #BBB924",
"&# c #AA7445",
"&$ c #A9644F",
"&% c #B2764D",
"&& c #A12775",
"&' c #930093",
"&( c #93008E",
"&) c #900C6F",
"&* c #924749",
"&+ c #AB9B2E",
"&, c #C8D14C",
"&- c #E3E396",
"&. c #E1E283",
"&/ c #DADC66",
"&0 c #DDDE6F",
"&1 c #D3DE4A",
"&2 c #BFCD1A",
"&3 c #A56F40",
"&4 c #A06544",
"&5 c #B6C911",
"&6 c #B7AC29",
"&7 c #AF6B52",
"&8 c #BA7F65",
"&9 c #928A14",
"&: c #958719",
"&; c #AECC07",
"&< c #C8CD2A",
"&= c #92940C",
"&> c #AEBD0C",
"&? c #CACE2C",
"&@ c #D4D74F",
"&A c #BBBF3C",
"&B c #969A0D",
"&C c #9CA10D",
"&D c #A3A515",
"&E c #A29B1B",
"&F c #ADB416",
"&G c #B4AE23",
"&H c #A1316D",
"&I c #97008F",
"&J c #96008C",
"&K c #97008A",
"&L c #980088",
"&M c #980089",
"&N c #96008A",
"&O c #9E1184",
"&P c #C39E5F",
"&Q c #D7E552",
"&R c #D6D761",
"&S c #E3E289",
"&T c #E4E48B",
"&U c #D0D15C",
"&V c #A7B10D",
"&W c #A7AF13",
"&X c #B0AB22",
"&Y c #BEC320",
"&Z c #C0B32F",
"&[ c #C2C027",
"&] c #D5E549",
"&^ c #CDAF73",
"&_ c #B5B11F",
"&` c #CEEA35",
"&a c #DCE06F",
"&b c #C6AE4A",
"&c c #A8901E",
"&d c #8E9400",
"&e c #A8B009",
"&f c #C8CD28",
"&g c #D1D54D",
"&h c #C6CA41",
"&i c #9EB302",
"&j c #95881B",
"&k c #982968",
"&l c #AF754A",
"&m c #C5D719",
"&n c #C2BF28",
"&o c #B06B53",
"&p c #970089",
"&q c #96008D",
"&r c #A53B68",
"&s c #BFAB36",
"&t c #D1D14C",
"&u c #D5DB54",
"&v c #D0D34D",
"&w c #DFE085",
"&x c #EBEBAF",
"&y c #E8E797",
"&z c #CBCC5A",
"&{ c #A8AC15",
"&| c #AEC706",
"&} c #AFA624",
"&~ c #B3764B",
"'! c #CBB852",
"'# c #DCDE6B",
"'$ c #DAE758",
"'% c #CAD648",
"'& c #B0B442",
"'' c #BBBD39",
"'( c #CCCF39",
"') c #D2D64F",
"'* c #C4CA3C",
"'+ c #ABAF17",
"', c #9A881F",
"'- c #924649",
"'. c #930090",
"'/ c #A63174",
"'0 c #B9943F",
"'1 c #BDA536",
"'2 c #AF6A53",
"'3 c #990387",
"'4 c #95008E",
"'5 c #9A0A83",
"'6 c #A4386C",
"'7 c #B06C51",
"'8 c #BA9D3A",
"'9 c #BBBC33",
"': c #C3CE3C",
"'; c #D2D656",
"'< c #E4E599",
"'= c #EDEDB8",
"'> c #E1E17B",
"'? c #C0C83A",
"'@ c #9DA70C",
"'A c #A79624",
"'B c #C8CF28",
"'C c #E2E989",
"'D c #EFEEC3",
"'E c #EBEBB8",
"'F c #E0E08B",
"'G c #D6D75F",
"'H c #D5D857",
"'I c #B9C530",
"'J c #94970C",
"'K c #943459",
"'L c #98008F",
"'M c #990486",
"'N c #95008F",
"'O c #A02376",
"'P c #B4784F",
"'Q c #970484",
"'R c #8F6628",
"'S c #A8B81F",
"'T c #DCDC77",
"'U c #EDEDAF",
"'V c #E9E9AA",
"'W c #CFD242",
"'X c #B0BC0B",
"'Y c #94980B",
"'Z c #99424F",
"'[ c #A7BA09",
"'] c #D0DB62",
"'^ c #EBEAAA",
"'_ c #F2F1C5",
"'` c #EEEDBA",
"'a c #E3E496",
"'b c #D6D960",
"'c c #C0CC2E",
"'d c #A7AA16",
"'e c #98206D",
"'f c #9C008E",
"'g c #B47451",
"'h c #A84567",
"'i c #940090",
"'j c #920095",
"'k c #940091",
"'l c #97008B",
"'m c #9B1080",
"'n c #AA535E",
"'o c #A43171",
"'p c #95008C",
"'q c #8B0B65",
"'r c #A7616B",
"'s c #E5E0A4",
"'t c #F5FBC4",
"'u c #E4E6A7",
"'v c #AFB924",
"'w c #96761C",
"'x c #B58446",
"'y c #927E1E",
"'z c #C0BE40",
"'{ c #E0E174",
"'| c #E8E8A8",
"'} c #EDEDBC",
"'~ c #E9E9AB",
"(! c #D8DB69",
"(# c #C5CF33",
"($ c #B3B61B",
"(% c #A0435C",
"(& c #A33C68",
"(' c #C0CA1E",
"(( c #AF724C",
"() c #9D187C",
"(* c #9E1B7A",
"(+ c #980188",
"(, c #950090",
"(- c #970088",
"(. c #97007D",
"(/ c #B4508B",
"(0 c #E7E1AF",
"(1 c #F4FCBE",
"(2 c #E1E39C",
"(3 c #A9B529",
"(4 c #976534",
"(5 c #B3794C",
"(6 c #BEAD31",
"(7 c #BE954C",
"(8 c #D8E248",
"(9 c #DBDB71",
"(: c #E0E086",
"(; c #E2E287",
"(< c #DCDC70",
"(= c #C3C542",
"(> c #A4A811",
"(? c #AA9F1F",
"(@ c #AFA724",
"(A c #AAB611",
"(B c #9C4855",
"(C c #98008B",
"(D c #B88F40",
"(E c #960087",
"(F c #AF7540",
"(G c #C9C73D",
"(H c #DFDF80",
"(I c #E5E691",
"(J c #E0E183",
"(K c #D1D658",
"(L c #C1BD3C",
"(M c #B2A02B",
"(N c #A59A1F",
"(O c #AAA71C",
"(P c #C0BF26",
"(Q c #B26E53",
"(R c #AA654E",
"(S c #B0645E",
"(T c #B86582",
"(U c #B0963D",
"(V c #B9C123",
"(W c #D2D24C",
"(X c #DBDA66",
"(Y c #DEDD78",
"(Z c #E2E27F",
"([ c #D2D362",
"(] c #B9BD31",
"(^ c #BBC71A",
"(_ c #B6C50F",
"(` c #A4AD0F",
"(a c #A57D38",
"(b c #AE595F",
"(c c #AB4F63",
"(d c #A4376C",
"(e c #AF6854",
"(f c #AC5A5A",
"(g c #AB5266",
"(h c #B1626B",
"(i c #C8BB48",
"(j c #DBEB58",
"(k c #E5E697",
"(l c #E1E185",
"(m c #D3D55E",
"(n c #BEC040",
"(o c #AEBA1D",
"(p c #A3B107",
"(q c #9D772F",
"(r c #A26348",
"(s c #B38146",
"(t c #A7614F",
"(u c #B3B120",
"(v c #BCC616",
"(w c #C9CC32",
"(x c #DDE270",
"(y c #E8ED89",
"(z c #DFE47B",
"({ c #A6AB2A",
"(| c #9B9E0B",
"(} c #C6C630",
"(~ c #D4D350",
")! c #D9D96B",
")# c #DDDD7C",
")$ c #D9DB6F",
")% c #CFD34F",
")& c #CBCF35",
")' c #BDC121",
")( c #A5A915",
")) c #B4C412",
")* c #A12F6F",
")+ c #910092",
"), c #B2774C",
")- c #C6D31D",
"). c #C5CF1D",
")/ c #CAD432",
")0 c #D3DC54",
")1 c #DDDF75",
")2 c #E6E59A",
")3 c #ECECB8",
")4 c #E1E385",
")5 c #C7CB42",
")6 c #9EA214",
")7 c #919C02",
")8 c #969812",
")9 c #CACD38",
"): c #DCF250",
"); c #DDE172",
")< c #BBC82D",
")= c #A4B207",
")> c #A1A514",
")? c #BDBC32",
")@ c #CECF44",
")A c #B1BD2A",
")B c #A0AC1B",
")C c #A2A61E",
")D c #CACB52",
")E c #D0D257",
")F c #A4A814",
")G c #A5AF0A",
")H c #AAB015",
")I c #8A741A",
")J c #832D46",
")K c #920087",
")L c #98027E",
")M c #A54857",
")N c #BDB81E",
")O c #D0E137",
")P c #DFE577",
")Q c #E9EBA7",
")R c #EAE9AC",
")S c #E2E288",
")T c #DEDE76",
")U c #D4D55B",
")V c #BDC024",
")W c #BEC433",
")X c #CBCB61",
")Y c #C0AD44",
")Z c #AC634B",
")[ c #AE6F46",
")] c #C4B63F",
")^ c #D0D14F",
")_ c #BA9945",
")` c #A17F2B",
")a c #8F9606",
")b c #B1BC19",
")c c #C6C131",
")d c #99722C",
")e c #8C6F18",
")f c #9FA30F",
")g c #D3D672",
")h c #E3E391",
")i c #BABD3D",
")j c #AAAD1B",
")k c #A4A913",
")l c #9DB217",
")m c #A18942",
")n c #AB4084",
")o c #AB26A2",
")p c #B14B90",
")q c #C6B944",
")r c #D6E051",
")s c #E9E8A5",
")t c #DFDF90",
")u c #C8CA4F",
")v c #CBCC4F",
")w c #CDCE4E",
")x c #BBBF21",
")y c #CBCD49",
")z c #E7E78C",
"){ c #DBEE50",
")| c #C7BC42",
")} c #C3C623",
")~ c #A6366D",
"*! c #92186C",
"*# c #92920E",
"*$ c #B1CA0A",
"*% c #C2B332",
"*& c #9D177C",
"*' c #A23862",
"*( c #C4C924",
"*) c #E2EA88",
"** c #EEEEBB",
"*+ c #E2E187",
"*, c #C5C742",
"*- c #B4B81D",
"*. c #D2D464",
"*/ c #E0DE84",
"*0 c #DDD77F",
"*1 c #E5DFA8",
"*2 c #E9E3B3",
"*3 c #E0DF83",
"*4 c #DFDF79",
"*5 c #E0E07E",
"*6 c #DFDE77",
"*7 c #CACB53",
"*8 c #A7AB1A",
"*9 c #AEB218",
"*: c #B2B61C",
"*; c #979B08",
"*< c #B0B339",
"*= c #E2E284",
"*> c #E3E383",
"*? c #E1E47D",
"*@ c #E3E483",
"*A c #BB6B86",
"*B c #C7AE5D",
"*C c #DDDD80",
"*D c #CD9C8C",
"*E c #B15880",
"*F c #94315E",
"*G c #AE8F32",
"*H c #C7D21F",
"*I c #B77B4F",
"*J c #AC7940",
"*K c #AAAF17",
"*L c #B9BF40",
"*M c #CFD06F",
"*N c #E7E78E",
"*O c #D9DA68",
"*P c #C5C93B",
"*Q c #D2D54A",
"*R c #DDE162",
"*S c #E3EB7B",
"*T c #E6EF8C",
"*U c #EBECAA",
"*V c #EEECB4",
"*W c #EBEBA9",
"*X c #E0DF80",
"*Y c #CECF4F",
"*Z c #B9BD1E",
"*[ c #AEB212",
"*] c #A2A60F",
"*^ c #8D9102",
"*_ c #A0A31A",
"*` c #C8CA49",
"*a c #DEDE79",
"*b c #DBE178",
"*c c #BECF40",
"*d c #B99C31",
"*e c #D5DB5E",
"*f c #EBEEAE",
"*g c #EDFF92",
"*h c #D2B280",
"*i c #A11785",
"*j c #AB5559",
"*k c #C2BA2C",
"*l c #CAD620",
"*m c #B4C215",
"*n c #93970B",
"*o c #949702",
"*p c #AAAE1F",
"*q c #D1D468",
"*r c #CFD348",
"*s c #BEC21E",
"*t c #C7CA3C",
"*u c #E1E187",
"*v c #D1D35B",
"*w c #C9CD4D",
"*x c #E2E39A",
"*y c #E8E9B1",
"*z c #E3E5A2",
"*{ c #DBDC77",
"*| c #CFD14A",
"*} c #C1C723",
"*~ c #B2B717",
"+! c #A5A916",
"+# c #9EA119",
"+$ c #A2A712",
"+% c #B3B916",
"+& c #D9DB67",
"+' c #D2D76A",
"+( c #95A008",
"+) c #8E4340",
"+* c #B46C5C",
"++ c #E1EE72",
"+, c #DCDB75",
"+- c #C1B038",
"+. c #A94860",
"+/ c #A2237A",
"+0 c #C2B630",
"+1 c #BCD411",
"+2 c #9FA312",
"+3 c #96990C",
"+4 c #969C0C",
"+5 c #9DAA14",
"+6 c #B8C124",
"+7 c #A1A50A",
"+8 c #B4B646",
"+9 c #BCBE58",
"+: c #9CA00F",
"+; c #BABD31",
"+< c #BAC232",
"+= c #B1BE27",
"+> c #C4C92F",
"+? c #BCC224",
"+@ c #9DAA09",
"+A c #ADB711",
"+B c #C6C92C",
"+C c #D2D25B",
"+D c #C6CC41",
"+E c #B5C314",
"+F c #DCE169",
"+G c #D7DB70",
"+H c #95A009",
"+I c #8E3E43",
"+J c #93404B",
"+K c #B27C41",
"+L c #D6EA47",
"+M c #C5D91B",
"+N c #A6733D",
"+O c #942D60",
"+P c #AC6454",
"+Q c #B49438",
"+R c #ACB018",
"+S c #9AA50A",
"+T c #8E8513",
"+U c #8F5833",
"+V c #A1812A",
"+W c #ACB312",
"+X c #A9AC38",
"+Y c #E7E7A2",
"+Z c #BEC050",
"+[ c #999E02",
"+] c #A2AB06",
"+^ c #9D7F21",
"+_ c #99593C",
"+` c #B9AD24",
"+a c #B7AE23",
"+b c #935A3B",
"+c c #A18A25",
"+d c #B7C719",
"+e c #C1D13B",
"+f c #B9A548",
"+g c #A96F47",
"+h c #AFA049",
"+i c #B5C443",
"+j c #B6BD36",
"+k c #A37B3F",
"+l c #78730C",
"+m c #7E4437",
"+n c #B88647",
"+o c #C3CF1B",
"+p c #B5B91C",
"+q c #A1B209",
"+r c #928717",
"+s c #B4B91B",
"+t c #A0B704",
"+u c #937328",
"+v c #949F06",
"+w c #909904",
"+x c #AFB237",
"+y c #CCCE4A",
"+z c #ACB311",
"+{ c #97A405",
"+| c #914A46",
"+} c #9B0587",
"+~ c #BC9C3D",
",! c #93454B",
",# c #939E06",
",$ c #93A003",
",% c #965443",
",& c #783F2E",
",' c #889313",
",( c #D2D363",
",) c #BCC938",
",* c #938D11",
",+ c #CA9878",
",, c #D9ABA8",
",- c #CFAE9D",
",. c #A9C018",
",/ c #986635",
",0 c #9E4B4E",
",1 c #9A9714",
",2 c #96B600",
",3 c #93950D",
",4 c #A7AC15",
",5 c #AFC60A",
",6 c #AA8933",
",7 c #BAD017",
",8 c #CAD364",
",9 c #DEDDA0",
",: c #ECECB2",
",; c #D0D25B",
",< c #AEB50F",
",= c #94A600",
",> c #9F911E",
",? c #BC8B4B",
",@ c #D2D052",
",A c #C49A69",
",B c #893E49",
",C c #8F951F",
",D c #ADC132",
",E c #C6CB4D",
",F c #C0B03A",
",G c #AE6453",
",H c #B0676E",
",I c #C2CF4A",
",J c #DDF879",
",K c #E0EB89",
",L c #BBA840",
",M c #9F9E17",
",N c #999811",
",O c #956336",
",P c #ABB017",
",Q c #AAC308",
",R c #A2872D",
",S c #C3A944",
",T c #EBEAA8",
",U c #F5FAC7",
",V c #C1CA44",
",W c #A4A610",
",X c #957627",
",Y c #A3971D",
",Z c #BED316",
",[ c #D4E446",
",] c #CCAE6C",
",^ c #744722",
",_ c #A7A337",
",` c #DCE25B",
",a c #C8C238",
",b c #AF6C4D",
",c c #CDA07B",
",d c #BBC24A",
",e c #7A8407",
",f c #9CB30A",
",g c #B8AC31",
",h c #CA968B",
",i c #DCE467",
",j c #C6CF25",
",k c #AA6050",
",l c #C3C723",
",m c #90AB00",
",n c #786119",
",o c #E1C5B8",
",p c #E6F692",
",q c #BABE2A",
",r c #A1B304",
",s c #94831B",
",t c #99A806",
",u c #B9C517",
",v c #D0D53D",
",w c #D6D269",
",x c #B17A4B",
",y c #C6CB28",
",z c #CDB556",
",{ c #C0BD3E",
",| c #833744",
",} c #914444",
",~ c #D0AB83",
"-! c #DAF25B",
"-# c #AFBA18",
"-$ c #BFCE19",
"-% c #98762F",
"-& c #B5806F",
"-' c #9DA10B",
"-( c #967226",
"-) c #944B47",
"-* c #A09816",
"-+ c #B8CF15",
"-, c #D4E241",
"-- c #BAA442",
"-. c #9B514B",
"-/ c #B6A72B",
"-0 c #B39138",
"-1 c #C99E71",
"-2 c #CADC44",
"-3 c #98A20C",
"-4 c #93434A",
"-5 c #B0A526",
"-6 c #979B0D",
"-7 c #905B37",
"-8 c #9EA210",
"-9 c #BDC21C",
"-: c #B3BE14",
"-; c #A18B26",
"-< c #BCB629",
"-= c #8EA700",
"-> c #836126",
"-? c #BE9D46",
"-@ c #C8E41B",
"-A c #AFBA15",
"-B c #C58786",
"-C c #CEC959",
"-D c #BAC01B",
"-E c #98484F",
"-F c #9CA908",
"-G c #9C6B39",
"-H c #B5903D",
"-I c #88612D",
"-J c #7F2C4A",
"-K c #B79F30",
"-L c #B9C716",
"-M c #DAC19D",
"-N c #ECFF7D",
"-O c #D3D843",
"-P c #925C38",
"-Q c #B3B41E",
"-R c #A65F50",
"-S c #DAB8B3",
"-T c #EEFFA1",
"-U c #D9DC69",
"-V c #BFB42E",
"-W c #B68A43",
"-X c #CBB362",
"-Y c #CEEF3C",
"-Z c #ADBE25",
"-[ c #B47C43",
"-] c #AEA01E",
"-^ c #91771D",
"!!!!!!!!!!!!!!!!!!!!!!!!!!!!!!!!!!!!!!!!!!!!!!!!!!!!!!!!!!!!!!!!!!!!!!!!!!!!!!!!!!!!!!!!!!!!!!!!!!!!!!!!!!!!!!!!!!!!!!!!!!!!!!!!!!!!!!!!!!!!!!!!!!!!!!!!!!!!!!!!!!!!!!!!!!!!!!!!!!!!!!!!!!!!!!!!!!!!!!!!!!!!!!",
"!!!!!!!!!!!!!!!!!!!!!!!!!!!!!!!!!!!!!!!!!!!!!!!!!!!!!!!!!!!!!!!!!!!!!!!!!!!!!!!!!!!!!!!!!!!!!!!!!!!!!!!!!!!!!!!!!!!!!!!!!!!!!!!!!!!!!!!!!!!!!!!!!!!!!!!!!!!!!!!!!!!!!!!!!!!!!!!!!!!!!!!!!!!!!!!!!!!!!!!!!!!!!!",
"!!!!!!!!!!!!!!!!!!!!!!!!!!!!!!!!!!!!!!!!!!!!!!!!!!!!!!!!!!!!!!!!!!!!!!!!!!!!!!!!!!!!!!!!!!!!!!!!!!!!!!!!!!!!!!!!!!!!!!!!!!!!!!!!!!!!!!!!!!!!!!!!!!!!!!!!!!!!!!!!!!!!!!!!!!!!!!!!!!!!!!!!!!!!!!!!!!!!!!!!!!!!!!",
"!!!!!!!!!!!!!!!!!!!!!!!!!!!!!!!!!!!!!!!!!!!!!!!!!!!!!!!!!!!!!!!!!!!!!!!!!!!!!!!!!!!!!!!!!!!!!!!!!!!!!!!!!!!!!!!!!!!!!!!!!!!!!!!!!!!!!!!!!!!!!!!!!!!!!!!!!!!!!!!!!!!!!!!!!!!!!!!!!!!!!!!!!!!!!!!!!!!!!!!!!!!!!!",
"!!!!!!!!!!!!!!!!!!!!!!!!!!!!!!!!!!!!!!!!!!!!!!!!!!!!!!!!!!!!!!!!!!!!!!!!!!!!!!!!!!!!!!!!!!!!!!!!!!!!!!!!!!!!!!!!!!!!!!!!!!!!!!!!!!!!!!!!!!!!!!!!!!!!!!!!!!!!!!!!!!!!!!!!!!!!!!!!!!!!!!!!!!!!!!!!!!!!!!!!!!!!!!",
"!!!!!!!!!!!!!!!!!!!!!!!!!!!!!!!!!!!!!!!!!!!!!!!!!!!!!!!!!!!!!!!!!!!!!!!!!!!!!!!!!!!!!!!!!!!!!!!!!!!!!!!!!!!!!!!!!!!!!!!!!!!!!!!!!!!!!!!!!!!!!!!!!!!!!!!!!!!!!!!!!!!!!!!!!!!!!!!!!!!!!!!!!!!!!!!!!!!!!!!!!!!!!!",
"!!!!!!!!!!!!!!!!!!!!!!!!!!!!!!!!!!!!!!!!!!!!!!!!!!!!!!!!!!!!!!!!!!!!!!!!!!!!!!!!!!!!!!!!!!!!!!!!!!!!!!!!!!!!!!!!!!!!!!!!!!!!!!!!!!!!!!!!!!!!!!!!!!!!!!!!!!!!!!!!!!!!!!!!!!!!!!!!!!!!!!!!!!!!!!!!!!!!!!!!!!!!!!",
"!!!!!!!!!!!!!!!!!!!!!!!!!!!!!!!!!!!!!!!!!!!!!!!!!!!!!!!!!!!!!!!!!!!!!!!!!!!!!!!!!!!!!!!!!!!!!!!!!!!!!!!!!!!!!!!!!!!!!!!!!!!!!!!!!!!!!!!!!!!!!!!!!!!!!!!!!!!!!!!!!!!!!!!!!!!!!!!!!!!!!!!!!!!!!!!!!!!!!!!!!!!!!!",
"!!!!!!!!!!!!!!!!!!!!!!!!!!!!!!!!!!!!!!!!!!!!!!!!!!!!!!!!!!!!!!!!!!!!!!!!!!!!!!!!!!!!!!!!!!!!!!!!!!!!!!!!!!!!!!!!!!!!!!!!!!!!!!!!!!!!!!!!!!!!!!!!!!!!!!!!!!!!!!!!!!!!!!!!!!!!!!!!!!!!!!!!!!!!!!!!!!!!!!!!!!!!!!",
"!!!!!!!!!!!!!!!!!!!!!!!!!!!!!!!!!!!!!!!!!!!!!!!!!!!!!!!!!!!!!!!!!!!!!!!!!!!!!!!!!!!!!!!!!!!!!!!!!!!!!!!!!!!!!!!!!!!!!!!!!!!!!!!!!!!!!!!!!!!!!!!!!!!!!!!!!!!!!!!!!!!!!!!!!!!!!!!!!!!!!!!!!!!!!!!!!!!!!!!!!!!!!!",
"!!!!!!!!!!!!!!!!!!!!!!!!!!!!!!!!!!!!!!!!!!!!!!!!!!!!!!!!!!!!!!!!!!!!!!!!!!!!!!!!!!!!!!!!!!!!!!!!!!!!!!!!!!!!!!!!!!!!!!!!!!!!!!!!!!!!!!!!!!!!!!!!!!!!!!!!!!!!!!!!!!!!!!!!!!!!!!!!!!!!!!!!!!!!!!!!!!!!!!!!!!!!!!",
"!!!!!!!!!!!!!!!!!!!!!!!!!!!!!!!!!!!!!!!!!!!!!!!!!!!!!!!!!!!!!!!!!!!!!!!!!!!!!!!!!!!!!!!!!!!!!!!!!!!!!!!!!!!!!!!!!!!!!!!!!!!!!!!!!!!!!!!!!!!!!!!!!!!!!!!!!!!!!!!!!!!!!!!!!!!!!!!!!!!!!!!!!!!!!!!!!!!!!!!!!!!!!!",
"!!!!!!!!!!!!!!!!!!!!!!!!!!!!!!!!!!!!!!!!!!!!!!!!!!!!!!!!!!!!!!!!!!!!!!!!!!!!!!!!!!!!!!!!!!!!!!!!!!!!!!!!!!!!!!!!!!!!!!!!!!!!!!!!!!!!!!!!!!!!!!!!!!!!!!!!!!!!!!!!!!!!!!!!!!!!!!!!!!!!!!!!!!!!!!!!!!!!!!!!!!!!!!",
"!!!!!!!!!!!!!!!!!!!!!!!!!!!!!!!!!!!!!!!!!!!!!!!!!!!!!!!!!!!!!!!!!!!!!!!!!!!!!!!!!!!!!!!!!!!!!!!!!!!!!!!!!!!!!!!!!!!!!!!!!!!!!!!!!!!!!!!!!!!!!!!!!!!!!!!!!!!!!!!!!!!!!!!!!!!!!!!!!!!!!!!!!!!!!!!!!!!!!!!!!!!!!!",
"!!!!!!!!!!!!!!!!!!!!!!!!!!!!!!!!!!!!!!!!!!!!!!!!!!!!!!!!!!!!!!!!!!!!!!!!!!!!!!!!!!!!!!!!!!!!!!!!!!!!!!!!!!!!!!!!!!!!!!!!!!!!!!!!!!!!!!!!!!!!!!!!!!!!!!!!!!!!!!!!!!!!!!!!!!!!!!!!!!!!!!!!!!!!!!!!!!!!!!!!!!!!!!",
"!!!!!!!!!!!!!!!!!!!!!!!!!!!!!!!!!!!!!!!!!!!!!!!!!!!!!!!!!!!!!!!!!!!!!!!!!!!!!!!!!!!!!!!!!!!!!!!!!!!!!!!!!!!!!!!!!!!!!!!!!!!!!!!!!!!!!!!!!!!!!!!!!!!!!!!!!!!!!!!!!!!!!!!!!!!!!!!!!!!!!!!!!!!!!!!!!!!!!!!!!!!!!!",
"!!!!!!!!!!!!!!!!!!!!!!!!!!!!!!!!!!!!!!!!!!!!!!!!!!!!!!!!!!!!!!!!!!!!!!!!!!!!!!!!!!!!!!!!!!!!!!!!!!!!!!!!!!!!!!!!!!!!!!!!!!!!!!!!!!!!!!!!!!!!!!!!!!!!!!!!!!!!!!!!!!!!!!!!!!!!!!!!!!!!!!!!!!!!!!!!!!!!!!!!!!!!!!",
"!!!!!!!!!!!!!!!!!!!!!!!!!!!!!!!!!!!!!!!!!!!!!!!!!!!!!!!!!!!!!!!!!!!!!!!!!!!!!!!!!!!!!!!!!!!!!!!!!!!!!!!!!!!!!!!!!!!!!!!!!!!!!!!!!!!!!!!!!!!!!!!!!!!!!!!!!!!!!!!!!!!!!!!!!!!!!!!!!!!!!!!!!!!!!!!!!!!!!!!!!!!!!!",
"!!!!!!!!!!!!!!!!!!!!!!!!!!!!!!!!!!!!!!!!!!!!!!!!!!!!!!!!!!!!!!!!!!!!!!!!!!!!!!!!!!!!!!!!!!!!!!!!!!!!!!!!!!!!!!!!!!!!!!!!!!!!!!!!!!!!!!!!!!!!!!!!!!!!!!!!!!!!!!!!!!!!!!!!!!!!!!!!!!!!!!!!!!!!!!!!!!!!!!!!!!!!!!",
"!!!!!!!!!!!!!!!!!!!!!!!!!!!!!!!!!!!!!!!!!!!!!!!!!!!!!!!!!!!!!!!!!!!!!!!!!!!!!!!!!!!!!!!!!!!!!!!!!!!!!!!!!!!!!!!!!!!!!!!!!!!!!!!!!!!!!!!!!!!!!!!!!!!!!!!!!!!!!!!!!!!!!!!!!!!!!!!!!!!!!!!!!!!!!!!!!!!!!!!!!!!!!!",
"!!!!!!!!!!!!!!!!!!!!!!!!!!!!!!!!!!!!!!!!!!!!!!!!!!!!!!!!!!!!!!!!!!!!!!!!!!!!!!!!!!!!!!!!!!!!!!!!!!!!!!!!!!!!!!!!!!!!!!!!!!!!!!!!!!!!!!!!!!!!!!!!!!!!!!!!!!!!!!!!!!!!!!!!!!!!!!!!!!!!!!!!!!!!!!!!!!!!!!!!!!!!!!",
"!!!!!!!!!!!!!!!!!!!!!!!!!!!!!!!!!!!!!!!!!!!!!!!!!!!!!!!!!!!!!!!!!!!!!!!!!!!!!!!!!!!!!!!!!!!!!!!!!!!!!!!!!!!!!!!!!!!!!!!!!!!!!!!!!!!!!!!!!!!!!!!!!!!!!!!!!!!!!!!!!!!!!!!!!!!!!!!!!!!!!!!!!!!!!!!!!!!!!!!!!!!!!!",
"!!!!!!!!!!!!!!!!!!!!!!!!!!!!!!!!!!!!!!!!!!!!!!!!!!!!!!!!!!!!!!!!!!!!!!!!!!!!!!!!!!!!!!!!!!!!!!!!!!!#!$!!!!!!!!!!!!!!!!!!!!!!!!!!!!!!!!!!!!!!!!!!!!!!!!!!!!!!!!!!!!!!!!!!!!!!!!!!!!!!!!!!!!!!!!!!!!!!!!!!!!!!!!",
"!!!!!!!!!!!!!!!!!!!!!!!!!!!!!!!!!!!!!!!!!!!!!!!!!!!!!!!!!!!!!!!!!!!!!!!!!!!!!!!!!!!!!!!!!!!!!!!!!!!%!&!'!!!!!!!!!(!!!!!!!!!!!)!*!+!!!!!!!!!!!!!!!!!!!!!!!!!!!!!!!!!!!!!!!!!!!!!!!!!!!!!!!!!!!!!!!!!!!!!!!!!!!!",
"!!!!!!!!!!!!!!!!!!!!!!!!!!!!!!!!!!!!!!!!!!!!!!!!!!!!!!!!!!!!!!!!!!!!!!!!!!!!!!!!!!!!!!!!!!!!!!!!!!!,!-!.!/!!!!!!!0!!!!!!!!!!!1!2!3!!!!!!!!!!!!!!!!!!!!!!!!!!!!!!!!!!!!!!!!!!!!!!!!!!!!!!!!!!!!!!!!!!!!!!!!!!!!",
"!!!!!!!!!!!!!!!!!!!!!!!!!!!!!!!!!!!!!!!!!!!!!!!!!!!!!!!!!!!!!!!!!!!!!!!4!5!6!!!!!!!!!!!!!!!!!!!!!!!!!!!7!8!9!!!!!!!!!!!!!!!!!!!!!!!!!!!!!!!!!!!!!!!!!!!!!!!!!!!!!!!!!!!!!!!!!!!!!!!!!!!!!!!!!!!!!!!!!!!!!!!!!!",
"!!!!!!!!!!!!!!!!!!!!!!!!!!!!!!!!!!!!!!!!!!!!!!!!!!!!!!!!!!!!!!!!!!!!!!!:!;!<!=!!!!!!!!!!!!!!!!!!!!!!!>!?!@!A!!!!!!!!!!!!!!!!!!!!!!!!!!!!!!!!!!!!!!!!!!!!!!!!!!!!!!!!!!!!!!!!!!!!!!!!!!!!!!!!!!!!!!!!!!!!!!!!!!",
"!!!!!!!!!!!!!!!!!!!!!!!!!!!!!!!!!!!!!!!!!!!!!!!!!!!!!!!!!!!!!!!!!!!!!B!C!D!E!F!G!!!!!!!!!!!!!!!!!!!H!I!J!K!L!M!N!!!!!!!O!P!Q!!!!!!!!!!!!!!!!!!!!!!!!!!!!!!!!!!!!!!!!!!!!!!!!!!!!!!!!!!!!!!!!!!!!!!!!!!!!!!!!!!",
"!!!!!!!!!!!!!!!!!!!!!!!!!!!!!!!!!!!!!!!!!!!!!!!!!!!!!!!!!!!!!!!!!!!!!!!!!R!S!T!U!V!!!!!!!!!!!!!!!W!X!Y!Z![!]!^!_!`!a!b!!!c!d!e!!!!!!!!!!!!!!!f!g!!!!!!!!!!!!!!!!!!!!!!!!!!!!!!!!!!!!!!!!!!!!!!!!!!!!!!!!!!!!!!",
"!!!!!!!!!!!!!!!!!!!!!!!!!!!!!!!!!!!!!!!!!!!!!!!!!!!!!!!!!!!!!!!!!!!!!!!!!h!i!j!k!l!!!!!!!!!!!!!m!n!o!p!q!r!s!t!u!v!w!x!!!!!y!Q!z!!!!!!!!!!!!!{!|!!!!!!!!!!!!!!!!!!!!!!!!!!!!!!!!!!!!!!!!!!!!!!!!!!!!!!!!!!!!!!",
"!!!!!!!!!!!!!!!!!!!!!!!!!!!!!!!!!!!!!!!!!!!!!!!!!!!!!!!!!!!!!!!!!!!!!!!!!}!~#!###$#%#&#'!!!!#(#)#*#+#,#-#.#/!!#1#2#3#4!!!!!!!!!!!!!!!!#5#6#7!!!!!!!!!!!!!!!!!!!!!!!!!!!!!!!!!!!!!!!!!!!!!!!!!!!!!!!!!!!!!!!!!!",
"!!!!!!!!!!!!!!!!!!!!!!!!!!!!!!!!!!!!!!!!!!!!!!!!!!!!!!!!!!!!!!!!!!#8!!!!!!#9#:#;#<#=#>#?#@#A#B#C#D#E#F#G#H#I#J#K#L#M#N#O#P!!!!!!#Q#R#S#T#U!!!!!!!!!!!!!!!!!!!!!!!!!!!!!!!!!!!!!!!!!!!!!!!!!!!!!!!!!!!!!!!!!!!!",
"!!!!!!!!!!!!!!!!!!!!!!!!!!!!!!!!!!!!!!!!!!!!!!!!!!!!!!!!!!!!!!!!!!#W#X!!!!!!#Y#Z#[#]#^#_#`#a#b#c#d#e#f#g#h#i#j#k!!#m#n#o#p#q!!!!#r#s#t#u#v!!!!!!!!!!!!!!!!!!!!!!!!!!!!!!!!!!!!!!!!!!!!!!!!!!!!!!!!!!!!!!!!!!!!",
"!!!!!!!!!!!!!!!!!!!!!!!!!!!!!!!!!!!!!!!!!!!!!!!!!!!!!!!!!!!!!!!!!!!!#w#x#y#z#{#|!!#~$!$#$$$%$&$'$($)$*$+$,$-$.$/$0$1$2$3$4$5$6$7$8$9$:$;$<!!!!!!!!!!!!!!!!!!!!!!!!!!!!!!!!!!!!!!!!!!!!!!!!!!!!!!!!!!!!!!!!!!!!",
"!!!!!!!!!!!!!!!!!!!!!!!!!!!!!!!!!!!!!!!!!!!!!!!!!!!!!!!!!!!!!!!!!!!!!!$=$>$?$@$A$B$C$D$E$F$G$H$I$J$K$L$M$N$O$P$Q$R$S$T$U$V$W$X$Y$Z$[$]$^!!!!!!!!!!!!!!!!!!!!!!!!!!!!!!!!!!!!!!!!!!!!!!!!!!!!!!!!!!!!!!!!!!!!!!",
"!!!!!!!!!!!!!!!!!!!!!!!!!!!!!!!!!!!!!!!!!!!!!!!!!!!!!!!!!!!!!!!!!!!!!!!!$_$`$a$b$c$d$e!J$f$g$h$i$j$k$l$m$n$o$p$q$r$s$t$u$v$w$x$y$z${$|!!!!!!!!!!!!!!!!!!!!!!!!!!!!!!!!!!!!!!!!!!!!!!!!!!!!!!!!!!!!!!!!!!!!!!!!",
"!!!!!!!!!!!!!!!!!!!!!!!!!!!!!!!!!!!!!!!!!!!!!!!!!!!!!!!!!!!!!!!!!!!!!!!!!!$}$~%!%#%$%%%&%'%(%)%*%+%,%-%.%/%0%1%2%3%4%5%6%7%8%9%:!!!!!!!!!!!!!!!!!!!!!!!!!!!!!!!!!!!!!!!!!!!!!!!!!!!!!!!!!!!!!!!!!!!!!!!!!!!!!!",
"!!!!!!!!!!!!!!!!!!!!!!!!!!!!!!!!!!!!!!!!!!!!!!!!!!!!!!!!!!!!!!!!!!!!!!!!!!!!%;%<%=%>%?%@%A%B%C%D%E%F!!!!%I%J%K%L%M%N$x%O%P%Q%R%S!!!!!!!!!!!!!!!!!!!!!!!!!!!!!!!!!!!!!!!!!!!!!!!!!!!!!!!!!!!!!!!!!!!!!!!!!!!!!!",
"!!!!!!!!!!!!!!!!!!!!!!!!!!!!!!!!!!!!!!!!!!!!!!!!!!!!!!!!%T%U%V!!!!!!!!!!!!!!!!%W%X%Y%Z%[%]%^%_%`%a%b%c%d%e!!!!%h%i%j%k%l%m%n%o%p%q!!!!%r!!!!!!!!!!!!!!!!!!!!!!!!!!!!!!!!!!!!!!!!!!!!!!!!!!!!!!!!!!!!!!!!!!!!!!",
"!!!!!!!!!!!!!!!!!!!!!!!!!!!!!!!!!!!!!!!!!!!!!!!!!!!!!!!!!!%s%t!!!!!!%u!!!!!!!!%v%w%x%y%z%{%|%}%~&!&#&$&%!!!!!!&)&*&+&,&-&.&/&0&1&2&3&4&5&6!!!!!!&7&8!!!!!!!!!!!!!!!!!!!!!!!!!!!!!!!!!!!!!!!!!!!!!!!!!!!!!!!!!!",
"!!!!!!!!!!!!!!!!!!!!!!!!!!!!!!!!!!!!!!!!!!!!!!!!!!!!!!!!!!!!&9!!!!&:&;&<!!!!&=&>&?&@&A&B&C&D&E&F&G&H!!!!!!!!!!!!!!&P&Q&R#e&S&T&U$a&V&W&X&Y&Z!!!!&[&]&^!!!!!!!!!!!!!!!!!!!!!!!!!!!!!!!!!!!!!!!!!!!!!!!!!!!!!!!!",
"!!!!!!!!!!!!!!!!!!!!!!!!!!!!!!!!!!!!!!!!!!!!!!!!!!!!!!!!!!!!!!!!!!&_&`&a&b&c&d&e&f&g&h%_&i&j&k&l&m&n&o!!!!!!!!&r&s&t&u&v&w&x&y&z&{&|&}!!!!!!!!!!!!!!!!!!!!!!!!!!!!!!!!!!!!!!!!!!!!!!!!!!!!!!!!!!!!!!!!!!!!!!!!",
"!!!!!!!!!!!!!!!!!!!!!!!!!!!!!!!!!!!!!!!!!!!!!!!!!!!!!!!!!!!!!!!!!!&~'!'#'$'%'&'''(')'*'+','-!!!!'0'1'2!!!!!!'6'7'8'9':';'<'='>'?'@'A!!!!!!!!!!!!!!!!!!!!!!!!!!!!!!!!!!!!!!!!!!!!!!!!!!!!!!!!!!!!!!!!!!!!!!!!!!",
"!!!!!!!!!!!!!!!!!!!!!!!!!!!!!!!!!!!!!!!!!!!!!!!!!!!!!!!!!!!!!!!!!!!!!!'B'C'D'E'F'G'H'I'J'K!!!!!!!!!!!!!!!!!!!0'P!!'R'S'T'U'V'W'X'Y!!!!!!!!!!!!!!!!!!!!!!!!!!!!!!!!!!!!!!!!!!!!!!!!!!!!!!!!!!!!!!!!!!!!!!!!!!!!",
"!!!!!!!!!!!!!!!!!!!!!!!!!!!!!!!!!!!!!!!!!!!!!!!!!!!!!!!!!!!!!!!!!!!!'Z'[']'^'_'`'a'b'c'd'e!!'g'h!!!!!!!!!!!!'n!!!!'q'r's't'u'v'w!!!!!!!!!!'x!!!!!!!!!!!!!!!!!!!!!!!!!!!!!!!!!!!!!!!!!!!!!!!!!!!!!!!!!!!!!!!!!!",
"!!!!!!!!!!!!!!!!!!!!!!!!!!!!!!!!!!!!!!!!!!!!!!!!!!!!!!!!!!!!!!!!!!!!!!'y'z'{'|'}'~(!(#($(%(&('((!!!!!!!!!!!!!!!!!!!!!!(0(1(2(3(4!!!!!!!!(5(6!!!!!!!!!!!!!!!!!!!!!!!!!!!!!!!!!!!!!!!!!!!!!!!!!!!!!!!!!!!!!!!!!!",
"!!!!!!!!!!!!!!!!!!!!!!!!!!!!!!!!!!!!!!!!!!!!!!!!!!!!!!!!!!!!!!!!!!!!!!!!(7(8(9(:(;(<(=(>(?(@(A(B!!!}(D!!!!!!!!!!!!(F(G(H(I(J(K(L(M(N(O(P(Q!!!!!!!!!!!!!!!!!!!!!!!!!!!!!!!!!!!!!!!!!!!!!!!!!!!!!!!!!!!!!!!!!!!!",
"!!!!!!!!!!!!!!!!!!!!!!!!!!!!!!!!!!!!!!!!!!!!!!!!!!!!!!!!!!!!!!(R(S!!!!!!(U(V(W(X(Y(Z([(](^(_(`(a(b!b(c!!(d(e(f(g(h(i(j(k(l(m(n(o(p(q(r(s!!!!!!!!!!!!!!!!!!!!!!!!!!!!!!!!!!!!!!!!!!!!!!!!!!!!!!!!!!!!!!!!!!!!!!",
"!!!!!!!!!!!!!!!!!!!!!!!!!!!!!!!!!!!!!!!!!!!!!!!!!!!!(t(u!!!!(u(v(w(x(y(z({(|(}(~)!)#)$)%)&)')())&n)*!!!!),)-).)/)0)1)2)3)4)5)6)7)8!!!!!!!!!!!!!!!!!!!!!!!!!!!!!!!!!!!!!!!!!!!!!!!!!!!!!!!!!!!!!!!!!!!!!!!!!!!!",
"!!!!!!!!!!!!!!!!!!!!!!!!!!!!!!!!!!!!!!!!!!!!!!!!!!!!!!!!!!!!!!!!!!)9):);)<)=)>)?)@)A)B)C)D)E)F)G)H)I)J!!!!)M)N)O)P)Q)R)S)T)U)V)W)X)Y)Z!!!!!!!!!!!!!!!!!!!!!!!!!!!!!!!!!!!!!!!!!!!!!!!!!!!!!!!!!!!!!!!!!!!!!!!!",
"!!!!!!!!!!!!!!!!!!!!!!!!!!!!!!!!!!!!!!!!!!!!!!!!!!!!!!!!!!!!!!!!!!)[)])^)_)`)a)b)c)d)e)f)g)h)i)j)k)l)m!!!!!!)q)r$f)s)t)u)v)w)x)y)z){)|!!!!!!!!!!!!!!!!!!!!!!!!!!!!!!!!!!!!!!!!!!!!!!!!!!!!!!!!!!!!!!!!!!!!!!!!",
"!!!!!!!!!!!!!!!!!!!!!!!!!!!!!!!!!!!!!!!!!!!!!!!!!!!!!!!!!!!!!!!!!!!!!!)})~*!*#*$*%!!*'*(*)***+*,*-*.*/*0*1*2*3*4*5*6*7*8*9*:*;*<*=*>*?*@*A!!!!!!!!!!!!!!!!!!!!!!!!!!!!!!!!!!!!!!!!!!!!!!!!!!!!!!!!!!!!!!!!!!!!",
"!!!!!!!!!!!!!!!!!!!!!!!!!!!!!!!!!!!!!!!!!!!!!!!!!!!!!!!!!!!!!!!!!!!!*B*C*D!!*F*G*H*I*J*K*L*M*N*O*P*Q*R*S#=*T*U*V*W*X*Y*Z*[*]*^*_*`*a*b*c!!!!!!!!!!!!!!!!!!!!!!!!!!!!!!!!!!!!!!!!!!!!!!!!!!!!!!!!!!!!!!!!!!!!!!",
"!!!!!!!!!!!!!!!!!!!!!!!!!!!!!!!!!!!!!!!!!!!!!!!!!!!!!!!!!!!!!!!!!!*d*e*f*g*h!!*j*k*l*m*n*o*p*q(!*r*s*t*u*v*w*x*y*z*{*|*}*~+!+#+$+%+&+'+(+)!!!!!!!!!!!!!!!!!!!!!!!!!!!!!!!!!!!!!!!!!!!!!!!!!!!!!!!!!!!!!!!!!!!!",
"!!!!!!!!!!!!!!!!!!!!!!!!!!!!!!!!!!!!!!!!!!!!!!!!!!!!!!!!!!!!!!!!!!!!+*!I+++,+-+.!!+0+1+2+3+4+5+6$c+7+8$s+9+:+;+<+=+>+?+@+A+B+C+D+E+F+G+H+I!!!!!!!!!!!!!!!!!!!!!!!!!!!!!!!!!!!!!!!!!!!!!!!!!!!!!!!!!!!!!!!!!!!!",
"!!!!!!!!!!!!!!!!!!!!!!!!!!!!!!!!!!!!!!!!!!!!!!!!!!!!!!!!!!!!!!!!!!!!+J+K$1+L+M+N+O+P+Q+R+S+T+U+V+W&d+X+Y+Z+[+]+^+_+`+a+b+c+d+e+f+g+h+i+j+k!!!!!!!!!!!!!!!!!!!!!!!!!!!!!!!!!!!!!!!!!!!!!!!!!!!!!!!!!!!!!!!!!!!!",
"!!!!!!!!!!!!!!!!!!!!!!!!!!!!!!!!!!!!!!!!!!!!!!!!!!!!!!!!!!!!!!!!!!+l+m!!+n+o+p+q+r!!!!+s+t+u!!!!+v+w+x(H+y+z+{+|!!+~+~!!,!,#,$,%!!,&,',(,),*!!!!!!!!!!!!!!!!!!!!!!!!!!!!!!!!!!!!!!!!!!!!!!!!!!!!!!!!!!!!!!!!!!",
"!!!!!!!!!!!!!!!!!!!!!!!!!!!!!!!!!!!!!!!!!!!!!!!!!!!!!!!!!!!!,+,,,-,.,/!!!!,0,1,2,3!!!!,4,5,6!!!!,7,8,9,:,;,<,=,>,?,@,A!!!!!!!!!!!!!!,B,C,D,E,F,G!!!!!!!!!!!!!!!!!!!!!!!!!!!!!!!!!!!!!!!!!!!!!!!!!!!!!!!!!!!!!!",
"!!!!!!!!!!!!!!!!!!!!!!!!!!!!!!!!!!!!!!!!!!!!!!!!!!!!!!!!!!,H,I,J,K,L!!!!!!!!,M,N,O!!!!,P,Q,R!!!!,S,T,U*x,V,W,X,Y,Z,[,]!!!!!!!!!!!!!!!!,^,_,`,a,b!!!!!!!!!!!!!!!!!!!!!!!!!!!!!!!!!!!!!!!!!!!!!!!!!!!!!!!!!!!!!!",
"!!!!!!!!!!!!!!!!!!!!!!!!!!!!!!!!!!!!!!!!!!!!!!!!!!!!!!!!,c,d,e,f,g!!!!!!,h,i,j,k!!!!!!,l,m,n!!!!!!,o,p,q,r,s!!!!,t,u,v,w!!!!!!!!!!!!!!!!,x,y!!!!!!!!!!!!!!!!!!!!!!!!!!!!!!!!!!!!!!!!!!!!!!!!!!!!!!!!!!!!!!!!!!",
"!!!!!!!!!!!!!!!!!!!!!!!!!!!!!!!!!!!!!!!!!!!!!!!!!!!!!!!!,z,{,|,}!!!!!!!!,~-!-#!!!!!!!!-$-%!!!!!!!!!!-&-'-(!!!!!!-)-*-+-,---.!!!!!!!!!!!!!!!!!!!!!!!!!!!!!!!!!!!!!!!!!!!!!!!!!!!!!!!!!!!!!!!!!!!!!!!!!!!!!!!!!!",
"!!!!!!!!!!!!!!!!!!!!!!!!!!!!!!!!!!!!!!!!!!!!!!!!!!!!!!!!-/-0!!!!!!!!!!!!-1-2-3-4!!!!!!-5!!!!!!!!!!!!!!-6!!!!!!!!!!-7-8-9-:-;!!!!!!!!!!!!!!!!!!!!!!!!!!!!!!!!!!!!!!!!!!!!!!!!!!!!!!!!!!!!!!!!!!!!!!!!!!!!!!!!!!",
"!!!!!!!!!!!!!!!!!!!!!!!!!!!!!!!!!!!!!!!!!!!!!!!!!!!!!!-<-=->!!!!!!!!!!!!-?-@-A!!!!!!!!!!!!!!!!!!!!-B-C-D!!!!!!!!!!!!-E-F-G!!!!!!!!!!!!!!!!!!!!!!!!!!!!!!!!!!!!!!!!!!!!!!!!!!!!!!!!!!!!!!!!!!!!!!!!!!!!!!!!!!!!",
"!!!!!!!!!!!!!!!!!!!!!!!!!!!!!!!!!!!!!!!!!!!!!!!!!!!!!!-H-I-J!!!!!!!!!!!!!!-K-L!!!!!!!!!!!!!!!!!!!!-M-N-O!!!!!!!!!!!!!!-P!!!!!!!!!!!!!!!!!!!!!!!!!!!!!!!!!!!!!!!!!!!!!!!!!!!!!!!!!!!!!!!!!!!!!!!!!!!!!!!!!!!!!!",
"!!!!!!!!!!!!!!!!!!!!!!!!!!!!!!!!!!!!!!!!!!!!!!!!!!!!!!!!!!!!!!!!!!!!!!!!!!!!-Q-R!!!!!!!!!!!!!!!!!!-S-T-U!!!!!!!!!!!!!!!!!!!!-V-W!!!!!!!!!!!!!!!!!!!!!!!!!!!!!!!!!!!!!!!!!!!!!!!!!!!!!!!!!!!!!!!!!!!!!!!!!!!!!!",
"!!!!!!!!!!!!!!!!!!!!!!!!!!!!!!!!!!!!!!!!!!!!!!!!!!!!!!!!!!!!!!!!!!!!!!!!!!!!!!!!!!!!!!!!!!!!!!!!!!-X-Y-Z!!!!!!!!!!!!!!!!!!!!!!!!!!!!!!!!!!!!!!!!!!!!!!!!!!!!!!!!!!!!!!!!!!!!!!!!!!!!!!!!!!!!!!!!!!!!!!!!!!!!!!",
"!!!!!!!!!!!!!!!!!!!!!!!!!!!!!!!!!!!!!!!!!!!!!!!!!!!!!!!!!!!!!!!!!!!!!!!!!!!!!!!!!!!!!!!!!!!!!!!!!!-[-]-^!!!!!!!!!!!!!!!!!!!!!!!!!!!!!!!!!!!!!!!!!!!!!!!!!!!!!!!!!!!!!!!!!!!!!!!!!!!!!!!!!!!!!!!!!!!!!!!!!!!!!!",
"!!!!!!!!!!!!!!!!!!!!!!!!!!!!!!!!!!!!!!!!!!!!!!!!!!!!!!!!!!!!!!!!!!!!!!!!!!!!!!!!!!!!!!!!!!!!!!!!!!!!!!!!!!!!!!!!!!!!!!!!!!!!!!!!!!!!!!!!!!!!!!!!!!!!!!!!!!!!!!!!!!!!!!!!!!!!!!!!!!!!!!!!!!!!!!!!!!!!!!!!!!!!!!",
"!!!!!!!!!!!!!!!!!!!!!!!!!!!!!!!!!!!!!!!!!!!!!!!!!!!!!!!!!!!!!!!!!!!!!!!!!!!!!!!!!!!!!!!!!!!!!!!!!!!!!!!!!!!!!!!!!!!!!!!!!!!!!!!!!!!!!!!!!!!!!!!!!!!!!!!!!!!!!!!!!!!!!!!!!!!!!!!!!!!!!!!!!!!!!!!!!!!!!!!!!!!!!!",
"!!!!!!!!!!!!!!!!!!!!!!!!!!!!!!!!!!!!!!!!!!!!!!!!!!!!!!!!!!!!!!!!!!!!!!!!!!!!!!!!!!!!!!!!!!!!!!!!!!!!!!!!!!!!!!!!!!!!!!!!!!!!!!!!!!!!!!!!!!!!!!!!!!!!!!!!!!!!!!!!!!!!!!!!!!!!!!!!!!!!!!!!!!!!!!!!!!!!!!!!!!!!!!",
"!!!!!!!!!!!!!!!!!!!!!!!!!!!!!!!!!!!!!!!!!!!!!!!!!!!!!!!!!!!!!!!!!!!!!!!!!!!!!!!!!!!!!!!!!!!!!!!!!!!!!!!!!!!!!!!!!!!!!!!!!!!!!!!!!!!!!!!!!!!!!!!!!!!!!!!!!!!!!!!!!!!!!!!!!!!!!!!!!!!!!!!!!!!!!!!!!!!!!!!!!!!!!!",
"!!!!!!!!!!!!!!!!!!!!!!!!!!!!!!!!!!!!!!!!!!!!!!!!!!!!!!!!!!!!!!!!!!!!!!!!!!!!!!!!!!!!!!!!!!!!!!!!!!!!!!!!!!!!!!!!!!!!!!!!!!!!!!!!!!!!!!!!!!!!!!!!!!!!!!!!!!!!!!!!!!!!!!!!!!!!!!!!!!!!!!!!!!!!!!!!!!!!!!!!!!!!!!",
"!!!!!!!!!!!!!!!!!!!!!!!!!!!!!!!!!!!!!!!!!!!!!!!!!!!!!!!!!!!!!!!!!!!!!!!!!!!!!!!!!!!!!!!!!!!!!!!!!!!!!!!!!!!!!!!!!!!!!!!!!!!!!!!!!!!!!!!!!!!!!!!!!!!!!!!!!!!!!!!!!!!!!!!!!!!!!!!!!!!!!!!!!!!!!!!!!!!!!!!!!!!!!!",
"!!!!!!!!!!!!!!!!!!!!!!!!!!!!!!!!!!!!!!!!!!!!!!!!!!!!!!!!!!!!!!!!!!!!!!!!!!!!!!!!!!!!!!!!!!!!!!!!!!!!!!!!!!!!!!!!!!!!!!!!!!!!!!!!!!!!!!!!!!!!!!!!!!!!!!!!!!!!!!!!!!!!!!!!!!!!!!!!!!!!!!!!!!!!!!!!!!!!!!!!!!!!!!",
"!!!!!!!!!!!!!!!!!!!!!!!!!!!!!!!!!!!!!!!!!!!!!!!!!!!!!!!!!!!!!!!!!!!!!!!!!!!!!!!!!!!!!!!!!!!!!!!!!!!!!!!!!!!!!!!!!!!!!!!!!!!!!!!!!!!!!!!!!!!!!!!!!!!!!!!!!!!!!!!!!!!!!!!!!!!!!!!!!!!!!!!!!!!!!!!!!!!!!!!!!!!!!!",
"!!!!!!!!!!!!!!!!!!!!!!!!!!!!!!!!!!!!!!!!!!!!!!!!!!!!!!!!!!!!!!!!!!!!!!!!!!!!!!!!!!!!!!!!!!!!!!!!!!!!!!!!!!!!!!!!!!!!!!!!!!!!!!!!!!!!!!!!!!!!!!!!!!!!!!!!!!!!!!!!!!!!!!!!!!!!!!!!!!!!!!!!!!!!!!!!!!!!!!!!!!!!!!",
"!!!!!!!!!!!!!!!!!!!!!!!!!!!!!!!!!!!!!!!!!!!!!!!!!!!!!!!!!!!!!!!!!!!!!!!!!!!!!!!!!!!!!!!!!!!!!!!!!!!!!!!!!!!!!!!!!!!!!!!!!!!!!!!!!!!!!!!!!!!!!!!!!!!!!!!!!!!!!!!!!!!!!!!!!!!!!!!!!!!!!!!!!!!!!!!!!!!!!!!!!!!!!!",
"!!!!!!!!!!!!!!!!!!!!!!!!!!!!!!!!!!!!!!!!!!!!!!!!!!!!!!!!!!!!!!!!!!!!!!!!!!!!!!!!!!!!!!!!!!!!!!!!!!!!!!!!!!!!!!!!!!!!!!!!!!!!!!!!!!!!!!!!!!!!!!!!!!!!!!!!!!!!!!!!!!!!!!!!!!!!!!!!!!!!!!!!!!!!!!!!!!!!!!!!!!!!!!",
"!!!!!!!!!!!!!!!!!!!!!!!!!!!!!!!!!!!!!!!!!!!!!!!!!!!!!!!!!!!!!!!!!!!!!!!!!!!!!!!!!!!!!!!!!!!!!!!!!!!!!!!!!!!!!!!!!!!!!!!!!!!!!!!!!!!!!!!!!!!!!!!!!!!!!!!!!!!!!!!!!!!!!!!!!!!!!!!!!!!!!!!!!!!!!!!!!!!!!!!!!!!!!!",
"!!!!!!!!!!!!!!!!!!!!!!!!!!!!!!!!!!!!!!!!!!!!!!!!!!!!!!!!!!!!!!!!!!!!!!!!!!!!!!!!!!!!!!!!!!!!!!!!!!!!!!!!!!!!!!!!!!!!!!!!!!!!!!!!!!!!!!!!!!!!!!!!!!!!!!!!!!!!!!!!!!!!!!!!!!!!!!!!!!!!!!!!!!!!!!!!!!!!!!!!!!!!!!",
"!!!!!!!!!!!!!!!!!!!!!!!!!!!!!!!!!!!!!!!!!!!!!!!!!!!!!!!!!!!!!!!!!!!!!!!!!!!!!!!!!!!!!!!!!!!!!!!!!!!!!!!!!!!!!!!!!!!!!!!!!!!!!!!!!!!!!!!!!!!!!!!!!!!!!!!!!!!!!!!!!!!!!!!!!!!!!!!!!!!!!!!!!!!!!!!!!!!!!!!!!!!!!!",
"!!!!!!!!!!!!!!!!!!!!!!!!!!!!!!!!!!!!!!!!!!!!!!!!!!!!!!!!!!!!!!!!!!!!!!!!!!!!!!!!!!!!!!!!!!!!!!!!!!!!!!!!!!!!!!!!!!!!!!!!!!!!!!!!!!!!!!!!!!!!!!!!!!!!!!!!!!!!!!!!!!!!!!!!!!!!!!!!!!!!!!!!!!!!!!!!!!!!!!!!!!!!!!",
"!!!!!!!!!!!!!!!!!!!!!!!!!!!!!!!!!!!!!!!!!!!!!!!!!!!!!!!!!!!!!!!!!!!!!!!!!!!!!!!!!!!!!!!!!!!!!!!!!!!!!!!!!!!!!!!!!!!!!!!!!!!!!!!!!!!!!!!!!!!!!!!!!!!!!!!!!!!!!!!!!!!!!!!!!!!!!!!!!!!!!!!!!!!!!!!!!!!!!!!!!!!!!!",
"!!!!!!!!!!!!!!!!!!!!!!!!!!!!!!!!!!!!!!!!!!!!!!!!!!!!!!!!!!!!!!!!!!!!!!!!!!!!!!!!!!!!!!!!!!!!!!!!!!!!!!!!!!!!!!!!!!!!!!!!!!!!!!!!!!!!!!!!!!!!!!!!!!!!!!!!!!!!!!!!!!!!!!!!!!!!!!!!!!!!!!!!!!!!!!!!!!!!!!!!!!!!!!",
"!!!!!!!!!!!!!!!!!!!!!!!!!!!!!!!!!!!!!!!!!!!!!!!!!!!!!!!!!!!!!!!!!!!!!!!!!!!!!!!!!!!!!!!!!!!!!!!!!!!!!!!!!!!!!!!!!!!!!!!!!!!!!!!!!!!!!!!!!!!!!!!!!!!!!!!!!!!!!!!!!!!!!!!!!!!!!!!!!!!!!!!!!!!!!!!!!!!!!!!!!!!!!!",
"!!!!!!!!!!!!!!!!!!!!!!!!!!!!!!!!!!!!!!!!!!!!!!!!!!!!!!!!!!!!!!!!!!!!!!!!!!!!!!!!!!!!!!!!!!!!!!!!!!!!!!!!!!!!!!!!!!!!!!!!!!!!!!!!!!!!!!!!!!!!!!!!!!!!!!!!!!!!!!!!!!!!!!!!!!!!!!!!!!!!!!!!!!!!!!!!!!!!!!!!!!!!!!",
"!!!!!!!!!!!!!!!!!!!!!!!!!!!!!!!!!!!!!!!!!!!!!!!!!!!!!!!!!!!!!!!!!!!!!!!!!!!!!!!!!!!!!!!!!!!!!!!!!!!!!!!!!!!!!!!!!!!!!!!!!!!!!!!!!!!!!!!!!!!!!!!!!!!!!!!!!!!!!!!!!!!!!!!!!!!!!!!!!!!!!!!!!!!!!!!!!!!!!!!!!!!!!!",
"!!!!!!!!!!!!!!!!!!!!!!!!!!!!!!!!!!!!!!!!!!!!!!!!!!!!!!!!!!!!!!!!!!!!!!!!!!!!!!!!!!!!!!!!!!!!!!!!!!!!!!!!!!!!!!!!!!!!!!!!!!!!!!!!!!!!!!!!!!!!!!!!!!!!!!!!!!!!!!!!!!!!!!!!!!!!!!!!!!!!!!!!!!!!!!!!!!!!!!!!!!!!!!",
"!!!!!!!!!!!!!!!!!!!!!!!!!!!!!!!!!!!!!!!!!!!!!!!!!!!!!!!!!!!!!!!!!!!!!!!!!!!!!!!!!!!!!!!!!!!!!!!!!!!!!!!!!!!!!!!!!!!!!!!!!!!!!!!!!!!!!!!!!!!!!!!!!!!!!!!!!!!!!!!!!!!!!!!!!!!!!!!!!!!!!!!!!!!!!!!!!!!!!!!!!!!!!!",
"!!!!!!!!!!!!!!!!!!!!!!!!!!!!!!!!!!!!!!!!!!!!!!!!!!!!!!!!!!!!!!!!!!!!!!!!!!!!!!!!!!!!!!!!!!!!!!!!!!!!!!!!!!!!!!!!!!!!!!!!!!!!!!!!!!!!!!!!!!!!!!!!!!!!!!!!!!!!!!!!!!!!!!!!!!!!!!!!!!!!!!!!!!!!!!!!!!!!!!!!!!!!!!",
"!!!!!!!!!!!!!!!!!!!!!!!!!!!!!!!!!!!!!!!!!!!!!!!!!!!!!!!!!!!!!!!!!!!!!!!!!!!!!!!!!!!!!!!!!!!!!!!!!!!!!!!!!!!!!!!!!!!!!!!!!!!!!!!!!!!!!!!!!!!!!!!!!!!!!!!!!!!!!!!!!!!!!!!!!!!!!!!!!!!!!!!!!!!!!!!!!!!!!!!!!!!!!!",
"!!!!!!!!!!!!!!!!!!!!!!!!!!!!!!!!!!!!!!!!!!!!!!!!!!!!!!!!!!!!!!!!!!!!!!!!!!!!!!!!!!!!!!!!!!!!!!!!!!!!!!!!!!!!!!!!!!!!!!!!!!!!!!!!!!!!!!!!!!!!!!!!!!!!!!!!!!!!!!!!!!!!!!!!!!!!!!!!!!!!!!!!!!!!!!!!!!!!!!!!!!!!!!",
"!!!!!!!!!!!!!!!!!!!!!!!!!!!!!!!!!!!!!!!!!!!!!!!!!!!!!!!!!!!!!!!!!!!!!!!!!!!!!!!!!!!!!!!!!!!!!!!!!!!!!!!!!!!!!!!!!!!!!!!!!!!!!!!!!!!!!!!!!!!!!!!!!!!!!!!!!!!!!!!!!!!!!!!!!!!!!!!!!!!!!!!!!!!!!!!!!!!!!!!!!!!!!!",
"!!!!!!!!!!!!!!!!!!!!!!!!!!!!!!!!!!!!!!!!!!!!!!!!!!!!!!!!!!!!!!!!!!!!!!!!!!!!!!!!!!!!!!!!!!!!!!!!!!!!!!!!!!!!!!!!!!!!!!!!!!!!!!!!!!!!!!!!!!!!!!!!!!!!!!!!!!!!!!!!!!!!!!!!!!!!!!!!!!!!!!!!!!!!!!!!!!!!!!!!!!!!!!",
"!!!!!!!!!!!!!!!!!!!!!!!!!!!!!!!!!!!!!!!!!!!!!!!!!!!!!!!!!!!!!!!!!!!!!!!!!!!!!!!!!!!!!!!!!!!!!!!!!!!!!!!!!!!!!!!!!!!!!!!!!!!!!!!!!!!!!!!!!!!!!!!!!!!!!!!!!!!!!!!!!!!!!!!!!!!!!!!!!!!!!!!!!!!!!!!!!!!!!!!!!!!!!!",
"!!!!!!!!!!!!!!!!!!!!!!!!!!!!!!!!!!!!!!!!!!!!!!!!!!!!!!!!!!!!!!!!!!!!!!!!!!!!!!!!!!!!!!!!!!!!!!!!!!!!!!!!!!!!!!!!!!!!!!!!!!!!!!!!!!!!!!!!!!!!!!!!!!!!!!!!!!!!!!!!!!!!!!!!!!!!!!!!!!!!!!!!!!!!!!!!!!!!!!!!!!!!!!",
"!!!!!!!!!!!!!!!!!!!!!!!!!!!!!!!!!!!!!!!!!!!!!!!!!!!!!!!!!!!!!!!!!!!!!!!!!!!!!!!!!!!!!!!!!!!!!!!!!!!!!!!!!!!!!!!!!!!!!!!!!!!!!!!!!!!!!!!!!!!!!!!!!!!!!!!!!!!!!!!!!!!!!!!!!!!!!!!!!!!!!!!!!!!!!!!!!!!!!!!!!!!!!!",
"!!!!!!!!!!!!!!!!!!!!!!!!!!!!!!!!!!!!!!!!!!!!!!!!!!!!!!!!!!!!!!!!!!!!!!!!!!!!!!!!!!!!!!!!!!!!!!!!!!!!!!!!!!!!!!!!!!!!!!!!!!!!!!!!!!!!!!!!!!!!!!!!!!!!!!!!!!!!!!!!!!!!!!!!!!!!!!!!!!!!!!!!!!!!!!!!!!!!!!!!!!!!!!",
"!!!!!!!!!!!!!!!!!!!!!!!!!!!!!!!!!!!!!!!!!!!!!!!!!!!!!!!!!!!!!!!!!!!!!!!!!!!!!!!!!!!!!!!!!!!!!!!!!!!!!!!!!!!!!!!!!!!!!!!!!!!!!!!!!!!!!!!!!!!!!!!!!!!!!!!!!!!!!!!!!!!!!!!!!!!!!!!!!!!!!!!!!!!!!!!!!!!!!!!!!!!!!!",
"!!!!!!!!!!!!!!!!!!!!!!!!!!!!!!!!!!!!!!!!!!!!!!!!!!!!!!!!!!!!!!!!!!!!!!!!!!!!!!!!!!!!!!!!!!!!!!!!!!!!!!!!!!!!!!!!!!!!!!!!!!!!!!!!!!!!!!!!!!!!!!!!!!!!!!!!!!!!!!!!!!!!!!!!!!!!!!!!!!!!!!!!!!!!!!!!!!!!!!!!!!!!!!",
"!!!!!!!!!!!!!!!!!!!!!!!!!!!!!!!!!!!!!!!!!!!!!!!!!!!!!!!!!!!!!!!!!!!!!!!!!!!!!!!!!!!!!!!!!!!!!!!!!!!!!!!!!!!!!!!!!!!!!!!!!!!!!!!!!!!!!!!!!!!!!!!!!!!!!!!!!!!!!!!!!!!!!!!!!!!!!!!!!!!!!!!!!!!!!!!!!!!!!!!!!!!!!!",
"!!!!!!!!!!!!!!!!!!!!!!!!!!!!!!!!!!!!!!!!!!!!!!!!!!!!!!!!!!!!!!!!!!!!!!!!!!!!!!!!!!!!!!!!!!!!!!!!!!!!!!!!!!!!!!!!!!!!!!!!!!!!!!!!!!!!!!!!!!!!!!!!!!!!!!!!!!!!!!!!!!!!!!!!!!!!!!!!!!!!!!!!!!!!!!!!!!!!!!!!!!!!!!"
};