/* XPM */
static const char *enemy_floor3_red_guard_standing_f00[] = {
/* columns rows colors chars-per-pixel */
"64 64 59 1",
"! c None",
"# c #A0A0A0",
"$ c #5C5C5C",
"% c #000000",
"& c #6C6C6C",
"' c #7C7C7C",
"( c #684018",
") c #94602C",
"* c #A06C3C",
"+ c #B08458",
", c #C4A080",
"- c #A8784C",
". c #5C340C",
"/ c #00003C",
"0 c #E4C098",
"1 c #805424",
"2 c #643000",
"3 c #D0B094",
"4 c #CC3880",
"5 c #C01064",
"6 c #880444",
"7 c #AC0C58",
"8 c #98084C",
"9 c #C4C824",
": c #640030",
"; c #500024",
"< c #008C8C",
"= c #78E0E0",
"> c #005C5C",
"? c #007474",
"@ c #005C00",
"A c #00A4A4",
"B c #00BCBC",
"C c #10C0C0",
"D c #40D0D0",
"E c #5CD8D8",
"F c #4C4C4C",
"G c #3C3C3C",
"H c #2C2C2C",
"I c #980088",
"J c #884404",
"K c #502400",
"L c #C06410",
"M c #CC3838",
"N c #C01010",
"O c #AC0C0C",
"P c #980808",
"Q c #700404",
"R c #5C0000",
"S c #200000",
"T c #CC8038",
"U c #AC580C",
"V c #004444",
"W c #003064",
"X c #002850",
"Y c #0C5CAC",
"Z c #001C3C",
"[ c #C42424",
"] c #3C001C",
"!!!!!!!!!!!!!!!!!!!!!!!!!!!!!!!!!!!!!!!!!!!!!!!!!!!!!!!!!!!!!!!!",
"!!!!!!!!!!!!!!!!!!!!!!!!!!!!!!!!!!!!!!!!!!!!!!!!!!!!!!!!!!!!!!!!",
"!!!!!!!!!!!!!!!!!!!!!!!!!!!!!!!!!!!!!!!!!!!!!!!!!!!!!!!!!!!!!!!!",
"!!!!!!!!!!!!!!!!!!!!!!!!!!!!!!!!!!!!!!!!!!!!!!!!!!!!!!!!!!!!!!!!",
"!!!!!!!!!!!!!!!!!!!!!!!!!!!!!!!!!!!!!!!!!!!!!!!!!!!!!!!!!!!!!!!!",
"!!!!!!!!!!!!!!!!!!!!!!!!!!!!!!!!!!!!!!!!!!!!!!!!!!!!!!!!!!!!!!!!",
"!!!!!!!!!!!!!!!!!!!!!!!!!!!!!!!!!!!!!!!!!!!!!!!!!!!!!!!!!!!!!!!!",
"!!!!!!!!!!!!!!!!!!!!!!!!!!!!!!!!!!!#!!!!!!!!!!!!!!!!!!!!!!!!!!!!",
"!!!!!!!!!!!!!!!!!!!!!!!!!!!!!!!!!!!$!!!!!!!!!!!!!!!!!!!!!!!!!!!!",
"!!!!!!!!!!!!!!!!!!!!!!!!!!%%%%%%%!!&!!!!!!!!!!!!!!!!!!!!!!!!!!!!",
"!!!!!!!!!!!!!!!!!!!!!!!!!%%%%%%%%%!'!!!!!!!!!!!!!!!!!!!!!!!!!!!!",
"!!!!!!!!!!!!!!!!!!!!!!!!%())(%())(%'!!!!!!!!!!!!!!!!!!!!!!!!!!!!",
"!!!!!!!!!!!!!!!!!!!!!!!!%*++,,,++*%'!!!!!!!!!!!!!!!!!!!!!!!!!!!!",
"!!!!!!!!!!!!!!!!!!!!!!!!%%))*-*))%%'!!!!!!!!!!!!!!!!!!!!!!!!!!!!",
"!!!!!!!!!!!!!!!!!!!!!!!!%)./()(/.)%%!!!!!!!!!!!!!!!!!!!!!!!!!!!!",
"!!!!!!!!!!!!!!!!!!!!!!!!)+,,-,-,,+$&!!!!!!!!!!!!!!!!!!!!!!!!!!!!",
"!!!!!!!!!!!!!!!!!!!!!!!!.)-*,0,*-)%%!!!!!!!!!!!!!!!!!!!!!!!!!!!!",
"!!!!!!!!!!!!!!!!!!!!!!!!!-*-)1)-*-%%!!!!!!!!!!!!!!!!!!!!!!!!!!!!",
"!!!!!!!!!!!!!!!!!!!!!!!!!)-.222.-)!!!!!!!!!!!!!!!!!!!!!!!!!!!!!!",
"!!!!!!!!!!!!!!!!!!!!!!!!!1*-+3+-*1!!!!!!!!!!!!!!!!!!!!!!!!!!!!!!",
"!!!!!!!!!!!!!!!!!!!!!!!!!4)1(((1)4!!!!!!!!!!!!!!!!!!!!!!!!!!!!!!",
"!!!!!!!!!!!!!!!!!!!5445565-)*)*)-5655445!!!!!!!!!!!!!!!!!!!!!!!!",
"!!!!!!!!!!!!!!!!!!578757687-,-,-786757875!!!!!!!!!!!!!!!!!!!!!!!",
"!!!!!!!!!!!!!!!!!5788887868777778687888875!!!!!!!!!!!!!!!!!!!!!!",
"!!!!!!!!!!!!!!!!!5888868886687866999688885!!!!!!!!!!!!!!!!!!!!!!",
"!!!!!!!!!!!!!!!!4588668888888688:9998668854!!!!!!!!!!!!!!!!!!!!!",
"!!!!!!!!!!!!!!!5886:6:6888888688:::86:6:6885!!!!!!!!!!!!!!!!!!!!",
"!!!!!!!!!!!!!!!57886:;:6<=>>>=688886:6:68865!!!!!!!!!!!!!!!!!!!!",
"!!!!!!!!!!!!!!5888866;6:;;?@?:;::;;:6;6688885!!!!!!!!!!!!!!!!!!!",
"!!!!!!!!!!!!!!578866;;8:6AAAAAABCDE=6;:668875!!!!!!!!!!!!!!!!!!!",
"!!!!!!!!!!!!!578FGH%I;68<BBJKJKJKJ?<=L==MMNOPQRSDD!!!!!!!!!!!!!!",
"!!!!!!!!!!!!!56GFFG%II;6?<BTUTUTUTJ?BT<<MMNOPQRSAA<!!!!!!!!!!!!!",
"!!!!!!!!!!!!!!:%GFGHF%%VV?<AAAAAAVVWBVVV%%G%:!!!!!!!!!!!!!!!!!!!",
"!!!!!!!!!!!!!!!%H>%GGFV>?VV<<:6666>XB>>>>%%%!!!!!!!!!!!!!!!!!!!!",
"!!!!!!!!!!!!!!!!A%GFHGF>VV6:::::666WYGG$FG%!!!!!!!!!!!!!!!!!!!!!",
"!!!!!!!!!!!!!!!!?%HGFH%V>6666:66666ZWFFF%%!!!!!!!!!!!!!!!!!!!!!!",
"!!!!!!!!!!!!!!!!V<%HH%%%%%%#%G%#%%%ZWGGGF%!!!!!!!!!!!!!!!!!!!!!!",
"!!!!!!!!!!!!!!!!!<A%%[%%%%%'%%%'%%%WYGFFG%!!!!!!!!!!!!!!!!!!!!!!",
"!!!!!!!!!!!!!!!!!>?!!%%%%%%$%%%$%%%%%%!%%!!!!!!!!!!!!!!!!!!!!!!!",
"!!!!!!!!!!!!!!!!!!!!!%%%;:6888886:;%%%!!!!!!!!!!!!!!!!!!!!!!!!!!",
"!!!!!!!!!!!!!!!!!!!!!!5666:66666:6665!!!!!!!!!!!!!!!!!!!!!!!!!!!",
"!!!!!!!!!!!!!!!!!!!!!578886;686;688885!!!!!!!!!!!!!!!!!!!!!!!!!!",
"!!!!!!!!!!!!!!!!!!!!!57886::;;;:::6875!!!!!!!!!!!!!!!!!!!!!!!!!!",
"!!!!!!!!!!!!!!!!!!!!!5888886:]:6888885!!!!!!!!!!!!!!!!!!!!!!!!!!",
"!!!!!!!!!!!!!!!!!!!!!588886:;]:6888885!!!!!!!!!!!!!!!!!!!!!!!!!!",
"!!!!!!!!!!!!!!!!!!!!!5888886:]:6688875!!!!!!!!!!!!!!!!!!!!!!!!!!",
"!!!!!!!!!!!!!!!!!!!!!57886::;]:6888785!!!!!!!!!!!!!!!!!!!!!!!!!!",
"!!!!!!!!!!!!!!!!!!!!!5888886:]:6888875!!!!!!!!!!!!!!!!!!!!!!!!!!",
"!!!!!!!!!!!!!!!!!!!!!!58888::];:68885!!!!!!!!!!!!!!!!!!!!!!!!!!!",
"!!!!!!!!!!!!!!!!!!!!!!586:;::]::;:885!!!!!!!!!!!!!!!!!!!!!!!!!!!",
"!!!!!!!!!!!!!!!!!!!!!!5788:8:]:6:8875!!!!!!!!!!!!!!!!!!!!!!!!!!!",
"!!!!!!!!!!!!!!!!!!!!!57888:8:];8:88885!!!!!!!!!!!!!!!!!!!!!!!!!!",
"!!!!!!!!!!!!!!!!!!!!!586::86:]:66::875!!!!!!!!!!!!!!!!!!!!!!!!!!",
"!!!!!!!!!!!!!!!!!!!!!586666:;];:666685!!!!!!!!!!!!!!!!!!!!!!!!!!",
"!!!!!!!!!!!!!!!!!!!!!!%:::;%%!%%;:::%!!!!!!!!!!!!!!!!!!!!!!!!!!!",
"!!!!!!!!!!!!!!!!!!!!!!%GFGH%%!%%HGFG%!!!!!!!!!!!!!!!!!!!!!!!!!!!",
"!!!!!!!!!!!!!!!!!!!!!!%GGFH%%!%%HFFG%!!!!!!!!!!!!!!!!!!!!!!!!!!!",
"!!!!!!!!!!!!!!!!!!!!!!%F$GH%%!%%HG$F%!!!!!!!!!!!!!!!!!!!!!!!!!!!",
"!!!!!!!!!!!!!!!!!!!!!!!HGGGH%!%HGGGH!!!!!!!!!!!!!!!!!!!!!!!!!!!!",
"!!!!!!!!!!!!!!!!!!!!!!%FFGH%%!%%HGFF%!!!!!!!!!!!!!!!!!!!!!!!!!!!",
"!!!!!!!!!!!!!!!!!!!!!%GGGGHH%!%HHGGGG%!!!!!!!!!!!!!!!!!!!!!!!!!!",
"!!!!!!!!!!!!!!!!!!!!%G$FGH%%%!%%%HGF$G%!!!!!!!!!!!!!!!!!!!!!!!!!",
"!!!!!!!!!!!!!!!!!!!!%%%%%%%%!!!%%%%%%%%!!!!!!!!!!!!!!!!!!!!!!!!!",
"!!!!!!!!!!!!!!!!!!!!!!!!!!!!!!!!!!!!!!!!!!!!!!!!!!!!!!!!!!!!!!!!"
};