/* XPM */
static const char *enemy_floor3_red_guard_standing_f07[] = {
/* columns rows colors chars-per-pixel */
"64 64 55 1",
"! c None",
"# c #A0A0A0",
"$ c #5C5C5C",
"% c #000000",
"& c #684018",
"' c #94602C",
"( c #B08458",
") c #C4A080",
"* c #A8784C",
"+ c #A06C3C",
", c #805424",
"- c #00003C",
". c #5C340C",
"/ c #E4C098",
"0 c #643000",
"1 c #D0B094",
"2 c #C01064",
"3 c #CC3880",
"4 c #98084C",
"5 c #880444",
"6 c #AC0C58",
"7 c #C4C824",
"8 c #640030",
"9 c #78E0E0",
": c #005C5C",
"; c #500024",
"< c #007474",
"= c #00BCBC",
"> c #008C8C",
"? c #40D0D0",
"@ c #502400",
"A c #884404",
"B c #CC3838",
"C c #AC0C0C",
"D c #980808",
"E c #700404",
"F c #5C0000",
"G c #AC580C",
"H c #CC8038",
"I c #840404",
"J c #480000",
"K c #3C3C3C",
"L c #2C2C2C",
"M c #004444",
"N c #00A4A4",
"O c #4C4C4C",
"P c #402810",
"Q c #0C5CAC",
"R c #003064",
"S c #001C3C",
"T c #C42424",
"U c #7C7C7C",
"V c #3C001C",
"W c #C42470",
"X c #980088",
"!!!!!!!!!!!!!!!!!!!!!!!!!!!!!!!!!!!!!!!!!!!!!!!!!!!!!!!!!!!!!!!!",
"!!!!!!!!!!!!!!!!!!!!!!!!!!!!!!!!!!!!!!!!!!!!!!!!!!!!!!!!!!!!!!!!",
"!!!!!!!!!!!!!!!!!!!!!!!!!!!!!!!!!!!!!!!!!!!!!!!!!!!!!!!!!!!!!!!!",
"!!!!!!!!!!!!!!!!!!!!!!!!!!!!!!!!!!!!!!!!!!!!!!!!!!!!!!!!!!!!!!!!",
"!!!!!!!!!!!!!!!!!!!!!!!!!!!!!!!!!!!!!!!!!!!!!!!!!!!!!!!!!!!!!!!!",
"!!!!!!!!!!!!!!!!!!!!!!!!!!!!!!!!!!!!!!!!!!!!!!!!!!!!!!!!!!!!!!!!",
"!!!!!!!!!!!!!!!!!!!!!!!!!!!!!!!!!!!!!!!!!!!!!!!!!!!!!!!!!!!!!!!!",
"!!!!!!!!!!!!!!!!!!!!!!!!!!!!!!!#!!!!!!!!!!!!!!!!!!!!!!!!!!!!!!!!",
"!!!!!!!!!!!!!!!!!!!!!!!!!!!!!!!$!!!!!!!!!!!!!!!!!!!!!!!!!!!!!!!!",
"!!!!!!!!!!!!!!!!!!!!!!!!!%%%%%%%!!!!!!!!!!!!!!!!!!!!!!!!!!!!!!!!",
"!!!!!!!!!!!!!!!!!!!!!!!!%%%%%%%%%!!!!!!!!!!!!!!!!!!!!!!!!!!!!!!!",
"!!!!!!!!!!!!!!!!!!!!!!!%%%%&''&%&'!!!!!!!!!!!!!!!!!!!!!!!!!!!!!!",
"!!!!!!!!!!!!!!!!!!!!!!!%%%%'()))(*!!!!!!!!!!!!!!!!!!!!!!!!!!!!!!",
"!!!!!!!!!!!!!!!!!!!!!!!%%%&(%%'*+'!!!!!!!!!!!!!!!!!!!!!!!!!!!!!!",
"!!!!!!!!!!!!!!!!!!!!!!!%%*+',-.,'.!!!!!!!!!!!!!!!!!!!!!!!!!!!!!!",
"!!!!!!!!!!!!!!!!!!!!!!!%%+,())*)*)!!!!!!!!!!!!!!!!!!!!!!!!!!!!!!",
"!!!!!!!!!!!!!!!!!!!!!!!%%&+**+)(/*!!!!!!!!!!!!!!!!!!!!!!!!!!!!!!",
"!!!!!!!!!!!!!!!!!!!!!!!!%%&'+*+''+!!!!!!!!!!!!!!!!!!!!!!!!!!!!!!",
"!!!!!!!!!!!!!!!!!!!!!!!!,'&'*.00.*!!!!!!!!!!!!!!!!!!!!!!!!!!!!!!",
"!!!!!!!!!!!!!!!!!!!!!!!!'*',+*(1(+!!!!!!!!!!!!!!!!!!!!!!!!!!!!!!",
"!!!!!!!!!!!!!!!!!!!!!!!!+**',&&,!!!!!!!!!!!!!!!!!!!!!!!!!!!!!!!!",
"!!!!!!!!!!!!!!!!!!!!!!232+(*++''32!!!!!!!!!!!!!!!!!!!!!!!!!!!!!!",
"!!!!!!!!!!!!!!!!!!!!2245466()*'*64232!!!!!!!!!!!!!!!!!!!!!!!!!!!",
"!!!!!!!!!!!!!!!!!!!23364554666664564632!!!!!!!!!!!!!!!!!!!!!!!!!",
"!!!!!!!!!!!!!!!!!!3466445444554554444462!!!!!!!!!!!!!!!!!!!!!!!!",
"!!!!!!!!!!!!!!!!!26444445444445466774442!!!!!!!!!!!!!!!!!!!!!!!!",
"!!!!!!!!!!!!!!!!!24544455444444548775442!!!!!!!!!!!!!!!!!!!!!!!!",
"!!!!!!!!!!!!!!!!!248555846646445488488562!!!!!!!!!!!!!!!!!!!!!!!",
"!!!!!!!!!!!!!!!!236558855444%9:::94455442!!!!!!!!!!!!!!!!!!!!!!!",
"!!!!!!!!!!!!!!!!264455;8555444<8<45485542!!!!!!!!!!!!!!!!!!!!!!!",
"!!!!!!!!!!!!!!!!244455;;88;;==>>>>==?9>46!!!!!!!!!!!!!!!!!!!!!!!",
"!!!!!!!!!!!!!!!244544544444==>@A@A@A@>9%9BCBCDEF?!!!!!!!!!!!!!!!",
"!!!!!!!!!!!!!!!24444%%%4444<>>GHGHGHGA=%>CDCDIFJ<!!!!!!!!!!!!!!!",
"!!!!!!!!!!!!!!!244%KLL%%%LK+M<>NNNNNM%=MM!!!!!!!!!!!!!!!!!!!!!!!",
"!!!!!!!!!!!!!!!!2;%LK%.%L%LK<M<<544:%%=LKO!!!!!!!!!!!!!!!!!!!!!!",
"!!!!!!!!!!!!!!!!!!%%%=9+%L%LP%454444QRK%%L!!!!!!!!!!!!!!!!!!!!!!",
"!!!!!!!!!!!!!!!!!!!%%>=,,&&P%%#%K#%%RSLLKO!!!!!!!!!!!!!!!!!!!!!!",
"!!!!!!!!!!!!!!!!!!!%T:>=&P%%%%U%%U%%RS%%LL!!!!!!!!!!!!!!!!!!!!!!",
"!!!!!!!!!!!!!!!!!!!%%%<=POK%%%$%%$%%QR%LK!!!!!!!!!!!!!!!!!!!!!!!",
"!!!!!!!!!!!!!!!!!!!%%%:<454466666645%%!!!!!!!!!!!!!!!!!!!!!!!!!!",
"!!!!!!!!!!!!!!!!!!!!25554454455555448!!!!!!!!!!!!!!!!!!!!!!!!!!!",
"!!!!!!!!!!!!!!!!!!!!42444448545854462!!!!!!!!!!!!!!!!!!!!!!!!!!!",
"!!!!!!!!!!!!!!!!!!!!!266445;VV;544442!!!!!!!!!!!!!!!!!!!!!!!!!!!",
"!!!!!!!!!!!!!!!!!!!!!W644445V;5554462!!!!!!!!!!!!!!!!!!!!!!!!!!!",
"!!!!!!!!!!!!!!!!!!!!!3644445V85466662!!!!!!!!!!!!!!!!!!!!!!!!!!!",
"!!!!!!!!!!!!!!!!!!!!!3664645;8544442!!!!!!!!!!!!!!!!!!!!!!!!!!!!",
"!!!!!!!!!!!!!!!!!!!!!W644455;5544462!!!!!!!!!!!!!!!!!!!!!!!!!!!!",
"!!!!!!!!!!!!!!!!!!!!!2644445;;854442!!!!!!!!!!!!!!!!!!!!!!!!!!!!",
"!!!!!!!!!!!!!!!!!!!!!2464445;8544442!!!!!!!!!!!!!!!!!!!!!!!!!!!!",
"!!!!!!!!!!!!!!!!!!!!!6654458;8446662!!!!!!!!!!!!!!!!!!!!!!!!!!!!",
"!!!!!!!!!!!!!!!!!!!!!W64455;85544642!!!!!!!!!!!!!!!!!!!!!!!!!!!!",
"!!!!!!!!!!!!!!!!!!!!2346445V;545542!!!!!!!!!!!!!!!!!!!!!!!!!!!!!",
"!!!!!!!!!!!!!!!!!!!!364458;V;854852!!!!!!!!!!!!!!!!!!!!!!!!!!!!!",
"!!!!!!!!!!!!!!!!!!!!2444455;8544442!!!!!!!!!!!!!!!!!!!!!!!!!!!!!",
"!!!!!!!!!!!!!!!!!!!!%%;888;%%;888;%!!!!!!!!!!!!!!!!!!!!!!!!!!!!!",
"!!!!!!!!!!!!!!!!!!!!%LOKLL%%LOKLL%%!!!!!!!!!!!!!!!!!!!!!!!!!!!!!",
"!!!!!!!!!!!!!!!!!!!!%LOKKL%%LKKKL%%!!!!!!!!!!!!!!!!!!!!!!!!!!!!!",
"!!!!!!!!!!!!!!!!!!!!%LKKKL%%LLKL%%!!!!!!!!!!!!!!!!!!!!!!!!!!!!!!",
"!!!!!!!!!!!!!!!!!!!!!%LKLL%X%KOKL%!!!!!!!!!!!!!!!!!!!!!!!!!!!!!!",
"!!!!!!!!!!!!!!!!!!!!!%KOKL%X%%LL%%!!!!!!!!!!!!!!!!!!!!!!!!!!!!!!",
"!!!!!!!!!!!!!!!!!!!!!%%LL%%X%KKKL%%!!!!!!!!!!!!!!!!!!!!!!!!!!!!!",
"!!!!!!!!!!!!!!!!!!!!!%LKKL%%LLLKOKL%%!!!!!!!!!!!!!!!!!!!!!!!!!!!",
"!!!!!!!!!!!!!!!!!!!!!%KKOOKL%%%%%%%%%%!!!!!!!!!!!!!!!!!!!!!!!!!!",
"!!!!!!!!!!!!!!!!!!!!!%%%%%%%%%%!!!!!!!!!!!!!!!!!!!!!!!!!!!!!!!!!"
};