/* XPM */
static char *enemy_floor1_firing_f01[] = {
"64 64 45 1",
"a	c None",
"b	c #6C6C6C",
"c	c #005C00",
"d	c #2C2C2C",
"e	c #007400",
"f	c #008C00",
"g	c #00A400",
"h	c #000000",
"i	c #C01010",
"j	c #4C4C4C",
"k	c #004400",
"l	c #002C00",
"m	c #587400",
"n	c #7CA400",
"o	c #5CD8D8",
"p	c #C42424",
"q	c #10C0C0",
"r	c #5C0000",
"s	c #D05050",
"t	c #00140C",
"u	c #700404",
"v	c #840404",
"w	c #3C3C00",
"x	c #CC3838",
"y	c #DC7C7C",
"z	c #5C340C",
"A	c #94602C",
"B	c #980808",
"C	c #E49898",
"D	c #684018",
"E	c #480000",
"F	c #008C8C",
"G	c #005C5C",
"H	c #00BCBC",
"I	c #00C000",
"J	c #502400",
"K	c #344400",
"L	c #C4C824",
"M	c #200000",
"N	c #001400",
"O	c #64A0D8",
"P	c #3884CC",
"Q	c #402810",
"R	c #2474C4",
"S	c #AC0C0C",
"aaaaaaaaaaaaaaaaaaaaaaaaaaaaaaaaaaaaaaaaaaaaaaaaaaaaaaaaaaaaaaaa",
"aaaaaaaaaaaaaaaaaaaaaaaaaaaaaaaaaaaaaaaaaaaaaaaaaaaaaaaaaaaaaaaa",
"aaaaaaaaaaaaaaaaaaaaaaaaaaaaaaaaaaaaaaaaaaaaaaaaaaaaaaaaaaaaaaaa",
"aaaaaaaaaaaaaaaaaaaaaaaaaaaaaaaaaaaaabaaaaaaaaaaaaaaaaaaaaaaaaaa",
"aaaaaaaaaaaaaaaaaaaaaaaaaaacccccccaaadaaaaaaaaaaaaaaaaaaaaaaaaaa",
"aaaaaaaaaaaaaaaaaaaaaaaaacceeeeeeeccadaaaaaaaaaaaaaaaaaaaaaaaaaa",
"aaaaaaaaaaaaaaaaaaaaaaaaceeefffffeeecdaaaaaaaaaaaaaaaaaaaaaaaaaa",
"aaaaaaaaaaaaaaaaaaaaaaaaceeffgggffeecdaaaaaaaaaaaaaaaaaaaaaaaaaa",
"aaaaaaaaaaaaaaaaaaaaaaaceeeefffffeeehbiaaaaaaaaaaaaaaaaaaaaaaaaa",
"aaaaaaaaaaaaaaaaaaaaaaaceeeeefffeeeehjhaaaaaaaaaaaaaaaaaaaaaaaaa",
"aaaaaaaaaaaaaaaaaaaaaaaekffeceeeceffkhaaaaaaaaaaaaaaaaaaaaaaaaaa",
"aaaaaaaaaaaaaaaaaaaacffcclcfecfcefclccffcaaaaaaaaaaaaaaaaaaaaaaa",
"aaaaaaaaaaaaaaaaaaaaaklccmnknkkknknmcclkaaaaaaaaaaaaaaaaaaaaaaaa",
"aaaaaaaaaaaaaaaaaaaaaackfckkcegeckkcfkcaaaaaaaaaaaaaaaaaaaaaaaaa",
"aaaaaaaaaaaaaaaaaaaaaaclegfckckckcfgelcaaaaaaaaaaaaaaaaaaaaaaaaa",
"aaaaaaaaaaaaaaaaaaaaaaackeopqgggffeekcrrrrrrrrraaaaaaaaaaaaaaaaa",
"aaaaaaaaaaaaaaarrrrrrrdccspspstttkfeccduuuvvuuurrraaaaaaaaaaaaaa",
"aaaaaaaaaaaarrruuuuuuuwcopxyxpqzAtkeecewuuuuuvvBvurraaaaaaaaaaaa",
"aaaaaaaaaarruuuvuvBBBvvkpxyCyspADtteekffBBBvvuruuuvuraaaaaaaaaaa",
"aaaaaaaarruuvvuuvvvvvuukqpxyxpqeckfeckeevvvvBBvuruuuuraaaaaaaaaa",
"aaaaaaaEuuururruvuuuuuuekspspsggffekkeeeuuuurruvvuruuraaaaaaaaaa",
"aaaaaaaEuuuvvvururrrrrrcccqpFGcfcekcccccrrrruvvBBvuururaaaaaaaaa",
"aaaaaaEuvuvvBBvurvvBBkefgcGoHGkkkkcceefwBBvvuEuBBvvuuuraaaaaaaaa",
"aaaaaaEuuuvvBBvurruukcfggcGoqGfccefeeeeuuuuuuurvvBvuurraaaaaaaaa",
"aaaaaaEuvuuvvvuuEruvkfgIfgcGGIgeeceeeeJvvvvvuuruvvuuuEraaaaaaaaa",
"aaaaaaEuvvrruvvBBBrkcfffffffffeeceeeKruvBBvvvvuruuuurEaaaaaaaaaa",
"aaaaaaEuuruBvcefeeckceffekkcckuuuurvvvBBBLLLrurEEErrEMaaaaaaaaaa",
"aaaaaaEuruBvfffeeckkefgIgggggIfuruvvvvvBBLLLErrEMMMMMMMaaaaaaaaa",
"aaaaaaErrvBfffffffekeffgffffffeuuururruvvurEErEMMMErEMkecaaaaaaa",
"aaaaaaaErvvfefefeeckceffekkccckuruuvvvvvvvvuurEMErElckeeckaaaaaa",
"aaaaaaaEruvceeeececkefggffeeeruuurruuvvvuurEErMErlcckeeckkcaaaaa",
"aaaaaaaaruukccccccckeffIggggIeuvuuurrrrrEEruurMrlccleecllecaaaaa",
"aaaaaaaaErvKkkkkckckceffekccckuuvBBvvuuuuuurrEMrNeclcclceckcaaaa",
"aaaaaaaaaruukckckkkkcefgffffeuuuuuuvBBBvuruuurMENccllkecllecaaaa",
"aaaaaaaaaErrukkkkllllceeeeeecEEErrrrrruuuvuurrMENlkklecleclkaaaa",
"aaaaaaaaaaaErrEErrMMuurrEEEEMMMMMEEEEEEErurEraMMMNlcklkeklccaaaa",
"aaaaaaaaaaaaaaahMMMEEEErrrrrrErruurrrEEEEEEhaaaMEMNkllekkckkaaaa",
"aaaaaaaaaaaaaaahhhhhErrruuvvuruvvvuurrEhhhhhaaaaaMMNNllckkaaaaaa",
"aaaaaaaaaaaaaahhdhdhhhhhhhOhhdhhOhhhhhhhdhdhhaaaaaaaaallaaaaaaaa",
"aaaaaaaaaaaaaahhhjhhhhhhhhPhhdhhPhhhhhhhhjhhhaaaaaaaaaaaaaaaaaaa",
"aaaaaaaaaaaaaahQhdhrhhhhhhRhhhhhRhhhhhhrhdhQhaaaaaaaaaaaaaaaaaaa",
"aaaaaaaaaaaaaaahhhhvuuuuuurruvurruvvvvvvhhhhaaaaaaaaaaaaaaaaaaaa",
"aaaaaaaaaaaaaaarhhvuuuuuuuurEuEruvvvvvvvvhhraaaaaaaaaaaaaaaaaaaa",
"aaaaaaaaaaaaaaaruvvuruuuuuuurEruuvBBvvvBBvuraaaaaaaaaaaaaaaaaaaa",
"aaaaaaaaaaaaaaaruvuuruuuuuuuraruvBBBBvuvBBuraaaaaaaaaaaaaaaaaaaa",
"aaaaaaaaaaaaaaaruruvvuruuuuraaarvvBBvvvvBuuraaaaaaaaaaaaaaaaaaaa",
"aaaaaaaaaaaaaaaruEuvBuuruurraaaruvvvuBSBvruraaaaaaaaaaaaaaaaaaaa",
"aaaaaaaaaaaaaaaarEuuuuurrruraaarruvuBBBBBEuraaaaaaaaaaaaaaaaaaaa",
"aaaaaaaaaaaaaaaarrEuuurEuuuraaarurrrvBBvuEraaaaaaaaaaaaaaaaaaaaa",
"aaaaaaaaaaaaaaaacurEErrvuvucaaaruuuEruuuErraaaaaaaaaaaaaaaaaaaaa",
"aaaaaaaaaaaaaaaaacervuruvcccaaaruvvurrEEruraaaaaaaaaaaaaaaaaaaaa",
"aaaaaaaaaaaaaaaaacecccccccccaaaruvBvurruvuraaaaaaaaaaaaaaaaaaaaa",
"aaaaaaaaaaaaaaaaakccceccccccaaaacuvvuruvuecaaaaaaaaaaaaaaaaaaaaa",
"aaaaaaaaaaaaaaaaakccceecccccaaaacceeecfececaaaaaaaaaaaaaaaaaaaaa",
"aaaaaaaaaaaaaaaaacccecccccccaaaaceeeeefececaaaaaaaaaaaaaaaaaaaaa",
"aaaaaaaaaaaaaaaaccccccccecccaaaacceefffecccaaaaaaaaaaaaaaaaaaaaa",
"aaaaaaaaaaaaaaaaccccccccccccaaaaceeeffffeccaaaaaaaaaaaaaaaaaaaaa",
"aaaaaaaaaaaaaaacecececceccckaaaaceeeeeeeeccaaaaaaaaaaaaaaaaaaaaa",
"aaaaaaaaaaaaaaacekekcckccccaaaaaceefefeeeecaaaaaaaaaaaaaaaaaaaaa",
"aaaaaaaaaaaaaaaacacaccacccaaaaaaeeeceecfeecaaaaaaaaaaaaaaaaaaaaa",
"aaaaaaaaaaaaaaaaaaaaaaaaaaaaaaaacefecefcfcfcaaaaaaaaaaaaaaaaaaaa",
"aaaaaaaaaaaaaaaaaaaaaaaaaaaaaaaaceeekeekekecaaaaaaaaaaaaaaaaaaaa",
"aaaaaaaaaaaaaaaaaaaaaaaaaaaaaaaaacccaccacacaaaaaaaaaaaaaaaaaaaaa",
"aaaaaaaaaaaaaaaaaaaaaaaaaaaaaaaaaaaaaaaaaaaaaaaaaaaaaaaaaaaaaaaa"
};
