/* XPM */
static char *enemy_floor1_firing_f00[] = {
"64 64 57 1",
"a	c None",
"b	c #6C6C6C",
"c	c #005C00",
"d	c #2C2C2C",
"e	c #007400",
"f	c #008C00",
"g	c #00A400",
"h	c #000000",
"i	c #C01010",
"j	c #4C4C4C",
"k	c #004400",
"l	c #002C00",
"m	c #747804",
"n	c #C4C824",
"o	c #A4A814",
"p	c #5C0000",
"q	c #700404",
"r	c #840404",
"s	c #00140C",
"t	c #94602C",
"u	c #5C340C",
"v	c #684018",
"w	c #980808",
"x	c #200000",
"y	c #480000",
"z	c #3C3C00",
"A	c #502400",
"B	c #344400",
"C	c #10C0C0",
"D	c #007474",
"E	c #505000",
"F	c #005C5C",
"G	c #500024",
"H	c #3C001C",
"I	c #98084C",
"J	c #AC0C58",
"K	c #640030",
"L	c #7CA400",
"M	c #B0D040",
"N	c #64A0D8",
"O	c #00A4A4",
"P	c #880444",
"Q	c #28C8C8",
"R	c #3884CC",
"S	c #004444",
"T	c #008C8C",
"U	c #2474C4",
"V	c #402810",
"W	c #5CD8D8",
"X	c #003064",
"Y	c #043C74",
"Z	c #98E4E4",
"0	c #DC7C7C",
"1	c #CC3838",
"2	c #00BCBC",
"3	c #D05050",
"4	c #AC0C0C",
"aaaaaaaaaaaaaaaaaaaaaaaaaaaaaaaaaaaaaaaaaaaaaaaaaaaaaaaaaaaaaaaa",
"aaaaaaaaaaaaaaaaaaaaaaaaaaaaaaaaaaaaaaaaaaaaaaaaaaaaaaaaaaaaaaaa",
"aaaaaaaaaaaaaaaaaaaaaaaaaaaaaaaaaaaaaaaaaaaaaaaaaaaaaaaaaaaaaaaa",
"aaaaaaaaaaaaaaaaaaaaaaaaaaaaaaaaaaaaaaaabaaaaaaaaaaaaaaaaaaaaaaa",
"aaaaaaaaaaaaaaaaaaaaaaaaaaaaaacccccccaaadaaaaaaaaaaaaaaaaaaaaaaa",
"aaaaaaaaaaaaaaaaaaaaaaaaaaaacceeeeeeeccadaaaaaaaaaaaaaaaaaaaaaaa",
"aaaaaaaaaaaaaaaaaaaaaaaaaaaceeefffffeeecdaaaaaaaaaaaaaaaaaaaaaaa",
"aaaaaaaaaaaaaaaaaaaaaaaaaaaceeffgggffeecdaaaaaaaaaaaaaaaaaaaaaaa",
"aaaaaaaaaaaaaaaaaaaaaaaaaaceeeefffffeeehbiaaaaaaaaaaaaaaaaaaaaaa",
"aaaaaaaaaaaaaaaaaaaaaaaaaaceeeeefffeeeehjhaaaaaaaaaaaaaaaaaaaaaa",
"aaaaaaaaaaaaaaaaaaaaaaaaaaekffeceeeceffkhaaaaaaaaaaaaaaaaaaaaaaa",
"aaaaaaaaaaaaaaaaaaaaaaacffcclcfecfcefclccffcaaaaaaaaaaaaaaaaaaaa",
"aaaaaaaaaaaaaaaaaaaaaaaaklccmnkokkkoknmcclkaaaaaaaaaaaaaaaaaaaaa",
"aaaaaaaaaaaaaaaaaaaaaaaaackfckkcegeckkcfkcaaaaaaaaaaaaaaaaaaaaaa",
"aaaaaaaaaaaaaaaaaaaaaaaaaclegfckckckcfgelcaaaaaaaaaaaaaaaaaaaaaa",
"aaaaaaaaaaaaaaaappppppppppckeeffgggffeekcaaaaaaaaaaaaaaaaaaaaaaa",
"aaaaaaaaaaaappppqrrrrrqqrdccefkssssskfeccdpppppppaaaaaaaaaaaaaaa",
"aaaaaaaaapppqqqrrrrqqqqqqeceekstuvutskeeceqqqqqqqppppaaaaaaaaaaa",
"aaaaaaappqrwwrqqqpqrrwwwrfkeessxypyxsseekfrwwwrrrrqrqpppaaaaaaaa",
"aaaaaapqrqqqqqrwwwwwrrrrqeccesusssssusecceqrrrrwprrqqrrqppaaaaaa",
"aaaaapqrqrqpqppqrpppqqqqqeekefsvtvtvsfekeeqqqqqprprqppqpqrppaaaa",
"aaaaapqqqpqrrrqpqqrqpppppccckeffgggffekcccpppppqqwqpqrrrqprqpaaa",
"aaaapqrpqqrwwwrqpqqqrrwwwzfeekecfcfcekeefzwwwrrqqppqrwwrrqqrqpaa",
"aaaapqqqqrrwwrrqpqqqqqqqqqeeeekkkkkkkeeeeqqqqqqqqqpqrwwrrrqqqpaa",
"aaaapqpqqrwrrrqqppqqrrrrrrAeeeeceeeceeeerrrrrrrqrqpqqrrwrrqprqpa",
"aaaapqyqqqrrrqqrrwrrrrwwwrqpBeeececeeeBpqrrrrrrrqqpqqqrrrrqqqqpa",
"aaaaapypqqqqqpyyyyqrrwwwwwwrrrpqqqqqprrrrqnnnrrrrppqqqqqqqqqpqpa",
"aaaapqqyppyyyqrrwrrrrrrwwwrrrrrqpqpqrrrrrpnnnrrrpwrpqqqqqqqqyqpa",
"aaapqqpqqrwwrrqqpypppqqrrrqppqpqqqqqpqppqpppqqppryyyypqrwrqpypaa",
"aaapqpyqrwwwwrrqqyrqqrrrrrrrrrqqpqpqqrrrrrrrqqrrwwwrrqyyyppyqqpa",
"aaappqyqrrwrrrrqpapyypqqrrrrqqppqqqppqqrrqqqrrqpyyyqqrrwwrqqpqqp",
"aaaapqpqqrrwwrrqpapqqpyyypppppqqqrqqqpppppyyyyyyyyqqrrwwwwrqypqp",
"aaaapqppqqqqqqqppayppqqqqqqrrwwrqqqrwwrqqqqqqqpppypqrrrrwrrqyqpp",
"aaaapqqqppyyyyyppapqqqpqrwwwrqqqqqqqqqrwwwrqpqqqpapqrrwwrrqqpqpa",
"aaaapqzeffeekefCDappqqrqqqppppppyyypppqqqqrrqqppaappqqqqqqqppqpa",
"aaaapEecffeeceFFGHapypqpyyyyyyyxxxxxyyyyppqqrqqpaappyyyyyppqqqpa",
"aaaapefceffeecDGIGGhyyyyyypppqqppyppppppyyypqpyhaapzfekeeffezqpa",
"aaaacefecefeecfHGJGKhhhhyppqqrrrqpqrrqqpppyhhhhhaapefeceeffceEpa",
"aaaaceefceefececKGIFLMLhhhhhhhNhhdhhNhhhhhhhdhdhhacefceeffecfepa",
"aaaaaceeeceeckkFOPQGGGLhhhhhhhRhhdhhRhhhhhhhhjhhhaacfceefecefeca",
"aaaaaceefeecckkFSTMPKJHMhhhhhhUhhhhhUhhhhhhphdhVhaacecefeecfeeca",
"aaaaaaceeeceeekFDSOGGGJMWqrrqqppqrqppqrrrrrrhhhhhakkkkceeceeecaa",
"aaaaaaceececefkXFSTLPIPFWqrwrqqpyqypqrrrrrrrrhhpakeeeecceefeecaa",
"aaaaaacceeeecfekaFSTMSDZDqrwrrqqpypqqrwwrrrwwrqpkeeeeeeeceeecaaa",
"aaaaaaacecefceefkFSSTFQD01rrrrqqpapqrwwwwrqrwwqpcefcefececeecaaa",
"aaaaaaaceeceekkccSFDST20033rrrqpaaaprrwwrrrrwqqpackeefceeeeccaaa",
"aaaaaaacefekkccckTTFFSS130iqrqqpaaapqrrrqw4wrpqpceffeecfececaaaa",
"aaaaaaaacecccckkTaapFOSr31iwqqppaaappqrqwwwwwyqpkccckkeeceecaaaa",
"aaaaaaaaakkkkkkaaaaapOSqrqw1wpqpaaapqppprwwrqypaakkccckkefecaaaa",
"aaaaaaaaaaaaaaaaaaaappSqqqpwqqqpaaapqqqypqqqyppaaaakkccccecaaaaa",
"aaaaaaaaaaaaaaaaaaaacqpyypprwrqcaaapqrrqppyypqpaaaaakkkkkkaaaaaa",
"aaaaaaaaaaaaaaaaaaaaaceprqpqreecaaapqrwrqppqrqpaaaaaaaaaaaaaaaaa",
"aaaaaaaaaaaaaaaaaaaaaceceeceeeccaaaacqrrqpqrqecaaaaaaaaaaaaaaaaa",
"aaaaaaaaaaaaaaaaaaaaakccefeeeeecaaaacceeecfececaaaaaaaaaaaaaaaaa",
"aaaaaaaaaaaaaaaaaaaaakceeffeeeccaaaaceeeeefececaaaaaaaaaaaaaaaaa",
"aaaaaaaaaaaaaaaaaaaaaccefeeeeeecaaaacceefffecccaaaaaaaaaaaaaaaaa",
"aaaaaaaaaaaaaaaaaaaacceeeeeefeecaaaaceeeffffeccaaaaaaaaaaaaaaaaa",
"aaaaaaaaaaaaaaaaaaaceeeceeceeecaaaaaceeeeeeeeccaaaaaaaaaaaaaaaaa",
"aaaaaaaaaaaaaaaaaacfcfcfecfeeckaaaaaceefefeeeecaaaaaaaaaaaaaaaaa",
"aaaaaaaaaaaaaaaaaacekekeekeeecaaaaaaeeeceecfeecaaaaaaaaaaaaaaaaa",
"aaaaaaaaaaaaaaaaaaacacaccacccaaaaaaacefecefcfcfcaaaaaaaaaaaaaaaa",
"aaaaaaaaaaaaaaaaaaaaaaaaaaaaaaaaaaaaceeekeekekecaaaaaaaaaaaaaaaa",
"aaaaaaaaaaaaaaaaaaaaaaaaaaaaaaaaaaaaacccaccacacaaaaaaaaaaaaaaaaa",
"aaaaaaaaaaaaaaaaaaaaaaaaaaaaaaaaaaaaaaaaaaaaaaaaaaaaaaaaaaaaaaaa"
};
