/* XPM */
static char *enemy_floor1_firing_f02[] = {
"64 64 42 1",
"a	c None",
"b	c #6C6C6C",
"c	c #005C00",
"d	c #2C2C2C",
"e	c #007400",
"f	c #008C00",
"g	c #C01010",
"h	c #00A400",
"i	c #000000",
"j	c #4C4C4C",
"k	c #004400",
"l	c #C06410",
"m	c #002C00",
"n	c #587400",
"o	c #7CA400",
"p	c #CC8038",
"q	c #C4C824",
"r	c #D05050",
"s	c #5C0000",
"t	c #FCFCFC",
"u	c #00140C",
"v	c #700404",
"w	c #840404",
"x	c #3C3C00",
"y	c #980808",
"z	c #5C340C",
"A	c #480000",
"B	c #684018",
"C	c #94602C",
"D	c #005C5C",
"E	c #00BCBC",
"F	c #10C0C0",
"G	c #00C000",
"H	c #502400",
"I	c #344400",
"J	c #200000",
"K	c #001400",
"L	c #64A0D8",
"M	c #3884CC",
"N	c #402810",
"O	c #2474C4",
"P	c #AC0C0C",
"aaaaaaaaaaaaaaaaaaaaaaaaaaaaaaaaaaaaaaaaaaaaaaaaaaaaaaaaaaaaaaaa",
"aaaaaaaaaaaaaaaaaaaaaaaaaaaaaaaaaaaaaaaaaaaaaaaaaaaaaaaaaaaaaaaa",
"aaaaaaaaaaaaaaaaaaaaaaaaaaaaaaaaaaaaaaaaaaaaaaaaaaaaaaaaaaaaaaaa",
"aaaaaaaaaaaaaaaaaaaaaaaaaaaaaaaaaaaaabaaaaaaaaaaaaaaaaaaaaaaaaaa",
"aaaaaaaaaaaaaaaaaaaaaaaaaaacccccccaaadaaaaaaaaaaaaaaaaaaaaaaaaaa",
"aaaaaaaaaaaaaaaaaaaaaaaaacceeeeeeeccadaaaaaaaaaaaaaaaaaaaaaaaaaa",
"aaaaaaaaaaaaaaaaaaaaaaaaceeefffffeeecdaaaaaaaaaaaaaaaaaaaaaaaaaa",
"aaaaaaaaaaaaaaaaaaaaaaaaceegfhhhffeecdaaaaaaaaaaaaaaaaaaaaaaaaaa",
"aaaaaaaaaaaaaaaaaaaaaaaceeeefffffeeeibgaaaaaaaaaaaaaaaaaaaaaaaaa",
"aaaaaaaaaaaaaaaaaaaaaaaceeegefffeeeeijiaaaaaaaaaaaaaaaaaaaaaaaaa",
"aaaaaaaaaaaaaaaaaaaaaaaekfflceeeceffkiaaaaaaaaaaaaaaaaaaaaaaaaaa",
"aaaaaaaaaaaaaaaaaaaacffccmclecfcefcmccffcaaaaaaaaaaaaaaaaaaaaaaa",
"aaaaaaaaaaaaaaaaaaaaakmccnopokkkokonccmkaaaaaaaaaaaaaaaaaaaaaaaa",
"aaaaaaaaaaaaaaaaaaaaaackfckpceheckkcfkcaaaaaaaaaaaaaaaaaaaaaaaaa",
"aaaaaaaaaaaaaaaaaaaaaacmehgqgckckcfhemcaaaaaaaaaaaaaaaaaaaaaaaaa",
"aaaaaaaaaaaaaaaaaaaaaaackrlqlrhhffeekcsssssssssaaaaaaaaaaaaaaaaa",
"aaaaaaaaaaaassssssssssdcgpqtqpguukfeccdvvvwwvvvsssaaaaaaaaaaaaaa",
"aaaaaaaaaassvvvwvvvgvglppqtttqpplgkgecexvvvvvwwywvssaaaaaaaaaaaa",
"aaaaaaaassvvwwvvwwyyywwkgpqtqpguuzueekffyyywwvsvvvwvsaaaaaaaaaaa",
"aaaaaaaAvvvsvssvwvwwwvvkcrlqlrBCBufeckeewwwwyywvsvvvvsaaaaaaaaaa",
"aaaaaaaAvvvwwwvsvsssssscccgqgDhhffekkeeevvvvssvwwvsvvsaaaaaaaaaa",
"aaaaaaAvwvwwyywvswwyykefhcDpEDkfcekcccccssssvwwyywvvsvsaaaaaaaaa",
"aaaaaaAvvvwwyywvssvvkcfhhcDpFDfkkkcceefxyywwvAvyywwvvvsaaaaaaaaa",
"aaaaaaAvwvvwwwvvAsvwkfhGfhclDGhccefeeeevvvvvvvswwywvvssaaaaaaaaa",
"aaaaaaAvwwssvwwyyyskcfffffflffeeeceeeeHwwwwwvvsvwwvvvAsaaaaaaaaa",
"aaaaaaAvvsvywcefeeckceffekkgckveceeeIsvwyywwwwvsvvvvsAaaaaaaaaaa",
"aaaaaaAvsvywfffeeckkefhGhhhhhGfvvvswwwyyyqqqsvsAAAssAJaaaaaaaaaa",
"aaaaaaAsswyfffffffekeffhfffgffevsvwwwwwyyqqqAssAJJJJJJJaaaaaaaaa",
"aaaaaaaAswwfefefeeckceffekkccckvvvsvssvwwvsAAsAJJJAsAJkecaaaaaaa",
"aaaaaaaAsvwceeeececkefhhffeeesvvsvvwwwwwwwwvvsAJAsAmckeeckaaaaaa",
"aaaaaaaasvvkccccccckeffGhhhhGevvvssvvwwwvvsAAsJAsmcckeeckkcaaaaa",
"aaaaaaaaAswIkkkkckckceffekccckvwvvvsssssAAsvvsJsmccmeecmmecaaaaa",
"aaaaaaaaaAvvkckckkkkcefhffffevvvwyywwvvvvvvssAJsKecmccmceckcaaaa",
"aaaaaaaaaaAsvkkkkmmmmceeeeeecAAvvvvwyyywvsvvvsJAKccmmkecmmecaaaa",
"aaaaaaaaaaaaAAAAAAAAAAAAAAAAAAAAssssssvvvwvvssJAKmkkmecmecmkaaaa",
"aaaaaaaaaaaaaaAAssJJvvssAAAAJJJJJAAAAAAAsvsAsaJJJKmckmkekmccaaaa",
"aaaaaaaaaaaaaaaiJJJAAAAssssssAssvvsssAAAAAAiaaaJAJKkmmekkckkaaaa",
"aaaaaaaaaaaaaaaiiiiiAsssvvwwvsvwwwvvssAiiiiiaaaaaJJKKmmckkaaaaaa",
"aaaaaaaaaaaaaaiididiiiiiiiLiidiiLiiiiiiididiiaaaaaaaaammaaaaaaaa",
"aaaaaaaaaaaaaaiiijiiiiiiiiMiidiiMiiiiiiiijiiiaaaaaaaaaaaaaaaaaaa",
"aaaaaaaaaaaaaaiNidisiiiiiiOiiiiiOiiiiiisidiNiaaaaaaaaaaaaaaaaaaa",
"aaaaaaaaaaaaaaaiiiiwvvvvvvssvwvssvwwwwwwiiiiaaaaaaaaaaaaaaaaaaaa",
"aaaaaaaaaaaaaaasiiwvvvvvvvvsAvAsvwwwwwwwwiisaaaaaaaaaaaaaaaaaaaa",
"aaaaaaaaaaaaaaasvwwvsvvvvvvvsAsvvwyywwwyywvsaaaaaaaaaaaaaaaaaaaa",
"aaaaaaaaaaaaaaasvwvvsvvvvvvvsasvwyyyywvwyyvsaaaaaaaaaaaaaaaaaaaa",
"aaaaaaaaaaaaaaasvsvwwvsvvvvsaaaswwyywwwwyvvsaaaaaaaaaaaaaaaaaaaa",
"aaaaaaaaaaaaaaasvAvwyvvsvvssaaasvwwwvyPywsvsaaaaaaaaaaaaaaaaaaaa",
"aaaaaaaaaaaaaaaasAvvvvvsssvsaaassvwvyyyyyAvsaaaaaaaaaaaaaaaaaaaa",
"aaaaaaaaaaaaaaaassAvvvsAvvvsaaasvssswyywvAsaaaaaaaaaaaaaaaaaaaaa",
"aaaaaaaaaaaaaaaacvsAAsswvwvcaaasvvvAsvvvAssaaaaaaaaaaaaaaaaaaaaa",
"aaaaaaaaaaaaaaaaaceswvsvwcccaaasvwwvssAAsvsaaaaaaaaaaaaaaaaaaaaa",
"aaaaaaaaaaaaaaaaacecccccccccaaasvwywvssvwvsaaaaaaaaaaaaaaaaaaaaa",
"aaaaaaaaaaaaaaaaakccceccccccaaaacvwwvsvwvecaaaaaaaaaaaaaaaaaaaaa",
"aaaaaaaaaaaaaaaaakccceecccccaaaacceeecfececaaaaaaaaaaaaaaaaaaaaa",
"aaaaaaaaaaaaaaaaacccecccccccaaaaceeeeefececaaaaaaaaaaaaaaaaaaaaa",
"aaaaaaaaaaaaaaaaccccccccecccaaaacceefffecccaaaaaaaaaaaaaaaaaaaaa",
"aaaaaaaaaaaaaaaaccccccccccccaaaaceeeffffeccaaaaaaaaaaaaaaaaaaaaa",
"aaaaaaaaaaaaaaacecececceccckaaaaceeeeeeeeccaaaaaaaaaaaaaaaaaaaaa",
"aaaaaaaaaaaaaaacekekcckccccaaaaaceefefeeeecaaaaaaaaaaaaaaaaaaaaa",
"aaaaaaaaaaaaaaaacacaccacccaaaaaaeeeceecfeecaaaaaaaaaaaaaaaaaaaaa",
"aaaaaaaaaaaaaaaaaaaaaaaaaaaaaaaacefecefcfcfcaaaaaaaaaaaaaaaaaaaa",
"aaaaaaaaaaaaaaaaaaaaaaaaaaaaaaaaceeekeekekecaaaaaaaaaaaaaaaaaaaa",
"aaaaaaaaaaaaaaaaaaaaaaaaaaaaaaaaacccaccacacaaaaaaaaaaaaaaaaaaaaa",
"aaaaaaaaaaaaaaaaaaaaaaaaaaaaaaaaaaaaaaaaaaaaaaaaaaaaaaaaaaaaaaaa"
};
