/* XPM */
static char *enemy_floor1_firing_sheet[] = {
"192 64 65 1",
"a	c None",
"b	c #6C6C6C",
"c	c #005C00",
"d	c #2C2C2C",
"e	c #007400",
"f	c #008C00",
"g	c #00A400",
"h	c #C01010",
"i	c #000000",
"j	c #4C4C4C",
"k	c #004400",
"l	c #C06410",
"m	c #002C00",
"n	c #747804",
"o	c #C4C824",
"p	c #A4A814",
"q	c #587400",
"r	c #7CA400",
"s	c #CC8038",
"t	c #5C0000",
"u	c #5CD8D8",
"v	c #C42424",
"w	c #10C0C0",
"x	c #D05050",
"y	c #700404",
"z	c #840404",
"A	c #00140C",
"B	c #FCFCFC",
"C	c #94602C",
"D	c #5C340C",
"E	c #684018",
"F	c #3C3C00",
"G	c #CC3838",
"H	c #DC7C7C",
"I	c #980808",
"J	c #200000",
"K	c #480000",
"L	c #E49898",
"M	c #005C5C",
"N	c #008C8C",
"O	c #00BCBC",
"P	c #00C000",
"Q	c #502400",
"R	c #344400",
"S	c #001400",
"T	c #007474",
"U	c #505000",
"V	c #500024",
"W	c #3C001C",
"X	c #98084C",
"Y	c #AC0C58",
"Z	c #640030",
"0	c #B0D040",
"1	c #64A0D8",
"2	c #00A4A4",
"3	c #880444",
"4	c #28C8C8",
"5	c #3884CC",
"6	c #004444",
"7	c #2474C4",
"8	c #402810",
"9	c #003064",
"!	c #043C74",
"#	c #98E4E4",
"$	c #AC0C0C",
"aaaaaaaaaaaaaaaaaaaaaaaaaaaaaaaaaaaaaaaaaaaaaaaaaaaaaaaaaaaaaaaaaaaaaaaaaaaaaaaaaaaaaaaaaaaaaaaaaaaaaaaaaaaaaaaaaaaaaaaaaaaaaaaaaaaaaaaaaaaaaaaaaaaaaaaaaaaaaaaaaaaaaaaaaaaaaaaaaaaaaaaaaaaaaaaa",
"aaaaaaaaaaaaaaaaaaaaaaaaaaaaaaaaaaaaaaaaaaaaaaaaaaaaaaaaaaaaaaaaaaaaaaaaaaaaaaaaaaaaaaaaaaaaaaaaaaaaaaaaaaaaaaaaaaaaaaaaaaaaaaaaaaaaaaaaaaaaaaaaaaaaaaaaaaaaaaaaaaaaaaaaaaaaaaaaaaaaaaaaaaaaaaaa",
"aaaaaaaaaaaaaaaaaaaaaaaaaaaaaaaaaaaaaaaaaaaaaaaaaaaaaaaaaaaaaaaaaaaaaaaaaaaaaaaaaaaaaaaaaaaaaaaaaaaaaaaaaaaaaaaaaaaaaaaaaaaaaaaaaaaaaaaaaaaaaaaaaaaaaaaaaaaaaaaaaaaaaaaaaaaaaaaaaaaaaaaaaaaaaaaa",
"aaaaaaaaaaaaaaaaaaaaaaaaaaaaaaaaaaaaaaaabaaaaaaaaaaaaaaaaaaaaaaaaaaaaaaaaaaaaaaaaaaaaaaaaaaaaaaaaaaaabaaaaaaaaaaaaaaaaaaaaaaaaaaaaaaaaaaaaaaaaaaaaaaaaaaaaaaaaaaaaaaabaaaaaaaaaaaaaaaaaaaaaaaaaa",
"aaaaaaaaaaaaaaaaaaaaaaaaaaaaaacccccccaaadaaaaaaaaaaaaaaaaaaaaaaaaaaaaaaaaaaaaaaaaaaaaaaaaaacccccccaaadaaaaaaaaaaaaaaaaaaaaaaaaaaaaaaaaaaaaaaaaaaaaaaaaaaaaacccccccaaadaaaaaaaaaaaaaaaaaaaaaaaaaa",
"aaaaaaaaaaaaaaaaaaaaaaaaaaaacceeeeeeeccadaaaaaaaaaaaaaaaaaaaaaaaaaaaaaaaaaaaaaaaaaaaaaaaacceeeeeeeccadaaaaaaaaaaaaaaaaaaaaaaaaaaaaaaaaaaaaaaaaaaaaaaaaaaacceeeeeeeccadaaaaaaaaaaaaaaaaaaaaaaaaaa",
"aaaaaaaaaaaaaaaaaaaaaaaaaaaceeefffffeeecdaaaaaaaaaaaaaaaaaaaaaaaaaaaaaaaaaaaaaaaaaaaaaaaceeefffffeeecdaaaaaaaaaaaaaaaaaaaaaaaaaaaaaaaaaaaaaaaaaaaaaaaaaaceeefffffeeecdaaaaaaaaaaaaaaaaaaaaaaaaaa",
"aaaaaaaaaaaaaaaaaaaaaaaaaaaceeffgggffeecdaaaaaaaaaaaaaaaaaaaaaaaaaaaaaaaaaaaaaaaaaaaaaaaceeffgggffeecdaaaaaaaaaaaaaaaaaaaaaaaaaaaaaaaaaaaaaaaaaaaaaaaaaaceehfgggffeecdaaaaaaaaaaaaaaaaaaaaaaaaaa",
"aaaaaaaaaaaaaaaaaaaaaaaaaaceeeefffffeeeibhaaaaaaaaaaaaaaaaaaaaaaaaaaaaaaaaaaaaaaaaaaaaaceeeefffffeeeibhaaaaaaaaaaaaaaaaaaaaaaaaaaaaaaaaaaaaaaaaaaaaaaaaceeeefffffeeeibhaaaaaaaaaaaaaaaaaaaaaaaaa",
"aaaaaaaaaaaaaaaaaaaaaaaaaaceeeeefffeeeeijiaaaaaaaaaaaaaaaaaaaaaaaaaaaaaaaaaaaaaaaaaaaaaceeeeefffeeeeijiaaaaaaaaaaaaaaaaaaaaaaaaaaaaaaaaaaaaaaaaaaaaaaaaceeehefffeeeeijiaaaaaaaaaaaaaaaaaaaaaaaaa",
"aaaaaaaaaaaaaaaaaaaaaaaaaaekffeceeeceffkiaaaaaaaaaaaaaaaaaaaaaaaaaaaaaaaaaaaaaaaaaaaaaaekffeceeeceffkiaaaaaaaaaaaaaaaaaaaaaaaaaaaaaaaaaaaaaaaaaaaaaaaaaekfflceeeceffkiaaaaaaaaaaaaaaaaaaaaaaaaaa",
"aaaaaaaaaaaaaaaaaaaaaaacffccmcfecfcefcmccffcaaaaaaaaaaaaaaaaaaaaaaaaaaaaaaaaaaaaaaaacffccmcfecfcefcmccffcaaaaaaaaaaaaaaaaaaaaaaaaaaaaaaaaaaaaaaaaaaacffccmclecfcefcmccffcaaaaaaaaaaaaaaaaaaaaaaa",
"aaaaaaaaaaaaaaaaaaaaaaaakmccnokpkkkpkonccmkaaaaaaaaaaaaaaaaaaaaaaaaaaaaaaaaaaaaaaaaaakmccqrkrkkkrkrqccmkaaaaaaaaaaaaaaaaaaaaaaaaaaaaaaaaaaaaaaaaaaaaakmccqrsrkkkrkrqccmkaaaaaaaaaaaaaaaaaaaaaaaa",
"aaaaaaaaaaaaaaaaaaaaaaaaackfckkcegeckkcfkcaaaaaaaaaaaaaaaaaaaaaaaaaaaaaaaaaaaaaaaaaaaackfckkcegeckkcfkcaaaaaaaaaaaaaaaaaaaaaaaaaaaaaaaaaaaaaaaaaaaaaaackfckscegeckkcfkcaaaaaaaaaaaaaaaaaaaaaaaaa",
"aaaaaaaaaaaaaaaaaaaaaaaaacmegfckckckcfgemcaaaaaaaaaaaaaaaaaaaaaaaaaaaaaaaaaaaaaaaaaaaacmegfckckckcfgemcaaaaaaaaaaaaaaaaaaaaaaaaaaaaaaaaaaaaaaaaaaaaaaacmeghohckckcfgemcaaaaaaaaaaaaaaaaaaaaaaaaa",
"aaaaaaaaaaaaaaaattttttttttckeeffgggffeekcaaaaaaaaaaaaaaaaaaaaaaaaaaaaaaaaaaaaaaaaaaaaaackeuvwgggffeekctttttttttaaaaaaaaaaaaaaaaaaaaaaaaaaaaaaaaaaaaaaaackxlolxggffeekctttttttttaaaaaaaaaaaaaaaaa",
"aaaaaaaaaaaattttyzzzzzyyzdccefkAAAAAkfeccdtttttttaaaaaaaaaaaaaaaaaaaaaaaaaaaaaatttttttdccxvxvxAAAkfeccdyyyzzyyytttaaaaaaaaaaaaaaaaaaaaaaaaaattttttttttdchsoBoshAAkfeccdyyyzzyyytttaaaaaaaaaaaaaa",
"aaaaaaaaatttyyyzzzzyyyyyyeceekACDEDCAkeeceyyyyyyyttttaaaaaaaaaaaaaaaaaaaaaaatttyyyyyyyFcuvGHGvwDCAkeeceFyyyyyzzIzyttaaaaaaaaaaaaaaaaaaaaaattyyyzyyyhyhlssoBBBosslhkheceFyyyyyzzIzyttaaaaaaaaaaaa",
"aaaaaaattyzIIzyyytyzzIIIzfkeeAAJKtKJAAeekfzIIIzzzzyzytttaaaaaaaaaaaaaaaaaattyyyzyzIIIzzkvGHLHxvCEAAeekffIIIzzytyyyzytaaaaaaaaaaaaaaaaaaattyyzzyyzzIIIzzkhsoBoshAADAeekffIIIzzytyyyzytaaaaaaaaaaa",
"aaaaaatyzyyyyyzIIIIIzzzzyecceADAAAAADAecceyzzzzItzzyyzzyttaaaaaaaaaaaaaattyyzzyyzzzzzyykwvGHGvweckfeckeezzzzIIzytyyyytaaaaaaaaaaaaaaaaaKyyytyttyzyzzzyykcxlolxECEAfeckeezzzzIIzytyyyytaaaaaaaaaa",
"aaaaatyzyzytyttyztttyyyyyeekefAECECEAfekeeyyyyytztzyttytyzttaaaaaaaaaaaKyyytyttyzyyyyyyekxvxvxggffekkeeeyyyyttyzzytyytaaaaaaaaaaaaaaaaaKyyyzzzytyttttttccchohMggffekkeeeyyyyttyzzytyytaaaaaaaaaa",
"aaaaatyyytyzzzytyyzytttttccckeffgggffekccctttttyyIytyzzzytzytaaaaaaaaaaKyyyzzzytyttttttcccwvNMcfcekcccccttttyzzIIzyytytaaaaaaaaaaaaaaaKyzyzzIIzytzzIIkefgcMsOMkfcekcccccttttyzzIIzyytytaaaaaaaaa",
"aaaatyztyyzIIIzytyyyzzIIIFfeekecfcfcekeefFIIIzzyyttyzIIzzyyzytaaaaaaaaKyzyzzIIzytzzIIkefgcMuOMkkkkcceefFIIzzyKyIIzzyyytaaaaaaaaaaaaaaaKyyyzzIIzyttyykcfggcMswMfkkkcceefFIIzzyKyIIzzyyytaaaaaaaaa",
"aaaatyyyyzzIIzzytyyyyyyyyyeeeekkkkkkkeeeeyyyyyyyyytyzIIzzzyyytaaaaaaaaKyyyzzIIzyttyykcfggcMuwMfccefeeeeyyyyyyytzzIzyyttaaaaaaaaaaaaaaaKyzyyzzzyyKtyzkfgPfgclMPgccefeeeeyyyyyyytzzIzyyttaaaaaaaaa",
"aaaatytyyzIzzzyyttyyzzzzzzQeeeeceeeceeeezzzzzzzyzytyyzzIzzytzytaaaaaaaKyzyyzzzyyKtyzkfgPfgcMMPgeeceeeeQzzzzzyytyzzyyyKtaaaaaaaaaaaaaaaKyzzttyzzIIItkcfffffflffeeeceeeeQzzzzzyytyzzyyyKtaaaaaaaaa",
"aaaatyKyyyzzzyyzzIzzzzIIIzytReeececeeeRtyzzzzzzzyytyyyzzzzyyyytaaaaaaaKyzzttyzzIIItkcfffffffffeeceeeRtyzIIzzzzytyyyytKaaaaaaaaaaaaaaaaKyytyIzcefeeckceffekkhckyeceeeRtyzIIzzzzytyyyytKaaaaaaaaaa",
"aaaaatKtyyyyytKKKKyzzIIIIIIzzztyyyyytzzzzyooozzzzttyyyyyyyyytytaaaaaaaKyytyIzcefeeckceffekkcckyyyytzzzIIIoootytKKKttKJaaaaaaaaaaaaaaaaKytyIzfffeeckkefgPgggggPfyyytzzzIIIoootytKKKttKJaaaaaaaaaa",
"aaaatyyKttKKKyzzIzzzzzzIIIzzzzzytytyzzzzztooozzztIztyyyyyyyyKytaaaaaaaKytyIzfffeeckkefgPgggggPfytyzzzzzIIoooKttKJJJJJJJaaaaaaaaaaaaaaaKttzIfffffffekeffgfffhffeytyzzzzzIIoooKttKJJJJJJJaaaaaaaaa",
"aaatyytyyzIIzzyytKtttyyzzzyttytyyyyytyttytttyyttzKKKKtyzIzytKtaaaaaaaaKttzIfffffffekeffgffffffeyyytyttyzzytKKtKJJJKtKJkecaaaaaaaaaaaaaaKtzzfefefeeckceffekkccckyyytyttyzzytKKtKJJJKtKJkecaaaaaaa",
"aaatytKyzIIIIzzyyKzyyzzzzzzzzzyytytyyzzzzzzzyyzzIIIzzyKKKttKyytaaaaaaaaKtzzfefefeeckceffekkccckytyyzzzzzzzzyytKJKtKmckeeckaaaaaaaaaaaaaKtyzceeeececkefggffeeetyytyyzzzzzzzzyytKJKtKmckeeckaaaaaa",
"aaattyKyzzIzzzzytatKKtyyzzzzyyttyyyttyyzzyyyzzytKKKyyzzIIzyytyytaaaaaaaKtyzceeeececkefggffeeetyyyttyyzzzyytKKtJKtmcckeeckkcaaaaaaaaaaaaatyykccccccckeffPggggPeyyyttyyzzzyytKKtJKtmcckeeckkcaaaaa",
"aaaatytyyzzIIzzytatyytKKKtttttyyyzyyytttttKKKKKKKKyyzzIIIIzyKtytaaaaaaaatyykccccccckeffPggggPeyzyyytttttKKtyytJtmccmeecmmecaaaaaaaaaaaaaKtzRkkkkckckceffekccckyzyyytttttKKtyytJtmccmeecmmecaaaaa",
"aaaatyttyyyyyyyttaKttyyyyyyzzIIzyyyzIIzyyyyyyytttKtyzzzzIzzyKyttaaaaaaaaKtzRkkkkckckceffekccckyyzIIzzyyyyyyttKJtSecmccmceckcaaaaaaaaaaaaaKyykckckkkkcefgffffeyyyzIIzzyyyyyyttKJtSecmccmceckcaaaa",
"aaaatyyyttKKKKKttatyyytyzIIIzyyyyyyyyyzIIIzytyyytatyzzIIzzyytytaaaaaaaaaatyykckckkkkcefgffffeyyyyyyzIIIzytyyytJKSccmmkecmmecaaaaaaaaaaaaaaKtykkkkmmmmceeeeeecKKyyyyzIIIzytyyytJKSccmmkecmmecaaaa",
"aaaatyFeffeekefwTattyyzyyyttttttKKKtttyyyyzzyyttaattyyyyyyyttytaaaaaaaaaaKttykkkkmmmmceeeeeecKKKttttttyyyzyyttJKSmkkmecmecmkaaaaaaaaaaaaaaaaKKKKKKKKKKKKKKKKKKKKttttttyyyzyyttJKSmkkmecmecmkaaaa",
"aaaatUecffeeceMMVWatKtytKKKKKKKJJJJJKKKKttyyzyytaattKKKKKttyyytaaaaaaaaaaaaKttKKttJJyyttKKKKJJJJJKKKKKKKtytKtaJJJSmckmkekmccaaaaaaaaaaaaaaaaaaKKttJJyyttKKKKJJJJJKKKKKKKtytKtaJJJSmckmkekmccaaaa",
"aaaatefceffeecTVXVViKKKKKKtttyyttKttttttKKKtytKiaatFfekeeffeFytaaaaaaaaaaaaaaaaiJJJKKKKttttttKttyytttKKKKKKiaaaJKJSkmmekkckkaaaaaaaaaaaaaaaaaaaiJJJKKKKttttttKttyytttKKKKKKiaaaJKJSkmmekkckkaaaa",
"aaaacefecefeecfWVYVZiiiiKttyyzzzytyzzyytttKiiiiiaatefeceeffceUtaaaaaaaaaaaaaaaaiiiiiKtttyyzzytyzzzyyttKiiiiiaaaaaJJSSmmckkaaaaaaaaaaaaaaaaaaaaaiiiiiKtttyyzzytyzzzyyttKiiiiiaaaaaJJSSmmckkaaaaaa",
"aaaaceefceefececZVXMr0riiiiiii1iidii1iiiiiiididiiacefceeffecfetaaaaaaaaaaaaaaaiididiiiiiii1iidii1iiiiiiididiiaaaaaaaaammaaaaaaaaaaaaaaaaaaaaaaiididiiiiiii1iidii1iiiiiiididiiaaaaaaaaammaaaaaaaa",
"aaaaaceeeceeckkM234VVVriiiiiii5iidii5iiiiiiiijiiiaacfceefecefecaaaaaaaaaaaaaaaiiijiiiiiiii5iidii5iiiiiiiijiiiaaaaaaaaaaaaaaaaaaaaaaaaaaaaaaaaaiiijiiiiiiii5iidii5iiiiiiiijiiiaaaaaaaaaaaaaaaaaaa",
"aaaaaceefeecckkM6N03ZYW0iiiiii7iiiii7iiiiiitidi8iaacecefeecfeecaaaaaaaaaaaaaaai8iditiiiiii7iiiii7iiiiiitidi8iaaaaaaaaaaaaaaaaaaaaaaaaaaaaaaaaai8iditiiiiii7iiiii7iiiiiitidi8iaaaaaaaaaaaaaaaaaaa",
"aaaaaaceeeceeekMT62VVVY0uyzzyyttyzyttyzzzzzziiiiiakkkkceeceeecaaaaaaaaaaaaaaaaaiiiizyyyyyyttyzyttyzzzzzziiiiaaaaaaaaaaaaaaaaaaaaaaaaaaaaaaaaaaaiiiizyyyyyyttyzyttyzzzzzziiiiaaaaaaaaaaaaaaaaaaaa",
"aaaaaaceececefk9M6Nr3X3MuyzIzyytKyKtyzzzzzzzziitakeeeecceefeecaaaaaaaaaaaaaaaaatiizyyyyyyyytKyKtyzzzzzzzziitaaaaaaaaaaaaaaaaaaaaaaaaaaaaaaaaaaatiizyyyyyyyytKyKtyzzzzzzzziitaaaaaaaaaaaaaaaaaaaa",
"aaaaaacceeeecfekaM6N06T#TyzIzzyytKtyyzIIzzzIIzytkeeeeeeeceeecaaaaaaaaaaaaaaaaaatyzzytyyyyyyytKtyyzIIzzzIIzytaaaaaaaaaaaaaaaaaaaaaaaaaaaaaaaaaaatyzzytyyyyyyytKtyyzIIzzzIIzytaaaaaaaaaaaaaaaaaaaa",
"aaaaaaacecefceefkM66NM4THGzzzzyytatyzIIIIzyzIIytcefcefececeecaaaaaaaaaaaaaaaaaatyzyytyyyyyyytatyzIIIIzyzIIytaaaaaaaaaaaaaaaaaaaaaaaaaaaaaaaaaaatyzyytyyyyyyytatyzIIIIzyzIIytaaaaaaaaaaaaaaaaaaaa",
"aaaaaaaceeceekkcc6MT6NOHHxxzzzytaaatzzIIzzzzIyytackeefceeeeccaaaaaaaaaaaaaaaaaatytyzzytyyyytaaatzzIIzzzzIyytaaaaaaaaaaaaaaaaaaaaaaaaaaaaaaaaaaatytyzzytyyyytaaatzzIIzzzzIyytaaaaaaaaaaaaaaaaaaaa",
"aaaaaaacefekkccckNNMM66GxHhyzyytaaatyzzzyI$IztytceffeecfececaaaaaaaaaaaaaaaaaaatyKyzIyytyyttaaatyzzzyI$IztytaaaaaaaaaaaaaaaaaaaaaaaaaaaaaaaaaaatyKyzIyytyyttaaatyzzzyI$Iztytaaaaaaaaaaaaaaaaaaaa",
"aaaaaaaacecccckkNaatM26zxGhIyyttaaattyzyIIIIIKytkccckkeeceecaaaaaaaaaaaaaaaaaaaatKyyyyytttytaaattyzyIIIIIKytaaaaaaaaaaaaaaaaaaaaaaaaaaaaaaaaaaaatKyyyyytttytaaattyzyIIIIIKytaaaaaaaaaaaaaaaaaaaa",
"aaaaaaaaakkkkkkaaaaat26yzyIGItytaaatytttzIIzyKtaakkccckkefecaaaaaaaaaaaaaaaaaaaattKyyytKyyytaaatytttzIIzyKtaaaaaaaaaaaaaaaaaaaaaaaaaaaaaaaaaaaaattKyyytKyyytaaatytttzIIzyKtaaaaaaaaaaaaaaaaaaaaa",
"aaaaaaaaaaaaaaaaaaaatt6yyytIyyytaaatyyyKtyyyKttaaaakkccccecaaaaaaaaaaaaaaaaaaaaacytKKttzyzycaaatyyyKtyyyKttaaaaaaaaaaaaaaaaaaaaaaaaaaaaaaaaaaaaacytKKttzyzycaaatyyyKtyyyKttaaaaaaaaaaaaaaaaaaaaa",
"aaaaaaaaaaaaaaaaaaaacytKKttzIzycaaatyzzyttKKtytaaaaakkkkkkaaaaaaaaaaaaaaaaaaaaaaacetzytyzcccaaatyzzyttKKtytaaaaaaaaaaaaaaaaaaaaaaaaaaaaaaaaaaaaaacetzytyzcccaaatyzzyttKKtytaaaaaaaaaaaaaaaaaaaaa",
"aaaaaaaaaaaaaaaaaaaaacetzytyzeecaaatyzIzyttyzytaaaaaaaaaaaaaaaaaaaaaaaaaaaaaaaaaacecccccccccaaatyzIzyttyzytaaaaaaaaaaaaaaaaaaaaaaaaaaaaaaaaaaaaaacecccccccccaaatyzIzyttyzytaaaaaaaaaaaaaaaaaaaaa",
"aaaaaaaaaaaaaaaaaaaaaceceeceeeccaaaacyzzytyzyecaaaaaaaaaaaaaaaaaaaaaaaaaaaaaaaaaakccceccccccaaaacyzzytyzyecaaaaaaaaaaaaaaaaaaaaaaaaaaaaaaaaaaaaaakccceccccccaaaacyzzytyzyecaaaaaaaaaaaaaaaaaaaaa",
"aaaaaaaaaaaaaaaaaaaaakccefeeeeecaaaacceeecfececaaaaaaaaaaaaaaaaaaaaaaaaaaaaaaaaaakccceecccccaaaacceeecfececaaaaaaaaaaaaaaaaaaaaaaaaaaaaaaaaaaaaaakccceecccccaaaacceeecfececaaaaaaaaaaaaaaaaaaaaa",
"aaaaaaaaaaaaaaaaaaaaakceeffeeeccaaaaceeeeefececaaaaaaaaaaaaaaaaaaaaaaaaaaaaaaaaaacccecccccccaaaaceeeeefececaaaaaaaaaaaaaaaaaaaaaaaaaaaaaaaaaaaaaacccecccccccaaaaceeeeefececaaaaaaaaaaaaaaaaaaaaa",
"aaaaaaaaaaaaaaaaaaaaaccefeeeeeecaaaacceefffecccaaaaaaaaaaaaaaaaaaaaaaaaaaaaaaaaaccccccccecccaaaacceefffecccaaaaaaaaaaaaaaaaaaaaaaaaaaaaaaaaaaaaaccccccccecccaaaacceefffecccaaaaaaaaaaaaaaaaaaaaa",
"aaaaaaaaaaaaaaaaaaaacceeeeeefeecaaaaceeeffffeccaaaaaaaaaaaaaaaaaaaaaaaaaaaaaaaaaccccccccccccaaaaceeeffffeccaaaaaaaaaaaaaaaaaaaaaaaaaaaaaaaaaaaaaccccccccccccaaaaceeeffffeccaaaaaaaaaaaaaaaaaaaaa",
"aaaaaaaaaaaaaaaaaaaceeeceeceeecaaaaaceeeeeeeeccaaaaaaaaaaaaaaaaaaaaaaaaaaaaaaaacecececceccckaaaaceeeeeeeeccaaaaaaaaaaaaaaaaaaaaaaaaaaaaaaaaaaaacecececceccckaaaaceeeeeeeeccaaaaaaaaaaaaaaaaaaaaa",
"aaaaaaaaaaaaaaaaaacfcfcfecfeeckaaaaaceefefeeeecaaaaaaaaaaaaaaaaaaaaaaaaaaaaaaaacekekcckccccaaaaaceefefeeeecaaaaaaaaaaaaaaaaaaaaaaaaaaaaaaaaaaaacekekcckccccaaaaaceefefeeeecaaaaaaaaaaaaaaaaaaaaa",
"aaaaaaaaaaaaaaaaaacekekeekeeecaaaaaaeeeceecfeecaaaaaaaaaaaaaaaaaaaaaaaaaaaaaaaaacacaccacccaaaaaaeeeceecfeecaaaaaaaaaaaaaaaaaaaaaaaaaaaaaaaaaaaaacacaccacccaaaaaaeeeceecfeecaaaaaaaaaaaaaaaaaaaaa",
"aaaaaaaaaaaaaaaaaaacacaccacccaaaaaaacefecefcfcfcaaaaaaaaaaaaaaaaaaaaaaaaaaaaaaaaaaaaaaaaaaaaaaaacefecefcfcfcaaaaaaaaaaaaaaaaaaaaaaaaaaaaaaaaaaaaaaaaaaaaaaaaaaaacefecefcfcfcaaaaaaaaaaaaaaaaaaaa",
"aaaaaaaaaaaaaaaaaaaaaaaaaaaaaaaaaaaaceeekeekekecaaaaaaaaaaaaaaaaaaaaaaaaaaaaaaaaaaaaaaaaaaaaaaaaceeekeekekecaaaaaaaaaaaaaaaaaaaaaaaaaaaaaaaaaaaaaaaaaaaaaaaaaaaaceeekeekekecaaaaaaaaaaaaaaaaaaaa",
"aaaaaaaaaaaaaaaaaaaaaaaaaaaaaaaaaaaaacccaccacacaaaaaaaaaaaaaaaaaaaaaaaaaaaaaaaaaaaaaaaaaaaaaaaaaacccaccacacaaaaaaaaaaaaaaaaaaaaaaaaaaaaaaaaaaaaaaaaaaaaaaaaaaaaaacccaccacacaaaaaaaaaaaaaaaaaaaaa",
"aaaaaaaaaaaaaaaaaaaaaaaaaaaaaaaaaaaaaaaaaaaaaaaaaaaaaaaaaaaaaaaaaaaaaaaaaaaaaaaaaaaaaaaaaaaaaaaaaaaaaaaaaaaaaaaaaaaaaaaaaaaaaaaaaaaaaaaaaaaaaaaaaaaaaaaaaaaaaaaaaaaaaaaaaaaaaaaaaaaaaaaaaaaaaaaa"
};
