/* XPM */
static const char *enemy_floor3_red_guard_walking_f30[] = {
/* columns rows colors chars-per-pixel */
"64 64 38 1",
"! c None",
"# c #A0A0A0",
"$ c #5C5C5C",
"% c #000000",
"& c #684018",
"' c #94602C",
"( c #B08458",
") c #C4A080",
"* c #A8784C",
"+ c #A06C3C",
", c #805424",
"- c #00003C",
". c #5C340C",
"/ c #E4C098",
"0 c #643000",
"1 c #D0B094",
"2 c #C01064",
"3 c #CC3880",
"4 c #98084C",
"5 c #880444",
"6 c #007474",
"7 c #AC0C58",
"8 c #C4C824",
"9 c #747804",
": c #00A4A4",
"; c #640030",
"< c #00BCBC",
"= c #78E0E0",
"> c #500024",
"? c #2C2C2C",
"@ c #3C3C3C",
"A c #008C8C",
"B c #6C6C6C",
"C c #005C5C",
"D c #4C4C4C",
"E c #C42424",
"F c #7C7C7C",
"G c #3C001C",
"!!!!!!!!!!!!!!!!!!!!!!!!!!!!!!!!!!!!!!!!!!!!!!!!!!!!!!!!!!!!!!!!",
"!!!!!!!!!!!!!!!!!!!!!!!!!!!!!!!!!!!!!!!!!!!!!!!!!!!!!!!!!!!!!!!!",
"!!!!!!!!!!!!!!!!!!!!!!!!!!!!!!!!!!!!!!!!!!!!!!!!!!!!!!!!!!!!!!!!",
"!!!!!!!!!!!!!!!!!!!!!!!!!!!!!!!!!!!!!!!!!!!!!!!!!!!!!!!!!!!!!!!!",
"!!!!!!!!!!!!!!!!!!!!!!!!!!!!!!!!!!!!!!!!!!!!!!!!!!!!!!!!!!!!!!!!",
"!!!!!!!!!!!!!!!!!!!!!!!!!!!!!!!!!!!!!!!!!!!!!!!!!!!!!!!!!!!!!!!!",
"!!!!!!!!!!!!!!!!!!!!!!!!!!!!!!!!!!!!!!!!!!!!!!!!!!!!!!!!!!!!!!!!",
"!!!!!!!!!!!!!!!!!!!!!!!!!!!!!!!!!!!!!!!!!!!!!!!!!!!!!!!!!!!!!!!!",
"!!!!!!!!!!!!!!!!!!!!!!!!!!!!!!!!!!!!!!!#!!!!!!!!!!!!!!!!!!!!!!!!",
"!!!!!!!!!!!!!!!!!!!!!!!!!!!!!!!!!!!!!!!$!!!!!!!!!!!!!!!!!!!!!!!!",
"!!!!!!!!!!!!!!!!!!!!!!!!!!!!!!!!!%%%%%%%!!!!!!!!!!!!!!!!!!!!!!!!",
"!!!!!!!!!!!!!!!!!!!!!!!!!!!!!!!!%%%%%%%%%!!!!!!!!!!!!!!!!!!!!!!!",
"!!!!!!!!!!!!!!!!!!!!!!!!!!!!!!!%%%%&''&%&'!!!!!!!!!!!!!!!!!!!!!!",
"!!!!!!!!!!!!!!!!!!!!!!!!!!!!!!!%%%%'()))(*!!!!!!!!!!!!!!!!!!!!!!",
"!!!!!!!!!!!!!!!!!!!!!!!!!!!!!!!%%%&(%%'*+'!!!!!!!!!!!!!!!!!!!!!!",
"!!!!!!!!!!!!!!!!!!!!!!!!!!!!!!!%%*+',-.,'.!!!!!!!!!!!!!!!!!!!!!!",
"!!!!!!!!!!!!!!!!!!!!!!!!!!!!!!!%%+,())*)*)!!!!!!!!!!!!!!!!!!!!!!",
"!!!!!!!!!!!!!!!!!!!!!!!!!!!!!!!%%&+**+)(/*!!!!!!!!!!!!!!!!!!!!!!",
"!!!!!!!!!!!!!!!!!!!!!!!!!!!!!!!!%%&'+*+''+!!!!!!!!!!!!!!!!!!!!!!",
"!!!!!!!!!!!!!!!!!!!!!!!!!!!!!!!!,'&'*.00.*!!!!!!!!!!!!!!!!!!!!!!",
"!!!!!!!!!!!!!!!!!!!!!!!!!!!!!!!!'*',+*(1(+!!!!!!!!!!!!!!!!!!!!!!",
"!!!!!!!!!!!!!!!!!!!!!!!!!!!!!!!2+**',&&,!!!!!!!!!!!!!!!!!!!!!!!!",
"!!!!!!!!!!!!!!!!!!!!!!!!!!!!!23322(*++''22!!!!!!!!!!!!!!!!!!!!!!",
"!!!!!!!!!!!!!!!!!!!!!!!!!!!!3222444()*'*422!!!!!!!!!!!!!!!!!!!!!",
"!!!!!!!!!!!!!!!!!!!!!!!!!!!3424222444444242!!%!!!!!!!!!!!!!!!!!!",
"!!!!!!!!!!!!!!!!!!!!!!!!!!!22444442455444542!6!!!!!!!!!!!!!!!!!!",
"!!!!!!!!!!!!!!!!!!!!!!!!!!224473745444454892!::!!!!!!!!!!!!!!!!!",
"!!!!!!!!!!!!!!!!!!!!!!!!!!344745542;4445;894:<=:!!!!!!!!!!!!!!!!",
"!!!!!!!!!!!!!!!!!!!!!!!!!!3;4547447;5455;;42:6<:!!!!!!!!!!!!!!!!",
"!!!!!!!!!!!!!!!!!!!!!!!!!!2>54744442;54;5;44%?@:!!!!!!!!!!!!!!!!",
"!!!!!!!!!!!!!!!!!!!!!!!!!!25;4444554;;5;;>>%%%%?!!!!!!!!!!!!!!!!",
"!!!!!!!!!!!!!!!!!!!!!!!!!!24>544547224;;>>%?%<=%!!!!!!!!!!!!!!!!",
"!!!!!!!!!!!!!!!!!!!!!!!!!!444>4547444;%%%?@%%A<B!!!!!!!!!!!!!!!!",
"!!!!!!!!!!!!!!!!!!!!!!!!!!2454>544445@@?@%?%?CADD!!!!!!!!!!!!!!!",
"!!!!!!!!!!!!!!!!!!!!!!!!!!2745;>54545??%?%%%%A<@!!!!!!!!!!!!!!!!",
"!!!!!!!!!!!!!!!!!!!!!!!!!!545445>;555%%%%%!!!CAD!!!!!!!!!!!!!!!!",
"!!!!!!!!!!!!!!!!!!!!!!!!!!!%%>5;;>>>>>>;>!!!!!!!!!!!!!!!!!!!!!!!",
"!!!!!!!!!!!!!!!!!!!!!!!!!!3%%%%%%%%#%@#%%!!!!!!!!!!!!!!!!!!!!!!!",
"!!!!!!!!!!!!!!!!!!!!!!!!!37%%E%%%%%F%%F%%!!!!!!!!!!!!!!!!!!!!!!!",
"!!!!!!!!!!!!!!!!!!!!!!!!!24%%%%%%%%$%%$%%!!!!!!!!!!!!!!!!!!!!!!!",
"!!!!!!!!!!!!!!!!!!!!!!!!277;%%%%44777744%!!!!!!!!!!!!!!!!!!!!!!!",
"!!!!!!!!!!!!!!!!!!!!!!!!3774;;;4544555542!!!!!!!!!!!!!!!!!!!!!!!",
"!!!!!!!!!!!!!!!!!!!!!!!!374745444;545;4442!!!!!!!!!!!!!!!!!!!!!!",
"!!!!!!!!!!!!!!!!!!!!!!!2747444455>GG>54772!!!!!!!!!!!!!!!!!!!!!!",
"!!!!!!!!!!!!!!!!!!!!!!!34474444445>54744442!!!!!!!!!!!!!!!!!!!!!",
"!!!!!!!!!!!!!!!!!!!!!!!3444744445>;;5444442!!!!!!!!!!!!!!!!!!!!!",
"!!!!!!!!!!!!!!!!!!!!!!27474444455>;54544472!!!!!!!!!!!!!!!!!!!!!",
"!!!!!!!!!!!!!!!!!!!!!!3444744555>>;544444472!!!!!!!!!!!!!!!!!!!!",
"!!!!!!!!!!!!!!!!!!!!!37244477445>>;544454772!!!!!!!!!!!!!!!!!!!!",
"!!!!!!!!!!!!!!!!!!!!!2474544445>!>;;54445542!!!!!!!!!!!!!!!!!!!!",
"!!!!!!!!!!!!!!!!!!!!%4747455555>!!>5;54444472!!!!!!!!!!!!!!!!!!!",
"!!!!!!!!!!!!!!!!!!!%?545444455>!!!>;55;;54442!!!!!!!!!!!!!!!!!!!",
"!!!!!!!!!!!!!!!!!!!%@D>55555>>!!!!>;;54444444!!!!!!!!!!!!!!!!!!!",
"!!!!!!!!!!!!!!!!!%%?@@@?>>>>!!!!!!!>>>;;55;>!!!!!!!!!!!!!!!!!!!!",
"!!!!!!!!!!!!!!!!%D@@?????%!!!!!!!!!!>?>>>>?%!!!!!!!!!!!!!!!!!!!!",
"!!!!!!!!!!!!!!!!%@@?@@??%!!!!!!!!!!!%?@@???%!!!!!!!!!!!!!!!!!!!!",
"!!!!!!!!!!!!!!!!%?D@%%%%!!!!!!!!!!!!%?@DD@?%!!!!!!!!!!!!!!!!!!!!",
"!!!!!!!!!!!!!!!!%?DD@?%!!!!!!!!!!!!!%?@@??%!!!!!!!!!!!!!!!!!!!!!",
"!!!!!!!!!!!!!!!!%@@D??%!!!!!!!!!!!!!!%?@D@?%!!!!!!!!!!!!!!!!!!!!",
"!!!!!!!!!!!!!!!!%?@@@?%!!!!!!!!!!!!!!%D@@??%!!!!!!!!!!!!!!!!!!!!",
"!!!!!!!!!!!!!!!!!%?@D@?%!!!!!!!!!!!!!%@@@@@?%!!!!!!!!!!!!!!!!!!!",
"!!!!!!!!!!!!!!!!!!%%%%%%!!!!!!!!!!!!!%???@@@?%%!!!!!!!!!!!!!!!!!",
"!!!!!!!!!!!!!!!!!!!!!!!!!!!!!!!!!!!!!!%%%?@D@??%!!!!!!!!!!!!!!!!",
"!!!!!!!!!!!!!!!!!!!!!!!!!!!!!!!!!!!!!!!!!%%%%%%%!!!!!!!!!!!!!!!!"
};