/* XPM */
static const char *enemy_floor3_red_guard_walking_f24[] = {
/* columns rows colors chars-per-pixel */
"64 64 48 1",
"! c None",
"# c #A0A0A0",
"$ c #5C5C5C",
"% c #6C6C6C",
"& c #000000",
"' c #7C7C7C",
"( c #684018",
") c #94602C",
"* c #A8784C",
"+ c #805424",
", c #5C340C",
"- c #B08458",
". c #A06C3C",
"/ c #AC580C",
"0 c #C01010",
"1 c #AC0C58",
"2 c #C01064",
"3 c #98084C",
"4 c #880444",
"5 c #640030",
"6 c #CC3880",
"7 c #C42470",
"8 c #78E0E0",
"9 c #005C5C",
": c #500024",
"; c #007474",
"< c #008C8C",
"= c #00BCBC",
"> c #40D0D0",
"? c #5C0000",
"@ c #700404",
"A c #980808",
"B c #AC0C0C",
"C c #CC3838",
"D c #502400",
"E c #884404",
"F c #480000",
"G c #840404",
"H c #CC8038",
"I c #2C2C2C",
"J c #004444",
"K c #00A4A4",
"L c #3C3C3C",
"M c #4C4C4C",
"N c #3C001C",
"O c #0C5CAC",
"P c #003064",
"Q c #2C0014",
"!!!!!!!!!!!!!!!!!!!!!!!!!!!!!!!!!!!!!!!!!!!!!!!!!!!!!!!!!!!!!!!!",
"!!!!!!!!!!!!!!!!!!!!!!!!!!!!!!!!!!!!!!!!!!!!!!!!!!!!!!!!!!!!!!!!",
"!!!!!!!!!!!!!!!!!!!!!!!!!!!!!!!!!!!!!!!!!!!!!!!!!!!!!!!!!!!!!!!!",
"!!!!!!!!!!!!!!!!!!!!!!!!!!!!!!!!!!!!!!!!!!!!!!!!!!!!!!!!!!!!!!!!",
"!!!!!!!!!!!!!!!!!!!!!!!!!!!!!!!!!!!!!!!!!!!!!!!!!!!!!!!!!!!!!!!!",
"!!!!!!!!!!!!!!!!!!!!!!!!!!!!!!!!!!!!!!!!!!!!!!!!!!!!!!!!!!!!!!!!",
"!!!!!!!!!!!!!!!!!!!!!!!!!!!!!!!!!!!!!!!!!!!!!!!!!!!!!!!!!!!!!!!!",
"!!!!!!!!!!!!!!!!!!!!!!!!!!!!!!!!!!!!!!!!!!!!!!!!!!!!!!!!!!!!!!!!",
"!!!!!!!!!!!!!!!!!!!!!!!!!!!!!!!!!#!!!!!!!!!!!!!!!!!!!!!!!!!!!!!!",
"!!!!!!!!!!!!!!!!!!!!!!!!!!!!!!!!!$!!!!!!!!!!!!!!!!!!!!!!!!!!!!!!",
"!!!!!!!!!!!!!!!!!!!!!!!!!!!!!!!!!%&&&&&&&!!!!!!!!!!!!!!!!!!!!!!!",
"!!!!!!!!!!!!!!!!!!!!!!!!!!!!!!!!&'&&&&&&&&!!!!!!!!!!!!!!!!!!!!!!",
"!!!!!!!!!!!!!!!!!!!!!!!!!!!!!!!()'&&&&&&&&&!!!!!!!!!!!!!!!!!!!!!",
"!!!!!!!!!!!!!!!!!!!!!!!!!!!!!!!)*'&&&&&&&&&!!!!!!!!!!!!!!!!!!!!!",
"!!!!!!!!!!!!!!!!!!!!!!!!!!!!!!!&+'(&&&&&&&&!!!!!!!!!!!!!!!!!!!!!",
"!!!!!!!!!!!!!!!!!!!!!!!!!!!!!!!,&&&&&&&&&&&!!!!!!!!!!!!!!!!!!!!!",
"!!!!!!!!!!!!!!!!!!!!!!!!!!!!!!!-&%&$&&&&&&&!!!!!!!!!!!!!!!!!!!!!",
"!!!!!!!!!!!!!!!!!!!!!!!!!!!!!!!)&&&&(&&&&&&!!!!!!!!!!!!!!!!!!!!!",
"!!!!!!!!!!!!!!!!!!!!!!!!!!!!!!!*&&&&)(&&&&!!!!!!!!!!!!!!!!!!!!!!",
"!!!!!!!!!!!!!!!!!!!!!!!!!!!!!!!)*)(.**.+.+!!!!!!!!!!!!!!!!!!!!!!",
"!!!!!!!!!!!!!!!!!!!!!!!!!!!!!!!.)+)*--*.*)!!!!!!!!!!!!!!!!!!!!!!",
"!!!!!!!!!!!!!!!!!!!!!!!!!!!!!!!!!+*/0122223!!!!!!!!!!!!!!!!!!!!!",
"!!!!!!!!!!!!!!!!!!!!!!!!!!!!!!!!!222345555431!!!!!!!!!!!!!!!!!!!",
"!!!!!!!!!!!!!!!!!!!!!!!!!!!!!!2666711113431662!!!!!!!!!!!!!!!!!!",
"!!!!!!!!!!!!!!!!!!!!!!!!!!!!!271133334443113332!!!!!!!!!!!!!!!!!",
"!!!!!!!!!!!!!!!!!!!!!!!!!!!!!611131333334433336!!!!!!!!!!!!!!!!!",
"!!!!!!!!!!!!!!!!!!!!!!!!!!!!!211334311333433332!!!!!!!!!!!!!!!!!",
"!!!!!!!!!!!!!!!!!!!!!!!!!!!!2233354333111431132!!!!!!!!!!!!!!!!!",
"!!!!!!!!!!!!!!!!!!!!!!!!!898633444:43333143332!!!!!!!!!!!!!!!!!!",
"!!!!!!!!!!!!!!!!!!!!!!!!!!;;211334:33333343337!!!!!!!!!!!!!!!!!!",
"!!!!!!!!!!!!!!!!!!!!!<8====8233345:43333343337!!!!!!!!!!!!!!!!!!",
"!!!!!!!!!!!!>?@ABCBC88<DEDE2313334:34434443332!!!!!!!!!!!!!!!!!!",
"!!!!!!!!!!!!;F?GABAB<=DEH/I1343344:4333343332!!!!!!!!!!!!!!!!!!!",
"!!!!!!!!!!!!!!!!!!!!J=JKKIL413444:54433343322!!!!!!!!!!!!!!!!!!!",
"!!!!!!!!!!!!!!!!!!!!!=MLIML54445::43334443332!!!!!!!!!!!!!!!!!!!",
"!!!!!!!!!!!!!!!!!!!!!!&II&I&55::5444313431113!!!!!!!!!!!!!!!!!!!",
"!!!!!!!!!!!!!!!!!!!!!!L&&&&&&&:5:N&&&&&&&&&&!!!!!!!!!!!!!!!!!!!!",
"!!!!!!!!!!!!!!!!!!!!!!&&&&!!&&&&&&&&&&IIII&&&&!!!!!!!!!!!!!!!!!!",
"!!!!!!!!!!!!!!!!!!!!!!!OP!!!&I&&&&&&&&&&&&&&&&!!!!!!!!!!!!!!!!!!",
"!!!!!!!!!!!!!!!!!!!!!!!!!!!!&&&&5331661132162&!!!!!!!!!!!!!!!!!!",
"!!!!!!!!!!!!!!!!!!!!!!!!!!!!&&&&3311111333116&!!!!!!!!!!!!!!!!!!",
"!!!!!!!!!!!!!!!!!!!!!!!!!!!!!4551331113343312!!!!!!!!!!!!!!!!!!!",
"!!!!!!!!!!!!!!!!!!!!!!!!!!!!213333333345433332!!!!!!!!!!!!!!!!!!",
"!!!!!!!!!!!!!!!!!!!!!!!!!!!!633334455:QN:43312!!!!!!!!!!!!!!!!!!",
"!!!!!!!!!!!!!!!!!!!!!!!!!!!2134433334:54433332!!!!!!!!!!!!!!!!!!",
"!!!!!!!!!!!!!!!!!!!!!!!!!!!611333334:5455431112!!!!!!!!!!!!!!!!!",
"!!!!!!!!!!!!!!!!!!!!!!!!!!2131333345:5543333312!!!!!!!!!!!!!!!!!",
"!!!!!!!!!!!!!!!!!!!!!!!!!!613313344:!:443433132!!!!!!!!!!!!!!!!!",
"!!!!!!!!!!!!!!!!!!!!!!!!!!231333335:!:544333312!!!!!!!!!!!!!!!!!",
"!!!!!!!!!!!!!!!!!!!!!!!!!213333445:!!:544333332!!!!!!!!!!!!!!!!!",
"!!!!!!!!!!!!!!!!!!!!!!!!!613433334:!!!:544344312!!!!!!!!!!!!!!!!",
"!!!!!!!!!!!!!!!!!!!!!!!!!23134455:!!!!:543431442!!!!!!!!!!!!!!!!",
"!!!!!!!!!!!!!!!!!!!!!!!!!&4333335:!!!!!:54454312!!!!!!!!!!!!!!!!",
"!!!!!!!!!!!!!!!!!!!!!!!!!&&I4445:!!!!!!:545433I&!!!!!!!!!!!!!!!!",
"!!!!!!!!!!!!!!!!!!!!!!!!!&&IIIII&!!!!!!!:544IILI&!!!!!!!!!!!!!!!",
"!!!!!!!!!!!!!!!!!!!!!!!!!&&&IL&&!!!!!!!!&55&ILLML&!!!!!!!!!!!!!!",
"!!!!!!!!!!!!!!!!!!!!!!&&&&I&&LM&!!!!!!!!!&&&&ILI&&!!!!!!!!!!!!!!",
"!!!!!!!!!!!!!!!!!!!!!&ILI&&IL&&&!!!!!!!!!!&&&&L&LM&!!!!!!!!!!!!!",
"!!!!!!!!!!!!!!!!!!!!!&&&&&&&&&&!!!!!!!!!!!!&&I&&IMM&!!!!!!!!!!!!",
"!!!!!!!!!!!!!!!!!!!!!!&&&&&ILM&!!!!!!!!!!!!!!&&&ILL&!!!!!!!!!!!!",
"!!!!!!!!!!!!!!!!!!!!!!!!&&&ILL&!!!!!!!!!!!!!!&&&LLL&!!!!!!!!!!!!",
"!!!!!!!!!!!!!!!!!!!!!!!!!!&&&&!!!!!!!!!!!!!!&&&I&&&!!!!!!!!!!!!!",
"!!!!!!!!!!!!!!!!!!!!!!!!!!!!!!!!!!!!!!!!!!!&&IIII&!!!!!!!!!!!!!!",
"!!!!!!!!!!!!!!!!!!!!!!!!!!!!!!!!!!!!!!!!!!!&&&&&&!!!!!!!!!!!!!!!"
};