/* XPM */
static const char *enemy_floor3_red_guard_walking_f05[] = {
/* columns rows colors chars-per-pixel */
"64 64 35 1",
"! c None",
"# c #A0A0A0",
"$ c #5C5C5C",
"% c #6C6C6C",
"& c #000000",
"' c #7C7C7C",
"( c #94602C",
") c #684018",
"* c #5C340C",
"+ c #805424",
", c #A06C3C",
"- c #A8784C",
". c #B08458",
"/ c #C01064",
"0 c #CC3880",
"1 c #98084C",
"2 c #880444",
"3 c #640030",
"4 c #AC0C58",
"5 c #500024",
"6 c #40D0D0",
"7 c #200000",
"8 c #5C0000",
"9 c #700404",
": c #008C8C",
"; c #00A4A4",
"< c #3C001C",
"= c #005C5C",
"> c #007474",
"? c #004444",
"@ c #2C2C2C",
"A c #C42424",
"B c #2C0014",
"C c #3C3C3C",
"D c #4C4C4C",
"!!!!!!!!!!!!!!!!!!!!!!!!!!!!!!!!!!!!!!!!!!!!!!!!!!!!!!!!!!!!!!!!",
"!!!!!!!!!!!!!!!!!!!!!!!!!!!!!!!!!!!!!!!!!!!!!!!!!!!!!!!!!!!!!!!!",
"!!!!!!!!!!!!!!!!!!!!!!!!!!!!!!!!!!!!!!!!!!!!!!!!!!!!!!!!!!!!!!!!",
"!!!!!!!!!!!!!!!!!!!!!!!!!!!!!!!!!!!!!!!!!!!!!!!!!!!!!!!!!!!!!!!!",
"!!!!!!!!!!!!!!!!!!!!!!!!!!!!!!!!!!!!!!!!!!!!!!!!!!!!!!!!!!!!!!!!",
"!!!!!!!!!!!!!!!!!!!!!!!!!!!!!!!!!!!!!!!!!!!!!!!!!!!!!!!!!!!!!!!!",
"!!!!!!!!!!!!!!!!!!!!!!!!!!!!!!!!!!!!!!!!!!!!!!!!!!!!!!!!!!!!!!!!",
"!!!!!!!!!!!!!!!!!!!!!!!!!!!!!#!!!!!!!!!!!!!!!!!!!!!!!!!!!!!!!!!!",
"!!!!!!!!!!!!!!!!!!!!!!!!!!!!!$!!!!!!!!!!!!!!!!!!!!!!!!!!!!!!!!!!",
"!!!!!!!!!!!!!!!!!!!!!!!!!!!!!%!!&&&&&&&!!!!!!!!!!!!!!!!!!!!!!!!!",
"!!!!!!!!!!!!!!!!!!!!!!!!!!!!!'!&&&&&&&&&!!!!!!!!!!!!!!!!!!!!!!!!",
"!!!!!!!!!!!!!!!!!!!!!!!!!!!!!'&&&&&&&&&&&!!!!!!!!!!!!!!!!!!!!!!!",
"!!!!!!!!!!!!!!!!!!!!!!!!!!!!!'&&&&&&&&&&&!!!!!!!!!!!!!!!!!!!!!!!",
"!!!!!!!!!!!!!!!!!!!!!!!!!!!!!'&&&&&&&&&&&!!!!!!!!!!!!!!!!!!!!!!!",
"!!!!!!!!!!!!!!!!!!!!!!!!!!!!!&&&&&&&&&&&&!!!!!!!!!!!!!!!!!!!!!!!",
"!!!!!!!!!!!!!!!!!!!!!!!!!!!!!%$&&&&&&&&&(!!!!!!!!!!!!!!!!!!!!!!!",
"!!!!!!!!!!!!!!!!!!!!!!!!!!!!!&&)&&&&&&&)*!!!!!!!!!!!!!!!!!!!!!!!",
"!!!!!!!!!!!!!!!!!!!!!!!!!!!!!&&+)&&&&&)+!!!!!!!!!!!!!!!!!!!!!!!!",
"!!!!!!!!!!!!!!!!!!!!!!!!!!!!!!!(,-,+,-,(!!!!!!!!!!!!!!!!!!!!!!!!",
"!!!!!!!!!!!!!!!!!!!!!!!!!!!!!!!,-.-,-.-,!!!!!!!!!!!!!!!!!!!!!!!!",
"!!!!!!!!!!!!!!!!!!!!!!!!!!!!!!!///000///!!!!!!!!!!!!!!!!!!!!!!!!",
"!!!!!!!!!!!!!!!!!!!!!!!!!!!!!!12333333321!!!!!!!!!!!!!!!!!!!!!!!",
"!!!!!!!!!!!!!!!!!!!!!!!!!!!/004444444444400/!!!!!!!!!!!!!!!!!!!!",
"!!!!!!!!!!!!!!!!!!!!!!!!!//41444411211444414//!!!!!!!!!!!!!!!!!!",
"!!!!!!!!!!!!!!!!!!!!!!!!/411411111444111111114/!!!!!!!!!!!!!!!!!",
"!!!!!!!!!!!!!!!!!!!!!!!/41144121111111111214114/!!!!!!!!!!!!!!!!",
"!!!!!!!!!!!!!!!!!!!!!!/1411214112211111221421144/!!!!!!!!!!!!!!!",
"!!!!!!!!!!!!!!!!!!!!!/4111351114441214//412511411/!!!!!!!!!!!!!!",
"!!!!!!!!!!!!!!!!!!!!!/4131152111111211111115311140!!!!!!!!!!!!!!",
"!!!!!!!!!!!!!!!66789/11413351221111311111125113140!!!!!!!!!!!!!!",
"!!!!!!!!!!!!!!:;;78901331135211121222111223533111/!!!!!!!!!!!!!!",
"!!!!!!!!!!!!!!!!!!!!/113335<214//41214///41<33335!!!!!!!!!!!!!!!",
"!!!!!!!!!!!!!!!!!!!!!53335&<322123333321212<5555!!!!!!!!!!!!!!!!",
"!!!!!!!!!!!!!!!!!!!!!!555&&<211111222111112<&&,,;!!!!!!!!!!!!!!!",
"!!!!!!!!!!!!!!!!!!!!!!!!!!=<3214//131//4123<)++;>!!!!!!!!!!!!!!!",
"!!!!!!!!!!!!!!!!!!!!!!!!!!!<53235<&&&<53235<*+;:?!!!!!!!!!!!!!!!",
"!!!!!!!!!!!!!!!!!!!!!!!!!!&&&&&&&@@@@@@&&&&&&*;:!!!!!!!!!!!!!!!!",
"!!!!!!!!!!!!!!!!!!!!!!!!!!&@&&&&&&&&&&&&&&&&A!>=!!!!!!!!!!!!!!!!",
"!!!!!!!!!!!!!!!!!!!!!!!!!!&&314444411444443&&!!!!!!!!!!!!!!!!!!!",
"!!!!!!!!!!!!!!!!!!!!!!!!!!&&111444111444444&&!!!!!!!!!!!!!!!!!!!",
"!!!!!!!!!!!!!!!!!!!!!!!!!!322111111221444413!!!!!!!!!!!!!!!!!!!!",
"!!!!!!!!!!!!!!!!!!!!!!!!!!/1233555533311112/!!!!!!!!!!!!!!!!!!!!",
"!!!!!!!!!!!!!!!!!!!!!!!!!!/1222225B<5533221/!!!!!!!!!!!!!!!!!!!!",
"!!!!!!!!!!!!!!!!!!!!!!!!!!/1222233<52111111/!!!!!!!!!!!!!!!!!!!!",
"!!!!!!!!!!!!!!!!!!!!!!!!!!!/122335<31114414/!!!!!!!!!!!!!!!!!!!!",
"!!!!!!!!!!!!!!!!!!!!!!!!!!/1353555<31222111/!!!!!!!!!!!!!!!!!!!!",
"!!!!!!!!!!!!!!!!!!!!!!!!!!/2111123<52111114/!!!!!!!!!!!!!!!!!!!!",
"!!!!!!!!!!!!!!!!!!!!!!!!!!/1444112<51111441/!!!!!!!!!!!!!!!!!!!!",
"!!!!!!!!!!!!!!!!!!!!!!!!!!/4111123<31141144/!!!!!!!!!!!!!!!!!!!!",
"!!!!!!!!!!!!!!!!!!!!!!!!!!/1144112<3222111/!!!!!!!!!!!!!!!!!!!!!",
"!!!!!!!!!!!!!!!!!!!!!!!!!!/4444442<52144444/!!!!!!!!!!!!!!!!!!!!",
"!!!!!!!!!!!!!!!!!!!!!!!!!!/4111111<34412211/!!!!!!!!!!!!!!!!!!!!",
"!!!!!!!!!!!!!!!!!!!!!!!!!!/1355531<31211114/!!!!!!!!!!!!!!!!!!!!",
"!!!!!!!!!!!!!!!!!!!!!!!!!!!&@@@@&&!5311144/!!!!!!!!!!!!!!!!!!!!!",
"!!!!!!!!!!!!!!!!!!!!!!!!!!!&@CDD&&!!5211114/!!!!!!!!!!!!!!!!!!!!",
"!!!!!!!!!!!!!!!!!!!!!!!!!!!&CC@@C&!!25<<<53/!!!!!!!!!!!!!!!!!!!!",
"!!!!!!!!!!!!!!!!!!!!!!!!!!!&C&&&&!!!&&@@@@&2!!!!!!!!!!!!!!!!!!!!",
"!!!!!!!!!!!!!!!!!!!!!!!!!!!&@@DD@&!!&&@CC@&!!!!!!!!!!!!!!!!!!!!!",
"!!!!!!!!!!!!!!!!!!!!!!!!!!!&@C&&C&!!&@CDC@&!!!!!!!!!!!!!!!!!!!!!",
"!!!!!!!!!!!!!!!!!!!!!!!!!!&C@&&&&&!!!&@@@C&!!!!!!!!!!!!!!!!!!!!!",
"!!!!!!!!!!!!!!!!!!!!!!!!!!&@&&&&@&!!!&@CDC&!!!!!!!!!!!!!!!!!!!!!",
"!!!!!!!!!!!!!!!!!!!!!!!!!!!&&&&&&!!!&&&@@@@&!!!!!!!!!!!!!!!!!!!!",
"!!!!!!!!!!!!!!!!!!!!!!!!!!!!!!!!!!!!&@CDC@&&!!!!!!!!!!!!!!!!!!!!",
"!!!!!!!!!!!!!!!!!!!!!!!!!!!!!!!!!!!!&&&&&&&!!!!!!!!!!!!!!!!!!!!!"
};