/* XPM */
static const char *enemy_floor3_red_guard_walking_f06[] = {
/* columns rows colors chars-per-pixel */
"64 64 37 1",
"! c None",
"# c #A0A0A0",
"$ c #5C5C5C",
"% c #6C6C6C",
"& c #000000",
"' c #7C7C7C",
"( c #94602C",
") c #684018",
"* c #5C340C",
"+ c #805424",
", c #A06C3C",
"- c #A8784C",
". c #B08458",
"/ c #C01064",
"0 c #CC3880",
"1 c #98084C",
"2 c #880444",
"3 c #640030",
"4 c #AC0C58",
"5 c #500024",
"6 c #40D0D0",
"7 c #200000",
"8 c #5C0000",
"9 c #700404",
": c #008C8C",
"; c #00A4A4",
"< c #3C001C",
"= c #007474",
"> c #402810",
"? c #004444",
"@ c #2C2C2C",
"A c #C42424",
"B c #005C5C",
"C c #2C0014",
"D c #3C3C3C",
"E c #980088",
"F c #4C4C4C",
"!!!!!!!!!!!!!!!!!!!!!!!!!!!!!!!!!!!!!!!!!!!!!!!!!!!!!!!!!!!!!!!!",
"!!!!!!!!!!!!!!!!!!!!!!!!!!!!!!!!!!!!!!!!!!!!!!!!!!!!!!!!!!!!!!!!",
"!!!!!!!!!!!!!!!!!!!!!!!!!!!!!!!!!!!!!!!!!!!!!!!!!!!!!!!!!!!!!!!!",
"!!!!!!!!!!!!!!!!!!!!!!!!!!!!!!!!!!!!!!!!!!!!!!!!!!!!!!!!!!!!!!!!",
"!!!!!!!!!!!!!!!!!!!!!!!!!!!!!!!!!!!!!!!!!!!!!!!!!!!!!!!!!!!!!!!!",
"!!!!!!!!!!!!!!!!!!!!!!!!!!!!!!!!!!!!!!!!!!!!!!!!!!!!!!!!!!!!!!!!",
"!!!!!!!!!!!!!!!!!!!!!!!!!!!!!!!!!!!!!!!!!!!!!!!!!!!!!!!!!!!!!!!!",
"!!!!!!!!!!!!!!!!!!!!!!!!!!!!!!!!!!!!!!!!!!!!!!!!!!!!!!!!!!!!!!!!",
"!!!!!!!!!!!!!!!!!!!!!!!!!!!!#!!!!!!!!!!!!!!!!!!!!!!!!!!!!!!!!!!!",
"!!!!!!!!!!!!!!!!!!!!!!!!!!!!$!!!!!!!!!!!!!!!!!!!!!!!!!!!!!!!!!!!",
"!!!!!!!!!!!!!!!!!!!!!!!!!!!!%!!&&&&&&&!!!!!!!!!!!!!!!!!!!!!!!!!!",
"!!!!!!!!!!!!!!!!!!!!!!!!!!!!'!&&&&&&&&&!!!!!!!!!!!!!!!!!!!!!!!!!",
"!!!!!!!!!!!!!!!!!!!!!!!!!!!!'&&&&&&&&&&&!!!!!!!!!!!!!!!!!!!!!!!!",
"!!!!!!!!!!!!!!!!!!!!!!!!!!!!'&&&&&&&&&&&!!!!!!!!!!!!!!!!!!!!!!!!",
"!!!!!!!!!!!!!!!!!!!!!!!!!!!!'&&&&&&&&&&&!!!!!!!!!!!!!!!!!!!!!!!!",
"!!!!!!!!!!!!!!!!!!!!!!!!!!!!&&&&&&&&&&&&!!!!!!!!!!!!!!!!!!!!!!!!",
"!!!!!!!!!!!!!!!!!!!!!!!!!!!!%$&&&&&&&&&(!!!!!!!!!!!!!!!!!!!!!!!!",
"!!!!!!!!!!!!!!!!!!!!!!!!!!!!&&)&&&&&&&)*!!!!!!!!!!!!!!!!!!!!!!!!",
"!!!!!!!!!!!!!!!!!!!!!!!!!!!!&&+)&&&&&)+!!!!!!!!!!!!!!!!!!!!!!!!!",
"!!!!!!!!!!!!!!!!!!!!!!!!!!!!!!(,-,+,-,(!!!!!!!!!!!!!!!!!!!!!!!!!",
"!!!!!!!!!!!!!!!!!!!!!!!!!!!!!!,-.-,-.-,!!!!!!!!!!!!!!!!!!!!!!!!!",
"!!!!!!!!!!!!!!!!!!!!!!!!!!!!!!///000///!!!!!!!!!!!!!!!!!!!!!!!!!",
"!!!!!!!!!!!!!!!!!!!!!!!!!!!!/12333333321/0/!!!!!!!!!!!!!!!!!!!!!",
"!!!!!!!!!!!!!!!!!!!!!!!!!!0441111/444444444//!!!!!!!!!!!!!!!!!!!",
"!!!!!!!!!!!!!!!!!!!!!!!!0/4444444441111111144//!!!!!!!!!!!!!!!!!",
"!!!!!!!!!!!!!!!!!!!!!!!/41111111112111111144114/!!!!!!!!!!!!!!!!",
"!!!!!!!!!!!!!!!!!!!!!!/414411111444441111211314/!!!!!!!!!!!!!!!!",
"!!!!!!!!!!!!!!!!!!!!!/41112211111111111221231411/!!!!!!!!!!!!!!!",
"!!!!!!!!!!!!!!!!!!!!!/441521221111111221145333114/!!!!!!!!!!!!!!",
"!!!!!!!!!!!!!!!!!!!!/41133211111112111144155311140!!!!!!!!!!!!!!",
"!!!!!!!!!!!!!!!6678901411131411111214441125313141/!!!!!!!!!!!!!!",
"!!!!!!!!!!!!!!:;;78901113352144411211122215553311/!!!!!!!!!!!!!!",
"!!!!!!!!!!!!!!!!!!!!/1111351221111222111415&55555!!!!!!!!!!!!!!!",
"!!!!!!!!!!!!!!!!!!!!/1133552111122214444125&&&)*!!!!!!!!!!!!!!!!",
"!!!!!!!!!!!!!!!!!!!!!3555&<2141111212122225++,,,;!!!!!!!!!!!!!!!",
"!!!!!!!!!!!!!!!!!!!!!!!!!!<321//12321//1235))++;=!!!!!!!!!!!!!!!",
"!!!!!!!!!!!!!!!!!!!!!!!!!!<5335<&&&&&<53355>*+;:?!!!!!!!!!!!!!!!",
"!!!!!!!!!!!!!!!!!!!!!!!!!!&&&&&&@@@@@&&&&&&&!*;:!!!!!!!!!!!!!!!!",
"!!!!!!!!!!!!!!!!!!!!!!!!!!@&&&&&&&&&&&&&&&@A!!=B!!!!!!!!!!!!!!!!",
"!!!!!!!!!!!!!!!!!!!!!!!!!!&344444144444143&&!!!!!!!!!!!!!!!!!!!!",
"!!!!!!!!!!!!!!!!!!!!!!!!!!&444441114444414&&!!!!!!!!!!!!!!!!!!!!",
"!!!!!!!!!!!!!!!!!!!!!!!!!!32441111111441443!!!!!!!!!!!!!!!!!!!!!",
"!!!!!!!!!!!!!!!!!!!!!!!!!!/111123332111111/!!!!!!!!!!!!!!!!!!!!!",
"!!!!!!!!!!!!!!!!!!!!!!!!!!/41235<C<5322121/!!!!!!!!!!!!!!!!!!!!!",
"!!!!!!!!!!!!!!!!!!!!!!!!!!/1111223<3211444/!!!!!!!!!!!!!!!!!!!!!",
"!!!!!!!!!!!!!!!!!!!!!!!!!!/1111135<32111114/!!!!!!!!!!!!!!!!!!!!",
"!!!!!!!!!!!!!!!!!!!!!!!!!!!/111235<32141441/!!!!!!!!!!!!!!!!!!!!",
"!!!!!!!!!!!!!!!!!!!!!!!!!!!/212355<52221114/!!!!!!!!!!!!!!!!!!!!",
"!!!!!!!!!!!!!!!!!!!!!!!!!!!/322223<32144411/!!!!!!!!!!!!!!!!!!!!",
"!!!!!!!!!!!!!!!!!!!!!!!!!!!/133335<25<<5321/!!!!!!!!!!!!!!!!!!!!",
"!!!!!!!!!!!!!!!!!!!!!!!!!!!/1355535<244411/!!!!!!!!!!!!!!!!!!!!!",
"!!!!!!!!!!!!!!!!!!!!!!!!!!!!/11235<3221121/!!!!!!!!!!!!!!!!!!!!!",
"!!!!!!!!!!!!!!!!!!!!!!!!!!!!/22223<2114444/!!!!!!!!!!!!!!!!!!!!!",
"!!!!!!!!!!!!!!!!!!!!!!!!!!!!/12223<4411114/!!!!!!!!!!!!!!!!!!!!!",
"!!!!!!!!!!!!!!!!!!!!!!!!!!!!/53355<1355531/!!!!!!!!!!!!!!!!!!!!!",
"!!!!!!!!!!!!!!!!!!!!!!!!!!!!!&D@@&E&@@@@&&!!!!!!!!!!!!!!!!!!!!!!",
"!!!!!!!!!!!!!!!!!!!!!!!!!!!!!&@@&&E&@@DD&&!!!!!!!!!!!!!!!!!!!!!!",
"!!!!!!!!!!!!!!!!!!!!!!!!!!!!!&FD@&E&@@D@&&!!!!!!!!!!!!!!!!!!!!!!",
"!!!!!!!!!!!!!!!!!!!!!!!!!!!!!&@@@&&E&DFFD&!!!!!!!!!!!!!!!!!!!!!!",
"!!!!!!!!!!!!!!!!!!!!!!!!!!!!!&@@@&&&@@@@&&!!!!!!!!!!!!!!!!!!!!!!",
"!!!!!!!!!!!!!!!!!!!!!!!!!!!!!!&&&&!&@FFD@&!!!!!!!!!!!!!!!!!!!!!!",
"!!!!!!!!!!!!!!!!!!!!!!!!!!!!!D@@@D!&@DD@@@&!!!!!!!!!!!!!!!!!!!!!",
"!!!!!!!!!!!!!!!!!!!!!!!!!!!!!@@&&&!!&FD@@&&!!!!!!!!!!!!!!!!!!!!!",
"!!!!!!!!!!!!!!!!!!!!!!!!!!!!!!!!!!!!&&&&&!!!!!!!!!!!!!!!!!!!!!!!"
};