/* XPM */
static const char *enemy_floor3_red_guard_walking_f22[] = {
/* columns rows colors chars-per-pixel */
"64 64 45 1",
"! c None",
"# c #A0A0A0",
"$ c #5C5C5C",
"% c #000000",
"& c #684018",
"' c #94602C",
"( c #B08458",
") c #C4A080",
"* c #A8784C",
"+ c #A06C3C",
", c #805424",
"- c #00003C",
". c #5C340C",
"/ c #D0B094",
"0 c #643000",
"1 c #CC3880",
"2 c #C01064",
"3 c #C01010",
"4 c #984C08",
"5 c #98084C",
"6 c #640030",
"7 c #880444",
"8 c #AC0C58",
"9 c #78E0E0",
": c #005C5C",
"; c #500024",
"< c #980088",
"= c #007474",
"> c #00BCBC",
"? c #884404",
"@ c #502400",
"A c #008C8C",
"B c #CC8038",
"C c #AC580C",
"D c #2C2C2C",
"E c #00A4A4",
"F c #3C3C3C",
"G c #C42470",
"H c #C42424",
"I c #7C7C7C",
"J c #0C5CAC",
"K c #003064",
"L c #402810",
"M c #3C001C",
"N c #4C4C4C",
"!!!!!!!!!!!!!!!!!!!!!!!!!!!!!!!!!!!!!!!!!!!!!!!!!!!!!!!!!!!!!!!!",
"!!!!!!!!!!!!!!!!!!!!!!!!!!!!!!!!!!!!!!!!!!!!!!!!!!!!!!!!!!!!!!!!",
"!!!!!!!!!!!!!!!!!!!!!!!!!!!!!!!!!!!!!!!!!!!!!!!!!!!!!!!!!!!!!!!!",
"!!!!!!!!!!!!!!!!!!!!!!!!!!!!!!!!!!!!!!!!!!!!!!!!!!!!!!!!!!!!!!!!",
"!!!!!!!!!!!!!!!!!!!!!!!!!!!!!!!!!!!!!!!!!!!!!!!!!!!!!!!!!!!!!!!!",
"!!!!!!!!!!!!!!!!!!!!!!!!!!!!!!!!!!!!!!!!!!!!!!!!!!!!!!!!!!!!!!!!",
"!!!!!!!!!!!!!!!!!!!!!!!!!!!!!!!!!!!!!!!!!!!!!!!!!!!!!!!!!!!!!!!!",
"!!!!!!!!!!!!!!!!!!!!!!!!!!!!!!!!!!!!!!!!!!!!!!!!!!!!!!!!!!!!!!!!",
"!!!!!!!!!!!!!!!!!!!!!!!!!!!!!!!!#!!!!!!!!!!!!!!!!!!!!!!!!!!!!!!!",
"!!!!!!!!!!!!!!!!!!!!!!!!!!!!!!!!$!!!!!!!!!!!!!!!!!!!!!!!!!!!!!!!",
"!!!!!!!!!!!!!!!!!!!!!!!!!!!!!!!%%%%%%%%!!!!!!!!!!!!!!!!!!!!!!!!!",
"!!!!!!!!!!!!!!!!!!!!!!!!!!!!!!%%%%%%%%%%!!!!!!!!!!!!!!!!!!!!!!!!",
"!!!!!!!!!!!!!!!!!!!!!!!!!!!!!%%%%%%&''&%!!!!!!!!!!!!!!!!!!!!!!!!",
"!!!!!!!!!!!!!!!!!!!!!!!!!!!!!%%%%%%'())*!!!!!!!!!!!!!!!!!!!!!!!!",
"!!!!!!!!!!!!!!!!!!!!!!!!!!!!!%%%%%&(%%*'!!!!!!!!!!!!!!!!!!!!!!!!",
"!!!!!!!!!!!!!!!!!!!!!!!!!!!!!%%%*+*',-.,!!!!!!!!!!!!!!!!!!!!!!!!",
"!!!!!!!!!!!!!!!!!!!!!!!!!!!!!%%%+,*(/)'(!!!!!!!!!!!!!!!!!!!!!!!!",
"!!!!!!!!!!!!!!!!!!!!!!!!!!!!!%%%&+***'*/(!!!!!!!!!!!!!!!!!!!!!!!",
"!!!!!!!!!!!!!!!!!!!!!!!!!!!!!!%%'&'(+*+,!!!!!!!!!!!!!!!!!!!!!!!!",
"!!!!!!!!!!!!!!!!!!!!!!!!!!!!!!,''&'+*'.0!!!!!!!!!!!!!!!!!!!!!!!!",
"!!!!!!!!!!!!!!!!!!!!!!!!!!!!!!'++','+*(*!!!!!!!!!!!!!!!!!!!!!!!!",
"!!!!!!!!!!!!!!!!!!!!!!!!!!!!!!++*+',&&!!!!!!!!!!!!!!!!!!!!!!!!!!",
"!!!!!!!!!!!!!!!!!!!!!!!!!!!!!1234**'+'!!!!!!!!!!!!!!!!!!!!!!!!!!",
"!!!!!!!!!!!!!!!!!!!!!!!!!!!!56751124'+!!!!!!!!!!!!!!!!!!!!!!!!!!",
"!!!!!!!!!!!!!!!!!!!!!!!!!!!2125128552112!!!!!!!!!!!!!!!!!!!!!!!!",
"!!!!!!!!!!!!!!!!!!!!!!!!!!!12552855555675!!!!!!!!!!!!!!!!!!!!!!!",
"!!!!!!!!!!!!!!!!!!!!!!!!!!215522585552582!!!!!!!!!!!!!!!!!!!!!!!",
"!!!!!!!!!!!!!!!!!!!!!!!!!!2155525757527552!!!!!!!!!!!!!!!!!!!!!!",
"!!!!!!!!!!!!!!!!!!!!!!!!!281572575752827529:9%!!!!!!!!!!!!!!!!!!",
"!!!!!!!!!!!!!!!!!!!!!!!!!2512552;675558252<==!!!!!!!!!!!!!!!!!!!",
"!!!!!!!!!!!!!!!!!!!!!!!!557215757857555275>>9>!!!!!!!!!!!!!!!!!!",
"!!!!!!!!!!!!!!!!!!!!!!!!75525257675555522?@?A9>!!!!!!!!!!!!!!!!!",
"!!!!!!!!!!!!!!!!!!!!!!!!!67255277;7768212BCBA>=!!!!!!!!!!!!!!!!!",
"!!!!!!!!!!!!!!!!!!!!!!!!!;65275576;58855%D%EEFD%!!!!!!!!!!!!!!!!",
"!!!!!!!!!!!!!!!!!!!!!!!!!!;57567576;555%DFFD%DDFD!!!!!!!!!!!!!!!",
"!!!!!!!!!!!!!!!!!!!!!!!!!!!;6756777;675DDD%D%DD%%>!!!!!!!!!!!!!!",
"!!!!!!!!!!!!!!!!!!!!!!!!!!!!%%%;6666;67%%%%%%%%D%A!!!!!!!!!!!!!!",
"!!!!!!!!!!!!!!!!!!!!!!!!!!!!%%%%%%%#%F;;DDDDD%%%%:!!!!!!!!!!!!!!",
"!!!!!!!!!!!!!!!!!!!!!!!!!!!G%%%H%%%I%%I%JK!!!!L>=!!!!!!!!!!!!!!!",
"!!!!!!!!!!!!!!!!!!!!!!!!!!187%%%%%%$%%$%!!!!!!!=:!!!!!!!!!!!!!!!",
"!!!!!!!!!!!!!!!!!!!!!!!!!!G55%%%%55588852!!!!!!!!!!!!!!!!!!!!!!!",
"!!!!!!!!!!!!!!!!!!!!!!!!!G855766755755772!!!!!!!!!!!!!!!!!!!!!!!",
"!!!!!!!!!!!!!!!!!!!!!!!!!18858555556576582!!!!!!!!!!!!!!!!!!!!!!",
"!!!!!!!!!!!!!!!!!!!!!!!!!25555585577M;7752!!!!!!!!!!!!!!!!!!!!!!",
"!!!!!!!!!!!!!!!!!!!!!!!!!G8588557756M555882!!!!!!!!!!!!!!!!!!!!!",
"!!!!!!!!!!!!!!!!!!!!!!!!285555755866;558552!!!!!!!!!!!!!!!!!!!!!",
"!!!!!!!!!!!!!!!!!!!!!!!!15555588566;6755582!!!!!!!!!!!!!!!!!!!!!",
"!!!!!!!!!!!!!!!!!!!!!!!!G8588856657;76755582!!!!!!!!!!!!!!!!!!!!",
"!!!!!!!!!!!!!!!!!!!!!!!!2575776757;;75775552!!!!!!!!!!!!!!!!!!!!",
"!!!!!!!!!!!!!!!!!!!!!!!28555555876M;67555782!!!!!!!!!!!!!!!!!!!!",
"!!!!!!!!!!!!!!!!!!!!!125585758876;;6;6775852!!!!!!!!!!!!!!!!!!!!",
"!!!!!!!!!!!!!!!!!!!!G88575888576;!!;6;;;;6582!!!!!!!!!!!!!!!!!!!",
"!!!!!!!!!!!!!!!!!!!!G587567576;;!!!;;67558852!!!!!!!!!!!!!!!!!!!",
"!!!!!!!!!!!!!!!!!!!%2558776;;;!!!!!!;6675576;!!!!!!!!!!!!!!!!!!!",
"!!!!!!!!!!!!!!!!!!!%78776676;!!!!!!!!;;;;;;D%!!!!!!!!!!!!!!!!!!!",
"!!!!!!!!!!!!!!!!!!%DN;55576;!!!!!!!!!%DFNFDD%!!!!!!!!!!!!!!!!!!!",
"!!!!!!!!!!!!!!!!!!%NFF;776;!!!!!!!!!!!%DFFFD%!!!!!!!!!!!!!!!!!!!",
"!!!!!!!!!!!!!!!!%%FFFDDM;;!!!!!!!!!!!!%FNFD%!!!!!!!!!!!!!!!!!!!!",
"!!!!!!!!!!!!!!!%NFNDDD%%!!!!!!!!!!!!!!!%DDFD%!!!!!!!!!!!!!!!!!!!",
"!!!!!!!!!!!!!!!%FFDFD%!!!!!!!!!!!!!!!!!%FDDD%!!!!!!!!!!!!!!!!!!!",
"!!!!!!!!!!!!!!!%FFFD%!!!!!!!!!!!!!!!!!%DFFFFD%%!!!!!!!!!!!!!!!!!",
"!!!!!!!!!!!!!!!%DFDD%!!!!!!!!!!!!!!!!!%DDDFNNFD%!!!!!!!!!!!!!!!!",
"!!!!!!!!!!!!!!!!%DNFD%!!!!!!!!!!!!!!!!%%%%%%%%%%!!!!!!!!!!!!!!!!",
"!!!!!!!!!!!!!!!!%%%%%%%!!!!!!!!!!!!!!!!!!!!!!!!!!!!!!!!!!!!!!!!!"
};