/* XPM */
static const char *enemy_floor3_red_guard_walking_f20[] = {
/* columns rows colors chars-per-pixel */
"64 64 49 1",
"! c None",
"# c #A0A0A0",
"$ c #5C5C5C",
"% c #000000",
"& c #684018",
"' c #94602C",
"( c #B08458",
") c #C4A080",
"* c #A8784C",
"+ c #A06C3C",
", c #805424",
"- c #00003C",
". c #5C340C",
"/ c #D0B094",
"0 c #643000",
"1 c #CC3880",
"2 c #C01064",
"3 c #C01010",
"4 c #984C08",
"5 c #98084C",
"6 c #AC0C58",
"7 c #880444",
"8 c #640030",
"9 c #C4C824",
": c #500024",
"; c #78E0E0",
"< c #005C5C",
"= c #007474",
"> c #00BCBC",
"? c #008C8C",
"@ c #884404",
"A c #502400",
"B c #980808",
"C c #5C0000",
"D c #40D0D0",
"E c #2C2C2C",
"F c #3C3C3C",
"G c #CC8038",
"H c #AC580C",
"I c #840404",
"J c #480000",
"K c #00A4A4",
"L c #004444",
"M c #4C4C4C",
"N c #0C5CAC",
"O c #003064",
"P c #C42424",
"Q c #402810",
"R c #3C001C",
"!!!!!!!!!!!!!!!!!!!!!!!!!!!!!!!!!!!!!!!!!!!!!!!!!!!!!!!!!!!!!!!!",
"!!!!!!!!!!!!!!!!!!!!!!!!!!!!!!!!!!!!!!!!!!!!!!!!!!!!!!!!!!!!!!!!",
"!!!!!!!!!!!!!!!!!!!!!!!!!!!!!!!!!!!!!!!!!!!!!!!!!!!!!!!!!!!!!!!!",
"!!!!!!!!!!!!!!!!!!!!!!!!!!!!!!!!!!!!!!!!!!!!!!!!!!!!!!!!!!!!!!!!",
"!!!!!!!!!!!!!!!!!!!!!!!!!!!!!!!!!!!!!!!!!!!!!!!!!!!!!!!!!!!!!!!!",
"!!!!!!!!!!!!!!!!!!!!!!!!!!!!!!!!!!!!!!!!!!!!!!!!!!!!!!!!!!!!!!!!",
"!!!!!!!!!!!!!!!!!!!!!!!!!!!!!!!!!!!!!!!!!!!!!!!!!!!!!!!!!!!!!!!!",
"!!!!!!!!!!!!!!!!!!!!!!!!!!!!!!!!!!!!!!!!!!!!!!!!!!!!!!!!!!!!!!!!",
"!!!!!!!!!!!!!!!!!!!!!!!!!!!!!!#!!!!!!!!!!!!!!!!!!!!!!!!!!!!!!!!!",
"!!!!!!!!!!!!!!!!!!!!!!!!!!!!!!$!!!!!!!!!!!!!!!!!!!!!!!!!!!!!!!!!",
"!!!!!!!!!!!!!!!!!!!!!!!!!!!!!%%%%%%%%!!!!!!!!!!!!!!!!!!!!!!!!!!!",
"!!!!!!!!!!!!!!!!!!!!!!!!!!!!%%%%%%%%%%!!!!!!!!!!!!!!!!!!!!!!!!!!",
"!!!!!!!!!!!!!!!!!!!!!!!!!!!%%%%%%&''&%!!!!!!!!!!!!!!!!!!!!!!!!!!",
"!!!!!!!!!!!!!!!!!!!!!!!!!!!%%%%%%'())*!!!!!!!!!!!!!!!!!!!!!!!!!!",
"!!!!!!!!!!!!!!!!!!!!!!!!!!!%%%%%&(%%*'!!!!!!!!!!!!!!!!!!!!!!!!!!",
"!!!!!!!!!!!!!!!!!!!!!!!!!!!%%%*+*',-.,!!!!!!!!!!!!!!!!!!!!!!!!!!",
"!!!!!!!!!!!!!!!!!!!!!!!!!!!%%%+,*(/)'(!!!!!!!!!!!!!!!!!!!!!!!!!!",
"!!!!!!!!!!!!!!!!!!!!!!!!!!!%%%&+***'*/(!!!!!!!!!!!!!!!!!!!!!!!!!",
"!!!!!!!!!!!!!!!!!!!!!!!!!!!!%%'&'(+*+,!!!!!!!!!!!!!!!!!!!!!!!!!!",
"!!!!!!!!!!!!!!!!!!!!!!!!!!!!,''&'+*'.0!!!!!!!!!!!!!!!!!!!!!!!!!!",
"!!!!!!!!!!!!!!!!!!!!!!!!!!!!'++','+*(*!!!!!!!!!!!!!!!!!!!!!!!!!!",
"!!!!!!!!!!!!!!!!!!!!!!!!!!!!++*+',&&!!!!!!!!!!!!!!!!!!!!!!!!!!!!",
"!!!!!!!!!!!!!!!!!!!!!!!!!!!1234**'+'!!!!!!!!!!!!!!!!!!!!!!!!!!!!",
"!!!!!!!!!!!!!!!!!!!!!!!!!!51112234'+22!!!!!!!!!!!!!!!!!!!!!!!!!!",
"!!!!!!!!!!!!!!!!!!!!!!!!!21166275661122!!!!!!!!!!!!!!!!!!!!!!!!!",
"!!!!!!!!!!!!!!!!!!!!!!!!!165556278877579!!!!!!!!!!!!!!!!!!!!!!!!",
"!!!!!!!!!!!!!!!!!!!!!!!!2565555255562579!!!!!!!!!!!!!!!!!!!!!!!!",
"!!!!!!!!!!!!!!!!!!!!!!!!1556555755552752!!!!!!!!!!!!!!!!!!!!!!!!",
"!!!!!!!!!!!!!!!!!!!!!!!26575557855555751!!!!!!!!!!!!!!!!!!!!!!!!",
"!!!!!!!!!!!!!!!!!!!!!!!155578::8755557%;<!!!!!!!!!!!!!!!!!!!!!!!",
"!!!!!!!!!!!!!!!!!!!!!!!2755578:78875785=!!!!!!!!!!!!!!!!!!!!!!!!",
"!!!!!!!!!!!!!!!!!!!!!!2656165:8778::85>;>>;!!!!!!!!!!!!!!!!!!!!!",
"!!!!!!!!!!!!!!!!!!!!!!167555%%%855555>;?@A@;;BCD!!!!!!!!!!!!!!!!",
"!!!!!!!!!!!!!!!!!!!!!!25675%EFFE%%557=>?GHG>?IJ=!!!!!!!!!!!!!!!!",
"!!!!!!!!!!!!!!!!!!!!!!!7:87E%%EEFE%EEEFKKKK>L!!!!!!!!!!!!!!!!!!!",
"!!!!!!!!!!!!!!!!!!!!!!!!!::%%%%%E%E%E%EF%<<>M%!!!!!!!!!!!!!!!!!!",
"!!!!!!!!!!!!!!!!!!!!!!!!!22EEE%%%%%>;E%EFNL%E!!!!!!!!!!!!!!!!!!!",
"!!!!!!!!!!!!!!!!!!!!!!!!!%%%%%EEEEE?>+&%EOEFM!!!!!!!!!!!!!!!!!!!",
"!!!!!!!!!!!!!!!!!!!!!!!!!%%%%%%%P%%<?>.%!O%EE!!!!!!!!!!!!!!!!!!!",
"!!!!!!!!!!!!!!!!!!!!!!!!225657%%%%%$=>Q!!NEF!!!!!!!!!!!!!!!!!!!!",
"!!!!!!!!!!!!!!!!!!!!!!!!265555%%%%55<=2!!!!!!!!!!!!!!!!!!!!!!!!!",
"!!!!!!!!!!!!!!!!!!!!!!!!255555788756562!!!!!!!!!!!!!!!!!!!!!!!!!",
"!!!!!!!!!!!!!!!!!!!!!!!!5555575555755662!!!!!!!!!!!!!!!!!!!!!!!!",
"!!!!!!!!!!!!!!!!!!!!!!!25757855578556562!!!!!!!!!!!!!!!!!!!!!!!!",
"!!!!!!!!!!!!!!!!!!!!!!!265787788555555562!!!!!!!!!!!!!!!!!!!!!!!",
"!!!!!!!!!!!!!!!!!!!!!!!2555788775555665562!!!!!!!!!!!!!!!!!!!!!!",
"!!!!!!!!!!!!!!!!!!!!!!2655557:887755556662!!!!!!!!!!!!!!!!!!!!!!",
"!!!!!!!!!!!!!!!!!!!!!!25655557:778875555552!!!!!!!!!!!!!!!!!!!!!",
"!!!!!!!!!!!!!!!!!!!!!!255557578:755578875662!!!!!!!!!!!!!!!!!!!!",
"!!!!!!!!!!!!!!!!!!!!!276577577:!:75566555562!!!!!!!!!!!!!!!!!!!!",
"!!!!!!!!!!!!!!!!!!!!2687778778:!!:75555576562!!!!!!!!!!!!!!!!!!!",
"!!!!!!!!!!!!!!!!!!!5567887578:!!!!:7578855662!!!!!!!!!!!!!!!!!!!",
"!!!!!!!!!!!!!!!!!!!%756657888:!!!!!:R:7575652!!!!!!!!!!!!!!!!!!!",
"!!!!!!!!!!!!!!!!!!%FERRR8878:!!!!!!:557856552!!!!!!!!!!!!!!!!!!!",
"!!!!!!!!!!!!!!!!!!%MFE8757::!!!!!!!!:8875752!!!!!!!!!!!!!!!!!!!!",
"!!!!!!!!!!!!!!!!%%MFFEEERR!!!!!!!!!!!%:888:%!!!!!!!!!!!!!!!!!!!!",
"!!!!!!!!!!!!!!!%MFMEEEE%%!!!!!!!!!!!!%EEEEE%!!!!!!!!!!!!!!!!!!!!",
"!!!!!!!!!!!!!!!%FFEFE%%!!!!!!!!!!!!!!%EMFE%%!!!!!!!!!!!!!!!!!!!!",
"!!!!!!!!!!!!!!!%FFF%%!!!!!!!!!!!!!!!!%EFFFE%!!!!!!!!!!!!!!!!!!!!",
"!!!!!!!!!!!!!!!%EEFF%!!!!!!!!!!!!!!!!%FME%%%!!!!!!!!!!!!!!!!!!!!",
"!!!!!!!!!!!!!!!!%EFFF%%!!!!!!!!!!!!!!!%FMFE%%!!!!!!!!!!!!!!!!!!!",
"!!!!!!!!!!!!!!!!%%EFMFE%!!!!!!!!!!!!!%FMFE%E%%%!!!!!!!!!!!!!!!!!",
"!!!!!!!!!!!!!!!!!%%%%%%%!!!!!!!!!!!!!%EEFMMMFE%%%!!!!!!!!!!!!!!!",
"!!!!!!!!!!!!!!!!!!!!!!!!!!!!!!!!!!!!!%EFFFFFMMFEE%!!!!!!!!!!!!!!"
};