/* XPM */
static const char *enemy_floor3_red_guard_walking_f00[] = {
/* columns rows colors chars-per-pixel */
"64 64 58 1",
"! c None",
"# c #A0A0A0",
"$ c #5C5C5C",
"% c #000000",
"& c #6C6C6C",
"' c #7C7C7C",
"( c #684018",
") c #94602C",
"* c #A06C3C",
"+ c #B08458",
", c #C4A080",
"- c #A8784C",
". c #5C340C",
"/ c #00003C",
"0 c #E4C098",
"1 c #805424",
"2 c #643000",
"3 c #D0B094",
"4 c #CC3880",
"5 c #C01064",
"6 c #880444",
"7 c #98084C",
"8 c #AC0C58",
"9 c #C4C824",
": c #640030",
"; c #500024",
"< c #008C8C",
"= c #78E0E0",
"> c #005C5C",
"? c #007474",
"@ c #005C00",
"A c #00A4A4",
"B c #00BCBC",
"C c #10C0C0",
"D c #40D0D0",
"E c #5CD8D8",
"F c #4C4C4C",
"G c #3C3C3C",
"H c #2C2C2C",
"I c #980088",
"J c #884404",
"K c #502400",
"L c #C06410",
"M c #CC3838",
"N c #C01010",
"O c #AC0C0C",
"P c #980808",
"Q c #700404",
"R c #5C0000",
"S c #200000",
"T c #CC8038",
"U c #AC580C",
"V c #004444",
"W c #003064",
"X c #002850",
"Y c #0C5CAC",
"Z c #001C3C",
"[ c #3C001C",
"!!!!!!!!!!!!!!!!!!!!!!!!!!!!!!!!!!!!!!!!!!!!!!!!!!!!!!!!!!!!!!!!",
"!!!!!!!!!!!!!!!!!!!!!!!!!!!!!!!!!!!!!!!!!!!!!!!!!!!!!!!!!!!!!!!!",
"!!!!!!!!!!!!!!!!!!!!!!!!!!!!!!!!!!!!!!!!!!!!!!!!!!!!!!!!!!!!!!!!",
"!!!!!!!!!!!!!!!!!!!!!!!!!!!!!!!!!!!!!!!!!!!!!!!!!!!!!!!!!!!!!!!!",
"!!!!!!!!!!!!!!!!!!!!!!!!!!!!!!!!!!!!!!!!!!!!!!!!!!!!!!!!!!!!!!!!",
"!!!!!!!!!!!!!!!!!!!!!!!!!!!!!!!!!!!!!!!!!!!!!!!!!!!!!!!!!!!!!!!!",
"!!!!!!!!!!!!!!!!!!!!!!!!!!!!!!!!!!!!!!!!!!!!!!!!!!!!!!!!!!!!!!!!",
"!!!!!!!!!!!!!!!!!!!!!!!!!!!!!!!!!!!!!!!!!!!!!!!!!!!!!!!!!!!!!!!!",
"!!!!!!!!!!!!!!!!!!!!!!!!!!!!!!!!!!!#!!!!!!!!!!!!!!!!!!!!!!!!!!!!",
"!!!!!!!!!!!!!!!!!!!!!!!!!!!!!!!!!!!$!!!!!!!!!!!!!!!!!!!!!!!!!!!!",
"!!!!!!!!!!!!!!!!!!!!!!!!!!%%%%%%%!!&!!!!!!!!!!!!!!!!!!!!!!!!!!!!",
"!!!!!!!!!!!!!!!!!!!!!!!!!%%%%%%%%%!'!!!!!!!!!!!!!!!!!!!!!!!!!!!!",
"!!!!!!!!!!!!!!!!!!!!!!!!%())(%())(%'!!!!!!!!!!!!!!!!!!!!!!!!!!!!",
"!!!!!!!!!!!!!!!!!!!!!!!!%*++,,,++*%'!!!!!!!!!!!!!!!!!!!!!!!!!!!!",
"!!!!!!!!!!!!!!!!!!!!!!!!%%))*-*))%%'!!!!!!!!!!!!!!!!!!!!!!!!!!!!",
"!!!!!!!!!!!!!!!!!!!!!!!!%)./()(/.)%%!!!!!!!!!!!!!!!!!!!!!!!!!!!!",
"!!!!!!!!!!!!!!!!!!!!!!!!)+,,-,-,,+$&!!!!!!!!!!!!!!!!!!!!!!!!!!!!",
"!!!!!!!!!!!!!!!!!!!!!!!!.)-*,0,*-)%%!!!!!!!!!!!!!!!!!!!!!!!!!!!!",
"!!!!!!!!!!!!!!!!!!!!!!!!!-*-)1)-*-%%!!!!!!!!!!!!!!!!!!!!!!!!!!!!",
"!!!!!!!!!!!!!!!!!!!!!!!!!)-.222.-)!!!!!!!!!!!!!!!!!!!!!!!!!!!!!!",
"!!!!!!!!!!!!!!!!!!!!!!!!!1*-+3+-*1!!!!!!!!!!!!!!!!!!!!!!!!!!!!!!",
"!!!!!!!!!!!!!!!!!!!!!!!!!4)1(((1)4!!!!!!!!!!!!!!!!!!!!!!!!!!!!!!",
"!!!!!!!!!!!!!!!!!!!5445565-)*)*)-56577!!!!!!!!!!!!!!!!!!!!!!!!!!",
"!!!!!!!!!!!!!!!!!!587858678-,-,-87685445!!!!!!!!!!!!!!!!!!!!!!!!",
"!!!!!!!!!!!!!!!!!587777876788888767878785!!!!!!!!!!!!!!!!!!!!!!!",
"!!!!!!!!!!!!!!!!!5777767776678766799977785!!!!!!!!!!!!!!!!!!!!!!",
"!!!!!!!!!!!!!!!!45776677777776677:99977775!!!!!!!!!!!!!!!!!!!!!!",
"!!!!!!!!!!!!!!!5776:6:67777776677:::7667754!!!!!!!!!!!!!!!!!!!!!",
"!!!!!!!!!!!!!!!58776:;:66<=>>>=777776:6:6775!!!!!!!!!!!!!!!!!!!!",
"!!!!!!!!!!!!!!5777766;6:;;;?@?;::::::6:67765!!!!!!!!!!!!!!!!!!!!",
"!!!!!!!!!!!!!!587766;;7:66AAAAAABCDE=;6677775!!!!!!!!!!!!!!!!!!!",
"!!!!!!!!!!!!!587FGH%I;676<BBJKJKJKJ?<=L==MMNOPQRSDD!!!!!!!!!!!!!",
"!!!!!!!!!!!!!56GFFG%%I;66?<BTUTUTUTJ?BT<<MMNOPQRSAA<!!!!!!!!!!!!",
"!!!!!!!!!!!!!!:%GFG%HF%%VV?<AAAAAAVVWBVVV%%G%:!!!!!!!!!!!!!!!!!!",
"!!!!!!!!!!!!!!!%H%>%GGFV>?VV<<6666:>XB>>>>%%%!!!!!!!!!!!!!!!!!!!",
"!!!!!!!!!!!!!!!!%A%GFHGF>VV:::::666:WYGG$FG%!!!!!!!!!!!!!!!!!!!!",
"!!!!!!!!!!!!!!!!!?%HGFH%V>666:66666:ZWFFF%%!!!!!!!!!!!!!!!!!!!!!",
"!!!!!!!!!!!!!!!!!V<%HH%%%%%#%G%#%%%%ZWGGGF%!!!!!!!!!!!!!!!!!!!!!",
"!!!!!!!!!!!!!!!!!!<A%%%%%%%'%%%'%%%%WYGFFG%!!!!!!!!!!!!!!!!!!!!!",
"!!!!!!!!!!!!!!!!!!>?!%%%%%%$%%%$%%%%%%!!%%!!!!!!!!!!!!!!!!!!!!!!",
"!!!!!!!!!!!!!!!!!!!!!%%%;:6777776:;%%%!!!!!!!!!!!!!!!!!!!!!!!!!!",
"!!!!!!!!!!!!!!!!!!!!!!5666:66666:6665!!!!!!!!!!!!!!!!!!!!!!!!!!!",
"!!!!!!!!!!!!!!!!!!!!!587776;676;677775!!!!!!!!!!!!!!!!!!!!!!!!!!",
"!!!!!!!!!!!!!!!!!!!!!58776::;;;::67785!!!!!!!!!!!!!!!!!!!!!!!!!!",
"!!!!!!!!!!!!!!!!!!!!!576677::[:6777775!!!!!!!!!!!!!!!!!!!!!!!!!!",
"!!!!!!!!!!!!!!!!!!!!!5766666:[:6777875!!!!!!!!!!!!!!!!!!!!!!!!!!",
"!!!!!!!!!!!!!!!!!!!!!5876666:[:6677785!!!!!!!!!!!!!!!!!!!!!!!!!!",
"!!!!!!!!!!!!!!!!!!!!!8767776:[:6788778!!!!!!!!!!!!!!!!!!!!!!!!!!",
"!!!!!!!!!!!!!!!!!!!!!5866666:[:6777885!!!!!!!!!!!!!!!!!!!!!!!!!!",
"!!!!!!!!!!!!!!!!!!!!!!5666::;[:6777785!!!!!!!!!!!!!!!!!!!!!!!!!!",
"!!!!!!!!!!!!!!!!!!!!!!7677:;:[;:67775!!!!!!!!!!!!!!!!!!!!!!!!!!!",
"!!!!!!!!!!!!!!!!!!!!!577777;:[:;78875!!!!!!!!!!!!!!!!!!!!!!!!!!!",
"!!!!!!!!!!!!!!!!!!!!!567776:;[:777785!!!!!!!!!!!!!!!!!!!!!!!!!!!",
"!!!!!!!!!!!!!!!!!!!!!7766::;[[;:777775!!!!!!!!!!!!!!!!!!!!!!!!!!",
"!!!!!!!!!!!!!!!!!!!!!!::;;[[%[:6::7785!!!!!!!!!!!!!!!!!!!!!!!!!!",
"!!!!!!!!!!!!!!!!!!!!!!!!%HHH%[;:666675!!!!!!!!!!!!!!!!!!!!!!!!!!",
"!!!!!!!!!!!!!!!!!!!!!!!!%HGH%!%[;:::[!!!!!!!!!!!!!!!!!!!!!!!!!!!",
"!!!!!!!!!!!!!!!!!!!!!!!!!%%%!!%%GFG%%!!!!!!!!!!!!!!!!!!!!!!!!!!!",
"!!!!!!!!!!!!!!!!!!!!!!!!!!!!!!%HGFGH%!!!!!!!!!!!!!!!!!!!!!!!!!!!",
"!!!!!!!!!!!!!!!!!!!!!!!!!!!!!!%GF$FG%!!!!!!!!!!!!!!!!!!!!!!!!!!!",
"!!!!!!!!!!!!!!!!!!!!!!!!!!!!!!%%%%%%!!!!!!!!!!!!!!!!!!!!!!!!!!!!",
"!!!!!!!!!!!!!!!!!!!!!!!!!!!!!!%HGGGH!!!!!!!!!!!!!!!!!!!!!!!!!!!!",
"!!!!!!!!!!!!!!!!!!!!!!!!!!!!!!%GF$FG%!!!!!!!!!!!!!!!!!!!!!!!!!!!",
"!!!!!!!!!!!!!!!!!!!!!!!!!!!!!!%HGGGH%!!!!!!!!!!!!!!!!!!!!!!!!!!!"
};