/* XPM */
static const char *enemy_floor3_red_guard_walking_f08[] = {
/* columns rows colors chars-per-pixel */
"64 64 55 1",
"! c None",
"# c #A0A0A0",
"$ c #5C5C5C",
"% c #000000",
"& c #6C6C6C",
"' c #7C7C7C",
"( c #94602C",
") c #684018",
"* c #A8784C",
"+ c #B08458",
", c #C4A080",
"- c #A06C3C",
". c #5C340C",
"/ c #805424",
"0 c #00003C",
"1 c #E4C098",
"2 c #643000",
"3 c #D0B094",
"4 c #C01064",
"5 c #98084C",
"6 c #CC3880",
"7 c #AC0C58",
"8 c #880444",
"9 c #78E0E0",
": c #005C5C",
"; c #00A4A4",
"< c #C4C824",
"= c #007474",
"> c #640030",
"? c #00BCBC",
"@ c #10C0C0",
"A c #5CD8D8",
"B c #008C8C",
"C c #884404",
"D c #502400",
"E c #C06410",
"F c #C42424",
"G c #AC0C0C",
"H c #980808",
"I c #700404",
"J c #40D0D0",
"K c #CC8038",
"L c #AC580C",
"M c #840404",
"N c #5C0000",
"O c #480000",
"P c #004444",
"Q c #4C4C4C",
"R c #2C2C2C",
"S c #3C3C3C",
"T c #402810",
"U c #500024",
"V c #0C5CAC",
"W c #003064",
"X c #3C001C",
"!!!!!!!!!!!!!!!!!!!!!!!!!!!!!!!!!!!!!!!!!!!!!!!!!!!!!!!!!!!!!!!!",
"!!!!!!!!!!!!!!!!!!!!!!!!!!!!!!!!!!!!!!!!!!!!!!!!!!!!!!!!!!!!!!!!",
"!!!!!!!!!!!!!!!!!!!!!!!!!!!!!!!!!!!!!!!!!!!!!!!!!!!!!!!!!!!!!!!!",
"!!!!!!!!!!!!!!!!!!!!!!!!!!!!!!!!!!!!!!!!!!!!!!!!!!!!!!!!!!!!!!!!",
"!!!!!!!!!!!!!!!!!!!!!!!!!!!!!!!!!!!!!!!!!!!!!!!!!!!!!!!!!!!!!!!!",
"!!!!!!!!!!!!!!!!!!!!!!!!!!!!!!!!!!!!!!!!!!!!!!!!!!!!!!!!!!!!!!!!",
"!!!!!!!!!!!!!!!!!!!!!!!!!!!!!!!!!!!!!!!!!!!!!!!!!!!!!!!!!!!!!!!!",
"!!!!!!!!!!!!!!!!!!!!!!!!!!!!!!!!!!!!!!!!!!!!!!!!!!!!!!!!!!!!!!!!",
"!!!!!!!!!!!!!!!!!!!!!!!!!!!!!!!!!!!#!!!!!!!!!!!!!!!!!!!!!!!!!!!!",
"!!!!!!!!!!!!!!!!!!!!!!!!!!!!!!!!!!!$!!!!!!!!!!!!!!!!!!!!!!!!!!!!",
"!!!!!!!!!!!!!!!!!!!!!!!!!!!!!%%%%%%&!!!!!!!!!!!!!!!!!!!!!!!!!!!!",
"!!!!!!!!!!!!!!!!!!!!!!!!!!!!%%%%%%%'%!!!!!!!!!!!!!!!!!!!!!!!!!!!",
"!!!!!!!!!!!!!!!!!!!!!!!!!!!()%)(()%'%%!!!!!!!!!!!!!!!!!!!!!!!!!!",
"!!!!!!!!!!!!!!!!!!!!!!!!!!!*+,,,+(%'%%!!!!!!!!!!!!!!!!!!!!!!!!!!",
"!!!!!!!!!!!!!!!!!!!!!!!!!!!(-*(%%+%'%%!!!!!!!!!!!!!!!!!!!!!!!!!!",
"!!!!!!!!!!!!!!!!!!!!!!!!!!!.(/.0/(%%%%!!!!!!!!!!!!!!!!!!!!!!!!!!",
"!!!!!!!!!!!!!!!!!!!!!!!!!!!,*,*,,+$%&%!!!!!!!!!!!!!!!!!!!!!!!!!!",
"!!!!!!!!!!!!!!!!!!!!!!!!!!!*1+,-**%%%%!!!!!!!!!!!!!!!!!!!!!!!!!!",
"!!!!!!!!!!!!!!!!!!!!!!!!!!!-((-*-(%%%!!!!!!!!!!!!!!!!!!!!!!!!!!!",
"!!!!!!!!!!!!!!!!!!!!!!!!!!!*.22.*()(/!!!!!!!!!!!!!!!!!!!!!!!!!!!",
"!!!!!!!!!!!!!!!!!!!!!!!!!!!-+3+*-/(*(!!!!!!!!!!!!!!!!!!!!!!!!!!!",
"!!!!!!!!!!!!!!!!!!!!!!!!!!!!!/))/(**-!!!!!!!!!!!!!!!!!!!!!!!!!!!",
"!!!!!!!!!!!!!!!!!!!!!!!!!!!!4((--*+54664!!!!!!!!!!!!!!!!!!!!!!!!",
"!!!!!!!!!!!!!!!!!!!!!!!!!4645*(*,+555557464!!!!!!!!!!!!!!!!!!!!!",
"!!!!!!!!!!!!!!!!!!!!!!!!45558575577444555574!!!!!!!!!!!!!!!!!!!!",
"!!!!!!!!!!!!!!!!!!!!!!!9:;%8555558<<<55555574!!!!!!!!!!!!!!!!!!!",
"!!!!!!!!!!!!!!!!!!!!!!!4==>855585><<<54577554!!!!!!!!!!!!!!!!!!!",
"!!!!!!!!!!!!!!!!!!!!!!4;;?@A;;5>5>>>545>85754!!!!!!!!!!!!!!!!!!!",
"!!!!!!!!!!!!!!!!!!!!!4B?CCD=9E9FGHIJ%%>555554!!!!!!!!!!!!!!!!!!!",
"!!!!!!!!!!!!!!!!!!!!!4=BKKLC?KBHMNO=%%557584!!!!!!!!!!!!!!!!!!!!",
"!!!!!!!!!!!!!!!!!!!!4$P=B;;P?PP:>>>5448>8554!!!!!!!!!!!!!!!!!!!!",
"!!!!!!!!!!!!!!!!!!!$QR=PPB>:?::B%%%%>5575554!!!!!!!!!!!!!!!!!!!!",
"!!!!!!!!!!!!!!!!!!!RQRSST%U%V%&QS%%%%5855>4!!!!!!!!!!!!!!!!!!!!!",
"!!!!!!!!!!!!!!!!!!!RRSRR%%!%WQQQRR%%%88>U58!!!!!!!!!!!!!!!!!!!!!",
"!!!!!!!!!!!!!!!!!!!P%RRT%%!%W%SSQ%%%%>UXUU!!!!!!!!!!!!!!!!!!!!!!",
"!!!!!!!!!!!!!!!!!!!!BTT%%%!%VSQQR%%%XU>8574!!!!!!!!!!!!!!!!!!!!!",
"!!!!!!!!!!!!!!!!!!!!::!!!!!!U>8>>>>885558>%!!!!!!!!!!!!!!!!!!!!!",
"!!!!!!!!!!!!!!!!!!!!!!!!!!!!%%#S%#%%%%%%%%%!!!!!!!!!!!!!!!!!!!!!",
"!!!!!!!!!!!!!!!!!!!!!!!!!!!!%%'%%'%%%%%%R%%!!!!!!!!!!!!!!!!!!!!!",
"!!!!!!!!!!!!!!!!!!!!!!!!!!!!%%$%%$%%%%%%%%84!!!!!!!!!!!!!!!!!!!!",
"!!!!!!!!!!!!!!!!!!!!!!!!!!!!%>8554558%%%%%56!!!!!!!!!!!!!!!!!!!!",
"!!!!!!!!!!!!!!!!!!!!!!!!!!!!!>>8766445>>>554!!!!!!!!!!!!!!!!!!!!",
"!!!!!!!!!!!!!!!!!!!!!!!!!!!!!8>4555554455854!!!!!!!!!!!!!!!!!!!!",
"!!!!!!!!!!!!!!!!!!!!!!!!!!!!!!4557444584555!!!!!!!!!!!!!!!!!!!!!",
"!!!!!!!!!!!!!!!!!!!!!!!!!!!!!45885554758558!!!!!!!!!!!!!!!!!!!!!",
"!!!!!!!!!!!!!!!!!!!!!!!!!!!!!4557444555>5>!!!!!!!!!!!!!!!!!!!!!!",
"!!!!!!!!!!!!!!!!!!!!!!!!!!!!45576647555>U!!!!!!!!!!!!!!!!!!!!!!!",
"!!!!!!!!!!!!!!!!!!!!!!!!!!!!45555475558U74!!!!!!!!!!!!!!!!!!!!!!",
"!!!!!!!!!!!!!!!!!!!!!!!!!!!45554455588U754!!!!!!!!!!!!!!!!!!!!!!",
"!!!!!!!!!!!!!!!!!!!!!!!!!!!4855557558U55574!!!!!!!!!!!!!!!!!!!!!",
"!!!!!!!!!!!!!!!!!!!!!!!!!!4557445858U>88557!!!!!!!!!!!!!!!!!!!!!",
"!!!!!!!!!!!!!!!!!!!!!!!!!!457464758U>885558%!!!!!!!!!!!!!!!!!!!!",
"!!!!!!!!!!!!!!!!!!!!!!!!!!48557557>UU>88>UR%!!!!!!!!!!!!!!!!!!!!",
"!!!!!!!!!!!!!!!!!!!!!!!!!!45885555U!!UUUUSSR%!!!!!!!!!!!!!!!!!!!",
"!!!!!!!!!!!!!!!!!!!!!!!!!!5855888>U!!!%RRRQSR%!!!!!!!!!!!!!!!!!!",
"!!!!!!!!!!!!!!!!!!!!!!!!!!!%U>>>U%!!!!!%RSSRS%!!!!!!!!!!!!!!!!!!",
"!!!!!!!!!!!!!!!!!!!!!!!!!!!%RRSQR%!!!!!!%RRSR%!!!!!!!!!!!!!!!!!!",
"!!!!!!!!!!!!!!!!!!!!!!!!!!!%RSSSR%!!!!!%RRSSR%!!!!!!!!!!!!!!!!!!",
"!!!!!!!!!!!!!!!!!!!!!!!!!!!%%RSRR%!!!!!%RRQR%!!!!!!!!!!!!!!!!!!!",
"!!!!!!!!!!!!!!!!!!!!!!!!!!!%RSQS%%!!!!%RSQS%!!!!!!!!!!!!!!!!!!!!",
"!!!!!!!!!!!!!!!!!!!!!!!!!!!%%RR%%!!!!!%%%%%!!!!!!!!!!!!!!!!!!!!!",
"!!!!!!!!!!!!!!!!!!!!!!!!!!%%RSSS%!!!!!!!!!!!!!!!!!!!!!!!!!!!!!!!",
"!!!!!!!!!!!!!!!!!!!!!!!!%%RSQSRR%!!!!!!!!!!!!!!!!!!!!!!!!!!!!!!!",
"!!!!!!!!!!!!!!!!!!!!!!!%%%%%%%%%%!!!!!!!!!!!!!!!!!!!!!!!!!!!!!!!"
};