/* XPM */
static const char *enemy_floor3_red_guard_walking_f04[] = {
/* columns rows colors chars-per-pixel */
"64 64 37 1",
"! c None",
"# c #A0A0A0",
"$ c #5C5C5C",
"% c #6C6C6C",
"& c #000000",
"' c #7C7C7C",
"( c #94602C",
") c #684018",
"* c #5C340C",
"+ c #805424",
", c #A06C3C",
"- c #A8784C",
". c #B08458",
"/ c #C01064",
"0 c #CC3880",
"1 c #98084C",
"2 c #880444",
"3 c #640030",
"4 c #AC0C58",
"5 c #500024",
"6 c #40D0D0",
"7 c #200000",
"8 c #5C0000",
"9 c #700404",
": c #980808",
"; c #008C8C",
"< c #00A4A4",
"= c #005C5C",
"> c #004444",
"? c #3C001C",
"@ c #007474",
"A c #2C2C2C",
"B c #C42424",
"C c #2C0014",
"D c #980088",
"E c #3C3C3C",
"F c #4C4C4C",
"!!!!!!!!!!!!!!!!!!!!!!!!!!!!!!!!!!!!!!!!!!!!!!!!!!!!!!!!!!!!!!!!",
"!!!!!!!!!!!!!!!!!!!!!!!!!!!!!!!!!!!!!!!!!!!!!!!!!!!!!!!!!!!!!!!!",
"!!!!!!!!!!!!!!!!!!!!!!!!!!!!!!!!!!!!!!!!!!!!!!!!!!!!!!!!!!!!!!!!",
"!!!!!!!!!!!!!!!!!!!!!!!!!!!!!!!!!!!!!!!!!!!!!!!!!!!!!!!!!!!!!!!!",
"!!!!!!!!!!!!!!!!!!!!!!!!!!!!!!!!!!!!!!!!!!!!!!!!!!!!!!!!!!!!!!!!",
"!!!!!!!!!!!!!!!!!!!!!!!!!!!!!!!!!!!!!!!!!!!!!!!!!!!!!!!!!!!!!!!!",
"!!!!!!!!!!!!!!!!!!!!!!!!!!!!!!!!!!!!!!!!!!!!!!!!!!!!!!!!!!!!!!!!",
"!!!!!!!!!!!!!!!!!!!!!!!!!!!!!!!!!!!!!!!!!!!!!!!!!!!!!!!!!!!!!!!!",
"!!!!!!!!!!!!!!!!!!!!!!!!!!!!!!#!!!!!!!!!!!!!!!!!!!!!!!!!!!!!!!!!",
"!!!!!!!!!!!!!!!!!!!!!!!!!!!!!!$!!!!!!!!!!!!!!!!!!!!!!!!!!!!!!!!!",
"!!!!!!!!!!!!!!!!!!!!!!!!!!!!!!%!!&&&&&&&!!!!!!!!!!!!!!!!!!!!!!!!",
"!!!!!!!!!!!!!!!!!!!!!!!!!!!!!!'!&&&&&&&&&!!!!!!!!!!!!!!!!!!!!!!!",
"!!!!!!!!!!!!!!!!!!!!!!!!!!!!!!'&&&&&&&&&&&!!!!!!!!!!!!!!!!!!!!!!",
"!!!!!!!!!!!!!!!!!!!!!!!!!!!!!!'&&&&&&&&&&&!!!!!!!!!!!!!!!!!!!!!!",
"!!!!!!!!!!!!!!!!!!!!!!!!!!!!!!'&&&&&&&&&&&!!!!!!!!!!!!!!!!!!!!!!",
"!!!!!!!!!!!!!!!!!!!!!!!!!!!!!!&&&&&&&&&&&&!!!!!!!!!!!!!!!!!!!!!!",
"!!!!!!!!!!!!!!!!!!!!!!!!!!!!!!%$&&&&&&&&&(!!!!!!!!!!!!!!!!!!!!!!",
"!!!!!!!!!!!!!!!!!!!!!!!!!!!!!!&&)&&&&&&&)*!!!!!!!!!!!!!!!!!!!!!!",
"!!!!!!!!!!!!!!!!!!!!!!!!!!!!!!&&+)&&&&&)+!!!!!!!!!!!!!!!!!!!!!!!",
"!!!!!!!!!!!!!!!!!!!!!!!!!!!!!!!!(,-,+,-,(!!!!!!!!!!!!!!!!!!!!!!!",
"!!!!!!!!!!!!!!!!!!!!!!!!!!!!!!!!,-.-,-.-,!!!!!!!!!!!!!!!!!!!!!!!",
"!!!!!!!!!!!!!!!!!!!!!!!!!!!!!!!!///000///!!!!!!!!!!!!!!!!!!!!!!!",
"!!!!!!!!!!!!!!!!!!!!!!!!!!!!/0/12333333321/!!!!!!!!!!!!!!!!!!!!!",
"!!!!!!!!!!!!!!!!!!!!!!!!!!//444444444/1111440!!!!!!!!!!!!!!!!!!!",
"!!!!!!!!!!!!!!!!!!!!!!!!//4411111111444444444/0!!!!!!!!!!!!!!!!!",
"!!!!!!!!!!!!!!!!!!!!!!!/41144111111121111111114/!!!!!!!!!!!!!!!!",
"!!!!!!!!!!!!!!!!!!!!!!!/413112111144444111114414/!!!!!!!!!!!!!!!",
"!!!!!!!!!!!!!!!!!!!!!!/11413212211111111111221114/!!!!!!!!!!!!!!",
"!!!!!!!!!!!!!!!!!!!!!/411333541122111111122125144/!!!!!!!!!!!!!!",
"!!!!!!!!!!!!!!!!!!!!!04111355144111121111111233114/!!!!!!!!!!!!!",
"!!!!!!!!!!!!!!!66789:/14131352114441211111413111410!!!!!!!!!!!!!",
"!!!!!!!!!!!!!!;<<789:/11335551222111211444125331110!!!!!!!!!!!!!",
"!!!!!!!!!!!!!!!!!!!!!!55555&5141112221111221531111/!!!!!!!!!!!!!",
"!!!!!!!!!!!!!!!!!!!!!!!!=&&&5214444122211112553311/!!!!!!!!!!!!!",
"!!!!!!!!!!!!!!!!!!!!!!!!!!>!5222212121111412?&5553!!!!!!!!!!!!!!",
"!!!!!!!!!!!!!!!!!!!!!!!!!!=!5321//12321//123?++<@!!!!!!!!!!!!!!!",
"!!!!!!!!!!!!!!!!!!!!!!!!!!!!55335?&&&&&?5335?+<;>!!!!!!!!!!!!!!!",
"!!!!!!!!!!!!!!!!!!!!!!!!!!!&&&&&&&AAAAA&&&&&&*<;!!!!!!!!!!!!!!!!",
"!!!!!!!!!!!!!!!!!!!!!!!!!!!&A&&&&&&&&&&&&&&&B!@=!!!!!!!!!!!!!!!!",
"!!!!!!!!!!!!!!!!!!!!!!!!!!!&&341444441444443&!!!!!!!!!!!!!!!!!!!",
"!!!!!!!!!!!!!!!!!!!!!!!!!!!&&414444411144444&!!!!!!!!!!!!!!!!!!!",
"!!!!!!!!!!!!!!!!!!!!!!!!!!!!34414411111114423!!!!!!!!!!!!!!!!!!!",
"!!!!!!!!!!!!!!!!!!!!!!!!!!!!/111111233321111/!!!!!!!!!!!!!!!!!!!",
"!!!!!!!!!!!!!!!!!!!!!!!!!!!!/1212235?C?53214/!!!!!!!!!!!!!!!!!!!",
"!!!!!!!!!!!!!!!!!!!!!!!!!!!!/4441123?3221111/!!!!!!!!!!!!!!!!!!!",
"!!!!!!!!!!!!!!!!!!!!!!!!!!!/41111123?5311111/!!!!!!!!!!!!!!!!!!!",
"!!!!!!!!!!!!!!!!!!!!!!!!!!!/14414123?532111/!!!!!!!!!!!!!!!!!!!!",
"!!!!!!!!!!!!!!!!!!!!!!!!!!!/41112225?553212/!!!!!!!!!!!!!!!!!!!!",
"!!!!!!!!!!!!!!!!!!!!!!!!!!!/11444123?322223/!!!!!!!!!!!!!!!!!!!!",
"!!!!!!!!!!!!!!!!!!!!!!!!!!!/1235??52?533331/!!!!!!!!!!!!!!!!!!!!",
"!!!!!!!!!!!!!!!!!!!!!!!!!!!!/114442?5355531/!!!!!!!!!!!!!!!!!!!!",
"!!!!!!!!!!!!!!!!!!!!!!!!!!!!/1211223?53211/!!!!!!!!!!!!!!!!!!!!!",
"!!!!!!!!!!!!!!!!!!!!!!!!!!!!/4444112?32222/!!!!!!!!!!!!!!!!!!!!!",
"!!!!!!!!!!!!!!!!!!!!!!!!!!!!/4111144?32221/!!!!!!!!!!!!!!!!!!!!!",
"!!!!!!!!!!!!!!!!!!!!!!!!!!!!/1355531?55335/!!!!!!!!!!!!!!!!!!!!!",
"!!!!!!!!!!!!!!!!!!!!!!!!!!!!!&&AAAA&D&AAE&!!!!!!!!!!!!!!!!!!!!!!",
"!!!!!!!!!!!!!!!!!!!!!!!!!!!!!&&EEAA&D&&AA&!!!!!!!!!!!!!!!!!!!!!!",
"!!!!!!!!!!!!!!!!!!!!!!!!!!!!!&&AEAA&D&AEF&!!!!!!!!!!!!!!!!!!!!!!",
"!!!!!!!!!!!!!!!!!!!!!!!!!!!!!&EFFE&D&&AAA&!!!!!!!!!!!!!!!!!!!!!!",
"!!!!!!!!!!!!!!!!!!!!!!!!!!!!!&&AAAA&&&AAA&!!!!!!!!!!!!!!!!!!!!!!",
"!!!!!!!!!!!!!!!!!!!!!!!!!!!!!&AEFFA&E&&&&!!!!!!!!!!!!!!!!!!!!!!!",
"!!!!!!!!!!!!!!!!!!!!!!!!!!!!&AAAEEA&&&&&!!!!!!!!!!!!!!!!!!!!!!!!",
"!!!!!!!!!!!!!!!!!!!!!!!!!!!!&&AAEF&!!!!!!!!!!!!!!!!!!!!!!!!!!!!!",
"!!!!!!!!!!!!!!!!!!!!!!!!!!!!!!&&&&&!!!!!!!!!!!!!!!!!!!!!!!!!!!!!"
};