/* XPM */
static const char *enemy_floor3_red_guard_walking_f02[] = {
/* columns rows colors chars-per-pixel */
"64 64 59 1",
"! c None",
"# c #A0A0A0",
"$ c #5C5C5C",
"% c #000000",
"& c #6C6C6C",
"' c #7C7C7C",
"( c #684018",
") c #94602C",
"* c #A06C3C",
"+ c #B08458",
", c #C4A080",
"- c #A8784C",
". c #5C340C",
"/ c #00003C",
"0 c #E4C098",
"1 c #805424",
"2 c #643000",
"3 c #D0B094",
"4 c #CC3880",
"5 c #98084C",
"6 c #C01064",
"7 c #880444",
"8 c #AC0C58",
"9 c #C4C824",
": c #640030",
"; c #008C8C",
"< c #78E0E0",
"= c #005C5C",
"> c #007474",
"? c #005C00",
"@ c #500024",
"A c #00A4A4",
"B c #00BCBC",
"C c #10C0C0",
"D c #40D0D0",
"E c #5CD8D8",
"F c #884404",
"G c #502400",
"H c #C06410",
"I c #CC3838",
"J c #C01010",
"K c #AC0C0C",
"L c #980808",
"M c #700404",
"N c #5C0000",
"O c #200000",
"P c #4C4C4C",
"Q c #3C3C3C",
"R c #980088",
"S c #CC8038",
"T c #AC580C",
"U c #2C2C2C",
"V c #004444",
"W c #003064",
"X c #002850",
"Y c #0C5CAC",
"Z c #001C3C",
"[ c #C42424",
"] c #3C001C",
"!!!!!!!!!!!!!!!!!!!!!!!!!!!!!!!!!!!!!!!!!!!!!!!!!!!!!!!!!!!!!!!!",
"!!!!!!!!!!!!!!!!!!!!!!!!!!!!!!!!!!!!!!!!!!!!!!!!!!!!!!!!!!!!!!!!",
"!!!!!!!!!!!!!!!!!!!!!!!!!!!!!!!!!!!!!!!!!!!!!!!!!!!!!!!!!!!!!!!!",
"!!!!!!!!!!!!!!!!!!!!!!!!!!!!!!!!!!!!!!!!!!!!!!!!!!!!!!!!!!!!!!!!",
"!!!!!!!!!!!!!!!!!!!!!!!!!!!!!!!!!!!!!!!!!!!!!!!!!!!!!!!!!!!!!!!!",
"!!!!!!!!!!!!!!!!!!!!!!!!!!!!!!!!!!!!!!!!!!!!!!!!!!!!!!!!!!!!!!!!",
"!!!!!!!!!!!!!!!!!!!!!!!!!!!!!!!!!!!!!!!!!!!!!!!!!!!!!!!!!!!!!!!!",
"!!!!!!!!!!!!!!!!!!!!!!!!!!!!!!!!!!!!!!!!!!!!!!!!!!!!!!!!!!!!!!!!",
"!!!!!!!!!!!!!!!!!!!!!!!!!!!!!!!!!!!!#!!!!!!!!!!!!!!!!!!!!!!!!!!!",
"!!!!!!!!!!!!!!!!!!!!!!!!!!!!!!!!!!!!$!!!!!!!!!!!!!!!!!!!!!!!!!!!",
"!!!!!!!!!!!!!!!!!!!!!!!!!!!%%%%%%%!!&!!!!!!!!!!!!!!!!!!!!!!!!!!!",
"!!!!!!!!!!!!!!!!!!!!!!!!!!%%%%%%%%%!'!!!!!!!!!!!!!!!!!!!!!!!!!!!",
"!!!!!!!!!!!!!!!!!!!!!!!!!%())(%())(%'!!!!!!!!!!!!!!!!!!!!!!!!!!!",
"!!!!!!!!!!!!!!!!!!!!!!!!!%*++,,,++*%'!!!!!!!!!!!!!!!!!!!!!!!!!!!",
"!!!!!!!!!!!!!!!!!!!!!!!!!%%))*-*))%%'!!!!!!!!!!!!!!!!!!!!!!!!!!!",
"!!!!!!!!!!!!!!!!!!!!!!!!!%)./()(/.)%%!!!!!!!!!!!!!!!!!!!!!!!!!!!",
"!!!!!!!!!!!!!!!!!!!!!!!!!)+,,-,-,,+$&!!!!!!!!!!!!!!!!!!!!!!!!!!!",
"!!!!!!!!!!!!!!!!!!!!!!!!!.)-*,0,*-)%%!!!!!!!!!!!!!!!!!!!!!!!!!!!",
"!!!!!!!!!!!!!!!!!!!!!!!!!!-*-)1)-*-%%!!!!!!!!!!!!!!!!!!!!!!!!!!!",
"!!!!!!!!!!!!!!!!!!!!!!!!!!)-.222.-)!!!!!!!!!!!!!!!!!!!!!!!!!!!!!",
"!!!!!!!!!!!!!!!!!!!!!!!!!!1*-+3+-*1!!!!!!!!!!!!!!!!!!!!!!!!!!!!!",
"!!!!!!!!!!!!!!!!!!!!!!!!!!4)1(((1)4!!!!!!!!!!!!!!!!!!!!!!!!!!!!!",
"!!!!!!!!!!!!!!!!!!!!!!55676-)*)*)-6766446!!!!!!!!!!!!!!!!!!!!!!!",
"!!!!!!!!!!!!!!!!!!!!64468758-,-,-857868586!!!!!!!!!!!!!!!!!!!!!!",
"!!!!!!!!!!!!!!!!!!!685858575888885758555586!!!!!!!!!!!!!!!!!!!!!",
"!!!!!!!!!!!!!!!!!!6855575557758577999755556!!!!!!!!!!!!!!!!!!!!!",
"!!!!!!!!!!!!!!!!!!655555555557755:9995775564!!!!!!!!!!!!!!!!!!!!",
"!!!!!!!!!!!!!!!!!4655775555557755:::57:7:7556!!!!!!!!!!!!!!!!!!!",
"!!!!!!!!!!!!!!!!6557:7:7;<===<7755557:7:75576!!!!!!!!!!!!!!!!!!!",
"!!!!!!!!!!!!!!!!67557:7:::>?>@:@::@@:7@7755556!!!!!!!!!!!!!!!!!!",
"!!!!!!!!!!!!!!!655557:@5:AAAAAABCDE<77@:775586!!!!!!!!!!!!!!!!!!",
"!!!!!!!!!!!!!!685557@@@7;BBFGFGFGF>;<H<<IIJKLMNODD!!!!!!!!!!!!!!",
"!!!!!!!!!!!!!!67PPQ%%RR@>;BSTSTSTSF>BS;;IIJKLMNOAA;!!!!!!!!!!!!!",
"!!!!!!!!!!!!!!!%QQPUP%%VV>;AAAAAAVVWBVVV%%QQ%:!!!!!!!!!!!!!!!!!!",
"!!!!!!!!!!!!!!!%Q=%QQPV=>VV;;7:777=XB====%%%%!!!!!!!!!!!!!!!!!!!",
"!!!!!!!!!!!!!!!%A%QPUQP=VV:7:::::77WYQQ$PQ%%!!!!!!!!!!!!!!!!!!!!",
"!!!!!!!!!!!!!!!!>%UQPU%V=:7777:7777ZWPPP%%!!!!!!!!!!!!!!!!!!!!!!",
"!!!!!!!!!!!!!!!!V;%UU%%%%%%%#%Q%#%%ZWQQQP%!!!!!!!!!!!!!!!!!!!!!!",
"!!!!!!!!!!!!!!!!!;A%%![%%%%%'%%%'%%WYQPPQ%!!!!!!!!!!!!!!!!!!!!!!",
"!!!!!!!!!!!!!!!!!=>!!!%%%%%%$%%%$%%%%%%%%!!!!!!!!!!!!!!!!!!!!!!!",
"!!!!!!!!!!!!!!!!!!!!!!%%%@:7555557:@%%%!!!!!!!!!!!!!!!!!!!!!!!!!",
"!!!!!!!!!!!!!!!!!!!!!!!6777:77777:7776!!!!!!!!!!!!!!!!!!!!!!!!!!",
"!!!!!!!!!!!!!!!!!!!!!!655557@757@755556!!!!!!!!!!!!!!!!!!!!!!!!!",
"!!!!!!!!!!!!!!!!!!!!!!68557::@@@::75586!!!!!!!!!!!!!!!!!!!!!!!!!",
"!!!!!!!!!!!!!!!!!!!!!!6555557:]::557756!!!!!!!!!!!!!!!!!!!!!!!!!",
"!!!!!!!!!!!!!!!!!!!!!!6585557:]:7777756!!!!!!!!!!!!!!!!!!!!!!!!!",
"!!!!!!!!!!!!!!!!!!!!!!6855577:]:7777586!!!!!!!!!!!!!!!!!!!!!!!!!",
"!!!!!!!!!!!!!!!!!!!!!!8558857:]:7555758!!!!!!!!!!!!!!!!!!!!!!!!!",
"!!!!!!!!!!!!!!!!!!!!!!6885557:]:7777786!!!!!!!!!!!!!!!!!!!!!!!!!",
"!!!!!!!!!!!!!!!!!!!!!!6855557:]@::7776!!!!!!!!!!!!!!!!!!!!!!!!!!",
"!!!!!!!!!!!!!!!!!!!!!!!65557:@]:@:5575!!!!!!!!!!!!!!!!!!!!!!!!!!",
"!!!!!!!!!!!!!!!!!!!!!!!65885@:]:@555556!!!!!!!!!!!!!!!!!!!!!!!!!",
"!!!!!!!!!!!!!!!!!!!!!!!685555:]@:755576!!!!!!!!!!!!!!!!!!!!!!!!!",
"!!!!!!!!!!!!!!!!!!!!!!655555:@]]@::7755!!!!!!!!!!!!!!!!!!!!!!!!!",
"!!!!!!!!!!!!!!!!!!!!!!6855::7:]%]]@@::!!!!!!!!!!!!!!!!!!!!!!!!!!",
"!!!!!!!!!!!!!!!!!!!!!!657777:@]%UUU%!!!!!!!!!!!!!!!!!!!!!!!!!!!!",
"!!!!!!!!!!!!!!!!!!!!!!!]:::@]%!%UQU%!!!!!!!!!!!!!!!!!!!!!!!!!!!!",
"!!!!!!!!!!!!!!!!!!!!!!!%%QPQ%%!!%%%!!!!!!!!!!!!!!!!!!!!!!!!!!!!!",
"!!!!!!!!!!!!!!!!!!!!!!!%UQPQU%!!!!!!!!!!!!!!!!!!!!!!!!!!!!!!!!!!",
"!!!!!!!!!!!!!!!!!!!!!!!%QP$PQ%!!!!!!!!!!!!!!!!!!!!!!!!!!!!!!!!!!",
"!!!!!!!!!!!!!!!!!!!!!!!!%%%%%%!!!!!!!!!!!!!!!!!!!!!!!!!!!!!!!!!!",
"!!!!!!!!!!!!!!!!!!!!!!!!UQQQU%!!!!!!!!!!!!!!!!!!!!!!!!!!!!!!!!!!",
"!!!!!!!!!!!!!!!!!!!!!!!%QP$PQ%!!!!!!!!!!!!!!!!!!!!!!!!!!!!!!!!!!",
"!!!!!!!!!!!!!!!!!!!!!!!%UQQQU%!!!!!!!!!!!!!!!!!!!!!!!!!!!!!!!!!!"
};