/* XPM */
static const char *enemy_floor3_red_guard_walking_f16[] = {
/* columns rows colors chars-per-pixel */
"64 64 52 1",
"! c None",
"# c #A0A0A0",
"$ c #5C5C5C",
"% c #000000",
"& c #6C6C6C",
"' c #7C7C7C",
"( c #684018",
") c #94602C",
"* c #A8784C",
"+ c #C4A080",
", c #B08458",
"- c #805424",
". c #5C340C",
"/ c #00003C",
"0 c #D0B094",
"1 c #3C3C3C",
"2 c #A06C3C",
"3 c #643000",
"4 c #984C08",
"5 c #C01010",
"6 c #C01064",
"7 c #CC3880",
"8 c #98084C",
"9 c #AC0C58",
": c #880444",
"; c #C4C824",
"< c #640030",
"= c #78E0E0",
"> c #00A4A4",
"? c #500024",
"@ c #007474",
"A c #980088",
"B c #00BCBC",
"C c #10C0C0",
"D c #008C8C",
"E c #884404",
"F c #502400",
"G c #980808",
"H c #5C0000",
"I c #40D0D0",
"J c #CC8038",
"K c #AC580C",
"L c #840404",
"M c #480000",
"N c #2C2C2C",
"O c #004444",
"P c #005C5C",
"Q c #4C4C4C",
"R c #0C5CAC",
"S c #003064",
"T c #402810",
"U c #3C001C",
"!!!!!!!!!!!!!!!!!!!!!!!!!!!!!!!!!!!!!!!!!!!!!!!!!!!!!!!!!!!!!!!!",
"!!!!!!!!!!!!!!!!!!!!!!!!!!!!!!!!!!!!!!!!!!!!!!!!!!!!!!!!!!!!!!!!",
"!!!!!!!!!!!!!!!!!!!!!!!!!!!!!!!!!!!!!!!!!!!!!!!!!!!!!!!!!!!!!!!!",
"!!!!!!!!!!!!!!!!!!!!!!!!!!!!!!!!!!!!!!!!!!!!!!!!!!!!!!!!!!!!!!!!",
"!!!!!!!!!!!!!!!!!!!!!!!!!!!!!!!!!!!!!!!!!!!!!!!!!!!!!!!!!!!!!!!!",
"!!!!!!!!!!!!!!!!!!!!!!!!!!!!!!!!!!!!!!!!!!!!!!!!!!!!!!!!!!!!!!!!",
"!!!!!!!!!!!!!!!!!!!!!!!!!!!!!!!!!!!!!!!!!!!!!!!!!!!!!!!!!!!!!!!!",
"!!!!!!!!!!!!!!!!!!!!!!!!!!!!!!!!!!!!!!!!!!!!!!!!!!!!!!!!!!!!!!!!",
"!!!!!!!!!!!!!!!!!!!!!!!!!!!!!!!!!!#!!!!!!!!!!!!!!!!!!!!!!!!!!!!!",
"!!!!!!!!!!!!!!!!!!!!!!!!!!!!!!!!!!$!!!!!!!!!!!!!!!!!!!!!!!!!!!!!",
"!!!!!!!!!!!!!!!!!!!!!!!!!!!!%%%%%%&%!!!!!!!!!!!!!!!!!!!!!!!!!!!!",
"!!!!!!!!!!!!!!!!!!!!!!!!!!!%%%%%%%'%%!!!!!!!!!!!!!!!!!!!!!!!!!!!",
"!!!!!!!!!!!!!!!!!!!!!!!!!!!%())(%%'%%%!!!!!!!!!!!!!!!!!!!!!!!!!!",
"!!!!!!!!!!!!!!!!!!!!!!!!!!!*++,)%%'%%%!!!!!!!!!!!!!!!!!!!!!!!!!!",
"!!!!!!!!!!!!!!!!!!!!!!!!!!!)*%%,(%'%%%!!!!!!!!!!!!!!!!!!!!!!!!!!",
"!!!!!!!!!!!!!!!!!!!!!!!!!!!-./-)$%%%$%!!!!!!!!!!!!!!!!!!!!!!!!!!",
"!!!!!!!!!!!!!!!!!!!!!!!!!!!,)+0,1%&%1%!!!!!!!!!!!!!!!!!!!!!!!!!!",
"!!!!!!!!!!!!!!!!!!!!!!!!!!,0*)**%%%%%%!!!!!!!!!!!!!!!!!!!!!!!!!!",
"!!!!!!!!!!!!!!!!!!!!!!!!!!!-2*2,)%%%%!!!!!!!!!!!!!!!!!!!!!!!!!!!",
"!!!!!!!!!!!!!!!!!!!!!!!!!!!3.)*2)())-!!!!!!!!!!!!!!!!!!!!!!!!!!!",
"!!!!!!!!!!!!!!!!!!!!!!!!!!!*,*2)-)22)!!!!!!!!!!!!!!!!!!!!!!!!!!!",
"!!!!!!!!!!!!!!!!!!!!!!!!!!!!!((-)2*22!!!!!!!!!!!!!!!!!!!!!!!!!!!",
"!!!!!!!!!!!!!!!!!!!!!!!!!!!!!)2)**4567!!!!!!!!!!!!!!!!!!!!!!!!!!",
"!!!!!!!!!!!!!!!!!!!!!!!!!!!!!2)45667778!!!!!!!!!!!!!!!!!!!!!!!!!",
"!!!!!!!!!!!!!!!!!!!!!!!!!!!677998:699776!!!!!!!!!!!!!!!!!!!!!!!!",
"!!!!!!!!!!!!!!!!!!!!!!!!!!68:;;<:6988897!!!!!!!!!!!!!!!!!!!!!!!!",
"!!!!!!!!!!!!!!!!!!!!!!!!!!686;;:868888986!!!!!!!!!!!!!!!!!!!!!!!",
"!!!!!!!!!!!!!!!!!!!!!!!!!68:68::8:8889887!!!!!!!!!!!!!!!!!!!!!!!",
"!!!!!!!!!!!!!!!!!!!!!!!!!78::8888<:888:896!!!!!!!!!!!!!!!!!!!!!!",
"!!!!!!!!!!!!!!!!!!!!!!=>%68:8888:<??<:8887!!!!!!!!!!!!!!!!!!!!!!",
"!!!!!!!!!!!!!!!!!!!!!!!@A68<:8:<<:?<:888:6!!!!!!!!!!!!!!!!!!!!!!",
"!!!!!!!!!!!!!!!!!!!!!!>BC>>8<??<::<?8979896!!!!!!!!!!!!!!!!!!!!!",
"!!!!!!!!!!!!!!!!!!!!!DBEF==GHI%%8<:%%888:97!!!!!!!!!!!!!!!!!!!!!",
"!!!!!!!!!!!!!!!!!!!!!@DJKBDLM@%%<<%N1%8:986!!!!!!!!!!!!!!!!!!!!!",
"!!!!!!!!!!!!!!!!!!!!%O@>>BOOP%%<%N1N%N:<?:!!!!!!!!!!!!!!!!!!!!!!",
"!!!!!!!!!!!!!!!!!!!$Q@OD%BPPD%%1N%%%%%??!!!!!!!!!!!!!!!!!!!!!!!!",
"!!!!!!!!!!!!!!!!!!!NQN11%R%&Q1%%%%%NNN66!!!!!!!!!!!!!!!!!!!!!!!!",
"!!!!!!!!!!!!!!!!!!!NN1NN!SQQQNN%NNN%%%%%!!!!!!!!!!!!!!!!!!!!!!!!",
"!!!!!!!!!!!!!!!!!!!O%NN!!S%11Q%%N%%%%%%%!!!!!!!!!!!!!!!!!!!!!!!!",
"!!!!!!!!!!!!!!!!!!!!DTT!!R1QQN%%%%%:89866!!!!!!!!!!!!!!!!!!!!!!!",
"!!!!!!!!!!!!!!!!!!!!PP!!!!66988%%%%888896!!!!!!!!!!!!!!!!!!!!!!!",
"!!!!!!!!!!!!!!!!!!!!!!!!!!69898:<<:888886!!!!!!!!!!!!!!!!!!!!!!!",
"!!!!!!!!!!!!!!!!!!!!!!!!!69988:8888:88888!!!!!!!!!!!!!!!!!!!!!!!",
"!!!!!!!!!!!!!!!!!!!!!!!!!698988<:888<:8:86!!!!!!!!!!!!!!!!!!!!!!",
"!!!!!!!!!!!!!!!!!!!!!!!!698888888<<::<:896!!!!!!!!!!!!!!!!!!!!!!",
"!!!!!!!!!!!!!!!!!!!!!!!6988998888::<<:8886!!!!!!!!!!!!!!!!!!!!!!",
"!!!!!!!!!!!!!!!!!!!!!!!69998888::<<?:888896!!!!!!!!!!!!!!!!!!!!!",
"!!!!!!!!!!!!!!!!!!!!!!6888888:<<::?:8888986!!!!!!!!!!!!!!!!!!!!!",
"!!!!!!!!!!!!!!!!!!!!!6998:<<:888:?<:8:88886!!!!!!!!!!!!!!!!!!!!!",
"!!!!!!!!!!!!!!!!!!!!!6988889988:?!?::8::89:6!!!!!!!!!!!!!!!!!!!!",
"!!!!!!!!!!!!!!!!!!!!6989:88888:?!!?<::<:::<96!!!!!!!!!!!!!!!!!!!",
"!!!!!!!!!!!!!!!!!!!!69988<<:8:?!!!!?<:8:<<:988!!!!!!!!!!!!!!!!!!",
"!!!!!!!!!!!!!!!!!!!!6898:8:?U?!!!!!?<<<:8998:%!!!!!!!!!!!!!!!!!!",
"!!!!!!!!!!!!!!!!!!!!68898<:88?!!!!!!?<:<<UUUN1%!!!!!!!!!!!!!!!!!",
"!!!!!!!!!!!!!!!!!!!!!68:8:<<?!!!!!!!!??:8:<N1Q%!!!!!!!!!!!!!!!!!",
"!!!!!!!!!!!!!!!!!!!!!%?<<<?%!!!!!!!!!!!UUNNN11Q%%!!!!!!!!!!!!!!!",
"!!!!!!!!!!!!!!!!!!!!!%NNNNN%!!!!!!!!!!!!%%NNNNQ1Q%!!!!!!!!!!!!!!",
"!!!!!!!!!!!!!!!!!!!!!%%N1QN%!!!!!!!!!!!!!!%%N1N11%!!!!!!!!!!!!!!",
"!!!!!!!!!!!!!!!!!!!!!%N111N%!!!!!!!!!!!!!!!!%%111%!!!!!!!!!!!!!!",
"!!!!!!!!!!!!!!!!!!!!!%%%NQ1%!!!!!!!!!!!!!!!!%11NN%!!!!!!!!!!!!!!",
"!!!!!!!!!!!!!!!!!!!!!%N1Q1%!!!!!!!!!!!!!!!%%111N%!!!!!!!!!!!!!!!",
"!!!!!!!!!!!!!!!!!!!%%N%N1Q1%!!!!!!!!!!!!!%N1Q1N%!!!!!!!!!!!!!!!!",
"!!!!!!!!!!!!!!!!%%%N1QQQ1NN%!!!!!!!!!!!!!%%%%%%%!!!!!!!!!!!!!!!!",
"!!!!!!!!!!!!!!!%NN1QQ11111N%!!!!!!!!!!!!!!!!!!!!!!!!!!!!!!!!!!!!"
};