/* XPM */
static const char *enemy_floor3_red_guard_walking_f18[] = {
/* columns rows colors chars-per-pixel */
"64 64 48 1",
"! c None",
"# c #A0A0A0",
"$ c #5C5C5C",
"% c #000000",
"& c #6C6C6C",
"' c #7C7C7C",
"( c #684018",
") c #94602C",
"* c #A8784C",
"+ c #C4A080",
", c #B08458",
"- c #805424",
". c #5C340C",
"/ c #00003C",
"0 c #D0B094",
"1 c #3C3C3C",
"2 c #A06C3C",
"3 c #643000",
"4 c #984C08",
"5 c #C01010",
"6 c #C01064",
"7 c #CC3880",
"8 c #98084C",
"9 c #880444",
": c #640030",
"; c #AC0C58",
"< c #A4A814",
"= c #C4C824",
"> c #500024",
"? c #00A4A4",
"@ c #40D0D0",
"A c #5C0000",
"B c #980808",
"C c #78E0E0",
"D c #502400",
"E c #007474",
"F c #480000",
"G c #840404",
"H c #008C8C",
"I c #00BCBC",
"J c #AC580C",
"K c #005C5C",
"L c #004444",
"M c #2C2C2C",
"N c #4C4C4C",
"O c #0C5CAC",
"P c #C42470",
"Q c #3C001C",
"!!!!!!!!!!!!!!!!!!!!!!!!!!!!!!!!!!!!!!!!!!!!!!!!!!!!!!!!!!!!!!!!",
"!!!!!!!!!!!!!!!!!!!!!!!!!!!!!!!!!!!!!!!!!!!!!!!!!!!!!!!!!!!!!!!!",
"!!!!!!!!!!!!!!!!!!!!!!!!!!!!!!!!!!!!!!!!!!!!!!!!!!!!!!!!!!!!!!!!",
"!!!!!!!!!!!!!!!!!!!!!!!!!!!!!!!!!!!!!!!!!!!!!!!!!!!!!!!!!!!!!!!!",
"!!!!!!!!!!!!!!!!!!!!!!!!!!!!!!!!!!!!!!!!!!!!!!!!!!!!!!!!!!!!!!!!",
"!!!!!!!!!!!!!!!!!!!!!!!!!!!!!!!!!!!!!!!!!!!!!!!!!!!!!!!!!!!!!!!!",
"!!!!!!!!!!!!!!!!!!!!!!!!!!!!!!!!!!!!!!!!!!!!!!!!!!!!!!!!!!!!!!!!",
"!!!!!!!!!!!!!!!!!!!!!!!!!!!!!!!!!!!!!!!!!!!!!!!!!!!!!!!!!!!!!!!!",
"!!!!!!!!!!!!!!!!!!!!!!!!!!!!!!!#!!!!!!!!!!!!!!!!!!!!!!!!!!!!!!!!",
"!!!!!!!!!!!!!!!!!!!!!!!!!!!!!!!$!!!!!!!!!!!!!!!!!!!!!!!!!!!!!!!!",
"!!!!!!!!!!!!!!!!!!!!!!!!!%%%%%%&%!!!!!!!!!!!!!!!!!!!!!!!!!!!!!!!",
"!!!!!!!!!!!!!!!!!!!!!!!!%%%%%%%'%%!!!!!!!!!!!!!!!!!!!!!!!!!!!!!!",
"!!!!!!!!!!!!!!!!!!!!!!!!%())(%%'%%%!!!!!!!!!!!!!!!!!!!!!!!!!!!!!",
"!!!!!!!!!!!!!!!!!!!!!!!!*++,)%%'%%%!!!!!!!!!!!!!!!!!!!!!!!!!!!!!",
"!!!!!!!!!!!!!!!!!!!!!!!!)*%%,(%'%%%!!!!!!!!!!!!!!!!!!!!!!!!!!!!!",
"!!!!!!!!!!!!!!!!!!!!!!!!-./-)$%%%$%!!!!!!!!!!!!!!!!!!!!!!!!!!!!!",
"!!!!!!!!!!!!!!!!!!!!!!!!,)+0,1%&%1%!!!!!!!!!!!!!!!!!!!!!!!!!!!!!",
"!!!!!!!!!!!!!!!!!!!!!!!,0*)**%%%%%%!!!!!!!!!!!!!!!!!!!!!!!!!!!!!",
"!!!!!!!!!!!!!!!!!!!!!!!!-2*2,)%%%%!!!!!!!!!!!!!!!!!!!!!!!!!!!!!!",
"!!!!!!!!!!!!!!!!!!!!!!!!3.)*2)())-!!!!!!!!!!!!!!!!!!!!!!!!!!!!!!",
"!!!!!!!!!!!!!!!!!!!!!!!!*,*2)-)22)!!!!!!!!!!!!!!!!!!!!!!!!!!!!!!",
"!!!!!!!!!!!!!!!!!!!!!!!!!!((-)2*22!!!!!!!!!!!!!!!!!!!!!!!!!!!!!!",
"!!!!!!!!!!!!!!!!!!!!!!!!!!)2)**4567!!!!!!!!!!!!!!!!!!!!!!!!!!!!!",
"!!!!!!!!!!!!!!!!!!!!!!!!!!2)467789:8!!!!!!!!!!!!!!!!!!!!!!!!!!!!",
"!!!!!!!!!!!!!!!!!!!!!!!!677688;678676!!!!!!!!!!!!!!!!!!!!!!!!!!!",
"!!!!!!!!!!!!!!!!!!!!!!!8<=68888;68867!!!!!!!!!!!!!!!!!!!!!!!!!!!",
"!!!!!!!!!!!!!!!!!!!!!!!6<=6888;8668876!!!!!!!!!!!!!!!!!!!!!!!!!!",
"!!!!!!!!!!!!!!!!!!!!!!6889689898688876!!!!!!!!!!!!!!!!!!!!!!!!!!",
"!!!!!!!!!!!!!!!!!!!!!!6896;6898986987;6!!!!!!!!!!!!!!!!!!!!!!!!!",
"!!!!!!!!!!!!!!!!!!!!!!686;8889:>6886786!!!!!!!!!!!!!!!!!!!!!!!!!",
"!!!!!!!!!!!!!!!!!!!!??89688898;989876988!!!!!!!!!!!!!!!!!!!!!!!!",
"!!!!!!!!!!!!!!!%%@ABCCD66888889:98686889!!!!!!!!!!!!!!!!!!!!!!!!",
"!!!!!!!!!!!!!!!%%EFGHIJ676;:99>9968869:!!!!!!!!!!!!!!!!!!!!!!!!!",
"!!!!!!!!!!!!!!!!!!KLL%MM%8;;8>:988968:>!!!!!!!!!!!!!!!!!!!!!!!!!",
"!!!!!!!!!!!!!!!!&N1%M1MM1%88>:989:898>!!!!!!!!!!!!!!!!!!!!!!!!!!",
"!!!!!!!!!!!!!!!NNNMM%M%MM%9:>999:89:>!!!!!!!!!!!!!!!!!!!!!!!!!!!",
"!!!!!!!!!!!!!!!!11N%M%%%%%:>::::>%%%!!!!!!!!!!!!!!!!!!!!!!!!!!!!",
"!!!!!!!!!!!!!!!!NNM%%MMMM>1%#%%%%%%%!!!!!!!!!!!!!!!!!!!!!!!!!!!!",
"!!!!!!!!!!!!!!!!!!NN1O!!%'%%'%%%M%%%P!!!!!!!!!!!!!!!!!!!!!!!!!!!",
"!!!!!!!!!!!!!!!!!!!!!!!!%$%%$%%%%%%9;7!!!!!!!!!!!!!!!!!!!!!!!!!!",
"!!!!!!!!!!!!!!!!!!!!!!!68;;;888%%%%88P!!!!!!!!!!!!!!!!!!!!!!!!!!",
"!!!!!!!!!!!!!!!!!!!!!!!699889889::988;P!!!!!!!!!!!!!!!!!!!!!!!!!",
"!!!!!!!!!!!!!!!!!!!!!!6;8:98:88888;8;;7!!!!!!!!!!!!!!!!!!!!!!!!!",
"!!!!!!!!!!!!!!!!!!!!!!6899>Q9988;888886!!!!!!!!!!!!!!!!!!!!!!!!!",
"!!!!!!!!!!!!!!!!!!!!!6;;888Q:89988;;8;P!!!!!!!!!!!!!!!!!!!!!!!!!",
"!!!!!!!!!!!!!!!!!!!!!688;88>::;8898888;6!!!!!!!!!!!!!!!!!!!!!!!!",
"!!!!!!!!!!!!!!!!!!!!!6;8889:>::8;;888887!!!!!!!!!!!!!!!!!!!!!!!!",
"!!!!!!!!!!!!!!!!!!!!6;8889:9>98::8;;;8;P!!!!!!!!!!!!!!!!!!!!!!!!",
"!!!!!!!!!!!!!!!!!!!!68889989>>989:998986!!!!!!!!!!!!!!!!!!!!!!!!",
"!!!!!!!!!!!!!!!!!!!!6;98889:>Q:9;888888;6!!!!!!!!!!!!!!!!!!!!!!!",
"!!!!!!!!!!!!!!!!!!!!68;899:>:>>:9;;898;8867!!!!!!!!!!!!!!!!!!!!!",
"!!!!!!!!!!!!!!!!!!!6;8:>>>>:>!!>:98;;;898;;P!!!!!!!!!!!!!!!!!!!!",
"!!!!!!!!!!!!!!!!!!!68;;889:>>!!!>>:989:89;8P!!!!!!!!!!!!!!!!!!!!",
"!!!!!!!!!!!!!!!!!!!>:9889::>!!!!!!>>>:99;886%!!!!!!!!!!!!!!!!!!!",
"!!!!!!!!!!!!!!!!!!!%M>>>>>>!!!!!!!!>:9::99;9%!!!!!!!!!!!!!!!!!!!",
"!!!!!!!!!!!!!!!!!!!%MM1N1M%!!!!!!!!!>:9888>NM%!!!!!!!!!!!!!!!!!!",
"!!!!!!!!!!!!!!!!!!!%M111M%!!!!!!!!!!!>:99>11N%!!!!!!!!!!!!!!!!!!",
"!!!!!!!!!!!!!!!!!!!!%M1N1%!!!!!!!!!!!!>>QMM111%%!!!!!!!!!!!!!!!!",
"!!!!!!!!!!!!!!!!!!!%M1MM%!!!!!!!!!!!!!!!%%MMMN1N%!!!!!!!!!!!!!!!",
"!!!!!!!!!!!!!!!!!!!%MMM1%!!!!!!!!!!!!!!!!!%M1M11%!!!!!!!!!!!!!!!",
"!!!!!!!!!!!!!!!!!%%M1111M%!!!!!!!!!!!!!!!!!%M111%!!!!!!!!!!!!!!!",
"!!!!!!!!!!!!!!!%%M1NN1MMM%!!!!!!!!!!!!!!!!!%MM1M%!!!!!!!!!!!!!!!",
"!!!!!!!!!!!!!!!%%%%%%%%%%%!!!!!!!!!!!!!!!!%M1NM%!!!!!!!!!!!!!!!!",
"!!!!!!!!!!!!!!!!!!!!!!!!!!!!!!!!!!!!!!!!!%%%%%%%!!!!!!!!!!!!!!!!"
};