/* XPM */
static const char *boss_floor3_escaping_f04[] = {
/* columns rows colors chars-per-pixel */
"64 64 36 1",
"! c None",
"# c #A06C3C",
"$ c #C4A080",
"% c #D0B094",
"& c #E4C098",
"' c #E4D0C0",
"( c #980088",
") c #848484",
"* c #BCBCBC",
"+ c #B08458",
", c #D8D8D8",
"- c #747474",
". c #A8784C",
"/ c #603814",
"0 c #805424",
"1 c #94602C",
"2 c #704820",
"3 c #C01010",
"4 c #4C78A8",
"5 c #502400",
"6 c #3C6CA0",
"7 c #5884B0",
"8 c #346090",
"9 c #98C0E4",
": c #C06410",
"; c #2C5480",
"< c #FCFCFC",
"= c #700404",
"> c #CC8038",
"? c #244870",
"@ c #142840",
"A c #C8CC28",
"B c #000000",
"C c #3C3C3C",
"D c #2C2C2C",
"E c #4C4C4C",
"!!!!!!!!!!!!!!!!!!!!!!!!!!!!!!!!!!!!!!!!!!!!!!!!!!!!!!!!!!!!!!!!",
"!!!!!!!!!!!!!!!!!!!!!!!!!!!!!!!!!!!!!!!!!!!!!!!!!!!!!!!!!!!!!!!!",
"!!!!!!!!!!!!!!!!!!!!!!!!!!!!!!!!!!!!!!!!!!!!!!!!!!!!!!!!!!!!!!!!",
"!!!!!!!!!!!!!!!!!!!!!!!!!!!!!!!!!!!!!!!!!!!!!!!!!!!!!!!!!!!!!!!!",
"!!!!!!!!!!!!!!!!!!!!!!!!!!!!!!!!!!!!!!!!!!!!!!!!!!!!!!!!!!!!!!!!",
"!!!!!!!!!!!!!!!!!!!!!!!!!!!!!!!!!!!!!!!!!!!!!!!!!!!!!!!!!!!!!!!!",
"!!!!!!!!!!!!!!!!!!!!!!!!!!!!!!!!!!!!!!!!!!!!!!!!!!!!!!!!!!!!!!!!",
"!!!!!!!!!!!!!!!!!!!!!!!!!!!!!!!!!!!!!!!!!!!!!!!!!!!!!!!!!!!!!!!!",
"!!!!!!!!!!!!!!!!!!!!!!!!!!!!!!!!!!!!!!!!!!!!!!!!!!!!!!!!!!!!!!!!",
"!!!!!!!!!!!!!!!!!!!!!!!!!!!!!!!!!!!!!!!!!!!!!!!!!!!!!!!!!!!!!!!!",
"!!!!!!!!!!!!!!!!!!!!!!!!!!!!!!!!!!!!!!!!!!!!!!!!!!!!!!!!!!!!!!!!",
"!!!!!!!!!!!!!!!!!!!!!!!!!!!!!!!!!!!!!!!!!!!!!!!!!!!!!!!!!!!!!!!!",
"!!!!!!!!!!!!!!!!!!!!!!!!!!!!!!!!!!!!!!!!!!!!!!!!!!!!!!!!!!!!!!!!",
"!!!!!!!!!!!!!!!!!!!!!!!!!!!!!!!!!!!!!!!!!!!!!!!!!!!!!!!!!!!!!!!!",
"!!!!!!!!!!!!!!!!!!!!!!!!!!!!!!#!$$$$$!#!!!!!!!!!!!!!!!!!!!!!!!!!",
"!!!!!!!!!!!!!!!!!!!!!!!!!#!$%&'&%$(#!!!!!!!!!!!!!!!!!!!!!!!!!!!!",
"!!!!!!!!!!!!!!!!!!!!!!!!!!!!!)($%%%%%$!)!!!!!!!!!!!!!!!!!!!!!!!!",
"!!!!!!!!!!!!!!!!!!!!!!!!!*!+$$$$$+(*!!!!!!!!!!!!!!!!!!!!!!!!!!!!",
"!!!!!!!!!!!!!!!!!!!!!!!!!!!!!,(*+++++*!,!!!!!!!!!!!!!!!!!!!!!!!!",
"!!!!!!!!!!!!!!!!!!!!!!!!!*!-,,.,,-(*!!!!!!!!!!!!!!!!!!!!!!!!!!!!",
"!!!!!!!!!!!!!!!!!!!!!!!!!!!!!-(//010//!-!!!!!!!!!!!!!!!!!!!!!!!!",
"!!!!!!!!!!!!!!!!!!!!!!*!-!+$+.$.+$(1!!!!!!!!!!!!!!!!!!!!!!!!!!!!",
"!!!!!!!!!!!!!!!!!!!!!!!!!!!*(21.31&1#.!2!!!!!!!!!!!!!!!!!!!!!!!!",
"!!!!!!!!!!!!!!!!!!!!!!!!!4!1055501(4!!!!!!!!!!!!!!!!!!!!!!!!!!!!",
"!!!!!!!!!!!!!!!!!!!!!!!6!66(46723.+.12764!66!6!!!!!!!!!!!!!!!!!!",
"!!!!!!!!!!!!!!!!!!6!88!868972222:79868(88!6!!!!!!!!!!!!!!!!!!!!!",
"!!!!!!!!!!!!!!!!!!!!!!6(;8(;8;7<:=3=<<7;8;(8;!6!!!!!!!!!!!!!!!!!",
"!!!!!!!!!!!!!!!!!!8!;;(;;;;<77=7><;;;;(;;(6!!!!!!!!!!!!!!!!!!!!!",
"!!!!!!!!!!!!!!!!!!!!!6(8;(;?;?;7><3<<7;?;?;!?8!6!!!!!!!!!!!!!!!!",
"!!!!!!!!!!!!!!!!!6!;;(?@;;?;7<33A3?;;@?(;8(6!!!!!!!!!!!!!!!!!!!!",
"!!!!!!!!!!!!!!!!!!!!!6(;;(?@?;;:A:37;?;;?@8(;;!4!!!!!!!!!!!!!!!!",
"!!!!!!!!!!!!!!!!!8!??(8@@????3>A<A>3@@@(8?(6!!!!!!!!!!!!!!!!!!!!",
"!!!!!!!!!!!!!!!!!!!!!;(;3(3:>>A<<<A>>:3@366(?;!;!!!!!!!!!!!!!!!!",
"!!!!!!!!!!!!!!!!!?!?;!;86;;;;3>A<A>3688(;;!?!!!!!!!!!!!!!!!!!!!!",
"!!!!!!!!!!!!!!!!!!!!!!@!;;(;86;:A:??@;;68;!;;!@!!!!!!!!!!!!!!!!!",
"!!!!!!!!!!!!!!!!!!!@!?;!;;6;8??3A38;;(;;!@!!!!!!!!!!!!!!!!!!!!!!",
"!!!!!!!!!!!!!!!!!!!!!!!!@!??(?@8>?;#+$@?!;;!@!!!!!!!!!!!!!!!!!!!",
"!!!!!!!!!!!!!!!!!!!!!@!;?!$$$;#.>#$(?;!@!!!!!!!!!!!!!!!!!!!!!!!!",
"!!!!!!!!!!!!!!!!!!!!!!!!!!@(3$(+:;.#.0!)@!@!!!!!!!!!!!!!!!!!!!!!",
"!!!!!!!!!!!!!!!!!!!!!!!@!#0(+?.;:(0;(@!!!!!!!!!!!!!!!!!!!!!!!!!!",
"!!!!!!!!!!!!!!!!!!!!!!!!!!!@(00(3;??;(;;!@!!!!!!!!!!!!!!!!!!!!!!",
"!!!!!!!!!!!!!!!!!!!!!!!6!@8(?;;;;(;?(6!!!!!!!!!!!!!!!!!!!!!!!!!!",
"!!!!!!!!!!!!!!!!!!!!!!!!!!!6(;;(3@@@@(@@!6!!!!!!!!!!!!!!!!!!!!!!",
"!!!!!!!!!!!!!!!!!!!!!!!6!;;(?@@@?(;;(4!!!!!!!!!!!!!!!!!!!!!!!!!!",
"!!!!!!!!!!!!!!!!!!!!!!!!!!!4(;;(;@@@;(;;!4!!!!!!!!!!!!!!!!!!!!!!",
"!!!!!!!!!!!!!!!!!!!!!!!4!8;(;?@?;(;;(6!!!!!!!!!!!!!!!!!!!!!!!!!!",
"!!!!!!!!!!!!!!!!!!!!!!!!!!!6(;;(;?@??(;8!6!!!!!!!!!!!!!!!!!!!!!!",
"!!!!!!!!!!!!!!!!!!!!!!!6!;;(??@?;(;8(6!!!!!!!!!!!!!!!!!!!!!!!!!!",
"!!!!!!!!!!!!!!!!!!!!!!!!!!!6(;;(;?@?;(;;!6!!!!!!!!!!!!!!!!!!!!!!",
"!!!!!!!!!!!!!!!!!!!!!!!6!;;!;;@?;(8;(4!!!!!!!!!!!!!!!!!!!!!!!!!!",
"!!!!!!!!!!!!!!!!!!!!!!!!!!!!6(;;;?@;;??!6!!!!!!!!!!!!!!!!!!!!!!!",
"!!!!!!!!!!!!!!!!!!!!!!!6!?8!?@@@?(;;(6!!!!!!!!!!!!!!!!!!!!!!!!!!",
"!!!!!!!!!!!!!!!!!!!!!!!!!!!6(;?(;;@?;(88!4!!!!!!!!!!!!!!!!!!!!!!",
"!!!!!!!!!!!!!!!!!!!!!!!4!88(@@@@@(;;(4!!!!!!!!!!!!!!!!!!!!!!!!!!",
"!!!!!!!!!!!!!!!!!!!!!!!!!!!6(;?(??@??!??!6!!!!!!!!!!!!!!!!!!!!!!",
"!!!!!!!!!!!!!!!!!!!!!!!!6!;;;?@?;;;(6!!!!!!!!!!!!!!!!!!!!!!!!!!!",
"!!!!!!!!!!!!!!!!!!!!!!!!!!!!6(;;??@?;;;!6!!!!!!!!!!!!!!!!!!!!!!!",
"!!!!!!!!!!!!!!!!!!!!!!!!6!;;;?@?;;;(6!!!!!!!!!!!!!!!!!!!!!!!!!!!",
"!!!!!!!!!!!!!!!!!!!!!!!!!!!!6(;;;?@??;;!4!!!!!!!!!!!!!!!!!!!!!!!",
"!!!!!!!!!!!!!!!!!!!!!!!!4!;;;@(@;;;(4!!!!!!!!!!!!!!!!!!!!!!!!!!!",
"!!!!!!!!!!!!!!!!!!!!!!!!!!!!!B(BBB(BBB!B!!!!!!!!!!!!!!!!!!!!!!!!",
"!!!!!!!!!!!!!!!!!!!!!!!!B!CCDB(BDCC(B!!!!!!!!!!!!!!!!!!!!!!!!!!!",
"!!!!!!!!!!!!!!!!!!!!!!!!!!!B(ECDB(((BDCE!B!!!!!!!!!!!!!!!!!!!!!!",
"!!!!!!!!!!!!!!!!!!!!!!!B!BBBB!!!BBBB!B!!!!!!!!!!!!!!!!!!!!!!!!!!"
};