/* XPM */
static const char *boss_floor3_escaping_f05[] = {
/* columns rows colors chars-per-pixel */
"64 64 34 1",
"! c None",
"# c #A06C3C",
"$ c #C4A080",
"% c #D0B094",
"& c #E4D0C0",
"' c #BCBCBC",
"( c #D8D8D8",
") c #B08458",
"* c #A8784C",
"+ c #980088",
", c #C01010",
"- c #747474",
". c #603814",
"/ c #805424",
"0 c #94602C",
"1 c #704820",
"2 c #E4C098",
"3 c #C06410",
"4 c #502400",
"5 c #4C78A8",
"6 c #3C6CA0",
"7 c #5884B0",
"8 c #346090",
"9 c #98C0E4",
": c #2C5480",
"; c #CC8038",
"< c #FCFCFC",
"= c #700404",
"> c #C8CC28",
"? c #AC580C",
"@ c #244870",
"A c #142840",
"B c #000000",
"C c #3C3C3C",
"!!!!!!!!!!!!!!!!!!!!!!!!!!!!!!!!!!!!!!!!!!!!!!!!!!!!!!!!!!!!!!!!",
"!!!!!!!!!!!!!!!!!!!!!!!!!!!!!!!!!!!!!!!!!!!!!!!!!!!!!!!!!!!!!!!!",
"!!!!!!!!!!!!!!!!!!!!!!!!!!!!!!!!!!!!!!!!!!!!!!!!!!!!!!!!!!!!!!!!",
"!!!!!!!!!!!!!!!!!!!!!!!!!!!!!!!!!!!!!!!!!!!!!!!!!!!!!!!!!!!!!!!!",
"!!!!!!!!!!!!!!!!!!!!!!!!!!!!!!!!!!!!!!!!!!!!!!!!!!!!!!!!!!!!!!!!",
"!!!!!!!!!!!!!!!!!!!!!!!!!!!!!!!!!!!!!!!!!!!!!!!!!!!!!!!!!!!!!!!!",
"!!!!!!!!!!!!!!!!!!!!!!!!!!!!!!!!!!!!!!!!!!!!!!!!!!!!!!!!!!!!!!!!",
"!!!!!!!!!!!!!!!!!!!!!!!!!!!!!!!!!!!!!!!!!!!!!!!!!!!!!!!!!!!!!!!!",
"!!!!!!!!!!!!!!!!!!!!!!!!!!!!!!!!!!!!!!!!!!!!!!!!!!!!!!!!!!!!!!!!",
"!!!!!!!!!!!!!!!!!!!!!!!!!!!!!!!!!!!!!!!!!!!!!!!!!!!!!!!!!!!!!!!!",
"!!!!!!!!!!!!!!!!!!!!!!!!!!!!!!!!!!!!!!!!!!!!!!!!!!!!!!!!!!!!!!!!",
"!!!!!!!!!!!!!!!!!!!!!!!!!!!!!!!!!!!!!!!!!!!!!!!!!!!!!!!!!!!!!!!!",
"!!!!!!!!!!!!!!!!!!!!!!!!!!!!!!!!!!!!!!!!!!!!!!!!!!!!!!!!!!!!!!!!",
"!!!!!!!!!!!!!!!!!!!!!!!!#!!$$$!!#!!!!!!!!!!!!!!!!!!!!!!!!!!!!!!!",
"!!!!!!!!!!!!!!!!!!!!!!!!!!!!!!!#!!%%&%%!!#!!!!!!!!!!!!!!!!!!!!!!",
"!!!!!!!!!!!!!!!!!!!!!!!'!!$$$$$!!'!!!!!!!!!!!!!!!!!!!!!!!!!!!!!!",
"!!!!!!!!!!!!!!!!!!!!!!!!!!!!!!!(!!)))))!!(!!!!!!!!!!!!!!!!!!!!!!",
"!!!!!!!!!!!!!!!!!!!!!!!'!!((*((+,'!!!!!!!!!!!!!!!!!!!!!!!!!!!!!!",
"!!!!!!!!!!!!!!!!!!!!!!!!!!!!!!!-++./0/.!!-!!!!!!!!!!!!!!!!!!!!!!",
"!!!!!!!!!!!!!!!!!!!!!!!#!!**$**+,#!!!!!!!!!!!!!!!!!!!!!!!!!!!!!!",
"!!!!!!!!!!!!!!!!!!!!!!!!!!!!!!!1,!#020#!!1!!!!!!!!!!!!!!!!!!!!!!",
"!!!!!!!!!!!!!!!!!!!!'!-!!#0*/*!!,!!!!!!!!!!!!!!!!!!!!!!!!!!!!!!!",
"!!!!!!!!!!!!!!!!!!!!!!!!!!!!!'!!3!4444!!/!!!!!!!!!!!!!!!!!!!!!!!",
"!!!!!!!!!!!!!!!!!!!!!!!5!!))%))!,5!!!!!!!!!!!!!!!!!!!!!!!!!!!!!!",
"!!!!!!!!!!!!!!!!!!!!!!!!!6++6+5630111110765!6!!6!!!!!!!!!!!!!!!!",
"!!!!!!!!!!!!!!!!6!!8!86897*$*$*,3,68+8++6!!!!!!!!!!!!!!!!!!!!!!!",
"!!!!!!!!!!!!!!!!!!!!!!!!6++8+:8,;,<=,=<<7:8:!8!!6!!!!!!!!!!!!!!!",
"!!!!!!!!!!!!!!!!8!!:!::::<77=77,>,::+:++6!!!!!!!!!!!!!!!!!!!!!!!",
"!!!!!!!!!!!!!!!!!!!!!!!!6++:+:,?;?,<,<<7:@::!@!!6!!!!!!!!!!!!!!!",
"!!!!!!!!!!!!!!!!6!!:!@::@:7<,<,3>3,@+:++6!!!!!!!!!!!!!!!!!!!!!!!",
"!!!!!!!!!!!!!!!!!!!!!!!!6++:+,,;<;,,,7:@::@A!:!!5!!!!!!!!!!!!!!!",
"!!!!!!!!!!!!!!!!5!!:!AA@@@@,,3;><>;3,,++6!!!!!!!!!!!!!!!!!!!!!!!",
"!!!!!!!!!!!!!!!!!!!!,+,,3,3;>;><<<>;>;3,3,,!@!!6!!!!!!!!!!!!!!!!",
"!!!!!!!!!!!!!!!!6!!:!A:::::,,33><>;3,,++6!!!!!!!!!!!!!!!!!!!!!!!",
"!!!!!!!!!!!!!!!!!!!!!!!!!6++A,?;<;?,@@A:::@!A!!6!!!!!!!!!!!!!!!!",
"!!!!!!!!!!!!!!!!5!!:!@A@::8@@:,3>3,@+:++6!!!!!!!!!!!!!!!!!!!!!!!",
"!!!!!!!!!!!!!!!!!!!!!!!!6++:+A,?;?,@::::@:@A!:!!6!!!!!!!!!!!!!!!",
"!!!!!!!!!!!!!!!!6!!:!A@:8@@::::,>,@A+:++6!!!!!!!!!!!!!!!!!!!!!!!",
"!!!!!!!!!!!!!!!!!!!!!!!!5++:+A@,;,A:::A:::@A!8!!5!!!!!!!!!!!!!!!",
"!!!!!!!!!!!!!!!!:!!A!A@@8@:@:::,3,@A+A++:!!!!!!!!!!!!!!!!!!!!!!!",
"!!!!!!!!!!!!!!!!!!!!!!!!,++'+A@:3@::@@::::@A!!!'!!!!!!!!!!!!!!!!",
"!!!!!!!!!!!!!!!!!$!!#!AA8@@:::::,@A+#++$!!!!!!!!!!!!!!!!!!!!!!!!",
"!!!!!!!!!!!!!!!!!!!!!!!!!$++)+8:3AAAAAAAAA8!)!!$!!!!!!!!!!!!!!!!",
"!!!!!!!!!!!!!!!!!$!!/!8:::@AAA@:,:8+/++$!!!!!!!!!!!!!!!!!!!!!!!!",
"!!!!!!!!!!!!!!!!!!!!!!!!!#++/+8:,::AAA::::8!/!!#!!!!!!!!!!!!!!!!",
"!!!!!!!!!!!!!!!!!!!!!5!!:!:@A@:+,++6!!!!!!!!!!!!!!!!!!!!!!!!!!!!",
"!!!!!!!!!!!!!!!!!!!!!!!!!!!!!6++:::@A@@!:!!6!!!!!!!!!!!!!!!!!!!!",
"!!!!!!!!!!!!!!!!!!!!!6!!:!@@A@:+,++6!!!!!!!!!!!!!!!!!!!!!!!!!!!!",
"!!!!!!!!!!!!!!!!!!!!!!!!!!!!!6++:::@A@:!:!!6!!!!!!!!!!!!!!!!!!!!",
"!!!!!!!!!!!!!!!!!!!!!6!!:!::A@:+8!!5!!!!!!!!!!!!!!!!!!!!!!!!!!!!",
"!!!!!!!!!!!!!!!!!!!!!!!!!!!!!!6++:!@A:!@!!6!!!!!!!!!!!!!!!!!!!!!",
"!!!!!!!!!!!!!!!!!!!!!6!!8!@AAA@+:!!6!!!!!!!!!!!!!!!!!!!!!!!!!!!!",
"!!!!!!!!!!!!!!!!!!!!!!!!!!!!!6++@!::A@:!8!!5!!!!!!!!!!!!!!!!!!!!",
"!!!!!!!!!!!!!!!!!!!!!5!!8!AAAAA+:!!5!!!!!!!!!!!!!!!!!!!!!!!!!!!!",
"!!!!!!!!!!!!!!!!!!!!!!!!!!!!!6++@!@@A@@!@!!6!!!!!!!!!!!!!!!!!!!!",
"!!!!!!!!!!!!!!!!!!!!!!6!!:!@A@+:!!6!!!!!!!!!!!!!!!!!!!!!!!!!!!!!",
"!!!!!!!!!!!!!!!!!!!!!!!!!!!!!!6!!:@@A@::!!6!!!!!!!!!!!!!!!!!!!!!",
"!!!!!!!!!!!!!!!!!!!!!!6!!:!@A@+:!!6!!!!!!!!!!!!!!!!!!!!!!!!!!!!!",
"!!!!!!!!!!!!!!!!!!!!!!!!!!!!!!6!!::@A@@:!!5!!!!!!!!!!!!!!!!!!!!!",
"!!!!!!!!!!!!!!!!!!!!!!5!!:!A!A!:!!5!!!!!!!!!!!!!!!!!!!!!!!!!!!!!",
"!!!!!!!!!!!!!!!!!!!!!!!!!!!!!!!B!!BB!BB!!B!!!!!!!!!!!!!!!!!!!!!!",
"!!!!!!!!!!!!!!!!!!!!!!B!!C!B!B!C!!B!!!!!!!!!!!!!!!!!!!!!!!!!!!!!",
"!!!!!!!!!!!!!!!!!!!!!!!!!!!!!B!!C!BB!BB!C!!B!!!!!!!!!!!!!!!!!!!!",
"!!!!!!!!!!!!!!!!!!!!!B!!B!B!!!B!B!!B!!!!!!!!!!!!!!!!!!!!!!!!!!!!"
};