/* XPM */
static const char *boss_floor3_escaping_f01[] = {
/* columns rows colors chars-per-pixel */
"64 64 36 1",
"! c None",
"# c #A06C3C",
"$ c #B08458",
"% c #C4A080",
"& c #D0B094",
"' c #E4C098",
"( c #E4D0C0",
") c #8C8C8C",
"* c #BCBCBC",
"+ c #A8784C",
", c #D8D8D8",
"- c #7C7C7C",
". c #94602C",
"/ c #5C340C",
"0 c #805424",
"1 c #684018",
"2 c #4C78A8",
"3 c #502400",
"4 c #643000",
"5 c #3C6CA0",
"6 c #6C90BC",
"7 c #346090",
"8 c #98C0E4",
"9 c #2C5480",
": c #FCFCFC",
"; c #700404",
"< c #C01010",
"= c #244870",
"> c #142840",
"? c #183450",
"@ c #980808",
"A c #6C6C6C",
"B c #000000",
"C c #2C2C2C",
"D c #3C3C3C",
"E c #4C4C4C",
"!!!!!!!!!!!!!!!!!!!!!!!!!!!!!!!!!!!!!!!!!!!!!!!!!!!!!!!!!!!!!!!!",
"!!!!!!!!!!!!!!!!!!!!!!!!!!!!!!!!!!!!!!!!!!!!!!!!!!!!!!!!!!!!!!!!",
"!!!!!!!!!!!!!!!!!!!!!!!!!!!!!!!!!!!!!!!!!!!!!!!!!!!!!!!!!!!!!!!!",
"!!!!!!!!!!!!!!!!!!!!!!!!!!!!!!!!!!!!!!!!!!!!!!!!!!!!!!!!!!!!!!!!",
"!!!!!!!!!!!!!!!!!!!!!!!!!!!!!!!!!!!!!!!!!!!!!!!!!!!!!!!!!!!!!!!!",
"!!!!!!!!!!!!!!!!!!!!!!!!!!!!!!!!!!!!!!!!!!!!!!!!!!!!!!!!!!!!!!!!",
"!!!!!!!!!!!!!!!!!!!!!!!!!!!!!!!!!!!!!!!!!!!!!!!!!!!!!!!!!!!!!!!!",
"!!!!!!!!!!!!!!!!!!!!!!!!!!!!!!!!!!!!!!!!!!!!!!!!!!!!!!!!!!!!!!!!",
"!!!!!!!!!!!!!!!!!!!!!!!!!!!!!!!!!!!!!!!!!!!!!!!!!!!!!!!!!!!!!!!!",
"!!!!!!!!!!!!!!!!!!!!!!!!!!!!!!!!!!!!!!!!!!!!!!!!!!!!!!!!!!!!!!!!",
"!!!!!!!!!!!!!!!!!!!!!!!!!!!!!!!!!!!!!!!!!!!!!!!!!!!!!!!!!!!!!!!!",
"!!!!!!!!!!!!!!!!!!!!!!!!!!!!!!!!!!!!!!!!!!!!!!!!!!!!!!!!!!!!!!!!",
"!!!!!!!!!!!!!!!!!!!!!!!!!!!!!!!!!!!!!!!!!!!!!!!!!!!!!!!!!!!!!!!!",
"!!!!!!!!!!!!!!!!!!!!!!!!!!!!!!!!!!!!!!!!!!!!!!!!!!!!!!!!!!!!!!!!",
"!!!!!!!!!!!!!!!!!!!!!!!!!!!!#$%%%%%$#!!!!!!!!!!!!!!!!!!!!!!!!!!!",
"!!!!!!!!!!!!!!!!!!!!!!!!!!!#$%&'('&%$#!!!!!!!!!!!!!!!!!!!!!!!!!!",
"!!!!!!!!!!!!!!!!!!!!!!!!!!!)$%&&&&&%$)!!!!!!!!!!!!!!!!!!!!!!!!!!",
"!!!!!!!!!!!!!!!!!!!!!!!!!!!*+$%%%%%$+*!!!!!!!!!!!!!!!!!!!!!!!!!!",
"!!!!!!!!!!!!!!!!!!!!!!!!!!!,-*$$$$$*-,!!!!!!!!!!!!!!!!!!!!!!!!!!",
"!!!!!!!!!!!!!!!!!!!!!!!!!!!*$-,,+,,-$*!!!!!!!!!!!!!!!!!!!!!!!!!!",
"!!!!!!!!!!!!!!!!!!!!!!!!!!!-.//0.0//.-!!!!!!!!!!!!!!!!!!!!!!!!!!",
"!!!!!!!!!!!!!!!!!!!!!!!!*!-.$%$+%+$%$.!!!!!!!!!!!!!!!!!!!!!!!!!!",
"!!!!!!!!!!!!!!!!!!!!!!!!!*,1.+#.'.#+.1!!!!!!!!!!!!!!!!!!!!!!!!!!",
"!!!!!!!!!!!!!!!!!!!!!!!!!!!20.03430.02!!!!!!!!!!!!!!!!!!!!!!!!!!",
"!!!!!!!!!!!!!!!!!!!!!525552561.+$+.165255525!!!!!!!!!!!!!!!!!!!!",
"!!!!!!!!!!!!!!!!!!!!5777775786111116875777775!!!!!!!!!!!!!!!!!!!",
"!!!!!!!!!!!!!!!!!!!!599799796::;<;::697997995!!!!!!!!!!!!!!!!!!!",
"!!!!!!!!!!!!!!!!!!!!759979999:66;66:999979975!!!!!!!!!!!!!!!!!!!",
"!!!!!!!!!!!!!!!!!!!5979=9=9=96::<::69=9=9==775!!!!!!!!!!!!!!!!!!",
"!!!!!!!!!!!!!!!!!!!57999=>99=96:<:69=99>=99795!!!!!!!!!!!!!!!!!!",
"!!!!!!!!!!!!!!!!!!!5999==?=99=96<69=99=?7=9972!!!!!!!!!!!!!!!!!!",
"!!!!!!!!!!!!!!!!!!!79===7>?====9@9====?>?97=95!!!!!!!!!!!!!!!!!!",
"!!!!!!!!!!!!!!!!!!!979=7=5=???==;==???=55==979!!!!!!!!!!!!!!!!!!",
"!!!!!!!!!!!!!!!!!!!===99975999999==9995779999=!!!!!!!!!!!!!!!!!!",
"!!!!!!!!!!!!!!!!!!!!?=99997599?7==?99579999=?!!!!!!!!!!!!!!!!!!!",
"!!!!!!!!!!!!!!!!!!!!!?==9999597==999799999=?!!!!!!!!!!!!!!!!!!!!",
"!!!!!!!!!!!!!!!!!!!!!!?===9=?7==9#$%?=999=?!!!!!!!!!!!!!!!!!!!!!",
"!!!!!!!!!!!!!!!!!!!!!!!?=9=)%%%9#+0#%A=9=?!!!!!!!!!!!!!!!!!!!!!!",
"!!!!!!!!!!!!!!!!!!!!!!!!?=<%$$%9+#+0#)>=?!!!!!!!!!!!!!!!!!!!!!!!",
"!!!!!!!!!!!!!!!!!!!!!!!!!>A#0#$=+90#09=>!!!!!!!!!!!!!!!!!!!!!!!!",
"!!!!!!!!!!!!!!!!!!!!!!!!!?=00=99==9999=?!!!!!!!!!!!!!!!!!!!!!!!!",
"!!!!!!!!!!!!!!!!!!!!!!!!!5?>7==999999=?5!!!!!!!!!!!!!!!!!!!!!!!!",
"!!!!!!!!!!!!!!!!!!!!!!!!!5799?>>>>>???75!!!!!!!!!!!!!!!!!!!!!!!!",
"!!!!!!!!!!!!!!!!!!!!!!!!!57999=>?>=99972!!!!!!!!!!!!!!!!!!!!!!!!",
"!!!!!!!!!!!!!!!!!!!!!!!!!279999?>?999972!!!!!!!!!!!!!!!!!!!!!!!!",
"!!!!!!!!!!!!!!!!!!!!!!!!!297999=>=999975!!!!!!!!!!!!!!!!!!!!!!!!",
"!!!!!!!!!!!!!!!!!!!!!!!!!599999=>==99775!!!!!!!!!!!!!!!!!!!!!!!!",
"!!!!!!!!!!!!!!!!!!!!!!!!!59999==>=999795!!!!!!!!!!!!!!!!!!!!!!!!",
"!!!!!!!!!!!!!!!!!!!!!!!!!579999=>=999995!!!!!!!!!!!!!!!!!!!!!!!!",
"!!!!!!!!!!!!!!!!!!!!!!!!!5799999>=997992!!!!!!!!!!!!!!!!!!!!!!!!",
"!!!!!!!!!!!!!!!!!!!!!!!!!!57999=>99==95!!!!!!!!!!!!!!!!!!!!!!!!!",
"!!!!!!!!!!!!!!!!!!!!!!!!!59=79=?>?=99975!!!!!!!!!!!!!!!!!!!!!!!!",
"!!!!!!!!!!!!!!!!!!!!!!!!!599==99>=997792!!!!!!!!!!!!!!!!!!!!!!!!",
"!!!!!!!!!!!!!!!!!!!!!!!!!27779??>??99992!!!!!!!!!!!!!!!!!!!!!!!!",
"!!!!!!!!!!!!!!!!!!!!!!!!!579=?==>==?==95!!!!!!!!!!!!!!!!!!!!!!!!",
"!!!!!!!!!!!!!!!!!!!!!!!!!!59999=>=99995!!!!!!!!!!!!!!!!!!!!!!!!!",
"!!!!!!!!!!!!!!!!!!!!!!!!!!5999==>=99995!!!!!!!!!!!!!!!!!!!!!!!!!",
"!!!!!!!!!!!!!!!!!!!!!!!!!!57999=>=99995!!!!!!!!!!!!!!!!!!!!!!!!!",
"!!!!!!!!!!!!!!!!!!!!!!!!!!57999=>==9972!!!!!!!!!!!!!!!!!!!!!!!!!",
"!!!!!!!!!!!!!!!!!!!!!!!!!!27999?!?99972!!!!!!!!!!!!!!!!!!!!!!!!!",
"!!!!!!!!!!!!!!!!!!!!!!!!!!!BBBBB!BBBBB!!!!!!!!!!!!!!!!!!!!!!!!!!",
"!!!!!!!!!!!!!!!!!!!!!!!!!!BCDDCB!BCDDCB!!!!!!!!!!!!!!!!!!!!!!!!!",
"!!!!!!!!!!!!!!!!!!!!!!!!!BEEDCBB!BBCDEEB!!!!!!!!!!!!!!!!!!!!!!!!",
"!!!!!!!!!!!!!!!!!!!!!!!!!BBBBBB!!!BBBBBB!!!!!!!!!!!!!!!!!!!!!!!!"
};