/* XPM */
static const char *robot_enemy_unused_early_firing_temp_f00[] = {
/* columns rows colors chars-per-pixel */
"64 64 38 1",
"! c None",
"# c #001414",
"$ c #700404",
"% c #000000",
"& c #004444",
"' c #005C5C",
"( c #007474",
") c #008C8C",
"* c #980088",
"+ c #00A4A4",
", c #00BCBC",
"- c #40D0D0",
". c #98E4E4",
"/ c #28C8C8",
"0 c #5C0000",
"1 c #840404",
"2 c #F80000",
"3 c #78E0E0",
"4 c #002C2C",
"5 c #10C0C0",
"6 c #5CD8D8",
"7 c #B4ECEC",
"8 c #8C8C8C",
"9 c #989898",
": c #A0A0A0",
"; c #747474",
"< c #545454",
"= c #4C4C4C",
"> c #7C7C7C",
"? c #A8A8A8",
"@ c #BCBCBC",
"A c #003000",
"B c #600000",
"C c #D8F4F4",
"D c #3C3C3C",
"E c #343434",
"F c #2C2C2C",
"G c #1C1C1C",
"!!!!!!!!!!!!!!!!!!!!!!!!!!!!!!!!!!#######!!!!!!!!!!!!!!!!!!!!!!!",
"!!!!!!$$$$!$$$$$!$$!!!$$!$$$$!!!!%&'()('&%!!!!!!!!!!!!!!!!!!!!!!",
"!!!!!!!$$!!$$!!!!$$$!$$$!$$*$$!!%&(+,-,+(&%!!!!!!!!!!!!!!!!!!!!!",
"!!!!!!!$$!!$$$$!!$$!$!$$!$$$$!!!'+)))+)))+'!!!!!!!!!!!!!!!!!!!!!",
"!!!!!!!$$!!$$!!!!$$!!!$$!$$!!!!&').,))),.)'&!!!!!!!!!!!!!!!!!!!!",
"!!!!!!!$$!!$$$$$!$$!!!$$!$$!!!!&(',.///.,'(&!!!!!!!!!!!!!!!!!!!!",
"!!!!!!!!!!!!!!!!!!!!!!!!!!!!!!!')01+,),+10)'!!!!!!!!!!!!!!!!!!!!",
"!!!!!!!!!!!!!!!!!!!!!!!!!!!!!!!()$21)')12$)(!!!!!!!!!!!!!!!!!!!!",
"!!!!!!!!!!!!!!!!!!!!!!!!!!!!!!!(+01((&((10+(!!!!!!!!!!!!!!!!!!!!",
"!!!!!!!!!!!!!!!!!!!!!!!!!!!!!!!&+)')'%')')+&!!!!!!!!!!!!!!!!!!!!",
"!!!!!!!!!!!!!!!!!!!!!!!!!!!!!!!&(+)'&%&')+(&!!!!!!!!!!!!!!!!!!!!",
"!!!!!!!!!!!!!!!!!!!!!!!!!!!!!!!!((()((()(((!!!!!!!!!!!!!!!!!!!!!",
"!!!!!!!!!!!!!!!!!!!!!!!!!!!!!!!!)&')+/+)'&)!!!!!!!!!!!!!!!!!!!!!",
"!!!!!!!!!!!!!!!!!!!!!!!!!!!!!!!!)(&('''(&()!!!!!!!!!!!!!!!!!!!!!",
"!!!!!!!!!!!!!!!!!!!!!!!!!!!!!!!!'+()+3-)(+'!!!!!!!!!!!!!!!!!!!!!",
"!!!!!!!!!!!!!!!!!!!!!!!!!!!!!!!')'&'()('&')'!!!!!!!!!!!!!!!!!!!!",
"!!!!!!!!!!!!!!!!!!!!!!!!!!!!!!')'&4444444&')'!!!!!!!!!!!!!!!!!!!",
"!!!!!!!!!!!!!!!!!!!(''&''''''(('&&44&'&444&&'(('''''(''&!!!!!!!!",
"!!!!!!!!!!!!!!!!!!!+(('(((())))('&&4')'44&&'())))(((+(('!!!!!!!!",
"!!!!!!!!!!!!!!!!!!!/++)++,5,5,++)('&&'&&&'()++,5,5,+/++)!!!!!!!!",
"!!!!!!!!!!!!!!!!!!!+(('()+,-//3/+)('&44&'()+/3//-,+)+(('!!!!!!!!",
"!!!!!!!!!!!!!!!!!!!(''''')+,63.3/+)('44'()+/3.36,+)'('''!!!!!!!!",
"!!!!!!!!!!!!!!!!!!!&'&&&&')+6.7.3/+)(''()+/3.7.6+)'&&(&&!!!!!!!!",
"!!!!!!!!!!!!!!!!!!!4('44&'(),6336,+)(''()+,6336,)('44)'4!!!!!!!!",
"!!!!!!!!!!!!!!!!!!!'+(&4&'()+,///+)('&&'()+///,+)(&4'+(&!!!!!!!!",
"!!!!!!!!!!!!!!!!!!!'+(&!4&'()++++)('&&&&'()++++)(&4!'89:!!!!!!!!",
"!!!!!!!!!!!!!!!!!!!:98'!!4&'())))('&&##&&'())))('4!!;<%=:!!!!!!!",
"!!!!!!!!!!!!!!!!!!:=%<;!!!4&'(((('&&&'&#&&'(((('&4!!;=%=>!!!!!!!",
"!!!!!!!!!!!!!!!!!!>=%=;!!!!4&&&&&&4#44#&#4&&&&&&4!!!/;?@!!!!!!!!",
"!!!!!!!!!!!!!!!!!!!@?;!!!!!!44444A&')('&A4444444!!!!>=%=@!!!!!!!",
"!!!!!!!!!!!!!!!!!!@=%=>!!!!!!!')&A4&'&44A'+&!!!!!!!!&=%=:!!!!!!!",
"!!!!!!!!!!!!!!!!!!:=%=&!!!!!!!'+&B(/./)&B',&!!!!!!!4'>8:)!!!!!!!",
"!!!!!!!!!!!!!!!!!!):8>'4!!!!!!',&B4&'&44B'+&!!!!!!!&')')+!!!!!!!",
"!!!!!!!!!!!!!!!!!!+)')'&!!!!!!'+&A(/./)&A')&!!!!!!!4'(',+!!!!!!!",
"!!!!!!!!!!!!!!!!!!+,'('4!!!!!!')&A4(+&44A')&!!!!!!!&')')+!!!!!!!",
"!!!!!!!!!!!!!!!!!!+)')'&!!!'&&&4'4',C,''44'&&&4!!!!!&'(+!!!!!!!!",
"!!!!!!!!!!!!!!!!!!!+('&!!!!('''&('&(+&4#&&('''&!!!!!!!!!!!!!!!!!",
"!!!!!!!!!!!!!!!!!!!!!!!!!!!+((('+('&('''('+((('!!!!!!!!!!!!!!!!!",
"!!!!!!!!!!!!!!!!!!!!!!!!!!!++++(/++++++++(/+++(!!!!!!!!!!!!!!!!!",
"!!!!!!!!!!!!!!!!!!!!!!!!!!!/((('+((((((((')((((!!!!!!!!!!!!!!!!!",
"!!!!!!!!!!!!!!!!!!!!!!!!!!!+'&'&'''''''''&('''&!!!!!!!!!!!!!!!!!",
"!!!!!!!!!!!!!!!!!!!!!!!!!!!(&''&&&&&&&&&&4'&&&&!!!!!!!!!!!!!!!!!",
"!!!!!!!!!!!!!!!!!!!!!!!!!!!'&'(&4444444444&4444!!!!!!!!!!!!!!!!!",
"!!!!!!!!!!!!!!!!!!!!!!!!!!!!')(&**********'&&4!!!!!!!!!!!!!!!!!!",
"!!!!!!!!!!!!!!!!!!!!!!!!!!!!')(&**********''&4!!!!!!!!!!!!!!!!!!",
"!!!!!!!!!!!!!!!!!!!!!!!!!!!!')(&**********')'4!!!!!!!!!!!!!!!!!!",
"!!!!!!!!!!!!!!!!!!!!!!!!!!!!')(&**********')'4!!!!!!!!!!!!!!!!!!",
"!!!!!!!!!!!!!!!!!!!!!!!!!!!((((((********'')'4'!!!!!!!!!!!!!!!!!",
"!!!!!!!!!!!!!!!!!!!!!!!!!!!++++++********)')'4)!!!!!!!!!!!!!!!!!",
"!!!!!!!!!!!!!!!!!!!!!!!!!!!))))))********((((((!!!!!!!!!!!!!!!!!",
"!!!!!!!!!!!!!!!!!!!!!!!!!!!((((((********''''''!!!!!!!!!!!!!!!!!",
"!!!!!!!!!!!!!!!!!!!!!!!!!!!&&&&&&********&&&&&&!!!!!!!!!!!!!!!!!",
"!!!!!!!!!!!!!!!!!!!!!!!!!!!!')'&**********&('4!!!!!!!!!!!!!!!!!!",
"!!!!!!!!!!!!!!!!!!!!!!!!!!!!')(&**********&('4!!!!!!!!!!!!!!!!!!",
"!!!!!!!!!!!!!!!!!!!!!!!!!!!!')(&**********&('4!!!!!!!!!!!!!!!!!!",
"!!!!!!!!!!!!!!!!!!!!!!!!!!!!')(&*********'&('&'!!!!!!!!!!!!!!!!!",
"!!!!!!!!!!!!!!!!!!!!!!!!!!!!')(&*********()('+)!!!!!!!!!!!!!!!!!",
"!!!!!!!!!!!!!!!!!!!!!!!!!!!'()(('********&)+''&!!!!!!!!!!!!!!!!!",
"!!!!!!!!!!!!!!!!!!!!!!!!!!!)+)(+)********)()'+!!!!!!!!!!!!!!!!!!",
"!!!!!!!!!!!!!!!!!DDDDDDDDDD&))('&DDDDDD))(&+'(+)DDDDDD!!!!!!!!!!",
"!!!!!!!!!!!!!!!DDDEFFFFFFFF+()'+FFFFFF)('&F)F&++)FEEEDDD!!!!!!!!",
"!!!!!!!!!!!!!DDDEEEGGGGGG+,(&,'(,)GGGGGGGGGGGGGGGGFEEEEDDD!!!!!!",
"!!!!!!!!!!!!!!!DDDEFFFFF)('&F+F&(+)FFFFFFFFFFFFFFFEEEDDD!!!!!!!!",
"!!!!!!!!!!!!!!!!!DDEEEEEEEEEEEEEEEEEEEEEEEEEEEEEEEEEDD!!!!!!!!!!"
};