/* XPM */
static const char *robot_enemy_unused_early_firing_temp_f01[] = {
/* columns rows colors chars-per-pixel */
"64 64 45 1",
"! c None",
"# c #001414",
"$ c #700404",
"% c #000000",
"& c #004444",
"' c #005C5C",
"( c #007474",
") c #008C8C",
"* c #980088",
"+ c #00A4A4",
", c #00BCBC",
"- c #40D0D0",
". c #98E4E4",
"/ c #28C8C8",
"0 c #5C0000",
"1 c #840404",
"2 c #F80000",
"3 c #78E0E0",
"4 c #002C2C",
"5 c #10C0C0",
"6 c #5CD8D8",
"7 c #B4ECEC",
"8 c #884404",
"9 c #984C08",
": c #AC580C",
"; c #A0A0A0",
"< c #8C8C8C",
"= c #C47024",
"> c #C06410",
"? c #4C4C4C",
"@ c #545454",
"A c #747474",
"B c #D09050",
"C c #CC8038",
"D c #7C7C7C",
"E c #DCAC7C",
"F c #003000",
"G c #E4C098",
"H c #ECD0B4",
"I c #600000",
"J c #D8F4F4",
"K c #3C3C3C",
"L c #343434",
"M c #2C2C2C",
"N c #1C1C1C",
"!!!!!!!!!!!!!!!!!!!!!!!!!!!!!!!!!#######!!!!!!!!!!!!!!!!!!!!!!!!",
"!!!!!$$$$!$$$$$!$$!!!$$!$$$$!!!!%&'()('&%!!!!!!!!!!!!!!!!!!!!!!!",
"!!!!!!$$!!$$!!!!$$$!$$$!$$*$$!!%&(+,-,+(&%!!!!!!!!!!!!!!!!!!!!!!",
"!!!!!!$$!!$$$$!!$$!$!$$!$$$$!!!'+)))+)))+'!!!!!!!!!!!!!!!!!!!!!!",
"!!!!!!$$!!$$!!!!$$!!!$$!$$!!!!&').,))),.)'&!!!!!!!!!!!!!!!!!!!!!",
"!!!!!!$$!!$$$$$!$$!!!$$!$$!!!!&(',.///.,'(&!!!!!!!!!!!!!!!!!!!!!",
"!!!!!!!!!!!!!!!!!!!!!!!!!!!!!!')01+,),+10)'!!!!!!!!!!!!!!!!!!!!!",
"!!!!!!!!!!!!!!!!!!!!!!!!!!!!!!()$21)')12$)(!!!!!!!!!!!!!!!!!!!!!",
"!!!!!!!!!!!!!!!!!!!!!!!!!!!!!!(+01((&((10+(!!!!!!!!!!!!!!!!!!!!!",
"!!!!!!!!!!!!!!!!!!!!!!!!!!!!!!&+)')'%')')+&!!!!!!!!!!!!!!!!!!!!!",
"!!!!!!!!!!!!!!!!!!!!!!!!!!!!!!&(+)'&%&')+)&!!!!!!!!!!!!!!!!!!!!!",
"!!!!!!!!!!!!!!!!!!!!!!!!!!!!!!!((()((()(()!!!!!!!!!!!!!!!!!!!!!!",
"!!!!!!!!!!!!!!!!!!!!!!!!!!!!!!!)&')+/+)'&+!!!!!!!!!!!!!!!!!!!!!!",
"!!!!!!!!!!!!!!!!!!!!!!!!!!!!!!!)(&('''(&)+!!!!!!!!!!!!!!!!!!!!!!",
"!!!!!!!!!!!!!!!!!!!!!!!!!!!!!!!'+()+3-)),'!!!!!!!!!!!!!!!!!!!!!!",
"!!!!!!!!!!!!!!!!!!!!!!!!!!!!!!')'&'()('&')'!!!!!!!!!!!!!!!!!!!!!",
"!!!!!!!!!!!!!!!!!!!!!!!!!!!!!')'&4444444&')'!!!!!!!!!!!!!!!!!!!!",
"!!!!!!!!!!!!!!!!!!(''&''''''(('&&44&'&444&&'(('''''(&&&!!!!!!!!!",
"!!!!!!!!!!!!!!!!!!+(('(((())))('&&4')'44&&'())))(((+'''!!!!!!!!!",
"!!!!!!!!!!!!!!!!!!/++)++,5,5,++)('&&'&&&'()++,5,5,+/(((!!!!!!!!!",
"!!!!!!!!!!!!!!!!!!+(('()+,-//3/+)('&44&'()+/3//-,,)+++)!!!!!!!!!",
"!!!!!!!!!!!!!!!!!!(''''')+,63.3/+)('44'()+/3.36,+,'(,,+!!!!!!!!!",
"!!!!!!!!!!!!!!!!!!&'&&&&')+6.7.3/+)(''()+/3.7.6++/&&(&&!!!!!!!!!",
"!!!!!!!!!!!!!!!!!!4('44&'(),6336,+)(''()+,6336,+5+44)84!!!!!!!!!",
"!!!!!!!!!!!!!!!!!!'+(&4&'()+,///+)('&&'()+///,+5,(4'+9&!!!9!!!!!",
"!!!!!!!!!!!!!!!!!!'+(&!4&'()++++)('&&&&'()++++,,(:9'9:9!9:!!!!!!",
"!!!!!!!!!!!!!!!!!!;8<'!!4&'())))('&&##&&'())+,5)(9=>>=>>=9!!!!!!",
"!!!!!!!!!!!!!!!!!;?9@A!!!4&'(((('&&&'&#&&'())))(4*>BCBCB>!!!!!!!",
"!!!!!!!!!!!!!!!!!D9:9A!!!!4&&&&&&4#44#&#4&&((('4*9>CEEEC>9!!!!!!",
"!!!!!!!!!!!!!!!!!9=B=9!!!!!44444F&')('&F444444489:=BEGEB=:98!!!!",
"!!!!!!!!!!!!!!!9:=EHE=:9!!!!!')&F4&'&44F'+&!!!!!!9>CEEEC>9!!!!!!",
"!!!!!!!!!!!!!!!!!9=B=9!!!!!!!'+&I(/./)&I',&!!!!!!!>BCBCB>!!!!!!!",
"!!!!!!!!!!!!!!!!!)9>9'4!!!!!!',&I4&'&44I'+&!!!!!!9=>>=>>=9!!!!!!",
"!!!!!!!!!!!!!!!!!+)9)'&!!!!!!'+&F(/./)&F')&!!!!!!:9'9:9+9:!!!!!!",
"!!!!!!!!!!!!!!!!!+,8('4!!!!!!')&F4(+&44F')&!!!!!9!&')9)+!!9!!!!!",
"!!!!!!!!!!!!!!!!!+)')'&!!!'&&&4'4',J,''44'&&&4!!!!!&'8+!!!!!!!!!",
"!!!!!!!!!!!!!!!!!!+('&!!!!('''&('&(+&4#&&('''&!!!!!!!!!!!!!!!!!!",
"!!!!!!!!!!!!!!!!!!!!!!!!!!+((('+('&('''('+((('!!!!!!!!!!!!!!!!!!",
"!!!!!!!!!!!!!!!!!!!!!!!!!!++++(/++++++++(/+++(!!!!!!!!!!!!!!!!!!",
"!!!!!!!!!!!!!!!!!!!!!!!!!!/((('+((((((((')((((!!!!!!!!!!!!!!!!!!",
"!!!!!!!!!!!!!!!!!!!!!!!!!!+'&'&'''''''''&('''&!!!!!!!!!!!!!!!!!!",
"!!!!!!!!!!!!!!!!!!!!!!!!!!(&''&&&&&&&&&&4'&&&&!!!!!!!!!!!!!!!!!!",
"!!!!!!!!!!!!!!!!!!!!!!!!!!'&'(&4444444444&4444!!!!!!!!!!!!!!!!!!",
"!!!!!!!!!!!!!!!!!!!!!!!!!!!')(&**********'&&4!!!!!!!!!!!!!!!!!!!",
"!!!!!!!!!!!!!!!!!!!!!!!!!!!')(&**********''&4!!!!!!!!!!!!!!!!!!!",
"!!!!!!!!!!!!!!!!!!!!!!!!!!!')(&**********')'4!!!!!!!!!!!!!!!!!!!",
"!!!!!!!!!!!!!!!!!!!!!!!!!!!')(&**********')'4!!!!!!!!!!!!!!!!!!!",
"!!!!!!!!!!!!!!!!!!!!!!!!!!((((((********'')'4'!!!!!!!!!!!!!!!!!!",
"!!!!!!!!!!!!!!!!!!!!!!!!!!++++++********)')'4)!!!!!!!!!!!!!!!!!!",
"!!!!!!!!!!!!!!!!!!!!!!!!!!))))))********((((((!!!!!!!!!!!!!!!!!!",
"!!!!!!!!!!!!!!!!!!!!!!!!!!((((((********''''''!!!!!!!!!!!!!!!!!!",
"!!!!!!!!!!!!!!!!!!!!!!!!!!&&&&&&********&&&&&&!!!!!!!!!!!!!!!!!!",
"!!!!!!!!!!!!!!!!!!!!!!!!!!!')'&**********&('4!!!!!!!!!!!!!!!!!!!",
"!!!!!!!!!!!!!!!!!!!!!!!!!!!')(&**********&('4!!!!!!!!!!!!!!!!!!!",
"!!!!!!!!!!!!!!!!!!!!!!!!!!!')(&**********&('4!!!!!!!!!!!!!!!!!!!",
"!!!!!!!!!!!!!!!!!!!!!!!!!!!')(&*********'&('&'!!!!!!!!!!!!!!!!!!",
"!!!!!!!!!!!!!!!!!!!!!!!!!!!')(&*********()('+)!!!!!!!!!!!!!!!!!!",
"!!!!!!!!!!!!!!!!!!!!!!!!!!'()(('********&)+''&!!!!!!!!!!!!!!!!!!",
"!!!!!!!!!!!!!!!!!!!!!!!!!!)+)(+)********)()'+!!!!!!!!!!!!!!!!!!!",
"!!!!!!!!!!!!!!!!KKKKKKKKKK&))('&KKKKKK))(&+'(+)KKKKKK!!!!!!!!!!!",
"!!!!!!!!!!!!!!KKKLMMMMMMMM+()'+MMMMMM)('&M)M&++)MLLLKKK!!!!!!!!!",
"!!!!!!!!!!!!KKKLLLNNNNNN+,(&,'(,)NNNNNNNNNNNNNNNNMLLLLKKK!!!!!!!",
"!!!!!!!!!!!!!!KKKLMMMMM)('&M+M&(+)MMMMMMMMMMMMMMMLLLKKK!!!!!!!!!",
"!!!!!!!!!!!!!!!!KKLLLLLLLLLLLLLLLLLLLLLLLLLLLLLLLLLKK!!!!!!!!!!!"
};