/* XPM */
static const char *boss_floor2_standing_f04[] = {
/* columns rows colors chars-per-pixel */
"64 64 23 1",
"! c None",
"# c #000000",
"$ c #A8784C",
"% c #94602C",
"& c #684018",
"' c #402810",
"( c #805424",
") c #A06C3C",
"* c #B08458",
"+ c #C4A080",
", c #8C8C8C",
"- c #BCBCBC",
". c #CCCCCC",
"/ c #D8D8D8",
"0 c #6C6C6C",
"1 c #A0A0A0",
"2 c #7C7C7C",
"3 c #E8E8E8",
"4 c #FCFCFC",
"5 c #4C4C4C",
"6 c #505000",
"7 c #2C2C2C",
"8 c #3C3C3C",
"!!!!!!!!!!!!!!!!!!!!!!!!!!!!!!!!!!!!!!!!!!!!!!!!!!!!!!!!!!!!!!!!",
"!!!!!!!!!!!!!!!!!!!!!!!!!!!!!!!!!!!!!!!!!!!!!!!!!!!!!!!!!!!!!!!!",
"!!!!!!!!!!!!!!!!!!!!!!!!!!!!!!!!!!!!!!!!!!!!!!!!!!!!!!!!!!!!!!!!",
"!!!!!!!!!!!!!!!!!!!!!!!!!!!!!!!!!!!!!!!!!!!!!!!!!!!!!!!!!!!!!!!!",
"!!!!!!!!!!!!!!!!!!!!!!!!!!!!!!!!!!!!!!!!!!!!!!!!!!!!!!!!!!!!!!!!",
"!!!!!!!!!!!!!!!!!!!!!!!!!!!!!!!!!!!!!!!!!!!!!!!!!!!!!!!!!!!!!!!!",
"!!!!!!!!!!!!!!!!!!!!!!!!!!!!!!!!!!!!!!!!!!!!!!!!!!!!!!!!!!!!!!!!",
"!!!!!!!!!!!!!!!!!!!!!!!!!!!!!!!!!!!!!!!!!!!!!!!!!!!!!!!!!!!!!!!!",
"!!!!!!!!!!!!!!!!!!!!!!!!!!!!!!!!!!!!!!!!!!!!!!!!!!!!!!!!!!!!!!!!",
"!!!!!!!!!!!!!!!!!!!!!!!!!!!!!!!!!!!!!!!!!!!!!!!!!!!!!!!!!!!!!!!!",
"!!!!!!!!!!!!!!!!!!!!!!!!!!!!!!!!!!!!!!!!!!!!!!!!!!!!!!!!!!!!!!!!",
"!!!!!!!!!!!!!!!!!!!!!!!!!!!!!!!!!!!!!!!!!!!!!!!!!!!!!!!!!!!!!!!!",
"!!!!!!!!!!!!!!!!!!!!!!!!!!!!!!!!!!!!!!!!!!!!!!!!!!!!!!!!!!!!!!!!",
"!!!!!!!!!!!!!!!!!!!!!!!!!!!!!!!!!!!!!!!!!!!!!!!!!!!!!!!!!!!!!!!!",
"!!!!!!!!!!!!!!!!!!!!!!!!!!!!!#######!!!!!!!!!!!!!!!!!!!!!!!!!!!!",
"!!!!!!!!!!!!!!!!!!!!!!!!!!!!#########!!!!!!!!!!!!!!!!!!!!!!!!!!!",
"!!!!!!!!!!!!!!!!!!!!!!!!!!!###########!!!!!!!!!!!!!!!!!!!!!!!!!!",
"!!!!!!!!!!!!!!!!!!!!!!!!!!!###########!!!!!!!!!!!!!!!!!!!!!!!!!!",
"!!!!!!!!!!!!!!!!!!!!!!!!!!!###########!!!!!!!!!!!!!!!!!!!!!!!!!!",
"!!!!!!!!!!!!!!!!!!!!!!!!!!!$#########$!!!!!!!!!!!!!!!!!!!!!!!!!!",
"!!!!!!!!!!!!!!!!!!!!!!!!!!!%&'#####'&%!!!!!!!!!!!!!!!!!!!!!!!!!!",
"!!!!!!!!!!!!!!!!!!!!!!!!!!!!($)((()$(!!!!!!!!!!!!!!!!!!!!!!!!!!!",
"!!!!!!!!!!!!!!!!!!!!!!!!!!!!(*+*)*+*(!!!!!!!!!!!!!!!!!!!!!!!!!!!",
"!!!!!!!!!!!!!!!!!!!!!!!!!!!!,-.///.-,!!!!!!!!!!!!!!!!!!!!!!!!!!!",
"!!!!!!!!!!!!!!!!!!!!!!!!!00,.-1,2,1-.,00!!!!!!!!!!!!!!!!!!!!!!!!",
"!!!!!!!!!!!!!!!!!!!!!!!001/34443334443/100!!!!!!!!!!!!!!!!!!!!!!",
"!!!!!!!!!!!!!!!!!!!!!!04/33///////////33/40!!!!!!!!!!!!!!!!!!!!!",
"!!!!!!!!!!!!!!!!!!!!!04/////////./////////40!!!!!!!!!!!!!!!!!!!!",
"!!!!!!!!!!!!!!!!!!!!!0///-/////////////-///0!!!!!!!!!!!!!!!!!!!!",
"!!!!!!!!!!!!!!!!!!!!0//-,,/3////.////3/,,-//0!!!!!!!!!!!!!!!!!!!",
"!!!!!!!!!!!!!!!!!!!!5-//-0-/33//.//33/-0-//-5!!!!!!!!!!!!!!!!!!!",
"!!!!!!!!!!!!!!!!!!!!0/43-,/./////////./,-34/0!!!!!!!!!!!!!!!!!!!",
"!!!!!!!!!!!!!!!!!!!!001-,0/////////////0,-100!!!!!!!!!!!!!!!!!!!",
"!!!!!!!!!!!!!!!!!!!!5/43-,.//3/////3//.,-34/5!!!!!!!!!!!!!!!!!!!",
"!!!!!!!!!!!!!!!!!!!!0-/--,/-///343///-/,--/-0!!!!!!!!!!!!!!!!!!!",
"!!!!!!!!!!!!!!!!!!!!0-/--,-/--/////--/-,--/-0!!!!!!!!!!!!!!!!!!!",
"!!!!!!!!!!!!!!!!!!!!01//-,,-3/-111-/3-,,-//10!!!!!!!!!!!!!!!!!!!",
"!!!!!!!!!!!!!!!!!!!!0-/-,,,,-/34443/-,,,,-/-0!!!!!!!!!!!!!!!!!!!",
"!!!!!!!!!!!!!!!!!!!!0-/-,0-/-11,,,11-/-0,-/-0!!!!!!!!!!!!!!!!!!!",
"!!!!!!!!!!!!!!!!!!!!0-3-20,-//33333//-,02-3-0!!!!!!!!!!!!!!!!!!!",
"!!!!!!!!!!!!!!!!!!!!!#&#55///3/.-./3///55#&#!!!!!!!!!!!!!!!!!!!!",
"!!!!!!!!!!!!!!!!!!!!!(++(0/4/////////4/0($+(!!!!!!!!!!!!!!!!!!!!",
"!!!!!!!!!!!!!!!!!!!!!$+((0-///////////-##(+$!!!!!!!!!!!!!!!!!!!!",
"!!!!!!!!!!!!!!!!!!!!!($+(0-./////////.-#6$+(!!!!!!!!!!!!!!!!!!!!",
"!!!!!!!!!!!!!!!!!!!!!!((!0-//./..././/-#6+$!!!!!!!!!!!!!!!!!!!!!",
"!!!!!!!!!!!!!!!!!!!!!!!!!0-///////3///-#6$,!!!!!!!!!!!!!!!!!!!!!",
"!!!!!!!!!!!!!!!!!!!!!!!!!0-///////3///-#66!!!!!!!!!!!!!!!!!!!!!!",
"!!!!!!!!!!!!!!!!!!!!!!!!!0-///3///4///-#6#!!!!!!!!!!!!!!!!!!!!!!",
"!!!!!!!!!!!!!!!!!!!!!!!!!0-///4///4///-##!!!!!!!!!!!!!!!!!!!!!!!",
"!!!!!!!!!!!!!!!!!!!!!!!!!0-///4///4///-#!!!!!!!!!!!!!!!!!!!!!!!!",
"!!!!!!!!!!!!!!!!!!!!!!!!!0-///4///4/./-0!!!!!!!!!!!!!!!!!!!!!!!!",
"!!!!!!!!!!!!!!!!!!!!!!!!!0-///4/-/4///-0!!!!!!!!!!!!!!!!!!!!!!!!",
"!!!!!!!!!!!!!!!!!!!!!!!!!0-///4/,/4///-0!!!!!!!!!!!!!!!!!!!!!!!!",
"!!!!!!!!!!!!!!!!!!!!!!!!!0-///4/0/4///-0!!!!!!!!!!!!!!!!!!!!!!!!",
"!!!!!!!!!!!!!!!!!!!!!!!!!0-///4/5/4///-0!!!!!!!!!!!!!!!!!!!!!!!!",
"!!!!!!!!!!!!!!!!!!!!!!!!!0-///4/7/4/-/-0!!!!!!!!!!!!!!!!!!!!!!!!",
"!!!!!!!!!!!!!!!!!!!!!!!!!0-/./4/#/4/-/-0!!!!!!!!!!!!!!!!!!!!!!!!",
"!!!!!!!!!!!!!!!!!!!!!!!!!0-/./4/#/4/-/-0!!!!!!!!!!!!!!!!!!!!!!!!",
"!!!!!!!!!!!!!!!!!!!!!!!!!0-/-/4/#/4/-/-0!!!!!!!!!!!!!!!!!!!!!!!!",
"!!!!!!!!!!!!!!!!!!!!!!!!!0-/-/4/#/4/-/-0!!!!!!!!!!!!!!!!!!!!!!!!",
"!!!!!!!!!!!!!!!!!!!!!!!!!!-/1/4/!/4/1/-!!!!!!!!!!!!!!!!!!!!!!!!!",
"!!!!!!!!!!!!!!!!!!!!!!!!!#77877#!#77877#!!!!!!!!!!!!!!!!!!!!!!!!",
"!!!!!!!!!!!!!!!!!!!!!!!!!#78587#!#78587#!!!!!!!!!!!!!!!!!!!!!!!!",
"!!!!!!!!!!!!!!!!!!!!!!!!!!######!######!!!!!!!!!!!!!!!!!!!!!!!!!"
};