/* XPM */
static const char *boss_floor2_standing_f00[] = {
/* columns rows colors chars-per-pixel */
"64 64 29 1",
"! c None",
"# c #000000",
"$ c #A8784C",
"% c #D0B094",
"& c #E4C098",
"' c #684018",
"( c #C4A080",
") c #A06C3C",
"* c #5C340C",
"+ c #94602C",
", c #002850",
"- c #805424",
". c #884404",
"/ c #643000",
"0 c #6C6C6C",
"1 c #8C8C8C",
"2 c #BCBCBC",
"3 c #D8D8D8",
"4 c #FCFCFC",
"5 c #C01010",
"6 c #4C4C4C",
"7 c #A0A0A0",
"8 c #E8E8E8",
"9 c #7C7C7C",
": c #5C5C5C",
"; c #3C3C3C",
"< c #2C2C2C",
"= c #141414",
"> c #CCCCCC",
"!!!!!!!!!!!!!!!!!!!!!!!!!!!!!!!!!!!!!!!!!!!!!!!!!!!!!!!!!!!!!!!!",
"!!!!!!!!!!!!!!!!!!!!!!!!!!!!!!!!!!!!!!!!!!!!!!!!!!!!!!!!!!!!!!!!",
"!!!!!!!!!!!!!!!!!!!!!!!!!!!!!!!!!!!!!!!!!!!!!!!!!!!!!!!!!!!!!!!!",
"!!!!!!!!!!!!!!!!!!!!!!!!!!!!!!!!!!!!!!!!!!!!!!!!!!!!!!!!!!!!!!!!",
"!!!!!!!!!!!!!!!!!!!!!!!!!!!!!!!!!!!!!!!!!!!!!!!!!!!!!!!!!!!!!!!!",
"!!!!!!!!!!!!!!!!!!!!!!!!!!!!!!!!!!!!!!!!!!!!!!!!!!!!!!!!!!!!!!!!",
"!!!!!!!!!!!!!!!!!!!!!!!!!!!!!!!!!!!!!!!!!!!!!!!!!!!!!!!!!!!!!!!!",
"!!!!!!!!!!!!!!!!!!!!!!!!!!!!!!!!!!!!!!!!!!!!!!!!!!!!!!!!!!!!!!!!",
"!!!!!!!!!!!!!!!!!!!!!!!!!!!!!!!!!!!!!!!!!!!!!!!!!!!!!!!!!!!!!!!!",
"!!!!!!!!!!!!!!!!!!!!!!!!!!!!!!!!!!!!!!!!!!!!!!!!!!!!!!!!!!!!!!!!",
"!!!!!!!!!!!!!!!!!!!!!!!!!!!!!!!!!!!!!!!!!!!!!!!!!!!!!!!!!!!!!!!!",
"!!!!!!!!!!!!!!!!!!!!!!!!!!!!!!!!!!!!!!!!!!!!!!!!!!!!!!!!!!!!!!!!",
"!!!!!!!!!!!!!!!!!!!!!!!!!!!!!!!!!!!!!!!!!!!!!!!!!!!!!!!!!!!!!!!!",
"!!!!!!!!!!!!!!!!!!!!!!!!!!!!!!!!!!!!!!!!!!!!!!!!!!!!!!!!!!!!!!!!",
"!!!!!!!!!!!!!!!!!!!!!!!!!!!!!#######!!!!!!!!!!!!!!!!!!!!!!!!!!!!",
"!!!!!!!!!!!!!!!!!!!!!!!!!!!!#$%%&%%$#!!!!!!!!!!!!!!!!!!!!!!!!!!!",
"!!!!!!!!!!!!!!!!!!!!!!!!!!!#'(%%%%%('#!!!!!!!!!!!!!!!!!!!!!!!!!!",
"!!!!!!!!!!!!!!!!!!!!!!!!!!!#$%%%%%%%$#!!!!!!!!!!!!!!!!!!!!!!!!!!",
"!!!!!!!!!!!!!!!!!!!!!!!!!!!#)*'+(+'*)#!!!!!!!!!!!!!!!!!!!!!!!!!!",
"!!!!!!!!!!!!!!!!!!!!!!!!!!!$(+,$($,+($!!!!!!!!!!!!!!!!!!!!!!!!!!",
"!!!!!!!!!!!!!!!!!!!!!!!!!!!-&%((&((%&-!!!!!!!!!!!!!!!!!!!!!!!!!!",
"!!!!!!!!!!!!!!!!!!!!!!!!!!!-%(($-$((%-!!!!!!!!!!!!!!!!!!!!!!!!!!",
"!!!!!!!!!!!!!!!!!!!!!!!!!!!-$(../..($-!!!!!!!!!!!!!!!!!!!!!!!!!!",
"!!!!!!!!!!!!!!!!!!!!!!!!!!!!-$((%(($-!!!!!!!!!!!!!!!!!!!!!!!!!!!",
"!!!!!!!!!!!!!!!!!!!!!!!!!001-+-----+-100!!!!!!!!!!!!!!!!!!!!!!!!",
"!!!!!!!!!!!!!!!!!!!!!!!000231$((((($132000!!!!!!!!!!!!!!!!!!!!!!",
"!!!!!!!!!!!!!!!!!!!!!!0311341#'''''#1431140!!!!!!!!!!!!!!!!!!!!!",
"!!!!!!!!!!!!!!!!!!!!!043331030#####030133340!!!!!!!!!!!!!!!!!!!!",
"!!!!!!!!!!!!!!!!!!!!!0343313030###0303133330!!!!!!!!!!!!!!!!!!!!",
"!!!!!!!!!!!!!!!!!!!!033211333133#331535112330!!!!!!!!!!!!!!!!!!!",
"!!!!!!!!!!!!!!!!!!!!623322133323#321555223326!!!!!!!!!!!!!!!!!!!",
"!!!!!!!!!!!!!!!!!!!!034422344333#331113224430!!!!!!!!!!!!!!!!!!!",
"!!!!!!!!!!!!!!!!!!!!007211233333#333332112700!!!!!!!!!!!!!!!!!!!",
"!!!!!!!!!!!!!!!!!!!!6344213333230323343124436!!!!!!!!!!!!!!!!!!!",
"!!!!!!!!!!!!!!!!!!!!0232213433323233333122320!!!!!!!!!!!!!!!!!!!",
"!!!!!!!!!!!!!!!!!!!!0232213433323233333122320!!!!!!!!!!!!!!!!!!!",
"!!!!!!!!!!!!!!!!!!!!073321333443#344333123370!!!!!!!!!!!!!!!!!!!",
"!!!!!!!!!!!!!!!!!!!!0232111233323233321112320!!!!!!!!!!!!!!!!!!!",
"!!!!!!!!!!!!!!!!!!!!0232103333333333333012320!!!!!!!!!!!!!!!!!!!",
"!!!!!!!!!!!!!!!!!!!!0282903333333333333092820!!!!!!!!!!!!!!!!!!!",
"!!!!!!!!!!!!!!!!!!!!!#'#66001333#33310066#'#!!!!!!!!!!!!!!!!!!!!",
"!!!!!!!!!!!!!!!!!!!!!-$(-034333323333430-((-!!!!!!!!!!!!!!!!!!!!",
"!!!!!!!!!!!!!!!!!!!!!-(#(023323373323320--($!!!!!!!!!!!!!!!!!!!!",
"!!!!!!!!!!!!!!!!!!!!!$(#-024233313332420-($-!!!!!!!!!!!!!!!!!!!!",
"!!!!!!!!!!!!!!!!!!!!!-1##023333393333320!--!!!!!!!!!!!!!!!!!!!!!",
"!!!!!!!!!!!!!!!!!!!!!4:##022333303833220!!!!!!!!!!!!!!!!!!!!!!!!",
"!!!!!!!!!!!!!!!!!!!!!4:##0233333:3833320!!!!!!!!!!!!!!!!!!!!!!!!",
"!!!!!!!!!!!!!!!!!!!!!!1##023338363433320!!!!!!!!!!!!!!!!!!!!!!!!",
"!!!!!!!!!!!!!!!!!!!!!!!##0233343;3433320!!!!!!!!!!!!!!!!!!!!!!!!",
"!!!!!!!!!!!!!!!!!!!!!!!#!0233343<3433320!!!!!!!!!!!!!!!!!!!!!!!!",
"!!!!!!!!!!!!!!!!!!!!!!!!!0233343=343>320!!!!!!!!!!!!!!!!!!!!!!!!",
"!!!!!!!!!!!!!!!!!!!!!!!!!0233343#3433320!!!!!!!!!!!!!!!!!!!!!!!!",
"!!!!!!!!!!!!!!!!!!!!!!!!!0233343#3433320!!!!!!!!!!!!!!!!!!!!!!!!",
"!!!!!!!!!!!!!!!!!!!!!!!!!0233343#3433320!!!!!!!!!!!!!!!!!!!!!!!!",
"!!!!!!!!!!!!!!!!!!!!!!!!!0233343#3433320!!!!!!!!!!!!!!!!!!!!!!!!",
"!!!!!!!!!!!!!!!!!!!!!!!!!0233343#3432320!!!!!!!!!!!!!!!!!!!!!!!!",
"!!!!!!!!!!!!!!!!!!!!!!!!!023>343#3432320!!!!!!!!!!!!!!!!!!!!!!!!",
"!!!!!!!!!!!!!!!!!!!!!!!!!023>343#3432320!!!!!!!!!!!!!!!!!!!!!!!!",
"!!!!!!!!!!!!!!!!!!!!!!!!!0232343#3432320!!!!!!!!!!!!!!!!!!!!!!!!",
"!!!!!!!!!!!!!!!!!!!!!!!!!0232343#3432320!!!!!!!!!!!!!!!!!!!!!!!!",
"!!!!!!!!!!!!!!!!!!!!!!!!!!237343!343732!!!!!!!!!!!!!!!!!!!!!!!!!",
"!!!!!!!!!!!!!!!!!!!!!!!!!!#<;;<#!#<;;<#!!!!!!!!!!!!!!!!!!!!!!!!!",
"!!!!!!!!!!!!!!!!!!!!!!!!!#;66;<#!#<;66;#!!!!!!!!!!!!!!!!!!!!!!!!",
"!!!!!!!!!!!!!!!!!!!!!!!!!######!!!######!!!!!!!!!!!!!!!!!!!!!!!!"
};