/* XPM */
static const char *robot_enemy_walking_f02[] = {
/* columns rows colors chars-per-pixel */
"64 64 51 1",
"! c None",
"# c #005C5C",
"$ c #007474",
"% c #008C8C",
"& c #00A4A4",
"' c #78E0E0",
"( c #B4ECEC",
") c #40D0D0",
"* c #28C8C8",
"+ c #10C0C0",
", c #00BCBC",
"- c #004444",
". c #840404",
"/ c #002C2C",
"0 c #980808",
"1 c #C01010",
"2 c #CC3838",
"3 c #5CD8D8",
"4 c #980088",
"5 c #CC8038",
"6 c #AC580C",
"7 c #C06410",
"8 c #984C08",
"9 c #D09050",
": c #C47024",
"; c #E4C098",
"< c #DCAC7C",
"= c #C42424",
"> c #28CC28",
"? c #884404",
"@ c #743804",
"A c #98E4E4",
"B c #643000",
"C c #001414",
"D c #5C5C5C",
"E c #8C8C8C",
"F c #545454",
"G c #D8F4F4",
"H c #E0E0E0",
"I c #989898",
"J c #444444",
"K c #B0B0B0",
"L c #848484",
"M c #D89C64",
"N c #6C6C6C",
"O c #747474",
"P c #4C4C4C",
"Q c #A0A0A0",
"R c #D8D8D8",
"S c #000000",
"T c #ECD0B4",
"!!!!!!!!!!!!!!!!!!!!!!!!!!!!!!!!!!!!!!!!!!!!!!!!!!!!!!!!!!!!!!!!",
"!!!!!!!!!!!!!!!!!!!!!!!!!!!!!!!!!!!!!!!!!!!!!!!!!!!!!!!!!!!!!!!!",
"!!!!!!!!!!!!!!!!!!!!!!!!!!!!#$%&%$#!!!!!!!!!!!!!!!!!!!!!!!!!!!!!",
"!!!!!!!!!!!!!!!!!!!!!!%#!!#$'(')*+,$#!!!!!!!!!!!!!!!!!!!!!!!!!!!",
"!!!!!!!!!!!!!!!!!!!!!!%#!$%)%%%%%%%%,$!!!!!!!!!!!!!!!!!!!!!!!!!!",
"!!!!!!!!!!!!!!!!!!!!!!%#!-----------%&$!!!!!!!!!!!!!!!!!!!!!!!!!",
"!!!!!!!!!!!!!!!!!!!!!!%#!.////////.//%&#!!!!!!!!!!!!!!!!!!!!!!!!",
"!!!!!!!!!!!!!!!!!!!!!!%#!0120--0210//%&%!!!!!!!!!!!!!!!!!!!!!!!!",
"!!!!!!!!!!!!!!!!!!!!!!%#############%&&,!!!!!!!!!!!!!!!!!!!!!!!!",
"!!!!!!!!!!!!!!!!!!!!!!&#,&,+*3*+,&&&&&,$!!!!!!!!!!!!!!!!!!!!!!!!",
"!!!!!!!!!!!!!!!!!!!!!!,#&%%%%%%%%%%%%%&#!!!!!!!!!!!!!!!!!!!!!!!!",
"!!!!!!!!!!!!!!!!!!!!!!&#$&&&&&&&&&&&&&$!!!!!!!!!!!!!!!!!!!!!!!!!",
"!!!!!!!!!!!!!!!!!!!!!!%#4#/#---#/$$#-!!!!!!!!!!!!!!!!!!!!!!!!!!!",
"!!!!!!!!!!!!!!!!!!!!!!%#44#%&*&%##--#!!!!!!!!!!!!!!!!!!!!!!!!!!!",
"!!!!!!!!!!!!!!!!!!!!!!%#44-$###$---$#!!!!!!!!!!!!!!!!!!!!!!!!!!!",
"!!!!!!!!!!!!!!!!!!!!######$%&')%$%$&########%!!!!!!!!!!!!!!!!!!!",
"!!!!!!!!!!!!!!!!!!!#%%%%%##%&')%##-#%%%%%%%%%%!!!!!!!!!!!!!!!!!!",
"!!!!!!!!!!!!!!5667#////##%#-///////-#%#/////%%%8667!!!!!!!!!!!!!",
"!!!!!!!!!!!!!9556#########--//-#-///--########65556:!!!!!!!!!!!!",
"!!!!!!!!!!!!!;<<5#$$$$$$$$#--/#%#/--#$$$$$$$$#:<<587!!!!!!!!!!!!",
"!!!!!!!!!!!!!;<<5#$%%%%%%%$#--#---#$%%%%%%%%$#:<<587!!!!!!!!!!!!",
"!!!!!!!!!!!!!9557#$%&&&&&&&&&&&&&&&&=>>=&&&%$#655567!!!!!!!!!!!!",
"!!!!!!!!!!!!!5668#$%&,+++++++++++++++++++,&%$#?66:7:!!!!!!!!!!!!",
"!!!!!!!!!!!!!!6??@#$,3'A'3)))))))))))))),&%$##-B??7!!!!!!!!!!!!!",
"!!!!!!!!!!!!!!////#$%,,,,,,&%$##$%&,,,,,,&%$#-$,##-!!!!!!!!!!!!!",
"!!!!!!!!!!!!!!!###/#$%&&&&&&%$#-#$%&&&&&&%$#--$,#$-!!!!!!!!!!!!!",
"!!!!!!!!!!!!!!!$%%%/#$%%%%%%$#---#$%%%%%%%#-/-$,#$-!!!!!!!!!!!!!",
"!!!!!!!!!!!!!!!---&--#$$$$$$#--CC-#$$$$$$$#//-$,#$-!!!!!!!!!!!!!",
"!!!!!!!!!!!!!!!!!-%#/-######---#-C--######-/4-$,#$-!!!!!!!!!!!!!",
"!!!!!!!!!!!!!!!!!-%#4/------/C//C-C/------/44-$,##-!!!!!!!!!!!!!",
"!!!!!!!!!!!!!!!!!-&#44//////-#%$#-////////444#$&$&#!!!!!!!!!!!!!",
"!!!!!!!!!!!!!!!!!-,#44444#%//-#-//#&-44444444#$%&'$!!!!!!!!!!!!!",
"!!!!!!!!!!!!!!!!!-&#44444#&4$*A*%-#,-4444444$$$$$(%!!!!!!!!!!!!!",
"!!!!!!!!!!!!!!!!-#%-44444#,4/-#-//#&-4444444#-###*$!!!!!!!!!!!!!",
"!!!!!!!!!!!!!!!-$###-4444#&/$*A*%-#%-4444444-#%,#%#!!!!!!!!!!!!!",
"!!!!!!!!!!!!!!-$,$#$%-444#%//$&-//#%-4#4444-#%,#//!!!!!!!!!!!!!!",
"!!!!!!!!!!!!!!#,DEF-46??B/$-#,G,###$-/EH-#-#%,#!!!!!!!!!!!!!!!!!",
"!!!!!!!!!!!!!!!$DIFJ7666?$#--$&-/C-##EHKL%$%,#!!!!!!!!!!!!!!!!!!",
"!!!!!!!!!!!!!!!!DKFJM:::8%$$#-$###$$$HKLKL%,#!!!!!!!!!!!!!!!!!!!",
"!!!!!!!!!!!!!!!!DIFJ;9997,&&&&&&&&&EHKLKLN,#!!!!!!!!!!!!!!!!!!!!",
"!!!!!!!!!!!!!!!!DOPJ9::76%$$$$$$$$L=KLKLNP&#!!!!!!!!!!!!!!!!!!!!",
"!!!!!!!!!!!!!!!!DQDJ766$$-########OLLKLNP#%#!!!!!!!!!!!!!!!!!!!!",
"!!!!!!!!!!!!!!!!DEDJ8??%$---------LRKLNP$%$!!!!!!!!!!!!!!!!!!!!!",
"!!!!!!!!!!!!!!!!DODJ!-/$#////////LRKLNF-@!!!!!!!!!!!!!!!!!!!!!!!",
"!!!!!!!!!!!!!!!!DODJ!!#$#/!!!!!!LRKLNF$-!!!!!!!!!!!!!!!!!!!!!!!!",
"!!!!!!!!!!!!!!!!!DJ!!!#%#/!!!!!NSSLNF&$-!!!!!!!!!!!!!!!!!!!!!!!!",
"!!!!!!!!!!!!!!!!!!!!!!#%#/!!!!!NSSNF#&$-!!!!!!!!!!!!!!!!!!!!!!!!",
"!!!!!!!!!!!!!!!!!!!!!8#%#/8!!!!!NNF4#%$-!!!!!!!!!!!!!!!!!!!!!!!!",
"!!!!!!!!!!!!!!!!!!!!!78%#?7!!!!!!!!777777!!!!!!!!!!!!!!!!!!!!!!!",
"!!!!!!!!!!!!!!!!!!!!!666666!!!!!!!!<;TT<<!!!!!!!!!!!!!!!!!!!!!!!",
"!!!!!!!!!!!!!!!!!!!!!??????!!!!!!!!75MM57!!!!!!!!!!!!!!!!!!!!!!!",
"!!!!!!!!!!!!!!!!!!!!!BBBBBB!!!!!!!!8?,$@8!!!!!!!!!!!!!!!!!!!!!!!",
"!!!!!!!!!!!!!!!!!!!!!!-$#/!!!!!!!!!@#,$-@!!!!!!!!!!!!!!!!!!!!!!!",
"!!!!!!!!!!!!!!!!!!!!!!-$#/!!!!!!!!!!#,$-!!!!!!!!!!!!!!!!!!!!!!!!",
"!!!!!!!!!!!!!!!!!!!!!!-$#/!!!!!!!!!!#,$-!!!!!!!!!!!!!!!!!!!!!!!!",
"!!!!!!!!!!!!!!!!!!!!!#-$#-#!!!!!!!!!#,$-!!!!!!!!!!!!!!!!!!!!!!!!",
"!!!!!!!!!!!!!!!!!!!!!$%$#&%!!!!!!!!!#,$-!!!!!!!!!!!!!!!!!!!!!!!!",
"!!!!!!!!!!!!!!!!!!!!!-%&##-!!!!!!!!!#,$-!!!!!!!!!!!!!!!!!!!!!!!!",
"!!!!!!!!!!!!!!!!!!!!!%$%#&!!!!!!!!!#$,$$#!!!!!!!!!!!!!!!!!!!!!!!",
"!!!!!!!!!!!!!!!!!!!%%$-&#$&%!!!!!!!%&,$&%!!!!!!!!!!!!!!!!!!!!!!!",
"!!!!!!!!!!!!!!!!!!%$#-!%!-&&%!!!!!!-%,$#-!!!!!!!!!!!!!!!!!!!!!!!",
"!!!!!!!!!!!!!!!!!!!!!!!!!!!!!!!!!!!&$%#&!!!!!!!!!!!!!!!!!!!!!!!!",
"!!!!!!!!!!!!!!!!!!!!!!!!!!!!!!!!!&,$-,#$,%!!!!!!!!!!!!!!!!!!!!!!",
"!!!!!!!!!!!!!!!!!!!!!!!!!!!!!!!!%$#-!&!-$&%!!!!!!!!!!!!!!!!!!!!!"
};