/* XPM */
static const char *robot_enemy_walking_f03[] = {
/* columns rows colors chars-per-pixel */
"64 64 49 1",
"! c None",
"# c #005C5C",
"$ c #007474",
"% c #008C8C",
"& c #00A4A4",
"' c #78E0E0",
"( c #B4ECEC",
") c #40D0D0",
"* c #28C8C8",
"+ c #10C0C0",
", c #00BCBC",
"- c #004444",
". c #002C2C",
"/ c #AC0C0C",
"0 c #840404",
"1 c #980808",
"2 c #C01010",
"3 c #CC3838",
"4 c #5CD8D8",
"5 c #C06410",
"6 c #AC580C",
"7 c #984C08",
"8 c #D89C64",
"9 c #CC8038",
": c #E4C098",
"; c #DCAC7C",
"< c #C47024",
"= c #C42424",
"> c #28CC28",
"? c #884404",
"@ c #743804",
"A c #643000",
"B c #98E4E4",
"C c #980088",
"D c #001414",
"E c #D8F4F4",
"F c #545454",
"G c #747474",
"H c #848484",
"I c #4C4C4C",
"J c #8C8C8C",
"K c #5C5C5C",
"L c #444444",
"M c #989898",
"N c #B0B0B0",
"O c #502400",
"P c #A0A0A0",
"Q c #D09050",
"R c #000000",
"!!!!!!!!!!!!!!!!!!!!!!!!!!!!!!!!!!!!!!!!!!!!!!!!!!!!!!!!!!!!!!!!",
"!!!!!!!!!!!!!!!!!!!!!!!!!!!!!#$%&%$#!!!!!!!!!!!!!!!!!!!!!!!!!!!!",
"!!!!!!!!!!!!!!!!!!!!!%#!!!!#$'(')*+,$#!!!!!!!!!!!!!!!!!!!!!!!!!!",
"!!!!!!!!!!!!!!!!!!!!!%#!!!$%)%%%%%%%%,$!!!!!!!!!!!!!!!!!!!!!!!!!",
"!!!!!!!!!!!!!!!!!!!!!%#!!$-------------$!!!!!!!!!!!!!!!!!!!!!!!!",
"!!!!!!!!!!!!!!!!!!!!!%#!#./0.........0/.#!!!!!!!!!!!!!!!!!!!!!!!",
"!!!!!!!!!!!!!!!!!!!!!%#!%-.1231-.-1321.-%!!!!!!!!!!!!!!!!!!!!!!!",
"!!!!!!!!!!!!!!!!!!!!!%#!&###############,!!!!!!!!!!!!!!!!!!!!!!!",
"!!!!!!!!!!!!!!!!!!!!!&#!$,&,+*4*+,&&&&&,$!!!!!!!!!!!!!!!!!!!!!!!",
"!!!!!!!!!!!!!!!!!!!!!,#!#&%%%%%%%%%%%%%&#!!!!!!!!!!!!!!!!!!!!!!!",
"!!!!!!!!!!!!!!!!!!!!!&#!!$&&&&&&&&&&&&&$!!!!!!!!!!!!!!!!!!!!!!!!",
"!!!!!!!!!!!!!!!!!!!!!%#!!!!-..#---#..-!!!!!!!!!!!!!!!!!!!!!!!!!!",
"!!!!!!!!!!!!!!!!!!!!!%#!!!!#-#%&*&%#-#!!!!!!!!!!!!!!!!!!!!!!!!!!",
"!!!!!!!!!!!!!!!!!!!!!%#!!!!%$-$###$-$%!!!!!!!!!!!!!!!!!!!!!!!!!!",
"!!!!!!!!!!!!!!!!!!!!########&$%&')%$&########!!!!!!!!!!!!!!!!!!!",
"!!!!!!!!!!!!!!!!!!!#%%%%%%%%##%&')%##%%%%%%%%#!!!!!!!!!!!!!!!!!!",
"!!!!!!!!!!!!!!5667#%-....-%#-.......-#%-....-%#5667!!!!!!!!!!!!!",
"!!!!!!!!!!!!!!8996########--...-#-...--########8996!!!!!!!!!!!!!",
"!!!!!!!!!!!!!!:;;<#$$$$$$$#--..#%#..--#$$$$$$$#:;;<!!!!!!!!!!!!!",
"!!!!!!!!!!!!!!:;;<#$%%%%%%$##---#---##$%%%%%%$#:;;<!!!!!!!!!!!!!",
"!!!!!!!!!!!!!!8996#$%&&&&&&&&&&&&&&&&&&=>>=&%$#8996!!!!!!!!!!!!!",
"!!!!!!!!!!!!!!<66?##$%&,,,+++++++++++++,,,,&%$#<66?!!!!!!!!!!!!!",
"!!!!!!!!!!!!!!@??A--#$%&,))4'B'4))))))))),&%$#-@??A!!!!!!!!!!!!!",
"!!!!!!!!!!!!!!.$#..-#$%&,,,,,&%$##$%&,,,,,&%$#..$#.!!!!!!!!!!!!!",
"!!!!!!!!!!!!!!#&$-.-#$%&&&&&&%$#--#$%&&&&&%$#-.#&$-!!!!!!!!!!!!!",
"!!!!!!!!!!!!!!#&$-C.-#$%%%%%%$#----#$%%%%%%$-..#&$-!!!!!!!!!!!!!",
"!!!!!!!!!!!!!$$&$##!.-#$$$$$$#-.DD.-#$$$$$$#..$$&$##!!!!!!!!!!!!",
"!!!!!!!!!!!!!&&%$$%!!.-######-.D#-D.-######-.!&&%$$%!!!!!!!!!!!!",
"!!!!!!!!!!!!!**%%%%!!!.------.D..D-D.------.!!**%%%%!!!!!!!!!!!!",
"!!!!!!!!!!!!!$$####!!!!......-#%$#-........!!!$$####!!!!!!!!!!!!",
"!!!!!!!!!!!!!--#---!!!!!!#%-..-#-...#&-!!!!!!!--#---!!!!!!!!!!!!",
"!!!!!!!!!!!!!!.$#.!!!!!!!#&-C$*B*%-C#,-!!!!!!!!.$#.!!!!!!!!!!!!!",
"!!!!!!!!!!!!!!#&$-!!!!!!!#,-C.-#-..C#&-!!!!!!!!#&$-!!!!!!!!!!!!!",
"!!!!!!!!!!!!!!#&$-!!!!!!!#&-.$*B*%-.#%-!!!!!!!!#&$-!!!!!!!!!!!!!",
"!!!!!!!!!!!!!!#&$-!!!!!!!#%-..$&-...#%-!!!!!!!!#&$-!!!!!!!!!!!!!",
"!!!!!!!!!!!!!!#&$-!!!!6777@#.#,E,##..6777@!!!!!#&$-!!!!!!!!!!!!!",
"!!!!!!!!!!!!!!#&$-!!!!9555?$#-$&-.D--9555?!!!!!#&$-!!!!!!!!!!!!!",
"!!!!!!!!!!!!!!-%#-!!!!89997&$#-$###$#89997!!!!!-%#-!!!!!!!!!!!!!",
"!!!!!!!!!!!!!-#FG$-!!!:;;;6*&&&&&&&&$:;;;6!!!!-#FG$-!!!!!!!!!!!!",
"!!!!!!!!!!!!-%$FH,$-!!89997&$$$$$$$$#89997!!!-%$FH,$-!!!!!!!!!!!",
"!!!!!!!!!!!!-$IFJK,#!!97-#?#########-7-#?@!!!-$IFJK,#!!!!!!!!!!!",
"!!!!!!!!!!!!!-LFMK$!!!6-$#----------.-$#-A!!!!-LFMK$!!!!!!!!!!!!",
"!!!!!!!!!!!!!!LFNK!!!!?-%$--.........-%$-O!!!!!LFNK!!!!!!!!!!!!!",
"!!!!!!!!!!!!!!LFNK!!!!!#%#.!!!!!!!!!!#%$-!!!!!!LFNK!!!!!!!!!!!!!",
"!!!!!!!!!!!!!!L==K!!!!!#&#.!!!!!!!!!!#%$-!!!!!!L==K!!!!!!!!!!!!!",
"!!!!!!!!!!!!!!LIGK!!!!555555!!!!!!!!!#%$-!!!!!!LIGK!!!!!!!!!!!!!",
"!!!!!!!!!!!!!!LKPK!!!!Q8;8QQ!!!!!!!!!#%$-!!!!!!LKPK!!!!!!!!!!!!!",
"!!!!!!!!!!!!!!LKJK!!!!555555!!!!!!!!555555!!!!!LKJK!!!!!!!!!!!!!",
"!!!!!!!!!!!!!!LKJK!!!!777777!!!!!!!!Q8;8QQ!!!!!LKJK!!!!!!!!!!!!!",
"!!!!!!!!!!!!!!LKJK!!!!@@@@@@!!!!!!!!555555!!!!!LKJK!!!!!!!!!!!!!",
"!!!!!!!!!!!!!!LKGK!!!!!-$#.!!!!!!!!!777777!!!!!LKGK!!!!!!!!!!!!!",
"!!!!!!!!!!!!!!LRRK!!!!!-$#.!!!!!!!!!@@@@@@!!!!!LRRK!!!!!!!!!!!!!",
"!!!!!!!!!!!!!!!LK!!!!!!-$#.!!!!!!!!!!#%#-!!!!!!!LK!!!!!!!!!!!!!!",
"!!!!!!!!!!!!!!!!!!!!!!##$#-#!!!!!!!!!#%$-!!!!!!!!!!!!!!!!!!!!!!!",
"!!!!!!!!!!!!!!!!!!!!!!$%$#&%!!!!!!!!!#%$-!!!!!!!!!!!!!!!!!!!!!!!",
"!!!!!!!!!!!!!!!!!!!!!!-%&##-!!!!!!!!!#%$-!!!!!!!!!!!!!!!!!!!!!!!",
"!!!!!!!!!!!!!!!!!!!!!!%$%#&!!!!!!!!!!#%$-!!!!!!!!!!!!!!!!!!!!!!!",
"!!!!!!!!!!!!!!!!!!!!%%$-&#$&%!!!!!!!#$%$$#!!!!!!!!!!!!!!!!!!!!!!",
"!!!!!!!!!!!!!!!!!!!%$#-!%#-&&%!!!!!!%&%$&%!!!!!!!!!!!!!!!!!!!!!!",
"!!!!!!!!!!!!!!!!!!!$!!!!$#!!!$!!!!!!-%%$#-!!!!!!!!!!!!!!!!!!!!!!",
"!!!!!!!!!!!!!!!!!!!!!!!!$#!!!!!!!!!!&$%#&!!!!!!!!!!!!!!!!!!!!!!!",
"!!!!!!!!!!!!!!!!!!!!!!!!!!!!!!!!!!&,$-,#$,%!!!!!!!!!!!!!!!!!!!!!",
"!!!!!!!!!!!!!!!!!!!!!!!!!!!!!!!!!%$#-!&!-$&%!!!!!!!!!!!!!!!!!!!!",
"!!!!!!!!!!!!!!!!!!!!!!!!!!!!!!!!!!!!!!!!!!!!!!!!!!!!!!!!!!!!!!!!"
};