/* XPM */
static const char *robot_enemy_walking_f00[] = {
/* columns rows colors chars-per-pixel */
"64 64 51 1",
"! c None",
"# c #005C5C",
"$ c #007474",
"% c #008C8C",
"& c #00A4A4",
"' c #00BCBC",
"( c #10C0C0",
") c #28C8C8",
"* c #40D0D0",
"+ c #78E0E0",
", c #B4ECEC",
"- c #004444",
". c #002C2C",
"/ c #840404",
"0 c #980808",
"1 c #C01010",
"2 c #CC3838",
"3 c #5CD8D8",
"4 c #C06410",
"5 c #AC580C",
"6 c #984C08",
"7 c #C47024",
"8 c #D89C64",
"9 c #CC8038",
": c #D09050",
"; c #E4C098",
"< c #DCAC7C",
"= c #ECD0B4",
"> c #C42424",
"? c #28CC28",
"@ c #884404",
"A c #643000",
"B c #98E4E4",
"C c #743804",
"D c #980088",
"E c #001414",
"F c #E0E0E0",
"G c #8C8C8C",
"H c #D8F4F4",
"I c #545454",
"J c #5C5C5C",
"K c #848484",
"L c #B0B0B0",
"M c #444444",
"N c #989898",
"O c #6C6C6C",
"P c #4C4C4C",
"Q c #747474",
"R c #A0A0A0",
"S c #D8D8D8",
"T c #000000",
"!!!!!!!!!!!!!!!!!!!!!!!!!!!!!!!!!!!!!!!!!!!!!!!!!!!!!!!!!!!!!!!!",
"!!!!!!!!!!!!!!!!!!!!!!!!!!!!!!!!!!!!!!!!!!!!!!!!!!!!!!!!!!!!!!!!",
"!!!!!!!!!!!!!!!!!!!!!!!!!!!!!#$%&%$#!!!!!!!!!!!!!!!!!!!!!!!!!!!!",
"!!!!!!!!!!!!!!!!!!!!!%#!!!!#$'()*+,+$#!!!!!!!!!!!!!!!!!!!!!!!!!!",
"!!!!!!!!!!!!!!!!!!!!!%#!!!$'%%%%%%%%*%$!!!!!!!!!!!!!!!!!!!!!!!!!",
"!!!!!!!!!!!!!!!!!!!!!%#!!$&%-----------!!!!!!!!!!!!!!!!!!!!!!!!!",
"!!!!!!!!!!!!!!!!!!!!!%#!#&%../......../!!!!!!!!!!!!!!!!!!!!!!!!!",
"!!!!!!!!!!!!!!!!!!!!!%#!%&%..0120--0210!!!!!!!!!!!!!!!!!!!!!!!!!",
"!!!!!!!!!!!!!!!!!!!!!%#!'&&%############!!!!!!!!!!!!!!!!!!!!!!!!",
"!!!!!!!!!!!!!!!!!!!!!&#!$'&&&&&'()3)('&'!!!!!!!!!!!!!!!!!!!!!!!!",
"!!!!!!!!!!!!!!!!!!!!!'#!#&%%%%%%%%%%%%%&!!!!!!!!!!!!!!!!!!!!!!!!",
"!!!!!!!!!!!!!!!!!!!!!&#!!$&&&&&&&&&&&&&$!!!!!!!!!!!!!!!!!!!!!!!!",
"!!!!!!!!!!!!!!!!!!!!!%#!!!!-$$$.#---#.!!!!!!!!!!!!!!!!!!!!!!!!!!",
"!!!!!!!!!!!!!!!!!!!!!%#!!!!#--##%&)&%#!!!!!!!!!!!!!!!!!!!!!!!!!!",
"!!!!!!!!!!!!!!!!!!!!!%#!!!!##---$###$-!!!!!!!!!!!!!!!!!!!!!!!!!!",
"!!!!!!!!!!!!!!!!!!!%########&$%$%&+*%$######!!!!!!!!!!!!!!!!!!!!",
"!!!!!!!!!!!!!!!!!!%%%%%%%%%%#-##%&+*%##%%%%%#!!!!!!!!!!!!!!!!!!!",
"!!!!!!!!!!!!!4556%%%.....#%#-.......-#%##....#!4556!!!!!!!!!!!!!",
"!!!!!!!!!!!!789995$#####$$#--..-#-...--#$$#####$8995!!!!!!!!!!!!",
"!!!!!!!!!!!!:;9<<7&$$$$$$$$#--.#%#..---#$$$$$$$$;<<7!!!!!!!!!!!!",
"!!!!!!!!!!!!:;9<<7)$%%%%%%%%%$#--#---#$%%%%%%%$$;<<7!!!!!!!!!!!!",
"!!!!!!!!!!!!:=9995&$%&&&&&&&&&&&&&&&&&&&>??>&%%$8995!!!!!!!!!!!!",
"!!!!!!!!!!!!7:755@$#$%&''((((((((((((((((('&%$#$755@!!!!!!!!!!!!",
"!!!!!!!!!!!!!4@@A-#-#$%&'***3+B+3*********'&%$-C@@A!!!!!!!!!!!!!",
"!!!!!!!!!!!!!-##'$-.#$%&'(((('&%$##$%&'(('&%$#....!!!!!!!!!!!!!!",
"!!!!!!!!!!!!!-$#'$---#$%&''''&%$#--#$%&'''&%$-..##!!!!!!!!!!!!!!",
"!!!!!!!!!!!!!-$#'$-.--#$%&&&&%$#---##$%&&&%$-..%%$!!!!!!!!!!!!!!",
"!!!!!!!!!!!!!-$#'$-D.--#$%%%%$#-EE--##$%%%$#..&---!!!!!!!!!!!!!!",
"!!!!!!!!!!!!!-$#'$-DD.--#$$$##--#-E--#$$$$#-.#%-!!!!!!!!!!!!!!!!",
"!!!!!!!!!!!!!-##'$-DDD.------.E..E-E.------.D#%-!!!!!!!!!!!!!!!!",
"!!!!!!!!!!!!!#&$&$#DDDD......-#%$#-........DD#&-!!!!!!!!!!!!!!!!",
"!!!!!!!!!!!!!$+&%$#DDDDDDD#%..-#-...&-DDDDDDD#'-!!!!!!!!!!!!!!!!",
"!!!!!!!!!!!!!%,$$$$$DDDDDD#&-$)B)%-D'-DDDDDDD#&-!!!!!!!!!!!!!!!!",
"!!!!!!!!!!!!!$)###-#DDDDDD#'-.-#-..D&-DDDDDDD-%#-!!!!!!!!!!!!!!!",
"!!!!!!!!!!!!!#%#'%#-DDDDDD#&-$)B)%-.%-DDDDDD-###$-!!!!!!!!!!!!!!",
"!!!!!!!!!!!!!!..#'%#-DDDDD#%-.$&-...%-DDDDD-%$#$'$-!!!!!!!!!!!!!",
"!!!!!!!!!!!!!!!!!#'%#-#-FG.%.#'H'##..95556D-$-IGJ'#!!!!!!!!!!!!!",
"!!!!!!!!!!!!!!!!!!#'%$%KLFG$#-$&-.E---87776!-MINJ$!!!!!!!!!!!!!!",
"!!!!!!!!!!!!!!!!!!!#'%KLKLFG$#-$###$$#;:::5!!MILJ!!!!!!!!!!!!!!!",
"!!!!!!!!!!!!!!!!!!!!#'OKLKLFG&&&&&&&&$=;;;9!!MINJ!!!!!!!!!!!!!!!",
"!!!!!!!!!!!!!!!!!!!!#&POKLKL>K$$$$$$#%57994!!MPQJ!!!!!!!!!!!!!!!",
"!!!!!!!!!!!!!!!!!!!!#%#POKLKKQ######-#%6@66!!MJRJ!!!!!!!!!!!!!!!",
"!!!!!!!!!!!!!!!!!!!!6$%$POKLSK------.#&$-@C!!MJGJ!!!!!!!!!!!!!!!",
"!!!!!!!!!!!!!!!!!!!!!A-..IOKLSK.....!#%#.!!!!MJQJ!!!!!!!!!!!!!!!",
"!!!!!!!!!!!!!!!!!!!!!!#&$-IOKLSK!!!!!#%#.!!!!MJQJ!!!!!!!!!!!!!!!",
"!!!!!!!!!!!!!!!!!!!!!!#&$-!IOKTTO!!!!#%#.!!!!!MJ!!!!!!!!!!!!!!!!",
"!!!!!!!!!!!!!!!!!!!!!!#&$-!!IOTTO!!!!#%#.!!!!!!!!!!!!!!!!!!!!!!!",
"!!!!!!!!!!!!!!!!!!!!!!#%$-!!!IOO!!!!6#%#.6!!!!!!!!!!!!!!!!!!!!!!",
"!!!!!!!!!!!!!!!!!!!!!444444!!!!!!!!!46%#@4!!!!!!!!!!!!!!!!!!!!!!",
"!!!!!!!!!!!!!!!!!!!!!<;==<<!!!!!!!!!555555!!!!!!!!!!!!!!!!!!!!!!",
"!!!!!!!!!!!!!!!!!!!!!498894!!!!!!!!!@@@@@@!!!!!!!!!!!!!!!!!!!!!!",
"!!!!!!!!!!!!!!!!!!!!!6@'$C6!!!!!!!!!AAAAAA!!!!!!!!!!!!!!!!!!!!!!",
"!!!!!!!!!!!!!!!!!!!!!C#'$-C!!!!!!!!!!-$#.!!!!!!!!!!!!!!!!!!!!!!!",
"!!!!!!!!!!!!!!!!!!!!!!#'$-!!!!!!!!!!!-$#.!!!!!!!!!!!!!!!!!!!!!!!",
"!!!!!!!!!!!!!!!!!!!!!!#'$-!!!!!!!!!!!-$#.!!!!!!!!!!!!!!!!!!!!!!!",
"!!!!!!!!!!!!!!!!!!!!!!#'$-!!!!!!!!!!#-$#-#!!!!!!!!!!!!!!!!!!!!!!",
"!!!!!!!!!!!!!!!!!!!!!!#'$-!!!!!!!!!!$%$#&%!!!!!!!!!!!!!!!!!!!!!!",
"!!!!!!!!!!!!!!!!!!!!!!#'$-!!!!!!!!!!-%&##-!!!!!!!!!!!!!!!!!!!!!!",
"!!!!!!!!!!!!!!!!!!!!!#$'$$#!!!!!!!!!%$%#&!!!!!!!!!!!!!!!!!!!!!!!",
"!!!!!!!!!!!!!!!!!!!!!%&'$&%!!!!!!!%%$-&#$&%!!!!!!!!!!!!!!!!!!!!!",
"!!!!!!!!!!!!!!!!!!!!!-%'$#-!!!!!!%$#-!%!-&&%!!!!!!!!!!!!!!!!!!!!",
"!!!!!!!!!!!!!!!!!!!!!&$%#&!!!!!!!!!!!!!!!!!!!!!!!!!!!!!!!!!!!!!!",
"!!!!!!!!!!!!!!!!!!!&'$-'#$'%!!!!!!!!!!!!!!!!!!!!!!!!!!!!!!!!!!!!",
"!!!!!!!!!!!!!!!!!!%$#-!&!-$&%!!!!!!!!!!!!!!!!!!!!!!!!!!!!!!!!!!!"
};