/* XPM */
static char *emerging_f01[] = {
"64 64 25 1",
"a	c None",
"b	c #6C8C00",
"c	c #7CA400",
"d	c #587400",
"e	c #445C00",
"f	c #344400",
"g	c #202C00",
"h	c #0C0C0C",
"i	c #747804",
"j	c #A4A814",
"k	c #3C3C00",
"l	c #505000",
"m	c #000000",
"n	c #848808",
"o	c #98C010",
"p	c #ECF4D8",
"q	c #C8E078",
"r	c #141414",
"s	c #3C3C3C",
"t	c #2C2C2C",
"u	c #4C4C4C",
"v	c #040404",
"w	c #6C6C6C",
"x	c #B0D040",
"y	c #D4E498",
"aaaaaaaaaaaaaaaaaaaaaaaaaaaaaaaaaaaaaaaaaaaaaaaaaaaaaaaaaaaaaaaa",
"aaaaaaaaaaaaaaaaaaaaaaaaaaaaaaaaaaaaaaaaaaaaaaaaaaaaaaaaaaaaaaaa",
"aaaaaaaaaaaaaaaaaaaaaaaaaaaaaaaaaaaaaaaaaaaaaaaaaaaaaaaaaaaaaaaa",
"aaaaaaaaaaaaaaaaaaaaaaaaaaaaaaaaaaaaaaaaaaaaaaaaaaaaaaaaaaaaaaaa",
"aaaaaaaaaaaaaaaaaaaaaaaaaaaaaaaaaaaaaaaaaaaaaaaaaaaaaaaaaaaaaaaa",
"aaaaaaaaaaaaaaaaaaaaaaaaaaaaaaaaaaaaaaaaaaaaaaaaaaaaaaaaaaaaaaaa",
"aaaaaaaaaaaaaaaaaaaaaaaaaaaaaaaaaaaaaaaaaaaaaaaaaaaaaaaaaaaaaaaa",
"aaaaaaaaaaaaaaaaaaaaaaaaaaaaaaaaaaaaaaaaaaaaaaaaaaaaaaaaaaaaaaaa",
"aaaaaaaaaaaaaaaaaaaaaaaaaaaaaaaaaaaaaaaaaaaaaaaaaaaaaaaaaaaaaaaa",
"aaaaaaaaaaaaaaaaaaaaaaaaaaaaaaaaaaaaaaaaaaaaaaaaaaaaaaaaaaaaaaaa",
"aaaaaaaaaaaaaaaaaaaaaaaaaaaaaaaaaaaaaaaaaaaaaaaaaaaaaaaaaaaaaaaa",
"aaaaaaaaaaaaaaaaaaaaaaaaaaaaaaaaaaaaaaaaaaaaaaaaaaaaaaaaaaaaaaaa",
"aaaaaaaaaaaaaaaaaaaaaabccccbaaaaaaaaaccccbaaaaaaaaaaaaaaaaaaaaaa",
"aaaaaaaaaaaaaaaaaaabbbdddbcbbccaaacccdddddccbaaaaaaaaaaaaaaaaaaa",
"aaaaaaaaaaaaaaaaabbddddedecebdbcccddddedeedddcbaaaaaaaaaaaaaaaaa",
"aaaaaaaaaaaaaaaaddeefdeeeeegceecdeeeeeegfefdeeddaaaaaaaaaaaaaaaa",
"aaaaaaaaaaaaaaaceeeegfeefdcefdfcffefdefefegfeeeedbaaaaaaaaaaaaaa",
"aaaaaaaaaaaaadddfefdefefgfffgffffffgffffgefefdeffdddaaaaaaaaaaaa",
"aaaaaaaaaaaddeeeffgfffdfffffgggchggfgfffffffgffgfeeedaaaaaaaaaaa",
"aaaaaaaaaadeefefegfgfgfgfggghhhgghhhhggggfffgfghefeeedaaaaaaaaaa",
"aaaaaaaaadfffffdfgghhhhhhgfffffefefffffghhhhhgfgfdffffdaaaaaaaaa",
"aaaaaaaaaeffgfgfeegggffggffefedcdbcbfefggfffgbceeffgffeaaaaaaaaa",
"aaaaaaaaacfgfggghhhhhhhhbcgffeeeeeecbfghhhhhhhbcbggfgfaaaaaaaaaa",
"aaaaaaaaaaafgghhgggghghhibcbgfffefffchhihhghgggchhggfaaaaaaaaaaa",
"aaaaaaaaaabcccbffffgfffgghcjjhhgghhijjiggffggfgcefffeeaaaaaaaaaa",
"aaaaaaaaabcfgfcbfgffghhfefchhgghhgghchfefhgfefffffgfdfeaaaaaaaaa",
"aaaaaaaabfgfffffcdffeffhhgfffgggggggffghhfffffgcggfffgfeaaaaaaaa",
"aaaaaaaeeebccbghghhgggffhhcghhhhhhhhhhhffghghhffffhhgfeeaaaaaaaa",
"aaaaaaeebffdhhhhhbhhhhgfffhkhlhihihlheefghghggffeeffdffeeaaaaaaa",
"aaaaaaeffhhhffffhhhhhhhgffemhkhlhlhhddfghffhgffbbefffgfceaaaaaaa",
"aaaaaafffffdeefffgghhhhhgggdfhhghhfdeefhgghgfdbcbgfgfdfffaaaaaaa",
"aaaaaaegffdfdfffeggghghhhgfedccddddeeghgggffffbbeelfffggbfaaaaaa",
"aaaaaafgfffgfgeedefhhgghhgfdffgggffegghgffffghheehfngfffcfaaaaaa",
"aaaaaadgggfdfefeffeghhgghhffedddddeefhgfffefhhgfhffnfogfgfaaaaaa",
"aaaaaabhgfgfgfefggfghhgfghgfeeeeeeefghfefffghghhffeknhgcchaaaaaa",
"aaaaaachgfeeefeffhgghhhgfhhgfeeeeffghgffffghghfffeeekinhocaaaaaa",
"aaaaaaohhggffehgfffhhghgfghhhgfffghhgbeffghghefffedfekinmpoaaaaa",
"aaaaaaaahgghgffhhgghghghgfhhhhhhhhhggfffgghhgfhhgeeffffimcqoaaaa",
"aaaaaaoahhfghhgfghhhhghhgffghhhhhgggcfefghhhfhggfegeeggfkgoqcaaa",
"aaaaaaaahhhhgghggghhggghhgeffbggggfcfefgghghghffefhedeeghkomoaaa",
"aaaaaaaahcrhhhhhhhhhhfgghgfeeeffcoooeegghgggbhhhhheffgghakokgcaa",
"aaaaaaahsrtthghhhhhhggfgghgfeddeeoeodfghgggghhggggfhhffaaacsgcaa",
"aaaaaaambsrhchlghghhhgffghhgfeeddddofghgggghhhhhhhhgghhfaaossqaa",
"aaakaaamcshcdcccfhghhggffgghhffeeeefghggfgghhghhghhhggghuucsrkma",
"aaakaaamchcoooooocgghhggffggghggffgohggegghhggggggggggggiocstoga",
"aaakaaabgcocefcooodhghgggfefgghhhhhhhgffgghhggfgfgfiffggilostrva",
"aaakmaabgoodfffooocghghgggfffggggggggffgghhhgfgffffliffghiuotrva",
"aaakmaagdocfegocoocdghhhggggeffgggggfffgghhhdgfffgewkddfhilougca",
"aaakmmagdfodecogogcdhghhhhgggffeedddefgghhhhcfgffffdwiefeiluocoa",
"aaamkmmgcfgceoefoffdghhhhhhgggfffeeefgghhhhhggffffgfwuefeilllcga",
"aaaakmmgffdceodeffgghhhhhhhhhgggffffgghhhhhhhggfffeewurffilkvoaa",
"aaaamkggcgfcdoffffchahhhhhhhfhhggggghhhhhhhhhgggfffgwkrffikrvgaa",
"aaaaamgffffofffffgoaahhhhhhhgaaaaaaaamaaghhhhhggffffwtrfikrtrgaa",
"aaaaaagffdfffoffgcxaiahhhhhhgamaaaaammmafghhhgeeefgwsckeuttrcaaa",
"aaaaaagfgfgffdffgcqmchhhhhhhhummuucmmmmuhhhhgeeedewstreeutrrcaaa",
"aaaaffffffffgfffgoqiomhhhhhhtmmmtocmmmmmthhhgeeewwttckfutrrcaaaa",
"aaafeefffffffffgooqkqimmmcmmhmvmcocivmmmmmmimmwwttccokutrrcaaaaa",
"aafedeffeefffeegccqcqooorovvvvvicockovvrrrriiimcccocosorrcoaoaaa",
"aafeeffeeefffedgcopookocixtttiikbookitttttiokkioogoosorvcosaaaaa",
"afffffeceffffeefgooocccqkqiiikkkbcokoisssikokkooggccoopooaaaoaaa",
"agffggfefffgffffgcocaoaqoqkkokkoboocokioikcocogggcgotcoocoacocaa",
"aahhhgffffghhfffgaaaaacocqooqkkocxococoockkoomoocpocoocaaaaaaaaa",
"aaaochffffhcchhhaaoacoycopooqoaooqooocoooocoxocqoocooaacyaaaaaaa",
"aaaaaahhhhaaaaaaaaaaaaaaoooooaccaqocoooocoocyccovooaaaaaaaaaaaaa"
};