/* XPM */
static char *begin_floor1_034[] = {
/* columns rows colors chars-per-pixel */
"320 200 115 2 ",
"   c #242424",
".  c #272828",
"X  c #2B2B2B",
"o  c #2D3232",
"O  c #2F3838",
"+  c #333333",
"@  c #343B3B",
"#  c #3B3B3B",
"$  c #364242",
"%  c #3B4343",
"&  c #3C4B4B",
"*  c #3E5151",
"=  c #434343",
"-  c #434B4B",
";  c #4B4B4B",
":  c #435454",
">  c #4D5252",
",  c #445B5B",
"<  c #4C5C5C",
"1  c #535353",
"2  c #545B5B",
"3  c #5C5C5C",
"4  c #7E4F4F",
"5  c #6D5D5D",
"6  c #765656",
"7  c #7A5353",
"8  c #725959",
"9  c #7B5B5B",
"0  c #476161",
"q  c #4A6363",
"w  c #4D6B6B",
"e  c #546464",
"r  c #5D6363",
"t  c #536C6C",
"y  c #5C6B6B",
"u  c #537474",
"i  c #5C7373",
"p  c #567B7B",
"a  c #5B7C7C",
"s  c #636363",
"d  c #696060",
"f  c #626B6B",
"g  c #6B6B6B",
"h  c #736363",
"j  c #7C6363",
"k  c #746B6B",
"l  c #7C6B6B",
"z  c #637474",
"x  c #6B7373",
"c  c #657C7C",
"v  c #6B7C7C",
"b  c #737373",
"n  c #7B7474",
"m  c #747B7B",
"M  c #7C7B7B",
"N  c #9F3737",
"B  c #963D3D",
"V  c #9C3939",
"C  c #A03636",
"Z  c #8D4444",
"A  c #834C4C",
"S  c #894949",
"D  c #924141",
"F  c #904A4A",
"G  c #835353",
"H  c #8B5353",
"J  c #845B5B",
"K  c #895C5C",
"L  c #846464",
"P  c #836D6D",
"I  c #827575",
"U  c #817878",
"Y  c #5C8383",
"T  c #5E8A8A",
"R  c #668282",
"E  c #6A8383",
"W  c #638C8C",
"Q  c #6A8C8C",
"!  c #728383",
"~  c #7C8484",
"^  c #738B8B",
"/  c #7C8C8C",
"(  c #659393",
")  c #6D9595",
"_  c #679999",
"`  c #6B9C9C",
"'  c #739494",
"]  c #7D9595",
"[  c #729E9E",
"{  c #7B9B9B",
"}  c #6EA4A4",
"|  c #74A5A5",
" . c #7BA2A2",
".. c #74ACAC",
"X. c #79ADAD",
"o. c #76B1B1",
"O. c #7CB4B4",
"+. c #7DBBBB",
"@. c #7FC0C0",
"#. c #818080",
"$. c #818A8A",
"%. c #819393",
"&. c #829D9D",
"*. c #83A6A6",
"=. c #83ADAD",
"-. c #84B3B3",
";. c #81BBBB",
":. c #88BFBF",
">. c #84C3C3",
",. c #8AC6C6",
"<. c #87C8C8",
"1. c #8ACDCD",
"2. c #8DD3D3",
"3. c #90D6D6",
"4. c #91D8D8",
/* pixels */
"                                                                                                                                                                                                                                                                                                                                                                                                                                                                                                                                                                                                                                                                ",
"                                                                                                                                                                                                                                                                                                                                                                                                                                                                                                                                                                                                                                                                ",
"                                                                                                                                                                                                                                                                                                                                                                                                                                                                                                                                                                                                                                                                ",
"                                                                                                                                                                                                                                                                                                                                                                                                                                                                                                                                                                                                                                                                ",
"                                                                                                                                                                                                                                                                                                                                                                                                                                                                                                                                                                                                                                                                ",
"                                                                                                                                                                                                                                                                                                                                                                                                                                                                                                                                                                                                                                                                ",
"                                                                                                                                                                                                                                                                                                                                                                                                                                                                                                                                                                                                                                                                ",
"                                                                                                                                                                                                                                                                                                                                                                                                                                                                                                                                                                                                                                                                ",
"                                                                                                                                                                                                                                                                                                                                                                                                                                                                                                                                                                                                                                                                ",
"                                                                                                                                                                                                                                                                                                                                                                                                                                                                                                                                                                                                                                                                ",
"                                                                                                                                                                                                                                                                                                                                                                                                                                                                                                                                                                                                                                                                ",
"                                                                                                                                                                                                                                                                                                                                                                                                                                                                                                                                                                                                                                                                ",
"                                                                                                                                                                                                                                                                                                                                                                                                                                                                                                                                                                                                                                                                ",
"                                                                                                                                                                                                                                                                                                                                                                                                                                                                                                                                                                                                                                                                ",
"                                                                                                                                                                                                                                                                                                                                                                                                                                                                                                                                                                                                                                                                ",
"                                                                                                                                                                                                                                                                                                                                                                                                                                                                                                                                                                                                                                                                ",
"                                                                                                                                                                                                                                                                                                                                                                                                                                                                                                                                                                                                                                                                ",
"                                                                                                                                                                                                                                                                                                                                                                                                                                                                                                                                                                                                                                                                ",
"                                                                                                                                                                                                                                                                                                                                                                                                                                                                                                                                                                                                                                                                ",
"                                                                                                                                                          .                                                                                                                                                                                                                                                                                                                                                                                                                                                                                                     ",
"                                                                                                                                                                .   .                     .                                                                                                                                                                                                                                                                         .     .     . .         .                                                                                                                                                                   ",
"                                                                                              X                                       .   .         .   .           .     . .         .                                                                                                                                                                                                                                                                     .                 .     .                                                                                                                                                                           ",
"                                                          X                                                                         .     . .       .       . .   .   .       . .     .       .                   X                                 X                                                                               X                                                                                                             .     .           . .   . .     .   .   .                                             X                                                                                                                 X     ",
"                    X         X                                                                                                 .       .     .     .   . . .   . .   . . . .   . .   . .   .                             X                                                             X                                                                                   X                                       X         X                     . .   . . . . . .   .   . . .   . . . . . .                                 X                                                         X                         X         X                                 ",
"            . .     .     X       X                                   X   X       X   X                                         . . . .   . . . . . . . . . . . . . . . . . . . . . . . . . . .         .   .                                             X   X     X     X                               X                     X     X     X                                       X   X   X               . .     .     X           X         X     X . . . . . . . . . . . . . . . . . . . . . . . . . . . .     . . . .   . X               X     X     X     X X                                       . .     .     X       X                             ",
"        .   .   .   .               X     X X   X     X     X               X           X   X     X     .   X                   . . . . . . . . . . . . . . . . . . . . o . . . . . . . . . . .           .   X   X   X   X X       X     X X   X     X         X           X     X X     X   X   X           X                                     X     X       X     X     X                         .   .   .     .         X       X   X     X . . . . . . . . . . . . . . . . . . . o .   . . . . . . . .     . . .   .         X X     X         X                 X X     X X     X   X         .   .   .   .               X     X X   X     X     X   ",
"          .         .   X   X   X                   X     X     X       X         X         X   X     X X   . .         .   . . . . . . . . o . . . . o o . . o o o . . . . o . o . . . o . . . . .     . . . . . .   X       X X     X       X     X     X         X   X             X   X     X     X   X             .       X   X   X   X         X X     X       X   X   X   X X   X   X             .     X   .     X X     X X   X     X . . X . . . X X . . . . . . O . . o . . o . o o . o . o . . . .   . . . . . . . X         X       X       X X   X   X   X                                 .         .   X   X   X                   X     X     ",
"        X   X X X X       X     X   X X X   X X X X   X   X X X   X X X     X X   X X X X     X   X   X   X . .         X X . . . . . . . . . o . O . o . O o . o . o o o o o o . o o o . o o . . .     . . X . .   X . X   X       X   X   X   X X   X   X X X X     X   X   X X   X   X   X     X X   X   X           . .       X     X     X   X   X   X   X X X X   X   X     X       X   X         X   X X   X       X     X   X X   X X X X . X X o . X X o o o o O O . O o o o o o . o . . o . o . o X X . . . . . . . .   X X X X   X   X   X   X     X   X   X     X X X   X X X X X           X   X X X X       X     X   X X X   X X X X   X   X X X ",
"    X   X X X   X X X X X     X   X X   X X X   X X X X X X X   X   X X X X X     X X   . . . X X   X X X X . . X X X X X . X X . . o o o . . o O . O . O o o o o O O O o o O o o o o o o o X X o . X X X X X X X X X X X . X X X X X . X .   X X X X   X X X     X X X X   X X   X X   X   X   X X X     X X X X . X X X . X . X X X X X X   X X   X X X X X   X X X X   X X   X X   X   X X X     X   X X X   X X   X X   X X   X X X X X X X X X X o X o X o . O . O . O O O o o o o o o o o o o o o X o X X X X X X . X X .   X X   X   X X X   X     X X     X   X X X   X X   X   X   X       X   X X X   X X X X X     X   X X   X X X   X X X X X X X   ",
"    X X X X X X X X X X X X X X X X X X X X X X X X X X X X X X X X X X X X X X X X X X X X X X X X X X X X X X X X X X X X X X o . o . o o O O O O O O O O O O O O O O O O O O O O o o o o o o o o o X X X X X X X X X X X X X X X X X X X X X X X X X X X X   X X X X X X X X X X X X X X X X X X X X X X X   X X X X X . X X X X X X X X X X X X X X X X X X X   X X X X X X X X X X X X X X     X X X X X X X X X X X X X X X X X X X X X X X X X o o o o O O O O O O O O O O O O O O O O O O o o o o o o o o o o X X X o X X X X X X X X X X X X X X X X X X X X X X X X X X X X X X X X X     X X X X X X X X X X X X X X X X X X X X X X X X X X X X X X ",
"X X X X X X X X X X X X X X X X X X X X X X X X X X X X X X X X X X X X X X X X X X X X X X X X X X X X X X X X X X X X X X o X o o o o o O O O O O O O O $ O $ O O $ O O $ O O O O O O O o O O o o o o o o X X X X X X X X X X X X X X X X X X X X X X X X X X X X X X X X X X X X X   X X X + X X X X X X X X X X X X X X X X X X X X X X X X X X X X X X X X X X X X X X X X X X X X X X X X X X X X X X X X X X X X X X X X X X X X + X + X + o o o o O O O O O O O O $ O O $ $ O $ $ O O O O O O O O O O o o o o X o X X X X + X X X X X X X X X X X X X X X X X X X X X X X X X X X X X X X X X X X X X X X X X X X X X X X X X X X X X X X X X X X X X X ",
"X X o o X X X + X + X X X + X + X X + X X X + X X X X X X X + X X X X + X X + X X X + X + X + X + X X X X + X + X X + X + o o o o o o O O O O O $ O $ $ $ $ $ $ $ $ $ $ $ $ $ $ $ $ $ @ $ O @ @ O o o O o o o o X + + X X o o X X X + X X + X X X X + X X + X + X X X X + X + X + X + + X + X X + X + X X X + X + X X + X X o X X X X + X X X + X + X + X X + X X + X + X + X X X + X + X X X X X X o o X X X + X + X + X + X + + X + X X + + + + O + O O @ @ O $ $ $ $ $ $ $ $ $ $ $ $ $ $ $ $ $ $ $ O @ @ + O + O o o o o o o X X + + X + X X + X + X X + X + X + + X + X X X + X + X X + X X X X o o X X X + X + X X X + X + X X + X X X + X X X X X X X + X ",
"+ X + + + X + + X + + + X + X + + + X + + + X + + + + + + X + + + + + + X + X + + + + X + X + X + X + + + + X + X + + + + + + + + + @ @ @ @ $ $ $ $ $ & & & & & $ & * & & & $ & & $ $ $ $ $ @ @ @ @ @ + @ + + + + + + + o o o + + X + + + X + + X + + + X + X + + X + + + X + X + X + X + X + + + + + X + X + X + X + + X + X + X + X + + X + X + + X + X + + X + + + X + X + X + X + + + + X + + X + + X + X + X + X + o o + + + + + + + O + @ + @ @ @ @ $ @ $ $ $ $ & $ & & & * * $ * $ * $ * $ $ $ $ $ O $ O O O @ + + + + O + + + o o o + o + X + X + + + + X + X + X + X + + + + X + X + + X + X + + X + + + X + + X + + + X + + X X + X + + + + + + X + + ",
"+ + + + + + + + + + + + + + + + + + + + + + + + + + + + + + + + + + + + X + + + + + + + + + + + + + + + + + + + + + + + + + + # @ @ @ @ $ % $ % % & & & * * & * * * * * * * * * * * & & $ & $ $ $ @ @ @ @ + @ + + + + + + + + + + + + + + + + + + + + + + + + + + + + + + + + + + + + X + + + + + + + + + + + + + + + + + + + + + + + + X + + + + + + + + + + + + + + + + + + + + + + + + + + + + + + + + + + + + + + + + + + + + + + + + + @ @ @ @ @ $ $ $ % & & & & & * * * * * * * * * * * * * $ $ * & $ $ $ $ $ @ @ @ + + + + + + + + + + + + + + + + + + + + + + + + + + + + + + + + + + + + + + + + + + + + + + + + + + + + + + + + + + + + + + + + + + + ",
"+ + + + + + + + + + + + + + + # + + + + + + + + + + + + + + + + + + # + + + # + + + + + + + + + + + + + + + + # + + # + @ @ # # @ % $ % % & & & * * * * * * * * * , , , , , * * * * * * * * & & % % # $ @ @ @ # # + + + + + + # + + + + + + + + + + + + + + + # + + + + + # + + + + + + # + + + + + + + + + + + + + + + + # + + + + + + + + # + + + + + + + + # + + + + + + + + + + + + + + + + + + + + + + + # + + + + + + + + + @ @ + @ @ @ # % % % % & & & * * * * * , , * 0 0 * , 0 * , * * * * * * * $ & $ $ $ $ @ @ @ @ @ + + # + + + + + + + + + + + + + + + + + + + + + + + + + + + + + + + + + + + + + + + + # + + + + + + + # + # + + + + + + + + + + ",
"+ # # + # # + # + # # # + # + # # + # # + # # # # + + # # + # + # + # + # # + # # + # # + # # # # # # + # + # # # # # + # # # # % % % % & & : * * * , , 0 0 w 0 w 0 0 0 0 0 0 0 , 0 0 * * * * & & & % % % % @ # # # # + # # + # + # # # + # # # + # # # + # + # # # + # + # # # # # # # + + # # # + # # # + # # # # # + + # # # # # + # # + # # # # # + # # # + # + # # # + # # # # # + + # # # + # # # + # + # # # # # + # # + @ # @ # # # # % % % & & & * : : * 0 0 0 0 0 0 0 0 0 0 0 0 0 0 0 0 * 0 * * * * & $ $ & $ % # # # # @ # + # + # # # + # # + # # # + # # # # # + # # + # # + # # # # # # + # # # # + # + # + # # + # # + # # + # # # + + # # + # + ",
"# # # # # # # # # # # # # # # # # # # # # # # # # # # # # # # # # # # # # # # # # # # # # # # # # # # # # # # # # # % # % # % % % % - - - : : , 0 0 0 0 w w w w w w w w w w w w 0 q 0 0 < , : : : - & = % % % % # # # # # # # # # # # # # # # # # # # # # # # # # # # # # # # # # # # # # # # # # # # # # # # # # # # # # # # # # # # # # # # # # # # # # # # # # # # # # # # # # # # # # # # # # # # # # # # # # # # # # # # # # # # % % % % % % & - : : : , , 0 0 0 0 0 w w w w w w w w w w 0 0 0 0 0 0 * * * - & - % % % % # # # # # # # # # # # # # # # # # # # # # # # # # # # # # # # # # # # # # # # # # # # # # # # # # # # # # # # # # # # # # # # # # ",
"# # # = = # # = # # = # = # # # # # = # = # # # # # # # # # # = # = # # # # = # # # = # = # # = # # # # = # # # = # = % = % = - - - : : : , < 0 q w w w w u u u p p p u p u u w u w w q q 0 , < : : : - - - = = % = = % = % # # # # = # = # # # # # = # = # # # # # # # = # # # # = # # # # Z # # # = # = # # = # # # # = # = # # # = # # # # # # = # # # # = # # # = # = # # = # # # # = # = # # # = # = # # # # # # = # # % = = # % = = % = - - : : : , < 0 q w w w w w p w p p u p w u u u w w w 0 0 0 0 , , : : - - = = = % = % % = # = # # = # = # # # # # # # = # # # # = = # # # # = # = # # = # = # # # # # # # # # # = # # # # # # = # # # # # # # # = ",
"= = = = = # # = # = = # = = = = = = = = # = = # = # = = = = = = = = = = # = = = = = = = = # = = = = = = = = = = = = = = = - - - : : : > < 0 0 w w u u u p p p p p p Y Y p p p p u u u u w w 0 0 , , : : - - - = - = = = = = # = = = = = = # # = # = = # = = = = = = = = = = = = = = = = = # + # = = = = = # = = = = = = = = # = = = = = = = = = = = = = = = = # = = = = = # = = = = = = = = # = # = = # = = # = = = = = = = = = = = = = - - - - : : : < < q q w w p p p p p p Y p T T p p p p p p p w w 0 w 0 0 : : : - - - - = = = = = = = = = = = # = = = = = = = = # = = = = = = # = = = = = = = = = = # # = # = = = = = = = = = = = # = = # = # = = = = = = ",
"= = = = = = ; = ; = = ; = = = = = = = = = ; = = ; = = ; = = = = = = = = = = = = = = = = = = = = = = = = = = = = = = = - - - ; - : > < < q w w t u u p p Y Y T T T T T T T T T T Y p p u u t w w q < < > : > - - - = - = = = = = = = = = = = ; = ; = = ; = = = = = = = = = = = = = = = = = = = = = = = = = = = = = = = = = = = = = = = = = = = = = = = = = = = = = = = = = = = = = = = = = = = = ; = = ; = = = = = = = = - = = = = = - - ; - : > > < < q q w u u p p p p T T T T T T T T T T T p p p p u w w 0 0 < < > : > - - - - = = - = = = = = = = = = = = = = = = = = = = = = = = = = = = = = = = = ; = = = ; = = ; = = = = = = = = ; = = ; = = = ; = = = = ",
"= ; = ; = ; ; = ; = ; = ; = ; = = ; ; ; = ; = ; = ; = = = ; = ; ; = = ; = = ; ; = ; = ; = ; ; = ; ; = ; ; ; = ; - ; - ; ; : > > < < < q e t u u u Y Y T T T ( ( _ _ _ ( _ ( T T T T T p p u u e e q 0 < < ; > ; - ; ; - ; - ; ; = ; ; = ; ; = ; ; = ; = ; = ; = = ; ; = = ; ; ; ; = ; = ; ; = ; ; = = = ; ; = = ; ; = ; = ; = ; = ; ; = = = = ; A # ; ; = ; = ; ; = ; = ; ; ; = = ; ; = ; = = ; ; = = ; ; = ; = ; ; ; ; = ; ; ; ; ; ; ; : ; > < < < q e t u u p p T T T T ( ( _ ( _ _ ( _ T T T Y Y a p u u t e e < < < > ; ; > ; - ; ; - ; ; = = ; ; = ; ; = ; ; ; = ; ; = ; = ; ; = ; ; = ; = = ; = = ; ; = ; = ; = = ; = ; = ; = ; = ; ; = ; = = ; ; = ; = ; ",
"; ; ; ; ; ; ; ; ; ; ; ; ; 1 ; = ; ; ; ; ; ; ; ; ; ; 1 ; ; ; ; ; A # ; ; ; ; ; ; ; ; ; ; ; = ; ; ; ; ; ; ; ; ; ; ; ; > ; > > < > < q e e t u p a Y T T T ( _ _ _ _ _ _ _ _ _ _ _ _ T T T Y a i u t t e < < < > < > ; ; ; ; ; ; ; ; ; ; ; ; ; ; ; ; ; ; ; ; 1 ; = ; ; ; ; ; ; ; ; ; ; ; ; ; ; ; ; ; ; ; ; ; ; ; ; ; ; ; ; ; ; ; ; ; ; ; = 1 ; ; ; ; = ; ; ; ; ; ; ; ; ; ; ; ; ; = 1 ; ; = ; ; ; ; ; ; ; ; ; ; ; ; ; ; ; ; ; ; ; ; ; > ; ; < > < < < e t t u u a Y T T T T _ _ _ _ _ _ _ _ _ _ _ _ ( T T Y a u u t w e q < < > > > > ; ; ; ; ; ; ; 1 ; ; ; ; ; ; ; ; ; ; ; ; ; ; ; ; ; ; ; ; ; ; ; ; ; ; ; ; ; ; ; ; ; 1 ; ; ; ; ; ; ; ; ; ; ; ; ; ; ; ; ; ; ; ; ; ",
"; ; ; ; ; ; 1 ; ; ; ; 1 ; ; 1 1 ; ; ; ; ; ; 1 ; ; ; ; 1 1 ; ; ; 1 ; ; 1 ; 1 1 ; ; ; 1 ; ; 1 ; 1 ; ; 1 ; ; ; ; 1 > > > > 1 < < 2 2 e e t u a a Y T T ( _ _ _ } } } } } } } } } _ _ _ ( T W Y a a i t e e e < < 1 < 1 ; > 1 ; 1 > ; ; ; ; ; ; ; 7 ; ; ; 1 1 ; 1 ; 1 ; ; 1 ; ; ; ; 7 ; ; ; 1 ; ; 1 ; 1 1 ; 1 ; ; ; ; ; ; 1 ; 1 ; 1 1 ; ; 1 ; 1 ; 1 ; ; ; ; ; ; ; ; ; ; ; 1 1 ; 1 ; ; 1 ; 1 ; 1 ; 1 1 ; 1 ; 1 ; ; 1 ; ; ; ; ; 1 ; ; > > > < < 2 2 2 e t t u a a Y W T _ _ _ } } } } } } } } } } _ _ ( ( W T Y a a u t e e 2 < < < > < ; > > ; ; > 1 ; 1 ; ; ; 1 ; ; ; ; ; 7 ; ; ; ; ; ; 1 ; ; ; ; 1 ; ; ; 1 ; ; 1 ; ; ; ; 1 1 ; ; ; 7 ; ; ; 1 ; ; 1 ; 1 1 ; 1 ; ; ; ",
"7 ; 1 1 1 1 1 1 1 1 1 1 1 1 1 ; 7 ; 1 ; 1 1 1 1 1 1 1 1 1 1 1 1 1 ; 1 1 ; 1 1 1 1 1 1 1 1 1 1 1 1 1 ; 1 1 1 1 1 1 1 1 1 1 < 2 2 e t t i i a Y R T ( _ } } } } ..o.o.o.o.o.} o.} } _ _ _ W Y Y a i u t y e 2 2 2 1 2 1 1 1 > 1 ; 1 1 1 1 1 1 ; ; 1 1 1 1 1 ; 1 1 1 1 ; 1 1 1 1 > ; ; 1 1 1 1 ; 1 1 ; 1 1 1 1 1 1 ; 1 1 ; 1 1 ; 1 1 1 1 ; 1 1 1 1 1 1 1 1 1 1 1 1 1 1 1 1 1 ; 1 1 ; 1 1 ; 1 1 1 1 1 ; 1 1 1 ; 1 1 1 1 1 1 1 ; 1 1 > 1 1 2 1 < e e e t i i a R Y W _ _ _ } } } } o.o.o.o.o.} o.} } ` ` ( W T R a i i t t e 2 2 2 1 1 1 1 1 1 1 1 ; ; 1 1 ; 1 1 1 1 1 1 ; ; 1 1 1 1 1 1 1 1 1 1 1 1 7 ; 1 ; 1 1 1 1 1 1 1 1 1 1 1 1 ; ; 1 1 1 ; 1 1 1 ; 1 1 1 1 1 1 ",
"1 1 1 1 1 ; 1 1 1 1 1 1 1 1 1 1 1 1 1 1 1 ; 1 1 1 1 1 1 1 1 1 1 1 1 1 1 1 1 1 1 1 1 1 1 1 1 1 1 1 1 1 1 1 1 1 1 1 1 2 2 2 2 e e y t y i a Y R W _ _ ` } } o.o.o.o.o.@.o.o.o.o.o.} } } _ ( T T Y a i u y e e e 2 2 2 2 2 2 1 1 1 1 1 1 1 1 1 1 1 1 1 1 1 1 1 1 1 1 1 1 1 1 1 1 1 1 1 1 1 1 1 1 1 1 1 1 1 1 1 1 1 1 1 1 1 1 1 1 1 1 1 1 1 1 1 1 1 1 1 1 1 6 1 1 1 1 1 1 1 1 1 1 1 1 1 1 1 1 1 1 1 1 1 1 1 1 1 1 1 1 1 1 1 1 1 1 1 2 1 2 2 2 e r e y u i a Y R W ( _ } } } o.o.o.o.o.o.@.o.o.o.o.} } } _ ( W W Y a i i t e e e 2 2 2 1 2 1 1 1 1 1 1 1 1 1 1 1 1 1 1 1 1 1 1 1 1 1 1 1 1 1 1 1 1 1 1 1 1 1 1 ; 1 1 1 1 1 1 1 1 1 1 1 1 1 1 1 1 1 1 1 1 1 1 1 1 1 1 ",
"3 1 3 1 5 1 1 1 3 1 1 1 3 1 3 1 3 1 1 3 1 5 1 1 1 1 3 1 1 3 1 1 1 1 3 1 3 1 3 1 5 1 2 1 3 1 1 1 1 1 1 2 2 1 1 3 2 2 2 2 2 e e r t y i a Y R W ( _ } } ..o.o.o.+.@.@.@.@.@.@.o.o.o.o.} } _ _ T T R i i y y e r 2 2 2 2 1 2 1 3 1 1 3 1 1 1 1 1 5 3 1 1 1 3 1 1 3 1 1 1 3 1 3 1 5 1 3 1 2 1 1 1 5 3 1 1 3 1 3 1 2 2 1 1 3 1 3 1 5 1 1 1 5 1 1 3 1 1 3 1 1 1 1 5 1 3 1 1 1 3 1 3 1 1 1 1 5 1 2 3 1 1 3 1 1 1 1 1 8 1 3 1 3 3 1 2 2 2 2 2 2 2 e e y i i i R R W ( ` _ } } o.o.o.@.@.@.@.@.@.o.@.o.o.| } ` ` ( W R a a i y y r e r 2 2 2 2 1 3 2 1 2 1 1 1 5 1 1 3 1 1 1 1 1 1 5 3 1 1 1 3 1 3 1 1 1 1 3 1 1 1 5 1 1 1 2 3 1 3 1 1 3 1 3 1 1 1 1 1 5 1 3 1 3 1 3 1 1 ",
"3 1 3 1 1 3 5 1 1 3 1 3 3 1 3 1 3 1 2 1 1 2 5 1 2 3 1 3 5 1 2 2 8 1 2 1 1 2 2 1 1 1 3 1 3 1 3 3 3 1 3 3 1 3 2 2 3 2 2 2 2 e r y y i i a R R W ` _ } ....o.+.@.@.@.@.@.@.@.@.@.o.o.o.} } _ _ T T R a i i y y r e r 2 3 2 3 1 1 3 5 2 1 3 3 1 1 3 3 1 1 3 3 1 2 1 1 2 5 1 3 1 3 2 5 1 3 1 1 2 1 1 3 1 3 2 3 1 2 1 3 2 5 1 2 1 1 3 1 2 2 1 3 3 3 1 5 2 1 3 3 1 1 1 3 1 1 3 3 1 3 1 1 2 2 3 2 1 3 2 3 3 1 3 3 1 1 5 2 1 1 2 3 1 2 2 2 3 3 e e r y y y i a R W ( ( ` } } o.o.@.o.@.@.@.@.@.@.@.@.o.o.o.| } ` ) W W Y a i i y r e e 3 3 3 2 3 2 3 2 1 3 3 2 2 1 3 3 2 5 1 3 1 2 2 1 2 5 1 3 1 1 2 3 1 5 2 1 3 3 1 5 1 3 1 1 2 3 1 3 1 3 3 1 3 3 1 1 1 2 1 1 3 3 3 2 3 ",
"2 5 3 3 3 2 3 3 3 3 3 2 2 5 2 3 2 5 3 2 5 3 3 2 2 2 5 2 3 3 3 3 1 5 3 3 5 2 3 3 3 2 5 2 3 3 3 1 3 3 3 3 3 3 3 3 3 3 3 r r r r y y z a R R W ( ) } ....o.+.+.@.@.@.@.@.@.@.@.@.@.o.o.o.} } _ _ T R c a i y y y r e 3 r 3 2 5 2 3 3 2 2 3 3 3 3 3 3 3 3 2 2 5 3 3 5 3 2 3 1 3 3 2 3 3 2 2 5 3 2 5 3 1 3 3 2 5 5 1 3 3 2 3 3 3 3 2 5 3 2 5 1 3 3 3 3 2 3 3 3 3 3 3 3 3 3 2 2 5 2 3 3 5 1 3 5 1 3 2 1 3 3 3 3 3 3 1 3 2 5 3 3 3 3 3 3 3 2 r r y y y i a c R W ) ) } } o.o.@.@.@.@.@.@.@.@.@.@.@.@.@.o...| } ) ) W R R z i i y y r r 3 3 3 2 3 3 5 1 3 1 3 3 3 3 3 3 2 3 3 3 3 3 5 2 2 3 3 3 5 2 3 3 3 2 3 3 3 3 3 2 2 2 5 3 2 5 1 3 3 3 3 3 3 3 2 5 3 2 5 1 3 3 3 3 ",
"3 3 3 3 3 3 3 2 3 3 3 3 3 3 3 5 3 3 3 3 3 3 3 3 3 3 3 s 3 3 3 3 3 3 3 3 3 3 3 3 3 3 3 3 3 3 3 3 3 2 3 3 3 3 r 2 3 r 3 r r r y y i z c R W W ) ` | ..o.O.@.@.@.@.2.@.2.@.2.@.1.@.+.O.o.| | ` ) W W c a z z y y r r r 3 3 3 3 r 3 3 3 3 2 3 3 3 3 3 3 3 3 3 3 3 3 3 3 3 3 3 3 3 3 3 3 3 3 3 3 3 3 3 3 3 3 3 3 3 3 3 3 3 3 3 3 3 3 3 3 3 3 3 2 3 3 3 3 3 3 3 3 3 3 3 3 3 3 3 3 3 3 3 3 3 3 3 3 3 3 5 3 3 3 3 3 3 3 3 3 2 3 3 3 r 3 3 r r r r y y i z a R R W ) ` | o.o.@.@.@.@.@.@.2.@.@.2.<.@.@.@.O.o...} ` ) W R R z i i y r r r 3 r 3 3 r 3 3 3 3 2 3 3 3 3 3 3 3 3 3 3 3 3 3 3 3 3 3 3 3 3 3 3 3 3 3 3 3 3 3 3 3 5 3 3 3 3 3 3 3 3 3 3 3 3 3 3 3 3 3 3 3 3 3 3 ",
"3 3 3 s 3 s 5 r r 3 s 3 3 3 3 r 3 3 s 3 r 5 s 3 3 3 3 3 3 3 s 3 s 3 3 s s 3 3 r 5 3 s 3 s 3 s 3 5 3 3 3 3 3 5 r 3 r r r r y f y i z c R R ) ) ` | X.o.+.@.@.<.1.@.4.@.2.@.2.@.@.@.+.O.X.| ` ) ) W R c z i f y r y r r r r 3 r 3 3 3 r 5 3 r r 3 3 r 3 5 3 3 s 3 r 3 r 3 3 3 3 r 3 3 s 3 3 s 3 3 3 s 3 3 5 r r 3 3 3 s 3 r 5 s 3 r 3 s 3 3 5 3 r 3 3 s 3 3 s 3 3 3 s 3 3 5 r 3 3 3 3 s 3 r 5 r 3 3 3 3 s r 3 3 3 3 r 5 3 r 3 3 r 3 r r r f y f i z R R W ) ) ` | o.@.@.@.@.4.@.4.@.2.2.@.1.1.@.@.+.O.X.} | ) ) W R c z i z y r y r r r 3 r 3 3 3 r 5 3 r 3 3 r 3 3 s 3 3 3 s 3 3 r 5 3 r 5 r 3 3 5 3 r 3 3 3 r 3 3 r 3 3 3 r s 3 3 3 s 3 3 s r 2 r 3 r 5 3 3 r 3 ",
"3 s s 3 3 3 r 3 5 3 3 3 3 r r 3 3 s r 3 3 5 3 3 3 s s 3 3 s r 3 5 r 3 3 3 s 3 3 r r s 3 3 s r 3 3 3 s r 3 r s 3 r r r r r r y z a z R R W ) ` ` | X.O.+.@.<.@.1.4.4.2.@.4.@.@.@.@.+.O.o.| } ` ) W R R a z y f r r f 3 r 3 r 5 r 3 s 5 r r 3 r 3 3 s r 3 3 r s 3 5 3 3 5 3 s s 3 3 s r 3 s 3 s s s 3 s s 3 3 3 r 3 s r 3 3 5 3 3 3 5 3 3 5 r s 3 3 s r 3 s 3 s s s 3 s s 3 3 r r 3 r s 3 3 3 s 3 3 r s 3 3 5 3 3 s r 3 r s 3 r s r r r r r y z z z c R W ) ` | | o.o.@.@.@.4.@.4.4.4.@.2.1.@.@.@.+.O...| ` ) ) Q R c a z f y f r r r 3 r s 3 r s s 3 s 3 3 r 3 r s 3 3 s s 3 3 s 3 r 3 3 r 3 3 r r 3 3 s 3 r 3 r r 3 s r s 3 3 s 3 s r 3 s 3 s 5 r 3 3 r 3 r 3 s ",
"s 3 s s s s 3 r r r s s r 5 r s s 3 r 5 r r r r s 3 s s s 3 r 5 3 r s s 3 s r 5 r 3 3 s s 3 3 r s r r 5 s 3 s r r s r s f f y z z z c E Q ) ) | | o.+.+.@.@.2.1.4.@.2.2.2.4.1.1.>.+.O.o.| } ) ) Q R R z i z f y f r s r s r r 3 r 3 r 3 5 r 5 r s 3 s r r 5 r s r r s r s 3 s s s 3 r 5 3 s s 3 3 s s 3 s r r 5 s 3 r 5 r r r r s r r r r 3 s s s 3 r 5 3 s s 3 3 s s 3 s r r 5 r 5 r s r r 5 r r 5 r s s r r r r 5 r 3 r s 3 r r s r f f f y z c R R Q ) ) } | ..+.@.@.@.@.@.4.@.2.2.2.2.2.2.@.+.+.O.| } ) ) Q W R z z z f y f f r s s 3 s s 3 r s 3 s 5 r s 3 s s s 3 s s s 3 3 s r r 5 r r 5 3 r 5 r 5 r s 3 3 s r 5 3 s 3 s s 3 r 5 3 s s 3 5 s s 3 5 r s 3 ",
"s 3 r r 5 r r 5 r r r r r 5 r r r 5 r r 5 r s 3 s s 5 r r 3 r r s 5 r r r 5 r r s 3 s s r 5 r 5 s r s s r 5 3 s s 3 s r f f f z z z R W Q ) ) | ..O.+.+.>.<.1.2.4.@.4.4.2.2.1.@.>.+.+.o.X.| ` ) Q W c c z z f f f r s r s s r s s r 5 s r r r r s r r r r 5 r 3 r 5 s 3 s 5 r r r r 5 r s r 5 r s 3 r 5 s r 5 r r 5 r r 5 r s 3 r 5 r r r 5 r r r r 5 r 3 s 5 r r 5 r 5 s 3 s s r 5 r 3 5 r s 3 s r r r 3 s s 5 r 5 r 5 5 r s r r s r r y f z z c R R Q ) ` } | o.+.+.@.@.4.4.4.4.4.4.@.2.@.@.@.@.+.o.| | [ ) W R R c z z f y f s r s 3 s r 5 r s 5 r 5 r r 5 r 3 s r 5 r r 5 s s r 5 r r r 5 r s s r 5 r r 5 r 5 r 5 r s s 3 s r r 5 r 5 r 5 s r r 3 s s r r r ",
"s s r 5 s r s r s 5 r 5 s s 5 r r r r s r s s s 5 r s r s s r 5 r s s r r r r s s s 3 s r r r r 5 s 3 s r r s r s f r s r f f i z c R R Q ) ` | ..O.+.+.>.<.1.2.4.4.4.4.2.2.1.1.<.@.+.O.| | ) ) ) E R c z z z y f f r s r s s r s 3 r r s 5 r 5 5 s 5 r r r r 5 r s s s s r 3 s r 5 r r 5 r r s s s r r s s s r r r r s r s s s r s r 5 s r 3 s r 5 r r s r r s r r r s s s r s r r r s r s s s r 5 5 s s s r r r r r r r r s s f r f f f y z z z R Q Q ) [ | X.o.+.@.<.@.4.@.4.4.4.4.4.2.1.2.@.+.+.O.X.| ` ) ) W R c z z y f f f r r f r r r r r r s s 3 s s r s s r r r 5 r r s s s r 5 r r r s s s s 5 r s r r r r s s s s s r 5 r r r r r r s s s s 5 s 5 r ",
"s s s s s r s r r s s s s s r r s 5 r s r s s s r s s s s s s s s r s s s 5 s r s s s s s 5 s r r s s s s s s s r f r f f y f z c c R E ) ) [ | ..O.+.>.<.1.1.2.4.4.@.4.2.2.1.1.>.;.+.o.X.| [ ) Q R R c z z y f s r r f s s s 5 s s s s r 5 s s r s s s s s s s r s r s s s s s s s s s r r s s s s s s r r s r s 5 r s r s s s s r r s s s s s s s s s s s s s s s s r r 5 s s s 5 s r r s s s r s s r r s s r s r s s s s r s s s f r f f z z c R W Q ) ` | X.O.+.@.>.@.4.@.4.4.4.4.4.2.1.2.@.>.+.o.| | [ ) Q Q c c z z f f r r s r s s s 5 r r s s s s s s s s r s s r s s s r 5 s r s s r s s 3 s s r s s s r s r s s s s s s s r s r s s s s 5 r s r s s s ",
"s s s r s s s 5 s s s r s s s s s s s s s s s r s r s s s s r s s r 5 s s s s s s s s s s s s s r s r s r s r s s s s f f f f z z c R W Q ) [ | X.O.+.@.<.1.2.2.4.4.4.4.2.2.2.1.<.>.;.O.X.| ` ) Q Q R c z z f f f f s f r r r r r s s s r r r s r s s s s s r s s s s s s s s s s r s s s s s s s s s s s 5 s s s s s s s s s r s s s s s s s s s s r s s s s r s s s s r s s s s s s s s s s s s s s s s s s 5 s s s r s s r s r s f f f z z z c R Q Q ) [ | X.O.+.>.<.@.4.4.4.4.4.4.@.2.2.1.1.@.+.O.X.| [ ) Q Q R z z z f f f f s f s r s r s s s s 3 s s s s s s s s s s s s r s s s s s s s s s s s r s s s s s r 5 s s r s s s s s s s s s s r r s r s s s ",
"s s s s s s s s s s s s s s s s r s s s s s s s s s s s s s s s s s s s s s s s s s s s s r s s s s s r s s s 3 r s s f f f f z c c R Q Q ) [ | X.O.@.@.@.@.@.4.@.4.4.4.4.4.4.@.<.>.+.O.X.| [ ) ) R R c z z z f f r f r s r s s s s s s s s s s s s s s r 5 s s s s s s s s s s s s s s s s s r s r s s s s s s r s s s s s s s s s s s r s s s s s s s s s s s s r s s s s s r s s s s s s s r s s s s 5 s r s s s r r s s s r s s r f f f i z c R E ) ) ` | X.O.+.>.>.1.2.2.2.3.4.3.4.2.2.2.@.>.+.O.X.| [ ) Q E R c z z f f f f s r s r s s s s s s s s s s s s s s s s s s s s s s r s s s s s s s s s s s s s s r s s s s s s s s s s s s s s s s s s s s s ",
"s s s s s s s s s s s s r s s s r 5 s s s s s s s s s s s s s s s s s s s s s s s s s s s s s s s s s s s s s f s f f r f r f z z c R E ) ) [ | ..+.+.@.4.4.4.4.4.4.4.4.@.4.4.@.>.>.+.O.X.| | ) Q Q R c z z f f f f s f s s s s r s s s s r s s r s s s s f s s s s s s s s s s s s s s s s s s s s s s s s s s s s s s s s s s s s s s s s s s s s s s s s s s s s s s s s s s s s s s s s s s s s s s r s s s s s 5 s r s s f f r f f f f z z c R Q Q ) } | ..O.+.>.<.1.2.2.2.3.3.4.3.2.2.2.@.>.+.O.X.| [ ) ) Q R c c z f f f f r s s f s s r s s s r s s s r s s s s r s s s s s s s s s s s s s s s s s s s s s s s s s s s s s s s s s r s s s s s s s s s ",
"s s s s s r s s s s s s s s s s s f s s s s s s s s r r s s s s s r s s s s s s s s s s s s s s s s s s s r s s s s r s y f f z z c R Q Q ) | | X.O.@.@.@.4.@.4.4.4.4.4.4.4.4.@.<.>.;.O.X.| ` ) ) R R c z z f f s r f r r s s r s s s s s s s s s s s s s s s s s s s s r s s s s r s s s s s s s s s s s s s s 5 f s s s s s s s s s s s s s s s s s s s s s s s s s s s s s s f s s s s s 5 f s s s s s r s s s r s s s s s s s s f f f z z z c R Q Q ' | | X.O.;.>.<.1.2.2.4.3.4.4.4.2.2.@.1.>.+.O.X.| [ ) Q R R c z z f f f s s s s s s s s s r s s s s s s s s s s s s s s 5 r s s s s s s s s s s s s s s s s s s s s s s s s r s s s s s s s s s s s s s ",
"s s s s s s s s s s s s s s s s s s s s s s s s s s 5 f s s s s s s s s s s s s s s s s s s s s s s s s s s s r r s f f f f f z c c c Q Q ' ` | X.O.@.@.2.@.4.4.4.4.4.4.@.4.4.4.<.>.;.O.X.| [ ) Q Q R c z z f f f s s s f s s s s s s r s s s s s s s s s s s s s s s s s s s s s s s s s s s s s s s s s s s s r s s s s s s r s s s s s s s s s s s s s s s s s s s s s s s s 5 s s s s s r s s s s s s s s s s s s s s s s r f r s f f f z z c R Q Q ) ` | X.O.+.>.>.1.2.2.4.4.4.4.2.2.2.2.@.>.+.O.X.| [ ) ) Q R c z z f f y f f r f r s s s s s s s s s s s s s s s s s s s f s s s s s s s s s r r 5 f s s s s s s s s s s s s s s s s s s s s s s s s s s ",
"s f 5 r s s s s s s s s s s s s s s s s s r s s s s s r s s s s s s f s s s r s s s s s s s r s s s s s s s r s 5 f s f f f f z z c R E Q ) | | X.O.+.>.@.4.4.4.@.4.4.4.4.4.4.@.<.>.;.O.X.| | ) ) W R c z z f f f f r s s s s s s s s s s s s s s s s s s s s s s s s s s s s s s s r s s s s s s s s s s s s s s s s s s s f 5 s s s s s s s s s s s s s s s s s s s s s s s s r r s s s s s s s s s s s s s s s s s s r s s r s r f r f f z z c R E Q ' | | X.O.+.@.<.1.2.2.2.4.4.4.4.2.2.1.<.>.+.O.X.| [ ) Q E R c c z f f f f f 5 r s s s s s s s s s s s s s s s s s s s s s s s s r r s s s s s s s s s s s r f s s s s s s s f s s s s s s s s f s s s s ",
"s s s r s s s s s s s s s s s s s s s s s 5 f s s s s s s s s s s r 5 s s s s s s s s s s s s s s r s s s s s s r s r f f f f z z c R Q ) ) [ | X.O.+.>.@.4.@.4.4.4.4.4.4.4.@.4.<.>.+.O.X.| [ ) Q E R c z z z y r s f s s r s s s s s s s s s s s s s s s s s s s s s s s s s s s s 5 f s s s s s s s s s s s s r s s s s s s s s s s s s s s s s s s s 5 f s s s s s s s s s s s s s s s s s s s s s s s s s s s s s s s s s f f s s f f f z c c R E ) ) ` | X.O.+.>.<.1.2.2.3.4.4.4.4.2.2.1.<.>.+.O.X.| [ ) ) Q R c z z f f f r s r r s r s s s s s s s s s s s s s s s s s s s s s s s 5 f s s s s s s s s s s r 5 s s s s s s s 5 r s s s s s s r 5 s s s s ",
"s s s s s s s s s s s s s s s s s s s s s s s s s s s s s s s s s s s s s s s s s s s s s s s s s s s s s s s s r f s r f y f z c c R Q Q ) [ | o.O.+.>.@.4.@.4.4.4.4.4.4.4.4.4.<.>.+.O.X.| [ ) ) E R v z z f f f f r f r s r s r s s s s s s s s s s s s s s s s s s s s s s s s s s s s s s s s s s s s s s s s s s s s s s s s s s s s s s s s s s s r s s s s s s s s s s s s s s s s s s s s s s s s s s s r s s s s s s s r f f y f z z z c R Q Q ) | | X.O.;.@.1.1.2.2.4.4.4.4.4.2.2.1.<.>.;.O.X.| [ ) ) E R c z z f y f f s s f r f s s 5 s s s s s s s s s s s s s s s s s s s s s s s s s s s s s s s s s s s s s s s s s s s s s s s s s s s s s s s ",
"s s s s s s s s s s s s s s s s s s s s s s s s s s s s s s s s s s s s s s s s s s s s s s s s s s s s s r s s s r s f f f f z z c R E ) ) [ | X.O.+.>.@.4.4.4.4.4.4.4.4.4.4.@.<.>.+.O.X.| [ ) Q Q R c z z f f f s s f s s s s s s s s s s s s s s s s s s s s s s s s s s s s s s s s s s s s s s s s s s s s s s s s s s s s s s s s s s s s s s s s r s s s s s s s s s s s s s s s s s s s s s s s s s s s s s r s s s s r s s s f f f z z c R E ) ' ` | X.+.;.@.<.1.2.2.3.4.4.4.2.2.2.1.<.>.+.O.X.| [ ) Q Q R c z z f f f f r s r r 5 r s r r s s s s s s s s s s s s s s s s s s s s s s s s s s s s s s s s s s s s s s s s s s s s s s s s s s s s s s ",
"s s s s s s s d s s s s s s s s s s s s s s s s s s s s s s s s s s s s s s s s s s s s s s s s s s s s s s s s s s f f f f f z c v R E ) ) [ | X.O.+.>.<.1.2.2.4.4.4.4.3.3.2.1.@.@.;.O.X.| | ) Q Q R c z z f f f f s s s s s s r 5 5 r s s s s s s s s s s s s s s s s s s s s s s s s s s s s s s s s s s d s s s s s s s s d s s s s s s s s s s s s s s s s s s s s s s s s s s s s s s s s s s s s s s s s s s s s s s s s f s f f f f z z c R E ) ) | | X.O.+.>.<.1.2.2.2.4.4.4.4.2.2.1.<.>.+.O.o.| [ ) Q Q R c z z f f f f s s s s r s s s s s s s s s s s s s s s s s s s s s s d s s s s s s s s s s s s s s s s s s s s d s s s s s s s s s s s s s s ",
"s s s s s s s s s s s d s s s s s s s s s s d s s s s s s s d s s s s s d s s s d s s s s s s s s s s s s s s s s f f s s f f z z c R Q Q ' | | X.O.;.>.<.1.2.2.4.4.4.4.3.2.2.1.1.<.;.O.X.| [ ) ) E R v z z z f f s s f f s s s s r s s s s s s s s s s s d d s d s s s s s s s s s s s s s s s s s s s s s s s s s s s s s s s s s s s s s s s s s s s s s 5 s s s s s s s s s s s s s s s s s s s s s s s s s s s s s s s s s s s f f f f z c c R Q Q ) [ | X.O.;.>.<.1.2.2.4.4.4.4.4.2.2.1.<.>.+.O.X.| [ ) ) Q R v c z f f f f f s s s s s s s s s s s s s s s 5 s s s s s s s s s s s s s s s s s s s s d s s s s s s s d s s s s s s s s s s s s d s s s s ",
"s s s s s s s s s s s s s s s d s s d s s s s s s s s s s s s s s d d s s s d s s s s s d s s d s s s s 5 s s s s s f s f f f f z c R Q ) ' [ | X.O.;.>.<.1.2.2.4.4.4.4.3.2.2.1.<.>.+.O.X.| [ ) Q Q R c z z f f f s f s s s s s s s s s s s s s s s s s s s s s s s s s d s s s s d d s s s s s s d s d s s s s s d d s s s s s d s s s s d d s s d s d s s s s d s s s s s s d d s s s s s s d s s s s s s s s 5 s s s s s s s f s f s f f z z v R E Q ' [ | X.O.;.>.<.1.2.2.4.4.4.4.4.2.2.1.<.>.;.O.X.| [ ) Q E R v z z f f f s s s s s s s s s s 5 r s s s s s s s s s s d s s s s s s s s d s s d s s s s s s s s s s s s s s s s s s s s s s s s s s d s s ",
"s s d s d s d s s d s s s d s s s d s s s d s s d s s d s s d s s s s s s s s s d s s d s s s s 5 s s s r s s s s s s s f f f z c v R E Q ) [ | X.+.;.>.<.1.2.2.4.4.4.4.3.2.2.1.<.@.+.+.X.| | ) ) E R v z z f f f f s s s s s s s s s s 5 s s s d s s s s d s s s s s d s s d s s s s s s d s s s s s s s d s s s s s s s d s s s s d s s s s s s s s s s s s s s s d s s d s s s s d s s d s s s s s s d s s s s s s s s s s s s s s f f f z x v R E ) ) | | X.O.;.>.<.1.2.2.4.4.4.4.4.2.2.1.<.>.;.O.X.| | ' ) Q R c z z f f f f s s s s s s s s s s s s d s s s s s d s d s s d s s s s d s s s d s s s d s s d s s d s s d s s s d s d s d s s s d s s s d s ",
"s d s s s s d s s d s d s s s 5 d s s d s s s s s s d s d s d s s s d s 5 s s r s d s s d s s s 5 s s s s s 5 s s s s f f f f z z v E E ) ) | | X.-.;.>.<.1.2.2.4.4.4.4.4.2.2.1.<.>.;.+.X.|  .) Q Q E c z z f f s s s s s s s 5 s s 5 s s d s s s s d s s s s d d s d s s s d s d s s d s s s s d s s d d s s s d s s d s d s s d s d s s s d s d s s d s 5 s s d s s d s s d s d s s d s s d s d s s d s s s d s s s s s r s s s s s f f z x z c E E ) ' [  .o.O.;.>.<.1.2.2.4.4.4.4.2.2.2.1.<.>.;.O.X. .| ' Q E R v c z z f s f g s s s s s s s 5 s 5 s s s d d s s d d s s d s d s d s s 5 s d s s d s s s s s s d s d s d s s s d s s s s s d s d s s d s s ",
"d s d d d s s d s d d s 5 s s s s d s d d d 5 s 5 d s s s d s d s s s d s s s 5 d s d s 5 s d s s s s 5 s s s s d s s f g f f x z v E Q Q ' [ | X.O.+.>.<.1.2.3.2.4.4.4.4.2.2.1.<.>.;.O.X.| [ ) Q Q E v z x z g f s s f s s s s 5 s s s s s s 5 s s s 5 d s 5 s d s s d d s s d s d d s 5 s s 5 s d d s s s d d s d d s s d 5 s d s s d d s s d s d d s s s s s s d d s d s s d s d d s s s s d s d d s s d s s 5 s 5 s s 5 s s s s s f f f z z v R Q Q ' [ | X.O.;.>.<.1.2.2.4.4.4.4.4.2.2.1.<.>.;.O.X.| [ ) ' Q R c z g f g f s s s s s s 5 s s s s s d s s d s s d s s d d s s s d s 5 s s s s d s d d d 5 s d d s s s d s d d s s d s s 5 s s d s s d s d s ",
"d s s s s d d d s s s 5 s 5 s s d d s s s s 5 s s d s d d s d d s 5 s s s 5 r s d s d d s s 5 s s 5 s s d s s s s s g s s g f z v c E E ) ' [ | X.O.;.>.<.1.2.2.4.4.4.4.4.2.2.1.,.>.;.O.X.| [ ' ^ Q v v x z f f f s s s d s s s s 5 s s s d d s s 5 s s d s s s s d d d 5 s d s s s d s s s r 5 d s d s s d d s d s d s s s s 5 s d d d s d d s s s d s 5 s 5 s s s d d s d 5 s 5 s d d s 5 s 3 5 s 5 s 5 s s 5 s s s d d s s d s g s s g f z x c R E ' ) [ | X.O.;.>.<.1.2.2.4.4.4.4.4.2.2.1.<.>.;.O.X.| [ ' Q E E v z x f f g s s s s s 5 s s 5 s s s 5 s s s 5 s s s 5 s d d s 5 5 s s 5 s s d d s s s s 5 s 5 s s d d s d d s d d s 5 s 5 s d s d d 5 s d d ",
"d 5 5 d 5 s 5 d 5 s 5 s 5 s 5 s d d 5 d 5 d d d d 5 5 s 5 d d d d d 5 5 d d 5 5 d d 5 s 5 d s 5 5 d 5 s 5 5 s 5 s 5 s s g f g z z v R Q Q ' [  .X.O.;.>.<.1.2.2.4.4.4.4.4.2.2.1.<.>.;.O.X.|  .) Q Q R v z x g s g d g 5 d d 5 d 5 s 5 d 5 s 5 5 d d 5 5 d 5 3 5 5 s 5 d s d 5 d 5 5 d 5 5 s 5 5 5 d d 5 5 s 5 d 5 d d 5 5 s 5 s 5 s 5 d 5 s 5 d 5 5 d 5 s 5 s 5 5 5 s 5 d 5 s d d s 5 d 5 s 5 5 d d s 5 d 5 5 s 5 5 5 s d 5 s d d s g g f g z x v R ^ Q ' | | X.O.;.>.<.1.2.2.4.4.4.4.4.2.2.1.,.>.;.O.O.| [ ' ) ! E v z x f g s g s d s 5 s 5 s s 5 5 5 s 5 5 d d 5 5 d d s 5 d s 5 d s 5 s 5 s d d 5 d 5 d d d s 5 5 s 5 d d d 5 s 5 5 s 5 r 5 d 5 d d s 5 5 s ",
"5 5 s 5 5 5 5 5 5 s 5 5 5 5 5 5 5 5 5 5 5 5 5 5 5 d 5 5 5 5 s 5 5 5 3 5 5 5 5 5 5 5 5 5 5 5 3 5 5 s 5 5 5 5 3 5 s d s d g g f g x v v Q ) ' [ | X.-.;.>.,.1.2.2.3.4.4.4.3.3.3.1.>.>.;.-.X. .[ ' ^ Q v v x g f g g d d d d s d 5 5 s 5 5 5 5 5 5 5 5 5 3 5 5 5 5 5 5 5 5 5 d 5 s 5 5 5 5 5 5 5 5 5 d 5 5 5 s 5 5 5 5 5 5 s 5 5 5 5 d 5 5 5 s 5 5 5 5 5 5 5 5 5 5 5 d 5 5 5 s 5 5 5 5 3 5 5 5 5 5 5 5 5 5 5 5 5 5 5 s 5 5 5 s 5 s d g d d g f x z v E E Q ' [  .X.O.;.>.<.1.2.2.3.3.4.3.3.3.2.,.,.>.;.-.X.| [ ' ^ Q E v x f g f g d d d d d 5 5 5 5 5 5 5 5 3 5 5 5 5 s 5 5 5 5 5 5 5 s 5 5 5 5 5 5 5 5 5 5 5 5 5 5 5 5 5 5 d 5 5 5 5 5 5 5 s 5 5 5 5 5 5 5 5 5 1 ",
"5 5 5 5 5 5 5 5 5 5 5 5 5 5 5 5 5 5 5 5 5 5 5 5 5 5 5 5 5 5 5 5 5 5 5 5 5 5 5 5 5 5 5 5 5 5 5 5 5 5 5 5 5 5 5 5 5 s 5 g d g g g x v E E ^ ' [  .X.O.;.>.<.1.2.2.4.4.4.4.3.2.2.1.<.>.;.O.X.| [ ' ' E E v x x g g g d d d 5 5 5 5 5 5 5 5 5 5 5 5 5 5 5 5 5 5 5 5 5 5 5 5 5 5 5 5 5 5 5 5 5 5 5 5 5 5 5 5 5 5 5 5 1 5 5 5 5 5 5 5 5 5 5 5 5 5 5 5 5 5 5 5 5 5 5 5 5 5 5 5 5 5 5 5 5 5 5 5 5 5 5 5 5 5 5 5 5 5 5 5 5 5 5 5 5 5 5 5 d d d g g g g x v v ^ ' ' [ | X.-.;.>.<.1.2.3.3.3.3.4.3.3.1.1.,.>.;.O.X.|  .' Q E m v x x g g d g d d 5 d 5 5 5 5 5 5 5 5 5 5 5 5 5 5 5 5 5 5 5 5 5 5 5 5 5 5 5 5 5 5 5 5 5 5 5 5 5 5 5 5 5 5 5 5 5 5 5 5 5 5 5 5 5 5 5 5 5 5 5 ",
"5 5 5 8 5 5 6 5 5 5 5 5 5 8 5 5 5 5 5 8 5 5 5 5 5 5 8 5 5 5 5 5 5 8 8 5 5 5 5 5 5 5 5 5 5 5 5 8 5 5 5 5 5 5 5 5 h d 5 d d g g x x x m E Q '  . .X.O.;.>.,.1.1.3.3.4.3.3.3.3.2.,.<.>.;.O.X.| [ ' ' E m v x g g g d h d d 5 5 5 5 6 5 5 5 5 5 5 5 5 5 5 5 5 5 5 5 5 5 5 5 5 5 8 5 8 5 8 5 5 5 5 5 5 5 8 5 5 5 5 5 5 8 8 8 5 5 5 5 5 8 5 5 5 5 5 5 5 5 8 5 5 5 8 5 5 8 5 5 5 5 5 5 8 5 5 8 5 5 5 5 5 5 5 5 5 5 5 8 5 5 5 5 5 5 5 5 5 5 d d d g g x x E E ^ ' [  .X.-.;.>.<.1.2.2.3.4.4.4.3.2.2.1.,.>.;.O.X. .[ ' ^ ^ E x x g g d d d 5 5 5 5 5 5 5 5 5 5 5 5 5 5 8 5 5 5 8 5 5 6 5 5 5 5 5 5 8 5 5 5 5 5 8 5 5 5 5 5 8 5 5 5 5 5 5 5 8 5 5 5 5 5 8 5 5 5 5 5 5 8 5 ",
"6 8 8 8 6 5 6 5 6 6 8 8 8 8 6 8 8 8 8 8 8 8 6 5 8 8 8 8 6 8 8 6 8 8 8 8 8 8 8 6 6 8 8 8 8 6 8 8 6 6 6 5 6 8 8 5 8 8 8 d h d k g b v ! ! ^ ' [ | X.-.;.>.,.1.2.2.3.4.3.3.3.2.2.1.1.:.;.-.X. .{ ' ^ ! v v x g g h d 8 5 8 5 8 8 6 8 5 8 8 5 6 6 8 6 8 8 6 8 8 6 8 8 8 6 8 6 8 6 8 8 8 8 8 5 8 8 8 8 8 8 6 6 6 8 8 8 8 8 6 6 8 6 8 8 8 6 8 6 8 6 8 8 8 6 5 5 8 8 8 8 8 6 8 6 8 6 8 8 8 8 8 8 8 6 8 5 6 6 5 6 5 8 5 6 8 6 8 6 8 5 5 5 h h d d k x b v m ^ ^ ' {  .X.O.;.>.,.,.2.3.3.4.4.4.4.3.2.2.,.>.;.-.X. .[ ' ^ E m m x g k d h h 5 5 8 5 8 6 8 8 8 8 8 8 6 8 8 6 8 8 8 5 6 8 5 6 6 5 6 8 8 6 8 8 8 8 8 8 8 6 5 8 8 8 8 6 8 8 8 8 8 6 8 8 8 8 8 5 6 8 8 8 6 6 8 ",
"6 6 6 6 6 6 6 6 6 6 6 6 6 6 6 6 6 6 6 6 6 6 6 6 6 6 6 6 6 6 6 6 6 6 6 6 6 6 6 6 6 6 6 6 1 4 7 6 6 6 6 6 6 8 8 6 8 8 8 h h h d k b x m ! ^ ' '  .X.-.;.:.,.1.2.3.3.4.4.4.3.2.2.1.,.>.;.O.X. .[ ' / E m x g k g h h h 8 8 6 6 6 6 6 6 6 6 6 6 6 6 6 6 6 6 6 6 6 6 6 6 6 6 6 6 6 6 6 6 6 6 6 6 6 6 6 6 6 6 6 6 6 6 6 6 6 6 6 6 6 6 6 6 6 6 6 6 6 6 6 6 6 6 6 6 6 6 6 6 6 6 6 6 6 6 6 6 6 6 6 6 6 6 7 6 6 6 6 6 6 6 6 6 6 6 6 6 5 6 6 8 h h h d k x b m E / ' ]  .X.-.;.:.,.1.2.3.3.4.4.4.3.3.2.1.,.>.;.-.X.| { ' ^ E m x b k g h 8 8 8 8 8 6 6 6 6 6 6 6 6 6 6 6 6 6 6 6 6 6 6 6 6 6 6 6 6 6 6 6 6 6 6 6 6 7 6 6 6 6 6 6 6 6 6 6 6 7 6 6 6 6 6 6 6 6 6 6 6 7 6 6 6 ",
"7 7 7 7 7 7 7 7 7 7 7 7 7 7 7 7 7 7 7 7 7 7 7 7 7 7 7 7 7 7 7 7 4 4 7 7 7 7 7 4 7 7 7 7 7 7 7 7 7 7 7 7 7 7 4 6 6 6 6 6 8 8 h k k b m ! ^ ' {  .X.-.;.>.,.1.1.3.3.4.4.4.3.3.1.1.,.>.-.-.=. .{ ] ^ m m b k k h h 9 8 6 6 6 6 6 6 7 7 7 7 6 7 6 4 7 7 7 7 7 7 7 7 7 7 7 7 7 7 7 7 7 7 7 7 7 7 7 7 7 7 7 7 7 7 7 7 7 7 7 7 7 7 7 4 7 7 7 7 7 7 7 7 7 7 7 7 7 7 7 7 7 7 7 7 7 7 7 7 4 4 7 7 7 7 7 4 7 7 7 7 4 4 6 4 6 7 7 7 6 7 7 6 6 6 6 8 h h k k b m ! ^ ' {  .X.-.;.>.,.<.2.3.3.4.4.4.3.2.2.2.,.:.;.=.=. .{ ' ^ ~ m b k k h h h 5 6 6 6 6 6 6 7 7 7 6 7 7 4 7 7 7 7 7 7 7 7 7 7 7 7 7 7 7 7 7 7 7 7 7 7 7 7 7 7 7 7 7 7 7 7 7 7 7 7 7 7 7 7 7 7 7 7 7 7 7 4 7 7 ",
"4 4 4 4 4 4 4 4 4 4 4 4 4 4 4 4 4 4 4 4 4 4 4 4 4 4 4 4 4 4 4 4 4 4 4 4 4 4 4 4 4 4 4 4 4 4 4 4 4 4 4 4 4 4 4 4 7 7 6 9 9 h h k k b m ! ~ ] ]  . .-.-.:.,.1.2.3.4.4.4.4.3.3.3.1.,.>.;.-.X. .' ] ^ ~ m b k k h 9 6 9 9 6 7 7 7 7 4 4 4 4 4 4 4 4 4 4 4 4 4 4 4 4 4 4 4 4 4 4 4 4 4 4 4 4 4 4 4 4 7 4 4 4 4 4 4 4 4 4 4 4 4 4 4 4 4 4 4 4 4 4 4 4 4 4 4 4 4 4 7 4 4 4 4 4 4 4 4 4 4 4 4 4 4 4 4 4 4 4 4 4 4 4 4 4 4 4 4 4 4 7 7 7 7 6 9 9 9 h k k b m ! ^ ' { { X.O.;.:.,.1.2.2.3.4.4.4.4.2.3.1.,.>.;.O.X. .{ ' ^ ! m b k h h 9 6 6 6 7 4 7 7 7 4 4 4 4 4 4 4 4 4 4 4 4 4 4 4 4 4 4 4 4 4 4 4 4 4 4 4 4 4 4 4 4 4 4 4 4 4 4 4 4 4 4 4 4 4 4 4 4 4 4 4 4 4 4 4 4 4 ",
"A A A A A A A A 4 A A A A A A A 4 S 4 4 A A A A A A A A A A A A 4 S 4 S 4 4 S 4 4 S 4 4 A A A A 4 A 4 A 4 4 4 4 G 4 7 7 9 9 9 j l b n ! ~ ' {  .=.-.;.>.,.1.1.3.4.4.4.4.3.3.1.1.,.:.;.-. . .{ / ^ M b n k j 9 9 9 7 G 7 7 A A A 4 4 4 S 4 S 4 S A A 4 S 4 S 4 S A A A A A A A A A A A A A 4 A A A A A A A A A A 4 4 B 4 4 4 S 4 A 4 A A A A A A A A A A A A A A A A A A A A A A 4 S 4 S 4 4 S 4 4 S 4 4 4 S 4 A A 4 A 4 A A 4 4 G 7 7 6 9 j j l b n m ~ / {  .=.=.;.>.,.1.3.2.3.4.4.4.4.3.,.,.,.>.-.-.*.{ { / ~ ~ b n k j j 9 9 4 4 4 4 4 4 4 B 4 4 4 4 S 4 4 4 A A A A A A A A A A A A A A A A 4 S 4 4 4 A A A A A A A A A A A A A A A 4 A A A A A A A 4 4 Z 4 ",
"Z 4 4 4 4 B 4 B 4 B 4 B 4 4 S S Z S S S S S S S S S 4 S S S 4 B 4 Z S 4 Z S A S S S S S Z A Z A S S S S S S S A A 4 H G G 9 9 j k l n ~ $.$.%.&.*.=.=.:.,.,.,.3.4.4.4.4.3.3.,.,.,.:.:.=.*.&.&.$.~ ~ n k l j 9 9 G 7 A A A A S S A S S S Z 4 4 Z 4 B 4 B 4 4 S S S S S S S S S S S S S S S S S S 4 4 B 4 B 4 4 B 4 4 4 B 4 4 B 4 S S S S S S S S S S S S S S S S S S S S S S 4 Z S S S S 4 Z S 4 B 4 4 4 B 4 4 B A Z A A A Z A A A A 4 7 7 9 j l l n ~ ~ ' ]  .=.*.:.:.,.,.3.3.3.4.4.3.3.3.3.3.,.:.-.-.=. .] ] ~ M n n j j 9 9 G G A A A A S A S S A S S S S 4 S 4 S 4 S S S S S S S S S S S S S Z S S S S S 4 Z S 4 B S S 4 4 Z 4 B 4 4 B 4 B 4 4 B 4 4 4 B Z 4 ",
"B B B B B 4 B 4 B 4 B 4 B B B 4 Z Z S B Z S Z Z S B B 4 B S 4 B Z S B S S B Z S Z Z Z Z Z Z Z Z Z Z Z Z Z Z S F S S S A H 7 J L j l n M #.%.%.*.*.*.:.:.,.,.3.3.3.4.4.3.3.3.3.:.,.:.:.=.*.&.&.$.~ M n l l 9 J G G G A S S F S Z Z Z Z 4 Z B B 4 B 4 B 4 B B B 4 Z Z Z Z Z Z Z Z Z Z Z Z Z Z Z Z B S B 4 B B 4 B B B 4 B B 4 4 B Z Z Z Z Z Z Z Z Z Z Z Z Z Z Z Z Z Z Z Z Z Z Z Z Z Z S B Z S B S S B B 4 S B B S Z Z Z Z Z Z A Z Z A S 4 G J j j l n M ~ / ] { =.=.:.:.,.,.,.3.3.4.4.3.3.,.3.,.,.:.;.=.*.{ &./ ~ M n l j j J G G H A S S S S Z Z Z Z Z Z Z S B Z B Z B S Z Z Z Z Z Z Z Z Z Z Z Z Z Z Z Z Z Z S B 4 B B 4 B B Z B 4 B B 4 B 4 B B 4 B B B B S 4 B ",
"B B B 4 B B B B B B B Z B B B B B Z B B Z B B B B B Z B B B B B B Z B B B B Z B B Z B B B Z Z B B Z Z D Z D D D Z S S S A G J J L l I U $.$.%.&.*.-.:.:.,.,.3.3.3.3.4.3.3.3.3.,.,.:.:.=.=.&.%.$.~ M I L L J G G A S S S F D D D B Z Z B B B B B B B B Z B B B B Z B B Z B Z B Z B B Z B B Z B B B S B B B B 4 B B B B B B B B B B Z B B Z B B Z B B Z B B Z B B B Z Z B B B B Z B Z B B B Z B B B B B B B 4 B B Z B Z Z Z Z Z Z Z A 4 4 H J J j P n U #./ ] *. .=.:.:.,.3.3.3.3.4.4.3.3.3.3.,.,.,.-.-. .&.%.$.$.M I l j J J H A S S F F Z Z D Z Z B B Z Z B B B B B B Z B B B Z B B B Z B Z Z B B B Z B B Z B B B S B B B B B 4 B B B B Z B B Z B S B B B B 4 B ",
"B B B B B B B B B B B B B B B B B B B B B B B B B B B B B B B B B B B B B B B B B B B B B B B B B B B B B D D D D Z F S A H H K L P I U #.$.%.*.*.=.:.:.:.3.,.3.3.3.3.3.3.3.3.,.,.:.:.*.*.&.&.$.#.U I P L J G H S Z F F D D D D B B B B B B B B B B B B B B B B B B B B B B B B B B B B B B B B B B B B B B B B B B B B B B B B B B B B B B B B B B B B B B B B B B B B B B B B B B B B B B B B B B B B B B B B B B V B D D D D Z Z B 4 H G J L L I U $./ %.&.*.*.:.:.:.,.,.3.3.4.4.3.3.3.,.3.,.:.;.-.*.&.&.$.#.M n L L J G H A F F D D D B B B B B B B B B B B B B B B B B B B B B B B B B B B B B B B B B B B B B B B B B B B B B B B B B B B B B B B B B B B ",
"B V B V V V B V B B V V V V B V B B V V V V V V V V V V B V V B V V V V V V V V B V V V V V V V V B V B D C D D B D D F F H H H J L I U #.$.%.&.*.=.:.:.,.3.3.3.4.4.3.3.3.3.3.,.,.:.:.=.*.{ %.$.#.U P L K K H F F F D D D V B B B V B V V V V V B B V V V V B V V V V V V V V V V V V V B V V B V V B V B V V V B B V V V B V V V V V V V V V V V V V V B V V B N V V V V V V N B B V V V V V V V V V V B V V B V V B V B B B B D D F F A H K L P P U #.$.%.&.*.=.:.:.:.3.:.4.3.4.4.4.3.3.,.,.:.:.-.-.*.&.%.$.#.U P L L K H H S D D D D B B B B B V V B V V V V B V V V N V V V B V V V N V V V V V V V B V V V V V V V V V V V V V V V B V B V V V B V V V V V ",
"B B N V N N N N B V V V N N N N N V N N N V N N V V N N B V N N N N V N V V N N V V V N V V V N V N V N C D C D B D D D F F H K J L I U #.$.%.&.*.-.-.:.:.,.,.3.4.4.4.4.3.3.3.,.,.:.-.=.*.&.%.$.#.U P P L K H H F D D D D V B V V V V V N N V V B V V V N N N N N N N N V V N N V N N N V V N V N N N N N N V N V V N N V N N N V V N N N V N N V N N N V V N V N N N V V V N N V N N N V V N N V N V N N V N V V V V V V V B B D D D F S H H K L P I #.$.%.&.*.=.:.:.,.:.3.3.3.4.4.4.3.3.3.,.,.,.-.=.*.&.%.$.#.I P P K H H S F F D D V B V V V V V N V V V N N V V V V N N V N V V V V N N V N V V N N V V V V N N V V V N V N V N V N V V N V N N N N V N V N ",
"N C N N C C C C N C N N C C C N N N N N N N N N N N C C N N N N C N N N N N N N C C N C N N C N N N N N C C C B C D D D F F F K L L P I #.$.%.&.*.=.:.:.,.3.,.3.3.4.4.4.3.3.,.,.,.:.:.=.*.&.%.$.#.I P L K H F F F D D D V V V V V N N N N N C C N N N N C C C N N N N N N N N N N N N C N N N N C C C N N N C N V N N C N N C C N N N N N N N N N N N C N N N N N N N N N N N N N N N N N N N N N N C C N N N N N N N V V V B V B B D F F H K K P P U #.$.%.&.*.*.:.:.:.:.3.3.4.4.4.3.3.3.,.3.,.:.-.-.*.&.%.$.#.U P L K H H F F D B B B V V V V N N N N N N N N N N N N C C N N N N N N N N N N N N N C N N N N C C N N N N C C N N C C C N N N C C C N N N C C ",
"C C C N C C C C C C C C C C C C N N N N N N N N N N C C C C N N C C C C N N C C C C C C C C C C N N N N C B C C B C D D F F H H K L P I #.#.%.&.*.=.-.:.:.:.3.3.3.3.4.4.3.3.3.,.,.:.-.=.*.&.%.$.#.U P L K K H F F D B C V V V C N N N N C C C C C C C N C C C C N N N N N N N C N N C C C N N N C C C C C C C C N N C C C C C C N N N N N N N N N N C C C N N N C N N N N N N N N N N C N N C C N N C C C C N N C C C N V V V V B B D F F F K K L P I U $.%.&.*.*.=.:.3.3.:.3.4.4.4.3.3.3.3.,.,.:.-.=.*.&.%.$.U I P P K H H F F D B B B V C C V N N N N N N N C C N N N C C C C C N N N C N N N N N C C N N N N C C C C C N C C C N C C C C N N C C C C C N C C ",
"C C N C C C C C C C C C C C C C C C C C C C C N N C N N N C C C N N C C C C N N C N N N C N N N N N N N N N V V B B D D F F F K K L P I #.$.%.&.*.=.:.:.:.,.,.3.3.4.4.4.3.3.2.2.,.:.-.=.*.&.%.$.#.I P P K H H F B B B V V V V N N N N N N N N C C C C C C C C C C C N N C N N N N N N N N N N C C C C C C C N C C C C N C C N N C N N N C N N N N N N N N N N C N N N N C C N N N N N N N N N N C C C C N N N C C C N N V V V V V V F F F H K K L P I #.$.%.&.*.=.:.:.:.3.3.3.3.3.4.4.4.3.3.,.:.:.-.=.*.&.%.$.#.I P L K K H F F D D B B C C C C N N N N C C N N C C N N C C C C N N N N C C N N N C C C N C C C C C C C C C C C C C C C N N C C C C C C C C C C ",
"C C N N N C C C N N N C C C N N C N N N C N N N C N N N N N C C N N N N C C N N N N N N N N N N N N N N V N V V C B B D F F H H K L P U #.$.%.&.*.=.:.:.:.3.3.3.3.4.4.3.3.3.2.,.,.:.:.=.*.&.%.$.#.U P L K K H F 4 Z B B B V V V N N N N N N N N N N N C C C N N N N N N N N N N N N N N N N C N N N N C C C N N C N N N C N N N N N N N N N N N N N N N N N N N N N N N N N N N N N N N N N N N N C C C N N N N N N N N V V V V D D V F F H H K P P I #.$.%.&.*.*.:.:.3.:.3.3.3.3.3.3.4.3.,.3.:.:.:.=.*.&.%.$.#.I P L K K F F F D D B C B B C C N N N N N N N N C C N N N N C C N N N N C N N N N N C C N N N C C C C C N N N C N N C C N N N C C C C C N N C N ",
"N V N V N N N N N V V B N V N N N N N V N N V N N N V V N V N N V V V V N V N V N N V V N N V V N N V V V V V B B D D D F F K K K L P U #.$.%.&.*.=.-.:.,.3.3.,.3.3.3.3.3.2.2.,.,.:.-.-.*.&.%.$.#.U P L K H H H Z B D B B B V V V V V V V V N N N V V B N V N N N N V V N N V N N N V V V N N N V V V V N V N V N N N V N N V V N N V V N N V N N N V V V N N N V V V V N N N V N N V N N N V V V N N N V V V V V V N V V V V B B B F F F H K J P P U #.$.%.&.*.=.:.:.:.:.3.3.3.4.4.4.3.3.3.,.,.:.-.=.*.&.%.$.#.U P L K K H F F Z B B B B C B B N V V V N N V V N N V V V V N N N V N V N N N V V N N N N V V B V V N N N V N N V V N N N N N V N N N N V V V B ",
"V V V V V B V V B V B B V V V B V V V B V V V B V V V V V V V V V V V B V V V V V V V V V V B B V B V B V B B B D D D F F F H K L P P U #.$.%.&.*.=.-.:.,.,.3.3.3.3.3.3.3.2.3.,.,.:.-.=.*.&.%.$.#.U l P L K H F A Z Z D B B B B B V V V V V V V B V B B V V V B V V V V V V B B N V V V V V V N V V B B V V V V V V V B V V B B V V V V V V B B N V V V V V V N V V V B V V V V V V V V V V V V V B V V V B V B V B V V B B B B D D F F A H K J L P U #.$.%.{ *.=.:.:.:.3.:.3.3.4.4.4.3.3.,.,.,.:.:.-.*.&.%.$.#.U I L L K K F F Z Z Z B B B B C V V V B V V V B V V V V V V V V V B V B N V V V V V V V V B V B V V V V V B V V V V V V B V V B V B V V V V B B ",
"B B B B B B B B B B B B B B B B B B B B B B B B B B B B B B B B B B B B B B B B B B B B B B B B B B B B B B B Z D Z Z F S H G J L L n M #.$.%.*.*.-.:.:.:.3.3.3.3.3.4.4.3.2.1.,.,.:.-.=.*.&.%.$.~ M P L L J G H S S F D D D B B D B B B B B B B B B B B B B B B B B B B B B B B B B B B B B B B B B B B B B B B B B B B B B B B B B B B B B B B B B B B B B B B B B B B B B B B B B B B B B B B B B B B B B B B B B B B B B B Z F F S A H H J L P P U ~ $.] &.=.*.:.:.,.:.:.3.3.4.4.4.3.3.1.1.,.:.:.=.*.&.] / U U P l L K H H S S Z Z B Z B B B B B B B B B B B B B B B B B B B B B B B B B B B B B B B B B B B B B B B B B B B B B B B B B B B B B B B B B B B ",
"B 4 B B B B S B Z B B B B B B B B B B B B B 4 B S B B B B B B Z B B Z B B Z B B B B B B B B Z B Z B Z B B Z B S Z S S A A H J J j P n M $.$.%.&.*.=.:.:.:.,.,.,.3.3.4.4.3.3.2.,.,.:.:.-.*.&.&.$.~ M n P L J J G A A S Z Z Z Z D D D D Z Z B B Z B B B B S B B B B B S B S B B B B Z B B Z B Z B B B B Z 4 B B B B B S B S B B B B B Z B B B Z B B Z B B Z B Z B B B Z B B Z B B Z B Z B B B Z B B B B B 4 B B B Z B Z B Z Z Z Z F F S A H J L j L I M ~ / %.&. .*.:.:.,.3.3.3.3.4.4.4.4.2.2.1.,.:.-.=.*.*.%./ ~ M n l L K H G H B 4 S Z Z Z Z B B B Z Z 4 B B B S B B B B B Z B B B Z B B B Z B B B B B B Z B B B B 4 B B B 4 B B B B B 4 B B B B B B B Z B B B ",
"B 4 S B B B B 4 B B 4 B 4 B B 4 B S 4 B S B B B B 4 B S B B S S B S S B S Z Z Z Z Z 4 B Z Z B B 4 B B B 4 B 4 Z S S A A G G J j j l n M ~ / %. .*.-.:.:.,.3.3.3.3.4.4.4.3.3.3.1.,.:.-.-.*.*.%.$.~ M n l j 9 J G H A A S A Z Z Z Z Z Z Z Z Z Z Z B S S B S B B S S B S B B B Z Z S Z Z Z Z Z Z Z 4 B B B B 4 B B 4 B S B B B S B S B S Z B S Z Z Z Z Z Z Z Z Z Z Z Z Z Z Z Z Z Z Z Z Z Z Z Z Z Z 4 B B B B B 4 B Z Z Z Z Z Z A Z S A H H 7 9 L j I n M ~ / ]  .=.:.=.:.,.3.:.3.3.4.4.3.3.2.2.1.,.:.;.-.*.{ { / ~ n n l j j J G G 4 Z S S S Z S Z Z Z Z Z B B 4 B S B B S B B S Z Z Z Z Z S Z Z Z S Z Z Z S B S B 4 B S B S B 4 B 4 B 4 B B B B 4 4 B B B 4 B 4 B ",
"B 4 B 4 4 4 B 4 4 B 4 B 4 4 B 4 4 B 4 4 B 4 4 4 B 4 S S 4 4 S S S Z 4 S Z 4 Z Z 4 B 4 4 B 4 4 4 Z 4 4 S S S S 4 A A H 7 G 9 9 j j n n m ~ / ] *.*.=.-.:.:.,.3.3.3.4.4.4.3.3.1.<.,.:.;.-. . .] %.~ M m l l j 9 9 7 7 4 H A A A Z A A Z A A Z A Z 4 B 4 S S 4 S Z 4 S S 4 4 S S S S S S S S S S S B 4 4 S 4 B 4 S S B 4 4 4 B 4 S 4 S S S S S S S Z 4 S S S S S S S S S S S S S S S S S S S S S S B 4 4 4 4 Z Z 4 4 Z S A A A A A A A G 7 9 J j j l n ! ~ ] ] { =.=.:.:.:.:.3.3.3.3.4.3.3.3.,.1.,.:.-.-.=. .] ' ~ ~ n n j j 9 9 G 4 4 4 A A A S Z 4 S Z 4 4 B 4 B 4 4 S S 4 4 S S S S S S S S S S S S S S 4 S S S S S 4 B 4 B 4 B B 4 B 4 4 4 4 B S S 4 4 B 4 B 4 ",
"4 4 4 Z A A 4 A A A 4 A A A A A A A A A A A A A A A A A 4 4 S 4 S 4 S 4 4 4 S 4 S 4 4 4 4 S 4 S 4 4 S 4 4 S 4 4 4 4 4 7 9 9 h j k n b ~ ~ / {  .X.-.-.>.,.1.2.3.3.4.4.4.3.3.2.,.,.>.;.=.=.{ { ' ~ ! n b k j 9 9 9 6 7 G 4 A A A 4 4 4 S 4 S 4 4 S 4 4 S 4 4 4 S 4 S 4 4 S 4 S 4 A A A A A A 4 A A A A A 4 A A A A A 4 S 4 S 4 S A A A A A A A A 4 A A A 4 S 4 S 4 S 4 4 S 4 S 4 A A A A A A 4 A S 4 S 4 S 4 S 4 A A A 4 A A 4 A G 7 6 9 9 j h l b n m ^ / {  . .=.:.:.,.,.,.3.3.3.4.4.3.3.1.1.,.:.;.=.X. .] ] ~ ! b n k j 9 9 9 6 G 7 A A 7 A A A A 4 A 4 4 S 4 4 S 4 4 S 4 S 4 A A A A A A A A S 4 S 4 A A A 4 A A A A A A A A A 4 A A A A A A A A A A A A A A ",
"4 4 4 4 4 4 4 4 4 4 4 4 4 4 4 4 4 4 4 4 4 4 4 4 4 4 4 4 4 4 4 4 4 4 4 4 4 4 4 4 4 4 4 4 4 4 4 4 4 4 4 4 4 4 7 4 4 7 6 6 9 9 h h k b m m ^ / '  .X.O.;.:.,.1.2.3.3.4.4.4.3.3.2.1.,.:.;.-.X. .{ / ^ m m b k k h 9 6 9 6 9 7 7 7 7 4 4 4 4 4 4 4 4 4 4 4 4 4 4 4 4 4 4 4 4 4 4 4 4 4 4 4 4 4 4 4 4 4 4 4 4 4 4 4 4 4 4 4 4 4 4 4 4 4 4 4 4 4 4 4 4 4 4 4 4 4 4 4 4 4 4 4 4 4 4 4 4 4 4 4 4 4 4 4 4 4 4 4 4 4 4 4 4 4 4 4 7 7 7 7 7 7 6 9 9 9 j h k b m ! ~ ' {  .=.=.:.:.,.3.3.3.3.4.4.4.3.3.3.1.,.:.;.-.=. .{ / ^ ! m b k h h 9 9 6 9 7 7 7 7 7 4 4 4 4 4 4 4 4 4 4 4 4 4 4 4 4 4 4 4 4 4 4 4 4 7 4 4 4 4 4 4 4 4 4 4 4 4 4 4 4 4 4 4 4 4 4 4 4 4 4 4 4 4 4 4 4 4 ",
"7 7 7 7 7 7 7 7 7 7 7 7 7 7 7 7 7 7 7 7 7 7 7 7 7 7 7 7 7 7 7 7 6 4 4 4 7 7 7 7 4 7 7 7 7 7 4 7 4 6 6 7 7 7 6 6 6 6 6 8 6 h h k b b m ! ^ ] {  .*.O.-.>.,.1.1.3.4.4.4.4.3.3.1.1.<.;.;.-.X.{ { ' ^ ! m b k k h h 9 6 6 6 6 7 7 7 4 6 7 7 7 7 7 7 7 7 4 7 7 7 7 4 4 7 7 7 7 7 4 4 7 7 7 7 7 7 7 7 7 7 7 7 7 7 7 7 7 7 7 7 7 7 7 7 7 7 7 7 7 7 7 7 7 7 7 7 7 7 7 7 7 7 7 7 7 7 4 4 7 7 7 7 7 7 7 7 4 6 4 6 7 6 7 7 7 7 6 7 7 7 6 6 6 6 9 8 d h k g b m ! ^ ] '  .X.:.-.:.:.,.3.3.3.4.4.4.3.3.3.1.,.>.-.X.X. .' ' ^ ! m x k k h h 8 6 6 6 6 7 6 7 6 7 7 7 7 7 7 7 7 4 7 7 7 7 7 4 4 7 7 7 7 7 7 7 7 7 7 7 7 7 7 7 7 7 7 7 7 7 7 7 7 7 7 7 7 7 7 7 7 7 7 7 7 7 7 7 7 ",
"6 6 6 6 6 6 6 6 7 6 6 6 6 6 6 6 6 6 6 6 6 6 6 6 6 6 6 6 6 6 6 6 6 6 6 8 6 6 6 6 7 6 6 6 6 6 6 6 6 6 6 6 6 6 6 8 6 8 8 5 h d k g x b v ! ^ ' [  .X.-.;.>.,.,.2.2.2.4.4.4.3.2.2.1.,.:.;.-.X. .{ ' ^ ! v b k g k h d h 8 8 6 5 6 6 8 6 6 6 6 6 6 6 6 6 6 6 6 6 6 6 6 6 6 6 6 6 6 6 6 6 6 6 6 6 6 6 6 6 6 6 6 6 6 6 6 6 6 6 6 6 6 6 6 6 6 6 6 6 6 6 6 6 6 6 6 6 6 6 6 6 6 6 6 6 6 6 6 6 6 6 6 6 6 6 6 6 6 6 6 6 6 6 6 6 6 6 6 6 6 8 8 8 8 5 h k k b x m ! ^ ' {  .X.*.:.:.3.3.,.3.3.4.4.4.4.1.1.1.,.>.;.-.X. .{ ' ^ ! m b x g k h d h 5 9 8 6 6 6 6 6 6 6 6 6 6 6 7 6 6 6 6 6 6 6 6 6 6 6 6 6 6 6 6 6 6 6 6 6 6 6 7 6 6 6 6 6 6 6 6 6 6 6 6 6 6 6 6 6 6 6 6 6 6 6 6 ",
"8 8 6 8 6 5 8 8 8 6 5 6 8 8 8 8 6 8 8 6 8 6 8 8 5 6 8 8 8 8 8 8 8 8 8 8 6 5 8 8 6 6 8 8 8 8 8 8 5 8 8 8 6 8 8 5 5 8 d h d h d k x b m ! ^ ' [  .X.O.;.>.,.1.2.3.4.4.4.4.2.2.2.1.<.>.;.-.X. .{ ' ^ ! m x x k d h d 5 d 8 5 8 5 6 5 8 8 8 6 6 8 8 8 8 8 6 8 8 8 8 6 8 5 5 8 8 8 8 6 8 8 8 8 6 8 8 8 8 6 5 6 8 6 8 8 6 8 5 8 6 8 8 6 8 8 8 8 6 8 8 6 5 8 8 8 8 8 8 5 6 5 5 5 6 8 8 6 8 8 8 8 6 8 8 8 6 6 8 8 8 8 6 8 8 8 8 8 5 8 8 5 9 d d d g k x m v ! ^ ' {  .X.-.-.,.,.,.3.3.3.4.4.4.3.2.2.1.>.>.;.-.X. .{ ' ^ ! m x x g k d h 8 d 8 8 5 8 6 5 5 8 5 8 8 8 6 5 8 6 8 8 8 8 8 8 8 8 6 6 6 8 8 8 8 6 8 8 8 8 8 6 5 6 8 8 8 8 8 8 6 6 8 8 6 6 8 6 5 8 8 6 6 8 8 6 ",
"5 8 5 5 8 5 5 5 5 8 5 5 5 8 8 5 5 5 5 5 5 5 5 5 5 5 5 5 8 5 5 5 5 5 5 5 8 5 5 5 5 5 5 5 8 5 8 8 5 5 5 8 5 5 5 5 5 d 8 d d d g x x v E ! Q ' [  .X.-.;.>.,.1.1.3.2.4.4.4.4.2.2.<.,.>.;.O.X.| [ ' ^ E E x x g g d d h d 5 5 5 5 5 5 5 5 8 5 5 5 5 8 8 5 5 5 5 5 5 5 6 5 5 8 5 8 8 5 5 5 8 5 5 5 5 5 5 5 5 5 5 5 5 5 5 5 5 5 5 5 5 5 5 5 8 5 5 5 8 8 5 5 5 5 5 5 5 5 6 5 5 5 8 5 5 5 5 5 8 5 5 5 8 5 5 5 5 5 5 5 5 5 5 5 5 5 5 5 5 d d d h d g g x x E Q ^ ' [ | X.O.:.:.,.,.3.3.3.4.4.4.3.2.2.1.<.:.;.O.X.| ' ' ^ Q v v x g g g d d 5 d 8 5 5 5 5 5 8 5 5 5 5 5 5 5 5 5 5 8 5 5 8 5 5 5 5 5 5 8 5 5 5 8 5 5 5 5 5 5 8 5 5 8 5 5 8 5 5 5 5 5 5 5 5 5 6 5 5 5 5 5 5 ",
"5 5 5 5 5 5 5 5 5 5 5 5 5 5 5 5 5 5 5 5 5 5 5 5 5 5 5 5 5 5 5 5 5 5 5 5 5 5 5 5 5 5 5 5 5 5 5 1 5 5 5 5 5 5 5 5 d d d d g g g g x x R E ' ' [ | X.-.;.>.<.1.1.3.4.4.4.4.4.2.2.1.>.>.;.O.X.| [ ' ' ^ v v x x g g g d d 5 5 5 5 5 5 5 5 5 5 5 5 5 5 5 5 5 5 5 5 5 5 5 5 5 5 5 5 5 5 5 5 5 5 5 5 5 5 5 5 5 5 5 5 5 5 5 5 5 5 5 5 5 5 5 5 5 5 5 5 5 5 5 5 5 5 5 5 5 5 5 5 5 5 5 5 5 5 5 5 5 5 5 5 5 5 5 5 5 5 5 5 5 5 5 5 5 5 5 5 5 5 d g d g g g x v v E ^ ' [  .X.O.;.:.,.,.3.2.3.4.4.4.3.2.2.1.<.>.;.-.X.| [ ' ) E E v x x g g d 5 s 5 5 5 5 5 5 5 5 5 5 5 5 5 5 5 5 5 5 5 5 5 5 5 5 5 5 5 5 5 5 5 5 5 5 5 5 5 5 5 5 5 5 5 5 5 5 5 5 5 5 5 5 5 5 5 5 5 5 5 5 5 5 ",
"5 1 5 5 5 5 5 5 5 5 r 5 5 5 5 5 5 s 5 5 5 5 5 d 5 5 5 5 5 5 5 5 5 5 5 5 5 5 5 5 5 5 5 s 5 5 5 5 5 5 5 s 5 5 5 5 d d d g g g f g x v v Q Q ' [  .X.O.;.>.,.<.2.3.4.4.4.4.4.2.2.1.<.>.;.-.X. .[ ' Q E R v x z f g g d d s s s 5 5 5 5 s 5 5 5 5 d 5 3 5 5 5 5 5 5 5 5 5 5 5 5 5 3 5 5 s 5 5 5 5 5 5 5 5 5 5 5 5 5 5 5 5 5 5 5 5 5 5 s 5 5 5 5 s 5 5 5 5 5 5 5 5 5 5 5 5 5 5 5 5 5 5 s 5 5 5 5 s 5 5 5 5 5 5 5 3 5 5 5 5 5 d 5 s 5 d s d g g f x x v R E ' ' [ | X.O.;.:.,.2.,.3.3.4.4.4.4.2.2.1.<.>.;.O.X.| [ ' ^ ^ v v x f g s g g s s s 5 5 5 s 5 5 5 5 5 5 5 5 5 5 5 5 5 3 5 5 5 5 s 5 5 5 d 5 5 5 5 5 5 s 5 5 5 5 5 5 5 s 5 5 5 5 5 5 s 5 5 s 5 5 5 5 d 5 5 5 ",
"d 5 5 d d 5 d d 5 s 5 s 5 5 s 5 d d 5 d d 5 5 5 s 5 5 s s 5 s 5 d 5 5 d d 5 5 d s 5 5 s 5 d 5 s 5 5 s s 5 s s s d d d s f g f g x v E E ) ) [  .X.O.;.>.>.1.2.2.4.4.4.4.2.2.2.1.,.>.:.O.X. .[ ) ^ Q v c z g g g g s d d s d d d s 5 s 5 s 5 5 5 5 5 s 5 5 5 s 5 3 5 s 5 d 5 s 5 d s 5 d d 5 s 5 s 5 s 5 5 d d d 5 5 5 d d 5 s 5 d 5 d d 5 s 5 5 5 s d d 5 s s 5 5 s 5 s 5 d d 5 s 5 d d 5 d d 5 3 5 5 d 5 5 s 5 5 5 s s 5 s d s d s g s f g z x v R E Q ' |  .o.O.;.>.<.1.2.2.4.4.4.4.2.2.2.1.<.>.;.O.X.| [ ' Q E R v z z f g f s d s s 5 s 5 5 s 5 s 5 5 d s 5 5 5 s 5 d d d s 5 5 s 5 d d 5 5 3 s 5 d d s 5 d s 5 s d 5 s 5 d 5 s 5 s 5 5 d d 5 d d 5 s 5 5 s ",
"s s s d s s d d 5 s s 5 s d s s s d s d s s s d d d s 5 d s 5 s s s s 5 s s s d s s s 5 s d 5 s s s s 5 s 5 5 s s s s g s f g z z v E Q Q ' [ | X.O.;.>.<.1.2.3.4.4.4.4.4.4.2.1.>.>.+.O.X.| [ ' ) E R v v z f f g s s s s d s s 5 s 5 s s s s d s s d d s s d d 5 s s s d d d s s 5 d s d d d s d d d d s d s d s 3 s 5 s d d s s d s d d d s d s 5 s 5 s 5 s 5 3 5 5 s d s s d d s 5 s d s s d s s s 5 s s d s s s s 5 5 s d s g s s g g f z z v R Q ^ ) [ | X.-.;.>.<.<.2.2.4.4.4.4.4.2.2.1.<.>.;.O.X. .[ ' ) E E v c f g f g g s g 5 s s s s s 5 s d s 5 s d 3 s s s d d s 5 s d d s d d s s 5 s s d s 5 d s 5 s s 5 5 s s d 5 s s 5 s s 5 s s d s d d s d d ",
"s 5 s d d s d s s s 5 s s d d s s d d d d d d d s d d s s d 5 s d s d s d s s d 5 s d d s d s s s 5 5 s s 5 s s s s s f f g g z z v E E ) ' [ | X.O.;.:.>.1.2.2.4.4.4.4.2.2.2.1.<.>.;.O.X.| [ ) Q E R v z z x f s f s g s d d s 5 s s 5 5 s s s s d s d s s s d d s s s d s s d d s s d d s s d s s d s s d s d s s 5 s d s s d s d d s s s d d s d d s s d s s s s s s d d s d s d s s d d s d s s s s d s s s s 5 5 s s s s d s s f s f g x z v R Q Q ' [ | X.O.;.>.>.1.2.2.4.4.4.4.4.2.2.1.<.>.;.O.X.| | ) Q Q E v x z f f s f s s s s s s 5 s 5 5 s s s s d s 5 5 s d s d s d s s d d s s d s d d d 5 s s d 5 s 5 g s d s d s s 5 s s d s s s d d s s s d s ",
"s s d s d s s d s s s s d s s d d s s s s s s s s s s d s s s s d s s s d s d s s s s s s s d s s s s s s s s s s s s f s f f z z c R Q Q ) [ | X.O.;.>.<.1.2.2.4.4.4.4.4.2.2.1.<.>.;.O.o.| | ) Q Q R c x z f f f s s s s s s s s s s s s s s 5 s s d s s d d s s s s 5 s d s d s d s s s d s d s d s d s s d s s s s s s d s s d s s d s d s s s s s d s s s 5 s 5 s s s s d s s s d s s s d s 5 s s d s s s 5 s s s s s s s s s s s f f f z z v R E Q ) [ | X.O.;.>.<.2.2.2.2.4.4.4.4.2.2.1.<.>.;.O.X.| [ ' ) E E c z z g f f s s s s s 5 s s s s s s d s d s s s s s s d s d s d s s s d s d s s s s s d s s s s s d s s d s s s s s d s d s d s s d s d s d ",
"s d s s s s d s d s s d s s d s s s s s s s s s s s s d g 5 s s s s d s d s s d s d s s d s s d s s 5 s 5 s s s s s f s f f f z z c R Q Q ) | | o.O.+.>.<.1.2.2.2.4.4.4.2.2.2.1.<.>.;.O.X.| | ' ) E R v z z f f f f s s s s s s s s s s d s s d s d s s 5 s s s s s s s s d s s s s s s s d s s s d s s d s s d s d s s s d s s s s d s s s d s d s s d d s s g d s s d s s d s d s s d s s d s s s d s s d s s s s 5 s 5 s s s s s s f f f z x c R E ) ) [ | X.O.;.>.<.1.2.4.4.4.4.4.4.2.2.1.<.>.+.O.X.| [ ) Q Q R c x z x f f f s s s s s s s s s s s s s s d s s s s s d s s s s s s s d s s s s s s s s s d s d s s d s s d s s d s s s d s s s d s s s d s ",
"s s s s s s s s s s s s s s s s d s s d s s d s d s s s s s s s s s s s s s s s s s s d s s s s s s s s r s s s s s s f f f f z c v R E ) ) [ | X.O.;.>.<.1.2.2.4.4.4.4.4.2.2.1.<.>.;.O.X.| ` ) Q Q R c z z f f s f r s s s s s 5 s s s s s s s s s s s s s s s d s d s s s s d s d d s s s s d s s s s s s s s s s s d s s d s s d s s s s s s s s s s s s s s s s s s s s s s s s s s s s s s d s s s s s s s s s r s r s s s s s f s f z z c v R Q Q ) | | X.O.;.>.>.1.2.2.2.4.4.4.4.2.2.1.<.>.;.O.X.| [ ) ) E E c z f f f s s f s s s s s s s s s 5 s s s s s d d s s s s d d s d s s s s d s s d s s s s s s s s s s s s s d s s s s s s s s d s s s s s s ",
"s s s d s d s s s s s s d s s s s s s s s s d s s s s s s s s s s d s s s s s d s s s s s s s s s s s s s r s s s s s f f f f z z c R Q Q '  .| X.O.;.>.<.2.2.2.4.4.4.4.4.2.2.1.<.>.;.O.X.| | ) ) E R v z z f f f s f s s s s s s s s s s s s s s s d s s s s g s s s s s s s s s s s s s s s s s s s d s s d s s s s s s s s s s s s s d s s s s s s s s s s d s s s d s d s s s s s d s d s s s s s s d s s s s s s s r s s f f s f f f f z z c R E ) ) | | X.+.;.>.<.1.2.2.4.4.4.4.2.2.2.1.<.>.;.O.X.| [ ' Q Q R c c z f f f s r s s s s s s s s s s s s s s s s s s s s s s s s s s s s s s s d d s s s s s d s s s s s s s s s s s d s s s s s s s s d s s ",
"s s s s s s s s s s s s s s s s s s s s d s s s s s s s s s d s s s s s s s s s s s s s s s s s s s s s s s s s s f f s r f z f c v R E ) ) ` | X.O.;.>.>.1.2.2.4.4.4.4.4.2.2.1.<.>.;.O.X.| [ ) Q Q R c z z f f f f s s f s s s s s s s s s s s s s s s s s s s s s s s s s s s s s s s s s s s s s s s s s s s s s s s s s s s s s s s s s d s s s s s s s s s s s s s s s s s s s s s s s s s s s s s s s s s s s s s s s s s r s f f f f z z c R Q Q ) [ | X.O.;.>.<.1.2.2.3.4.4.4.4.2.2.1.<.>.;.O.X.| | ) Q Q R c z z f f f f s f r s s s s s s s s s s s s s s s s s s s s s s s s s s s s s s s s s s s s s s s s s s s s s s s s s s s s s s s s s s s s ",
"s s s s s s s s s s s s s s s s s s s s s s g s s s s s s s s s s s s s s s s s s s s s s s s s s s s s s s s s r f s f f f z z z c R Q Q ) | | X.O.;.>.<.1.2.2.4.4.4.4.4.4.2.1.,.>.;.O.X.| [ ) ) E R c c z f f f s r r r f s s s s s s s s s s s s s s s s s s s r s s r r s s s s s s s s s s s s s s s s s s s s s s s s s g s s s s s s s s s s s s s s s s s s s s s s s s s s s s s s s s s s s s s s s s s s 5 r s s r f s f f f f f z z c R Q Q ) | | X.+.+.@.@.@.2.2.4.4.4.4.3.2.2.1.<.>.;.O.o.| | ) ) E R c c z f f f f s r s s r s s s s s 5 s s s s s s s s s s f s s s s s s s s s s s s s s s s s s s s s s s s s s s s s s s s s g s s s s s s s ",
"s s s s s s s s s s s s s s s s s s s s s s s s s s s s s s s s s s s s s s s s s s s s s s s s s s s s s s s r s s s r f f f z c c R E Q ) [ | o.O.;.>.<.1.2.2.4.4.4.4.4.2.2.1.<.>.+.O.o.| | ) Q Q R c z z f f f s f 5 r 5 s r s s s s s s s s s s s s s s s s s 5 f s s 5 f s s s s s s s s s s s s s s s s s s s s s s s s s s s s s s s s s s s s s s s s s s s s s s s s s s s s s s s s s s s s s s s s s s s f s s s s s s r r f f f z c c R Q Q ) [ | X.O.+.<.1.2.2.2.4.4.4.4.3.2.2.1.<.>.+.O.X.| [ ) Q Q R v z z f f f s f s s s s s s r s s r s s s s s s s s s s s s s s s s s s s s s s s s s s s s s s s s s s s s s s s s s s s s s s s s s s s s ",
"s s s s s s s s s s s s s s s s s s s s s s s s s s s s s s s s s s s s s s s s s s s s s s s s s s f s s s s s f s s f f f f f z c E Q ) ) [ | X.O.;.>.<.1.2.2.4.4.4.4.3.2.2.1.<.>.;.O.X.|  .) ) E R c z z z f f f f s r s s s s s s s s s s s s s f s s s s s s s s s s s s s s s s s s s s s s s s s s s s s s s s s s s s s s s s s s s s s s s s s s s s s s s s s s s s s s s s s s s s s s s s s s s s s s s s s s s s r s f s f f f z z c R Q Q ) [ | X.O.+.@.1.2.2.2.4.4.4.4.3.2.2.1.<.>.;.O.X.| [ ) ) E R c c z z f f s r r s f r s s s s s s s s s s s s s s s s s s s s s s s s s s s s s s s s s s s s s s s s s s s s s s s s s s s s s s g s s s ",
"s s s s s s s s s s s s s s s s s s s s s s s s s s s s s f s s s s s s s s s s s s s s s s s s s s s s s s r s r s s r f f f z z c E Q Q ) | | X.O.;.>.<.1.2.2.2.4.4.4.3.2.2.1.<.>.;.+.X.| ` ' Q Q R c z z f f r f s r r f s s s r s s s s s s s s s s s s s s s s s s s s s s s s s s s s s s s s s s s s s s s f s s s s s s g s s s s s s s s s s s f s s s s s s s s s s s s s s s s s s s s s s s s s s s s s s s r s s s s f r f f f z z c R E ) ) | | X.O.;.@.1.@.2.2.4.4.4.3.3.2.2.1.<.>.;.O.X.| [ ) Q Q R c z z f f r f f s s s s s s s r s s s s s s s s s s s s s s s s s s f s s s s s s s s s s s s s s s s s s s s s s s s s s s s s s s s s s s ",
"s s s s s s s s s s s s s f s s s s s s s s s s s s s s s s s s s f s s s s s s s s s s s s s s s s 5 f s s r f s r f f f f f z z v R Q Q ' [ | X.O.;.>.<.1.2.2.4.4.4.4.3.3.2.1.<.>.;.O.X.| | ' Q Q R v c z f f s r f f s s r 5 r s s r s s s s s s s s s s s s s f 5 r f 5 r s s s s s s s s s s s s s s s s s s s s s s s s s s s s s s s s s s s s s s s s s s s s s s s s s s s s s s s s s s s s s s s s s s s s s s s f s s f s f f f z z v R E ) ) [ | o.+.+.>.<.2.4.4.4.4.4.4.4.2.2.1.1.>.;.O.o.| | ) ) Q R c c z z f f f s s f f r f r s s s s s s r s s s s s s s s s s s s s s s s s s s s s s s s s s s s s s s s s s s s s s s s s s s s s s s s s ",
"s s s s s s s s s s s s s s s s s s s s s s s s s s s s s s s s s s s s s s s s s s s s s f s s s r r s s s s s s s s f f f f z c c R E ) ) | | o.O.;.>.<.1.2.2.4.4.4.4.3.2.2.1.<.>.;.O.X.| ` ) ) Q R c z z z f f f s s s f r f s s s 5 s s s s s s s s s s s s s s s s s s s s s s s s s s s s s s s s s s s s s s s s s s s s s s f s s s s s s s s s s s s s s s s s s s s s s s s s g s s s s s s s s s s s s s s s s s s r s f r f f f z c c R Q Q ) [ | X.O.;.>.<.@.2.2.4.4.4.4.4.2.2.2.@.>.;.O.X.| [ ) Q E R c z f f f f f r r s s r 5 s s s r 5 s s r 5 g s s s s s s s s s g s s s s s s s s s s s s s s s s s s f g s s s s f s s g s s s s s s s s s ",
"f s s s s s g s s s s s s s s s s s s s f s s s s s g s s s s s s s s s s s s s s s s s s s s s s s s s s s s s s f f s f f z z z c R Q ) ) [ | X.O.+.>.<.1.2.2.4.4.4.4.3.2.2.1.<.>.;.O.X.| [ ) Q Q R c z z f f f s r s r s r s s s s f r 5 s s s s s d s s s s s s s s r s s r s s f s s s s s s s s s s s s s s s s s s s s s s s s s s s s s s s s s f s s s g s s f s s s s s s s s s s s s s s s s s s s s s s s s s r s s s r f f f z z z c E Q ) ) [ | X.O.;.>.<.4.2.2.4.4.4.4.4.2.2.1.<.>.;.+.X.| [ ) ) Q R c c z f f f f s f r s s s s s r r f s r s f s s s s s s s s s s s s s s s s s s s s s s s s s s s s s s s s s s s s s s s s s s s s s s s s ",
"s s s s s s s s s s s s s g s s s s s s s s s s s s s s s s s s s s s s s d f s s s g s s s s s f s s s s r s s r s s f f f f z c c R Q Q ) [ | o.O.+.>.<.1.2.2.4.4.4.4.3.2.2.1.<.>.;.O.o.| | ) ) E E c z z z f f f f s f s r 5 5 f s s r f s s s s s f s s s s s s s f 5 f s 5 f r 5 g s s s s s s s g s s s s s f s s s s s s s s s s s s s s s s s s d s s s s s s s s s g s s f s s s s s s s s s s s s f s s s s s s s s f f s s f f z z z c E Q Q ) | | X.O.;.>.<.@.2.2.4.4.4.4.4.2.2.1.<.>.+.O.X.| [ ' ) Q R c z z f f f s f s s s s r 5 f 5 s s f 5 s s s s s s s s s s s s s s s s s s s s s f g s s s s s s s s s s s s s s s s s s s s s s s f s s s ",
"s s s s s s s s f s s s s s s s s s s s s s s s s s s g s s s s s s s s s s s g 5 f 5 r s s s s 5 s f 5 s r f s s s r f f f f z c v R Q ) ) [ | X.O.;.>.<.1.2.2.4.4.4.4.4.2.2.2.@.@.@.+.X.| | ) Q Q R c c z f f f f f s s f 5 f r f 5 r s s s s s f 5 r s s s s s s s s s s f s s s s s s s s g s s s s s s s s s s s s s s s s s s s d s s s s f s s s s s s s s s s s s s g s s s s s s g s f s s s s s r s s s s r s f r f s f s f f f f z z c R Q Q ) [ | X.O.;.>.>.1.2.2.4.4.4.4.3.3.2.2.<.>.+.O.o.| [ ) Q E R v c z f f f f s s r s s r f s s s s s s s f s s s s s s s s s s s s s s s s s s s s s s s d s s s f s s g s s s s s s s s s s s s s s s s s ",
"s s g s s s s s s g s s s s s s g s s s s s s s s s s s s s s s s g s s s s s f r s s s s s s s r s s r s s s s f s s f f f f z z c R Q ) ) [ | X.O.;.>.<.2.2.2.4.4.4.4.4.2.2.@.2.@.+.O.X.| [ ) ) E R c z z z f f s f s s s r r s s s r s s s s s s s s s s s s s s s s s s s s s s s s d f s f s s s s s s s s s g s s s s s s s s s f s s s s s s s s g s s s s s s s s s s s s s s s s s s s s s s s s 5 f r 5 f r 5 5 r s s s f s f f f z c c R Q ) ) | | X.O.;.>.<.1.2.2.4.4.4.4.3.2.2.2.@.>.;.O.X.| | ' Q Q R c c z f f f s f f s f s s s s s s s s s s s s s s g s s s s s s s s s s g s s s s s s s s f s s s s s s s s s s f g s s s s s f s s g s s s ",
"s s s s d s s s s s s s s s g s f s s s s s s s s s s s s s f s s s s s s s s s s s f s s s s s s s s r s s s s s s f f f f f z c c R E Q )  .| X.O.;.>.<.1.2.2.2.4.4.4.4.2.2.2.<.>.+.+.X.| [ ) Q Q R v z z z f f s s s f s s s 5 f f 5 s s s r s s f s s s s s s s s s s s s s s s s s s s s s s s s s s s s s s s s s s s g s s s s s s s f g s s s s s s s s s s s s s s s s s s s s s s s s s s s s f s f 5 r f 5 f s s s f s r f s f f z c v R Q Q ) | | o.+.;.>.<.1.2.2.4.4.4.4.3.2.2.1.1.>.;.O.X.| | ) ) Q E v z z z f f r f f s s s s s s s s s s g s s s s s s s s s s f g s s s s s s s s s s s s s s s s s s s s s s s s s s s s s s s s s s s s s s ",
"s s s s f s s s s s s s s s s s s s s s s s s s s s s s s s g s s s s s s s s s s s s s s s s s s s s f s s s s r f s s f f z z z c R Q ) ) [ | X.+.+.>.<.1.2.2.4.4.4.4.4.2.2.2.<.>.+.O.X.| | ) ) Q E c c z f f f f s f r s s s r s s r s f s 5 s s s s s s g f s s s s s s s g s s s s s s s s s f s s s g s s s s s s s s s s s s s s s s s s s g s s s s s s s s s s s s s s s s s s s s s s s s s s s s s r r s r s s r s s s f s f f z z z c R E ) ) [ | X.O.;.>.<.1.2.2.4.4.4.4.3.3.2.1.@.>.;.O.X.| [ ) ) E R c c z f f f s f s s s s s s s s s s s s s s s s s f s s s s s s s s s s s s s s s g s f s s f d s s s s s s s s s s s s s s s g s s s s s s ",
"s s s s s s s s s s s s s s s s s s s s s s g s s s s s s s s s s s s s s f s s s s s s s s s s s s r s s f s f s f f s f f f z c v R Q Q ' [ | X.O.;.>.<.1.2.2.4.4.4.4.2.2.2.@.<.>.;.O.X.| [ ) Q Q R v c z f f r f f s s r s s r s s f 5 r s f s s s s s s s s s s s s s s s s s s s s s s s s s s s s s s s s s s s s s s s s g s s s s s s s s s s s s s s s s s s s s s s s s g s s s s s s s s s s r s s r s s f s s s s s s r f f f f z c c R Q Q ) | | X.O.+.>.<.1.2.2.2.4.4.4.3.2.2.1.<.>.;.O.o.|  .) Q Q R v z z f f f f s s s s f s s s s s f s s s s s s s f s g s s s s s s s f s s s s s s s s s s g s s s s s s s s s s s s s d f s s s s s s s s ",
"s s g s s s s s s s s s s s s s s s s s s s s f s s s s s s s s s s s s s s s s s s s s s s s s s s 5 f r 5 s r s s f r f f f z z c R E ) ' [ | o.O.;.>.<.1.2.2.2.4.4.4.4.2.2.2.<.>.;.O.o.| | ) ) E R c z z z f f f s s f s f s 5 f s r s s s r s s s s s s s s s s s s s s s s s f g s f s s s s g s s s g s s s s s s s s s f s s s s s d f s s s s s s s s s s s s s s f s s s s s s s s s s s s f s 5 f f 5 s r 5 s s f r s s f f f f f z z v R E ) ) [ | X.O.+.>.<.1.2.2.4.4.4.4.4.2.2.1.<.>.+.O.X.| [ ) ) Q R c c z f f f s f r f s s s s s s s s s s s s s s s s s s s s s s s s s s s s s s g s s s s s s s f s s s s s g s s s s s s s s s s s s s s s ",
"s s f s s s s s s s s g s s s f s s s s s s s s f s s g s s s s s d s s s s s s s s s s f s s g s s s s r f s s s s f s f f f z c c R Q ) ) | | X.O.;.>.<.1.2.2.4.4.4.4.4.2.2.2.<.>.+.O.X.| | ) Q Q R c z z f f f f s f s s r s r s s r f r s 5 s s s s f s s s f s d s s s s s s s s s d s s s s s s s f s s s s s s s g s s s s s s s s s s s s s s s s s s f s s s s s s g s s f s s s s g s s s s s s s f s f 5 s s s s s f f s f f f z z z c R Q Q ' [ | X.O.;.>.<.1.2.2.4.4.4.4.4.2.2.1.<.>.;.O.X.| [ ) ) E R c z z f f f f s s f s s s s s s s s s s s s s g s s s s s s s s g s s s s s s s s s s s s s s s s s s s s s s s s f s s s s s s s s s s g s ",
"s s s s s s s s s s s s s s s s s g s s s s s s s s s s s s s s s f s s s s g s s s s s s s s s s s s s s s s s r f s f f f f z z c R Q Q ) ` | X.O.+.>.<.1.2.2.4.4.4.4.4.2.2.@.<.>.;.O.X.| [ ) ) R R c c z f f f s r s s s s s s s f 5 5 r s f s s s s d s s s s s f s s s s s s s s s s s s s s s s s s s s s s s s s s s s s s s f s s s s s s s s s s s g s s s s s s s s s s s s s s s s s s s s s s r 5 s r r s r s s s s s s f f f f z c c R E ) ) | | o.O.+.>.<.1.2.2.4.4.4.4.4.2.2.1.<.>.;.O.X.| [ ) Q Q R c c z f f f r f s s r s s f s s s s s s s s s s s s s s s s s s s s s s s s s s s s s s s s s s s s s d f s s s s s s s s s s s s s s s s s ",
"s s f s s s s s s s s s s s s s s s s s s s s s s f s s s s s s s s r 5 s s r 5 5 f s r s r s s s s s r s s s s s f s f f f f z c c R E ) ) [ | X.O.+.>.<.1.2.2.3.4.4.4.2.2.2.1.<.>.+.O.X.| | ) ) E R c z z f f f s r s s f s r s s s s s s s r 5 f s s r 5 s s s s s s s s f d s s s s s s s s s s s s s s s s s s s s s s s s s s s s s s s s s s s s s s s f s s s s s s s s s s s s s s s s f s s s s s f r s s f 5 r s f s s f s f f f z z c R Q ) ) | | X.O.+.>.>.1.2.2.4.4.4.4.2.2.2.2.@.@.@.O.o.| [ ) Q Q R c c z f f f s f s s s s s s s r s s s f 5 s s s r s s f 5 r s s s s s s s s s s s f s s s s s s s s s s s s s s s s s s s s f s s s s s s s ",
"s s s s s s s s s f s s s s s s s d f s s s s s s s s s s s s s f s r f f s s f r s s r s 5 f s s s s s s s s f s r s f f f f z z c R Q Q ) [ | o.O.+.>.<.1.2.2.3.4.4.4.3.2.2.1.<.>.;.O.X.| [ ) Q Q R c z z z f r f f s s r s r s s s r s s r 5 r s s s s f s s s s s s s s s s s s s s s s s s s s s s f s s s s s s s s f s s s f s s s s s s f s s s s s s s s s s s s s s s s s f d s s s s s s s s s s 5 r s s s s r s r s r f f r f f z z c R R Q ) ` | X.O.;.>.<.1.2.2.2.2.4.4.4.2.2.4.@.@.@.O.X.| [ ) ) E R c z z f f f f r r s r s r s f 5 r s s s r s 5 f 5 f s s s s s s s s d f s s s s s s s s s s s s s s s s s s s s s s s s s s s s s s s s s f ",
"s s s s s s s s s s s s s s s s s s s s s s s s s s s s s s s s 5 r s s 5 r s s s s f 5 s s s s s s s s r s r r s r s r f f f z z c R E ) ) ` | X.O.+.>.<.1.2.2.3.4.4.4.3.2.2.1.<.>.+.O.X.| [ ) Q Q R c z z z y f f f s s r f 5 s s s s s f s f s s 5 r s s r s s s s s s s s s s s s s s s s f s s s s s s s s s s s s s s s s s s s s s s s s s s s s s s s s s s s s s s s s s s s s s s s s s s s s s s r 5 s s s r s s s s s s f f f f z z c R Q ) ' | } X.O.;.>.<.1.2.4.4.4.4.4.4.2.2.@.2.>.+.O.X.| [ ) ) Q v c c z f f y f s f s s r r s s s s s s s r r r s s s r 5 s s s s s s s s s s s s s s s s s s f s s s s s s s f s s s s s s s s s s s s s s s ",
"s s s s s s s s s s s s s s s s s s s s s s s s s s s s s s s s s s s s s s s s s s s s s s s s s s s s s s r 5 s f f s f y y z c c R Q Q ) | | X.O.+.@.<.1.2.2.4.4.4.3.3.3.2.1.<.>.+.O.X.| [ ) ) E R c z z f f f s r f s s s s r s s s r 5 s s s s f s r s 5 f s s s s s s s s s s s s s s s s s s s s s s s s s s s s s s s s s s s s s s s s s s s s s s s s s s s s s s d f s s s s s s s s s s s s s s s f s s s s s s r s r f s r f z z z c R R Q ) ` | X.O.;.>.<.1.2.2.4.4.4.4.4.2.2.2.@.>.+.O.X.| [ ) Q W R c z z f f f f r s r f 5 s s s s s s s s s 5 r s s s r f s s s s s s s s s s s s s s s s s s s s s s s s s s s s s s s s s s s s s s s s s s ",
"s s s s f s s s s s s s s s s s s s s s f s s s s s s s s s s s s s s s 5 r r s s s f 5 5 r s r s s s s s s r f s s r f f f f z z c E Q Q ) [ | X.O.+.>.<.1.2.2.4.4.4.4.4.2.2.1.>.>.+.O.X.| ` ) Q W R c z z i f r f s r s s s s s s s s s s s s s s s f s s s s s s s s s s s s s s s f s s d f s s s s s s s s s s s s s s s s s s s s s s s f s s s s s f s s s s s s s s s s s s s s s s s s s s s s s s s s s s s r s 5 r r s r f f f f i z c R Q Q ) [ | X.O.+.>.<.1.2.2.2.4.4.4.4.2.2.2.<.>.+.O.X.| | ) ) W R R z z z f y s r f s r 5 s r s s s f 5 r s f s s s s s s s s s s s s s s s s s s s s s s s s s s s s f s s s s s s s s s s s s s s f s s s s ",
"s s s s s s s s s s s s s s f s s s s s s s s s s s s s s s f s s s 5 f f s s s s s r r f s s s s s s r s s s s r s s f f f f z z c R R ) ) [ | X.O.+.>.<.1.2.2.4.4.4.4.4.2.2.1.<.>.;.O.X.| | ) Q Q R c z z f f f f s s r s s r s s s s s s s s s s r 5 s r s s s s s s s s s s s s s s s s s s s s s s s s s s s s s s s s s s s s s s s s s s s s s s s s s s s s s s s s s s s s s s s s s s s s s s s s s s s s s s r f s f f r f s f z z z c R Q Q ) [ | X.O.+.>.<.1.2.2.3.4.4.4.4.2.2.1.1.>.+.O.X.| ` ) Q E R c z f f f f f r s s r f s s r s s s s r s s s s s r s s f s s s s s s s s s s s s s s s s s s s s s s s s s s s s s s s s s s s s s s s s s ",
"s s s s s s s s s s s s s s s s f s s s s s s s s s s s s s s s s s r r s s s r s s s s s s s s s s s s r s s r s r r f y f f z c c R Q Q ) [ | X.O.;.>.<.1.2.2.4.4.4.4.4.2.2.1.<.>.;.O.X.| | ) ) E R c z z f f f r r f s s s s s r s s s s r 5 s s r s 5 r s s s s s s s s s s s s s s s s s s s f s s s s s s s s f s s s s s s s s s s s s s s s s s s s s s s s s f s s s s s s s s s f s s s s s s s s s s s s s s s r s r s s f f f z z z c R Q Q ) [ | X.O.+.@.<.1.2.2.4.4.4.3.4.2.2.2.@.>.+.O.X.| [ ) Q Q R c z z f f f f s s f r f s s s s s s s s s s s f 5 r s s 5 r s s s s s s s s s s s s s s f s s s s s s s s s s s s s s s s f s s s s s s s s ",
"s s s s s s s s s s s s s s s s s s s s s s s s s s s s s s s s s s s s s s s 5 f s s s s s s s s s s s r 5 f s s s s f f f f z z c c Q ) ) [ | X.O.+.>.<.1.2.2.2.4.4.4.2.2.2.1.<.>.;.O.X.| [ ) Q Q v c z z f f f s f s r s f r s r 5 f s s r f s s s s f s s s s s s s s f s s s s s s s s s s s s s s s s s s s s s s s s s s s s s s s s s s s s s s s s s s s s s s s s s s s s s s s s s s s s s s s f s s s s s s s s s s f r s f f y z z c R E ) ) | | X.O.;.@.<.1.2.2.3.4.4.3.2.2.2.2.@.>.;.O.X.| [ ) ) E R c z f f f f f r s r r 5 s s s s s s s s s s r 5 f s s s s s f s s s s s s s s s s s s s s s s s s s s s s s s s s s s s s s s s s s s s s s ",
"s s s s s s s s s s g s s s s s s s s s s f s s s s s s s s s s f 5 r s s 5 r s s s s 5 r s r r s s s s s r r r f s s f f f f z z c R Q Q ) | | X.O.;.>.<.1.2.2.4.4.4.4.4.2.@.4.<.>.+.O.X.| [ ) Q Q R c z z f f f s r s s r s s r s s s s r s s r s s s s f r s s s s s s s s s s s s s s s s s s s s s s s s s s s s s s s s s s s s s s s s s r 5 s s s s 5 f s s s s s s s s s s s s s s s s s s r r s s 5 f s s s s s s s s s r f s f f z z c R E Q ) ` | X.O.+.>.<.1.2.2.2.3.4.4.4.2.2.@.1.>.+.O.X.| [ ) Q Q R c z z f f f s r s s s r s s s s s r r s s r s s s f s s s s s s s s s s s s s s s s s s s s s s s s s s s s s s s s s s s s s r s s s s r 5 ",
"s s s s g s s s s s s s s s s s s s s s s s s s s s s s f s s s s r r 5 s f s s r r s f s s 5 f s s s s f 5 s f r s f r f f f z c c R E Q ) [ | o.O.+.>.<.1.2.2.2.4.4.4.4.2.4.@.<.>.;.O.X.| [ ) Q W R c c z f f f f f s s s s s s s s s f 5 s s 5 f s s r 5 5 f s s s s s s s s s s s s s s s s s s s s s s s s s s s d s s s s s s s s s s s s s f s s s s r s s s s s s s s s s s s s s s s s f s s 5 s s r r s s s s s r r s s f f f f f z z c R W ) ) } | X.O.;.>.<.1.2.2.4.3.4.4.4.2.2.2.@.>.+.O.X.| | ) ) E R c c z f f f f f f s s s r s s s r 5 s s s 5 s s r 5 s s s s s s s s s s s s s s s s s s s s s f s s s s s g s s s s f s s s s 5 f s f s s f ",
"f s s s s s s s s s s s s s s s s s s s g s s s s s s s s s s s s 5 r f f s s f f 5 5 f s r s s s 5 r s r s s s s s s f s y f z z c E Q ) ' [ | X.O.+.>.>.1.2.2.4.4.4.4.4.2.4.@.<.>.;.O.X.| } ) Q Q R c z z f f s r s f f s r s s 5 r r s s s f s s f s r 5 r s s s s f g s s s s s s s s s s s s s s g s f s s s s s f s s s s s s s s f s s s s s 5 r f 5 s s s s s s s s s s s s s s s s f s 5 r s f s s s s s r f s s s f s s r f r f f z z v R Q Q ' | | X.O.;.>.<.1.2.2.3.4.4.4.4.2.2.2.2.>.+.O.X.| [ ) Q Q R c z z f f f s r s r s r s r s s s f f 5 s f s r r s s s s s s s s s f s s s f s s s s s s s s s s s s s s s s s s s d s s s s f r s 5 r s s ",
"s s s s s s s s s s s s s s s s s s s s s s s s s s s s s s s s s f s s 5 s r 5 s s r s f 5 s s s f r s s s s s f r s f f f f z z c R Q Q ) ` | X.O.+.>.<.1.2.2.2.4.4.4.4.4.2.4.<.>.+.O.X.| [ ) ) E R c z z z f f f f r s s s s s f s s s r r 5 s r 5 r s f s s s s s s s s s s f s s s s s s s s s s s s s s s s s s s s s f s s s s s d s s s 5 f f s r r r 5 s f s s g s s s s s s s s s s s s s s r 5 f s r s s s s r s s s f s f s f z z z c R E ) ) ` | X.O.+.>.<.1.2.3.3.4.4.4.4.2.2.2.@.>.;.O.X.| [ ) ) Q R c z z f f f f s f s s s f 5 5 f s s s r s s s 5 f s s f s s s s d f s s s s s s s s s s s s s s s s s s s s s s s s s s s s r 5 5 f s r s r ",
"s s s s s s s s s s s f s s s s s s s s s s s s s s s s s r s r r 5 s s r f 5 r s s f s s r s r s s 5 f s s f s s s f f f f f z c c R E ) ) | | ..O.+.>.@.4.@.4.@.4.4.4.2.2.2.@.<.>.;.O.| | | ) ) E R c c z f f f f f s r s s s r r s s f s s f r s s r 5 f r 5 s s s s s s s s s s s s s s f s s s s s s s s s s s s s s s s g s s s f s s s s r f 5 r f 5 r f s s s s s s s s s s g s s s s s f s s f r s s 5 s s f s s s s s r f s f f z z z c R Q Q ) [ | X.O.+.>.<.1.2.2.3.2.4.4.4.2.@.2.@.>.+.O.X.| [ ) Q Q R c z z f f f f f s f s s s s r s f 5 r s s r f 5 s s s s s s s s s g s s s s s s s s s s s s s s s s s s s s s s s s s s s s s 5 r r 5 r s 5 ",
"s s s s s s s s s s s s s s s s s g s f s s s s s s s s f 5 f r s f s s s s s s r 5 5 r s 5 f r f s r s s s s s s f s r f f z z z c R Q Q ) ` | X.O.+.>.@.@.4.4.4.4.4.4.4.2.2.2.>.>.;.O.o.| [ ) Q Q R c z z z f r s s s f s s s s 5 f s 5 r r 5 5 f f 5 r s s f s s s s s s s s s s g s s s s s s s s s s s s s f s s s s s s s s s s s s s s s s s f r r r s s s s s s s s s f s f s s s s s s 5 r r 5 5 f s f s r 5 r s f s s s f f f f f z c c R E ) ) [ | X.O.;.>.<.1.1.2.4.4.4.4.2.4.4.2.2.>.+.O.X.| [ ) ) E R c c z f f f r s s s s s s s s s r r 5 f f 5 s r s s s s s s s s s s s s s s s s s g s s g s s s s s s s s f s s s f s s s s s f 5 f f r s f ",
"s s g s s s f s s s s s s s s s s s s s s s s s s s s f 5 r f 5 s f s s s s f s s f f s f 5 f 5 5 r r s s s s r s r s r f f f z z c R E ) ) [ | ..O.@.@.2.2.4.4.4.4.4.4.4.4.2.@.<.>.+.O.X.| [ ) Q Q R c z z f f s f r s s s f s s f 5 r s r s s s s s s r s s s s s s s s s s s s s s s s s s s s s s s s s s g s s s s s s s s s s s s s s f s r 5 5 r f 5 5 f s s s s s s s s s s s s s s s s s r s s s s f s f 5 s s s s r f s s f f f f z z c R Q Q ) | | ..O.;.>.<.1.1.2.4.4.4.4.4.4.4.@.@.>.+.O.X.| [ ) Q Q R c z z z f f f s f s r f s s s s s s s s f s s s s s s s s s s s s s s s s s s s s s f s s s s s s g s s s s s s s s s s s s s r r s 5 r r 5 ",
"s s s s s s s s d f s s s s s s s s s s s s s s s s s s s s s s r 5 s s s s s s r r 5 s s r s s s s r 5 f s s s s s f f f f f z c c R Q Q ) [ | ..+.@.@.2.@.@.4.4.4.4.4.2.2.2.2.>.>.+.O.X.| [ ) ) E R c z z z f f f f f s s r s r 5 f r s 5 f s r 5 f r 5 f s s s s s g s s f s s s s s s s s s s s s s s s s s s s s s s s s s s s s s s s s s s f s s s s r s s s s g s s s s s s s s s s s s s r 5 f s r 5 s r r s s s s s s f s s f f z z z c R Q Q ) ` | X.O.+.>.>.1.2.2.2.2.4.4.2.@.4.2.@.>.+.O.X.| [ ) ) E R c z z f f y f s r s s s f r s r 5 f r r 5 s s f s s s s s s s f s s s s s s s s s s s s s s s s s s s s s s s s s s s s f s s 5 f s f s s f ",
"s s s s s s s s s s s s s s s f s s s s s s s s s s s s s s s s s s f 5 s s s s s s s s s s s f s s s s s f s f s f s f r f f z z c R E Q ) } | | O.+.>.>.<.2.2.4.4.4.4.4.@.@.4.@.@.@.@.X.| } ) Q E R c z z f f f f f s r s s s s s s s s s s s s s s s s s s s s s s s 5 f s s s s s s s s s s s s s s s s s 5 r s s s s s f 5 s s s s s s s s s s s s s s s s s s s s 5 f s s s s s s 5 f s s f 5 s s s s s s s s s s s s s s f s f f f f z z c R Q ) ) [ | X.@.@.@.@.@.4.4.4.4.4.4.@.4.2.4.@.;.+.o.X.| [ ) Q Q R c c z z f f f s f s s s s s s s s s s s s s s s s s s s s s s s s s s s s s s s s s s f 5 r s s s s s s s s s s s s s s f 5 s s s s s s s s ",
"s s s s s s s s s s s s s s r 5 s s s s s s s s s s s s s s s s s s r r s s s s s s s s s s r 5 s s s s s 3 s r s r r s f f f z c c R Q Q ) [ | X.O.+.;.<.1.1.2.@.4.4.4.4.4.4.4.@.@.@.@.| | [ ) Q Q R c z z f f f f s s s s s r s r s s s s s s s s s s s s s s s s s s r s s s s s s s s s s s f s s s s s s f s s s s s s r r s s s s s s s s s s s s s s s s s s s s r s s s s s s s r s s s s r s s s s s s s s s r s s r s f r r f f f z z c R E Q ) ) | X.@.@.@.@.@.4.@.4.4.4.4.4.2.4.@.2.>.+.o.X.| [ ) Q E R c z f f f f r s s r r s r s s s s s s s s s s s s s s s s s s s s s s s s s s s s s s s s s s s s s s s s s s s s s s s s r s s s s s s s s ",
"f s s s s s s s s s s s s s r s s s s s s s s s s s s s s s s s s s s s s s s s r s s s s s r s s s s s s s r s s r f s f f f f z c c Q ) ) ) | X.o.+.>.@.1.2.2.4.4.4.4.4.4.@.@.@.@.@.@.X.} ` ) Q E R c z i f f r s r f r s s s s s r s s s s s s s s s s s s s s s s s s s s s s s s s s s s s s s s s s s s s r s s s s s s s s s s s s s s s s s s r s s s s s s s s s s s s r s s s r s s s s s s s s s s s s s s r s s s s s f s f f f z z c c R Q ) [ | X.+.@.@.4.4.@.@.4.4.4.2.2.2.@.@.@.;.+.o.X.| ` ) Q W R c z f f y f s f f r s r s s s s s s s s s r s s s s s s s s s s s s s s s s s s s s s s s r s s s s s s s s s s s s s s s r s s s s r s s s ",
"s s s s s r s s s s s s r s s s s s r s s s r s s s s s s s s s s s s s s s s s s s s s r s s s s s 3 s s s s s s s f r f y z z z c R R Q ) ` | | O.+.+.<.@.1.1.4.@.4.4.@.4.4.@.@.@.@.o.X.| ) ) Q W c c z z f f f f s r f s s r s s s s s r s s s r s s s s s s s s s s s r s s s s s s s r s s s s s s r r 5 s s s s s s s s s s r s s s s s s s s s s s s s r s s s s s r s s s s s s s s s r s s r s s s r s r r 5 s r s r f r s r f f f i z c R W ) ) ` | | o.+.@.@.@.4.4.4.4.@.4.2.2.2.2.@.>.+.O.| | ` ) Q E R c z z f f f f r s s s s s s s s s r s s s r s s s s r s s s s s r s s s s s s f 5 r s s s s r s s s s s s s r s s s s s s s s s s r s s s s ",
"s 5 5 r r s s s s r r s s s s s s 5 r s s s 3 s r s r s 5 r r r r s s s 5 r r r 5 s s s s r s r s 5 r s 5 r r s r s r f f r y z z z c R Q ) ) | | o.+.+.@.<.1.2.4.4.@.@.4.4.@.@.@.@.+.o.| } ) ) Q W R z a z f f f r f r 5 r r s r r s r s r s r s s r 5 r r r s r s 3 s r r s s r s r 5 s s s s s s r r s s s s s r s r r r r s s r 5 s s r r s s r s r s 5 5 r r s 5 r s s s s s s 5 r r r s r s s r 5 s r r s s 5 r s s s r s r s r f y f z i c R R Q ) ) | | o.+.+.@.@.4.@.@.4.4.@.4.4.@.@.2.+.O.o...| ` Q Q R R c z y f f r f s r s s r s s r s r r r s s 5 r s r 5 s s s s s s s s s 5 r s s r r s s r r s s r s r s s s s s r r s s r r s s s r r r s r r ",
"r r r s s s s s s r 5 s s 3 s s r s r s r s s s 5 s s s s r 5 s r 5 r s s r 5 s r r s s 5 r r 5 r r r r r s s s s r s r r f f z i c Y R W ) ) | ....O.+.@.<.@.1.@.4.4.4.@.@.4.@.@.@.O...| } ) ) Q E R z z f y f r s r s r r s 3 r 5 5 r r r 5 r s 3 s s s s r 5 s s s s 5 s s 3 s s r r s s 3 s s s r 5 r 5 r s r r 5 s s 5 s r s s r r s r 5 r 5 s s s r r s r s s r r s 3 s 3 s r s r 5 r s 5 3 s r r r 5 3 s s r r r r 3 s s s r f f f f f z z R R W ) ) } | o.o.+.@.@.4.4.4.@.4.4.@.4.@.@.@.+.O.o.| } ) ) W R R z z z y y f r f s 3 r s r 3 r 5 5 r r 5 r s s s r r s s 3 s 3 s s r s r r r r r 5 s r 5 r s s s 5 r s s 3 r s r 5 s r 5 r s s s s 5 5 s s 5 ",
"s 3 s s 3 s s 3 3 s s s s s 3 s s s s s 5 r s s r r 5 r 3 s s r r s 5 r 3 s s r r 3 s 3 5 r r 3 5 r r 3 r 3 r 3 r s r f r y f y z z R R W Q ` ` } ..o.+.@.1.@.2.@.4.4.@.@.4.@.@.@.+.o...| [ ` ) W R c z i f y f f r s r r s r s r r r s 5 r 5 r s 3 s s 3 s s r 5 r 3 s r r r s r 5 5 r s 3 3 s 3 s s s r s 5 r 5 r s s s s 5 r 3 s r 5 3 s 5 r r r 5 r 3 s s s r 5 5 r r s r s r 5 3 s r s r r s s s s r r s s s s s 3 5 r r r r r r r y f y z a c R Q ) ) } | ..O.+.@.@.@.4.@.@.4.@.4.@.@.@.@.+.O.X.| ` ) ( Q R Y z i f y f r r r r 3 5 r r r r 3 s r r s 5 r r 5 5 r s 3 5 r s s 5 r s s s s 5 r s s s s 5 r 3 s r 3 3 s 5 r 3 s s s s s 5 r r 3 3 r r 3 s r ",
"3 s 3 s s 3 3 s s 3 3 s 3 3 s 3 3 s 3 3 r 3 3 r 3 r r 3 s 3 3 s 3 r r 3 s 3 3 s 3 s r 3 r s 3 s s 3 r r 5 r r r 3 r r r r f y f i z c R R ) ) ` } ..o.+.+.@.@.@.@.4.@.4.@.@.@.@.+.+.o...} ` ) W R R c a z y y y r r r r 3 3 s 3 3 r 5 3 r 3 r r 3 s s 3 s 3 3 s r s 3 s r 3 5 3 r r 3 r s 3 s r s 3 3 s 3 r r 3 r 3 3 s 3 3 r 3 s r 3 r s 3 r r 3 r r 3 s 3 3 s 3 r r 3 r 3 5 r 3 r s 3 3 r 5 r s 3 3 s 3 5 r 3 3 s 3 r 3 r 3 r r r s y r y f i z z R W W ( ) } | o.O.+.@.@.@.4.@.@.4.@.@.@.@.@.O.o.| } [ ) Q W R c z z y f y r s r r r r 3 5 r 3 r 5 r 3 r r 3 3 r r 3 r 3 r s 3 3 r 3 3 s 3 3 r 3 3 s 3 3 r 3 s 3 s r 5 r r r s 3 3 s 3 3 r 3 r 5 r r 5 r s 3 ",
"3 r 5 3 r 3 r 5 3 r 3 r 3 r 5 r 5 3 r r 3 s 3 3 r 3 3 5 3 r 3 5 5 r r 3 s 3 3 3 s 3 5 r 3 r 3 s 3 3 3 3 r 3 5 3 r 3 r r r y y y i i a R R W ) ) } | ..O.+.+.@.@.@.@.@.@.@.@.@.@.+.O...| } ` ) W R R z z i y y r r r r r 3 3 r 3 3 3 r 3 s 3 5 3 3 r 3 5 3 r 3 5 3 3 3 r 3 3 3 s 3 s 3 s 3 s 3 3 r 3 r 3 5 r 3 3 3 3 r 3 r 5 r 3 3 r 3 s 3 s 5 3 3 r r 3 r 3 3 3 r 3 5 r 3 r 3 s 3 r 3 r 5 3 5 3 3 s 3 3 5 r 3 r 3 s 3 r 5 3 r r 3 r r r y y y i i z R W Q ) ` } ....o.+.+.+.@.@.@.@.@.@.@.@.+.o.O.o.| ` ` ) W R a z z y y y r r r r 3 3 r 3 r 3 3 s r 3 s 3 3 3 r 3 3 r 3 r 5 3 3 5 3 3 r 3 3 r 3 s 3 s 3 5 r 3 r s 3 s 3 5 3 3 3 s 3 s 3 5 r 3 r s 3 r 3 r 3 s ",
"3 3 3 3 3 3 3 3 5 3 5 3 3 3 3 3 3 3 3 3 3 3 5 3 3 r 3 3 3 3 3 3 3 3 3 3 3 r 3 5 3 3 3 3 3 3 3 3 5 3 3 r 3 3 3 3 3 r 3 3 r r r y y z i c R W ( ( ` } | o.o.+.+.@.@.@.@.@.@.@.@.o.o.o.| | ) ) W W Y c a i y y r r r r 3 r 3 r 3 3 3 5 3 3 3 3 3 3 3 3 3 3 3 3 3 3 3 3 3 3 3 s 3 3 2 5 3 3 3 3 5 3 3 3 3 5 2 3 3 5 3 s 3 3 3 3 3 3 3 5 3 3 3 3 3 3 3 3 3 5 3 r 3 5 3 3 3 3 3 3 3 3 5 3 3 3 3 r 3 2 3 3 s 3 3 3 3 3 3 3 3 3 3 3 3 3 3 r 3 r r r y y i z a R W W ) ` } ..o.O.+.+.@.@.@.@.@.@.@.@.+.o...| } ` ) ( W R c a i i y y r r r r 3 r 3 3 2 5 3 3 3 3 3 r 3 5 3 3 5 3 3 3 r 3 2 5 r 3 3 3 3 5 3 3 3 3 3 3 3 3 3 3 3 3 2 5 3 r 3 3 3 3 2 5 3 3 3 3 3 3 3 5 3 3 ",
"3 3 5 2 3 3 3 3 2 5 2 3 3 3 3 3 3 3 3 3 3 3 3 3 3 3 3 3 3 3 3 3 2 3 5 3 3 3 3 3 3 5 2 3 3 3 3 3 3 3 2 3 3 3 3 3 3 3 r e e r r y y i i a a R W ) ` ` | ..o.o.o.+.@.+.+.@.@.+.o.o.o.} } ` ` ( W R R a i i y y r e r r 3 3 3 3 3 3 3 3 2 3 3 3 3 3 3 3 3 3 3 3 3 3 3 3 3 5 3 3 3 3 3 3 3 3 3 3 3 3 3 3 3 3 3 3 3 3 3 3 3 5 3 3 3 3 2 3 3 3 3 3 3 3 3 3 3 3 3 3 3 3 3 5 2 3 3 3 3 3 3 3 3 3 3 3 3 5 3 3 3 3 2 3 3 2 3 3 3 3 3 3 3 3 3 3 r r r r y y i i a R R ( ( ` ` } ....o.+.+.+.+.@.@.+.@.o.o.o...} ` ` ( W R Y a i y y t r r r 3 3 3 3 3 3 3 3 3 3 5 3 2 3 3 3 3 3 3 3 3 3 3 3 3 3 3 3 3 3 3 3 3 3 3 3 5 2 3 3 3 3 3 3 3 3 3 2 3 3 3 3 3 3 3 2 2 5 3 3 3 3 3 3 ",
"3 3 2 3 3 2 2 5 2 2 2 3 2 3 2 2 3 2 2 5 2 3 3 3 3 2 3 3 2 3 3 2 2 3 1 3 3 2 3 3 3 2 2 3 2 3 3 2 3 3 2 5 3 2 3 2 3 2 3 2 3 2 e r y y i i Y R W W ( ` ` } } ..o.o.+.o.o.o.@.+.o.o...} } ` ( W W R a i i t y r r e 2 2 2 3 2 3 2 2 2 3 2 5 3 2 3 3 2 3 3 3 2 3 3 2 3 2 3 2 3 3 2 3 3 3 1 3 3 2 3 3 2 3 3 2 2 3 3 2 2 3 3 1 2 3 2 3 2 5 1 3 2 3 3 3 3 3 3 1 3 3 3 3 3 2 2 3 3 3 3 2 3 3 1 2 2 2 3 2 1 3 3 2 5 1 3 2 1 3 3 2 3 2 3 3 2 3 2 2 e r e y y i i a Y R W ( ` } } } o.o.o.o.+.o.o.o.+.o.o...} } ` ( ( R R a a i y y r r e 2 3 3 2 2 2 3 2 2 3 2 1 2 3 3 2 2 3 2 3 3 2 3 2 2 3 2 3 2 3 3 2 3 3 3 2 3 2 3 3 2 1 3 3 2 3 2 3 5 3 3 3 2 3 2 3 5 2 2 3 3 3 2 2 5 ",
"2 2 2 1 1 3 1 1 1 3 3 1 1 5 2 1 1 3 1 1 1 5 3 1 1 3 3 1 1 3 1 5 2 3 1 3 5 1 2 2 3 1 1 3 1 5 1 2 3 1 1 1 2 2 2 1 2 2 2 2 2 2 r e e y y i a a R W ( ( _ } } } ....o.o.} o.......} } ` _ ( W W Y a a i i t t r 2 e 3 2 2 2 2 3 1 2 1 2 3 1 2 5 1 3 3 3 1 3 8 1 1 5 1 3 3 1 1 3 3 1 3 1 3 3 1 2 5 1 1 1 3 1 3 1 5 2 2 2 5 1 1 1 3 1 1 2 3 3 1 5 1 1 1 3 2 1 1 5 1 2 1 3 3 1 1 3 3 1 3 1 3 5 3 1 1 8 3 1 3 1 3 1 1 5 3 1 3 3 1 2 2 1 2 2 2 2 3 e e e t y i a a R R ( ( _ _ } } } o.o.o.o.o.o...} } } ` _ ( W W Y a i i i t e e e 2 2 2 2 1 2 3 1 1 3 1 3 3 1 1 3 1 5 1 3 3 1 1 5 1 2 1 3 1 5 1 5 1 8 1 1 3 1 3 1 5 1 3 1 3 1 3 1 3 1 1 1 3 1 3 1 3 1 1 3 3 1 5 1 2 1 ",
"1 1 1 1 1 1 1 3 1 1 1 1 1 1 1 1 2 1 1 3 1 1 1 1 1 1 1 1 1 1 1 1 1 1 1 1 1 1 1 1 1 3 1 1 1 1 1 1 1 1 1 3 1 1 1 1 1 1 1 2 2 2 2 e e e t u i a a Y T T ( _ _ } } } } } ..} } } } ` _ _ ( ( W Y a a i t y e e 2 2 2 2 2 1 1 1 1 1 1 1 1 1 1 1 1 1 1 1 1 1 1 1 1 1 1 1 1 1 1 1 1 1 1 1 1 1 1 1 1 1 1 1 3 3 1 1 1 1 1 1 1 1 1 1 3 3 1 1 1 1 1 1 1 1 1 1 1 3 1 1 1 1 1 1 1 1 1 1 1 1 1 1 1 1 1 1 1 1 1 1 1 1 1 1 1 1 1 1 1 1 1 1 1 2 1 1 2 2 1 2 2 2 e e t t i a a Y W T _ _ _ _ } } } } } } } } } } ` _ ( W T Y a a i t y e e e 2 2 2 2 2 1 2 1 2 1 1 1 1 1 1 1 1 1 1 1 1 1 1 1 1 1 1 1 1 1 1 1 1 1 1 3 1 1 1 3 1 1 1 1 1 1 1 1 1 1 1 3 1 1 1 3 1 1 1 1 1 1 1 2 1 1 1 ",
"1 1 1 1 1 1 1 1 1 1 1 1 1 1 1 1 1 1 1 1 1 1 1 1 1 1 1 1 1 1 1 1 1 1 1 1 1 1 1 1 1 1 1 1 1 1 1 1 1 1 1 1 1 1 1 1 1 1 1 1 1 < < 2 2 e e t u u p p Y T T T _ _ _ _ _ } _ } _ _ _ _ ( T T T Y a a i t t e e 2 2 2 1 1 1 1 > 1 1 1 1 1 1 1 1 1 1 1 1 1 1 1 1 1 1 1 1 1 1 1 1 1 1 1 1 1 1 1 1 1 1 1 1 1 1 1 1 1 1 1 1 1 1 1 1 1 1 1 1 1 1 1 1 1 1 1 1 1 1 1 1 1 1 1 1 1 1 1 1 1 1 1 1 1 1 1 1 1 1 1 1 1 1 1 1 1 1 1 1 1 1 1 1 1 1 1 1 1 1 1 1 2 2 < 2 e t t u u a a Y T T ( ( _ _ _ _ } _ _ } _ _ _ ( ( T T Y a a i u e e e 2 2 1 2 1 1 1 1 1 1 1 1 1 1 1 1 1 1 1 1 1 1 1 1 1 1 1 1 1 1 1 1 1 1 1 1 1 1 1 1 1 1 1 1 1 1 1 1 1 1 1 1 1 1 1 1 1 1 1 1 1 1 1 1 1 1 1 1 1 ",
"; 1 1 1 1 1 ; 1 ; 1 1 ; 1 ; 1 1 ; 1 ; 1 ; 1 1 ; 1 ; 1 1 1 1 ; 1 ; 1 ; 1 ; 1 ; 1 ; 1 ; 1 ; 1 ; 1 ; 1 ; 1 ; 1 1 > ; 1 ; < 1 > < 1 < < e e e t u u p Y Y T T T T ( ( ( _ ( ( ( ( T T T T p a u u t t q e < < < < > > < 1 1 ; 1 ; 1 1 ; 1 ; 1 ; ; 1 ; 1 ; 1 ; 1 ; 1 1 1 1 ; 1 ; 1 1 1 ; 1 ; 1 1 ; 1 ; 1 ; 1 ; 1 ; 1 ; 1 ; 1 ; 1 ; 1 1 1 ; ; 1 1 1 1 ; 1 ; 1 ; 1 ; 1 1 1 1 ; 1 ; 1 1 ; 1 ; 1 1 ; ; 1 1 1 ; 1 1 1 ; 1 1 ; 1 ; 1 ; 1 ; > > > < < > < 2 2 q e e t u u a Y T T T T T ( _ ( ( ( ( ( T W T Y Y Y p p u t t e q 2 < < < > < > 1 ; 1 ; 1 ; 1 ; ; 1 1 1 1 ; 1 ; 1 1 1 ; 1 ; 1 1 ; 1 ; 1 ; 1 ; 1 ; 1 ; 1 ; 1 ; 1 1 ; 1 1 1 1 ; ; 1 ; 1 1 ; 1 ; 1 ; 1 ; ; 1 ; 1 ",
"; ; ; ; ; ; ; ; ; ; ; ; ; ; ; ; ; ; ; ; ; ; ; ; ; ; ; ; ; ; ; ; ; ; ; ; ; ; ; ; 4 ; 1 ; ; ; ; ; ; ; ; ; ; ; ; ; ; ; > ; > > < > < < < < e w t u u p p Y Y Y Y T T T T T T T T T Y p p p u w w w e < < < > > > > ; ; > ; ; ; ; ; ; ; ; ; ; ; ; ; ; ; ; ; ; ; ; ; ; 1 ; ; 1 ; ; 1 ; ; ; ; ; ; ; ; ; ; ; ; ; 7 ; ; ; ; ; ; ; ; ; ; ; ; ; ; ; ; ; ; ; ; ; ; ; ; ; ; ; ; ; ; ; ; ; ; ; ; ; ; 4 = = ; ; ; ; ; ; ; ; ; 1 ; ; ; ; ; ; ; > ; ; > > > > < < < q q e e u u u p Y Y Y Y T T T T T T T T T T p p p u u w w 0 q < < > > > > > 1 ; ; ; ; 1 ; ; ; ; ; ; ; ; ; ; ; ; ; ; ; ; ; ; ; ; ; ; ; ; ; ; ; ; ; ; ; ; ; ; ; ; ; ; ; ; ; ; ; ; ; ; ; ; ; ; ; ; ; ; ; ; ; ; ",
"; ; ; ; ; ; ; ; # A ; ; ; ; ; ; ; ; ; ; ; ; ; ; ; ; ; ; ; ; ; ; ; ; ; ; ; ; ; ; # = ; = ; ; ; ; ; ; ; ; ; ; ; ; ; ; - ; ; - - > : > < < < q q q w w u u p p Y Y Y Y p Y p p p p p p p u w w w 0 q < < > : : : ; ; - ; ; = ; ; ; ; ; ; ; ; ; ; ; # 4 ; ; ; ; ; ; = ; ; = ; ; ; = = ; ; ; ; ; ; ; ; ; ; ; = = ; ; ; ; ; ; ; ; ; ; ; ; ; ; ; ; ; ; ; ; ; ; ; ; ; ; ; ; ; ; ; ; ; ; ; ; ; ; ; ; ; ; ; ; ; ; ; ; ; ; = = ; ; ; ; ; ; ; ; - ; - ; : > > < < < q q w t w u u p p Y p Y p p T p p p p p u u w w w 0 0 0 , < > : : ; ; - ; ; = ; ; = ; ; ; ; ; ; ; ; ; ; ; ; ; ; ; ; ; ; ; ; ; ; ; ; ; ; ; ; ; ; ; ; ; ; ; ; ; ; ; = ; ; ; ; ; ; ; ; ; ; ; ; ; ; ; ; ; ; ",
"= = = = = = = = = = = = = ; = = = = = = = = = = = = = = = = = = = = = = = = = = ; = = = = = = = = = = = = = = = = = = - - - - - - - : : , < 0 q 0 w w w w w u u u p u u u u p w w w w 0 0 0 0 * : : > - - - - - - = = - = = = = = = = = = = = = = = = = = ; = = = = = = = = = = = = ; ; = ; = = = = = = = = = = = = = = ; = = ; = = = = = = = = = = = = = = = = = = = = = = = = = = = ; = = = = = ; ; = = = ; = = = = = = = = ; = = - = - - - - - : : < 0 0 q q w w w u w u u u u p p p p u u w w w 0 w 0 0 , , : : > - - - - - = = ; = = = = = = = = = ; = = ; = = = = = = = = ; = Z = = = = = = = = = = = = = = = = ; = ; = = = = = = = = = = = = = = = = ; = ",
"= = = = = = = = = = = = # = = = = = = = = = = = = = = = = = = = = = = = = = = = # = = = = = = = = = = = = = = = = = = = = = = % - - - : : : : < 0 0 0 w w w w w w w w w w w w w w 0 0 0 0 0 , * : : - - - - = = = % = = = = = = = = = = = = = = = = = = = # = = = = = = = = = = = = # = = # = = = = = # = = = = = = = = = # = = = = = = = = = = = = = = = = = = = = = = = = = = = = = = = = = = # = # = = = = = = = = = = = = = = = = % = = - - - - - : : , , , 0 0 q q w w w w w w w w w w 0 w 0 0 0 0 , , * * : - - - - = % = = = = = = = = = = = = = = = # = = = = = = = = = # # + = = = = = = = = = = = = = = = # = = = + Z = = = = = = = = = = = = = = = = ",
"# = # # = # # = # # = # # # = # # = # = # # # # # = # # = # # = # = # = # # = # # = # # # = = # # # # # # # = # = # # % = = = # % % - & - - * : * * 0 0 0 0 0 0 0 0 0 0 0 0 0 0 0 0 0 * * * * * & - & % % = % % % = % # % = # = # = # = = = = # # # # = = # = # = = # # = # = # = # # # # # = # # # Z # # # # # # # # # = # # # # = # # # # # # # = # # = # # = # # # = # # X B # # # # = # # # # = # = # = # # = # # = # # = # % # % % % % = % % - & - : * : , , , , 0 0 0 0 0 0 0 0 0 0 0 0 0 0 0 , * , * * & & % - % % % = % # = # # = # = # # # # # = # # # # = # # # = # # # # # = # = # # # # = # = # # = # = # # # # # # = # # = # # # = # = # # # # = # ",
"# # # # # # # # # # # # # # # # # # # # # # # # # # # # # # # # # # # # # # # # # # # # # # # # # # # # # # # # # # # # # # # # % % % % % & & & * * * * * , * * , , , , , , , * * * * * * * & & & % % % % # # # # # # # # + # = # # # # + # # # # # # # # # # # # # # # # # # # # # # # # # # # # # + + # # # # # # # # # # # # # # # # # # # # # # # # # # # # # # # # # # + # # # # # # # # # # # # # # # # # # # # # # # # # # # # # # # % # % % % % & & & & * * * * * , , , , , , , * 0 * * * * * * * $ * $ % % % % # # # # # # # # # # # # # # # # # # # # # # # # # # # # # # # # # # # # # # # # # # # # # # # # # # # # # # # # # # # # # # # # # # # # ",
"# + # # # # + # # # # # # # # + # # + # # # + # # # + # # + # + # + + # # # + # # # # # # # + + # # # # # # # # # # # # + # # # # # % $ $ % & % & & & * * * * * * * * * * * * * * & & & & & $ $ % $ # # # @ # @ + # # # # # + # # + # + + # + + # + + # # + # + + # # # # # # + # # # # # # # # # + + # # # # # # # # # # # # # # # + # # # # # # # # + + # # + # # # # # # # # # # + # # # # # # + # + # + + # # # + # # + + + @ # # # # @ # # @ % % $ $ % % & * & * * * * * * , * * * * * * * * * $ * $ $ $ $ % # # @ # # # @ # # # # + # # + # # # # # # # # # # + # + # # # # # # # # # # # + # # # # + # # # # # # # # # + # # + # # # # # # + # # # + + + ",
"# + + + + + + + + + + + + + + + + + + + # + + # + + # + + # + + # + + + + + + + + + + + + + + # # + + + + + + + + + + + + + # + + @ @ @ @ @ $ $ $ $ $ $ & & & & & & & & $ * $ * $ & $ $ $ $ $ $ @ @ @ @ @ @ @ + + + + + + + + + + + + # + + # + # + + # + + + + + + + + + + + + + + + + + + + + # + + + # + + + + + + + + + + + + + + # # + + + + + # + + # + + + + + + + + + + + + + # + + + + + # + + # + + + + + + + # + + + + + + + + @ + @ @ @ @ @ @ $ $ $ $ $ $ & $ $ & * $ & & * $ & & $ $ $ $ $ $ $ $ $ @ @ @ @ + @ + + + + + + + + + + + + + + + + + + + + # + + # + + + + + + + + + + + # + + + + + + + + + + + + + # + + + + + + + + + # + + # + + + ",
"+ + + + + + X + + + + + + + + + X # + + + + + + + + # X + + + + + + + + + + + + + + + + + + + + + + + + + + + + + + + + + + + + + + @ + O O @ @ $ @ $ $ $ $ $ $ $ $ $ $ $ $ $ $ $ $ $ $ O $ O @ + @ + + + + + + + + + + + + + + + + + X + X + + + + + + + + + + + + + + + + + + + + + + + + + + + + + + + + + + + + + + + X + + + + + + + + + + + + # X + + + + + X + X + + + + + + + + + + + + + + + + + + + + + + + + + + + + + + + + o + + + O O O + @ @ @ @ $ $ $ $ $ $ $ $ $ $ $ $ $ $ $ $ $ $ @ $ @ @ O O @ + + + + + + + + + + + + + + + + + + + + + + + + + + + X + + + + + + + + + + + + X + + + + + + + + + + + + + + + + + + X X + + + + + + + + + + ",
"+ X X + + + + X X + + X X + X + + X X + X X + X X + X X X + + X + + X + X X + + X + X + X X + X X + + X X + + X X + + X + + + X O o o O O o O O O O O O O O $ O $ O $ $ $ O $ O O O O O O O O O O + O o o o o + X + X + o o X + + + X + + + + X X + + X + X X + X X + + X X + X + X X + X + X X X + + X + X + X X + X + + X X + X + X + X X + X X + X X + X X + X + + + + X + X X + X + X + X + X + + + X X + X X + X + + X + + o o + + X + o + o o o o O O O O O O O O O O $ O $ $ $ O O O O $ O O O O O O O o o O O + o o o o X + + X + X + + X + X + X + X + X + + X X + X + X + X X + X X X + + X X X + + X + + X X + X X + + X + + + X + X X + + X X + + + ",
"X + X X + X X X X X X X X + X X X X + X X + X + X + X X X + X X X X X X X + X X X + X X X + X o X X X X + X X X + X X X + X X X X o o X o o o o o o O O O O O O o O O O O O O O O O O o o o o o o o o X X X o X X o o X X X X X X + X X X X + X X + X X X + X X + X X X X + X X X X + X X X X + + X X X X + X + X X X X + X + X X + + X X + X X X + X X X + X X + X X + + X X X X X X X X + X X X + X X X + X X X + X X X + X X X X o X X o X o o o o o o o o o o O O O O O O O O O O O O O O O O O o o o o o o o o o X X o X X + X X X X X X X X + + X X X X X X X X X + X X X + X X + X + X + X X + X X + X X X X X + X X X + X X + X + X + X X X X X X + X X ",
"X X X X X X X X X X X X X X X X X X X X X   X X X X X X X X X X X X X X X X X X X X X X X X X X X X X X X X X X X X X X X X X X X X o X . o o o o o o o o o o o o O o o o o o O o o o o o o o X o X X X X o X X X X X X X X X X X X X X X X X X X X X X X X X X X X X X X X X X X X X X X X X X X X   X   X X X X X X X X X X X X   X X X   X X X X X X X X X X X X X X X X X X X X X X X X X X X X X X X X X X X X X X   X X X X X X X X X X X X o X X X o o o o o o o o o o o o o O O O O . O o o o X o o o X X X X X X X X X X X X X X X X X X   X X X X X X X X X X X X X X X X X X X X X X X X X X X X X X X X X X X X X X X X X X X X X X X X X X X X X X ",
"  X X X   X X X X X X   X X X X X X X   X   X X   X X X X X   X X X   X X X X X . X   X X . . X X X   X X X X   X X X X   X X X X X X X X X X X X o o o . o o o o o o o o o . o . o o . X o X . X X X X X X X X X X X X X . X X X X X   X X X X X   X X   X X   X   X X X X X X   X X X X X   X X X X X X X X X X X X   X X X X X X X X X X   X X X X X X X   X X X X X X X X   X X X   X   X X X X X X X X X X X X X X X X X X   X X X X X X . . o . o . o . o . o . o o o o . o . O . O . . O X o o . X X X o X X X X X X X X X   X X X X X X X X X X X X   X X X X   X X X X X X X X X   X X   X X X X X   X X   X X X X X X X X X X X X X   X X X X . X     ",
"  X X X   X   X X X X X X   X     X   X X X X   X X   X X X   X X X X X   X   X . .   X     . . X X X X X   X X X   X X   X X X . X . X . X X X . . . o o . . o . . . . . o o . . o . o X . X . . X X . X X   X X   X   .   . .   X . . X         X X X   X X X X X X     X   X X X   X X X   X X X   X   X   X X X   X     X     X X   X X X X   X   X X X   X   X X     X     X X   X X X X       X   X   X     X   X   X   X X X   X X . X . . . . . . . . . . . o . . . o o . o . O O . O . X . o . X X X . . . X X X X X   X X X     X   X X   X   X   X X X X X X X   X     X   X   X   X X X   X X X   X X X X       X     X       X   X   X   X . .     ",
"X X         X X   X         X X   X X   X     X   X X   X     X X   X     X     X     X           X       X       X     X X     . . . . . . . . . . X . . . . . . . . o . . . . . o . . . . . . X   . .   . X     X   X           . . .     X . X X     X X       X   X   X   X     X   X     X X   X     X X   X   X             X   X X   X     X X   X     X X     X   X   X X   X           X     X   X     X     X   X X       X     X . . . . . . . . . . . . . o . . o . . . . . . . . . . . . . . . . . . . .   . .   . X   X     X X     X   X           X         X X X X   X X X         X         X X   X   X     X   X   X X   X     X X . . .     ",
"      X X             X   X         X       X             X           X       . . X                   X     X       X         X .   . . . . . . . . . . . . . . . . . . . . . . . . . . . . . .   X     X       X               X     .   X . .       X       X X         X       X       X           X           X             X             X           X       X         X       X                 X       X     X             X .   .   .   . . . . . .     . . . . . .   . . . . . . . . . . . . . . . . .   .   X     X         X         X                   X     X                   X   X     X X           X       X     X       X   .       .       ",
"                                            X     X X     X                                                                       .   .                         . . .   . . . .   . . .   .   .                                                                           X                                                             X                                     X                 X                       X                                       . . . .                         . .   . .   . . .   . .       .                                                                   X                   X     X                                   ",
"                                  X                                                                                                   .                         .     .   .   . .     . .                                                                             X                                                               X     X                                                       X         X               X                                       . .                       . . .     .     .         .                                                                                   X                                                 ",
"                                    X                     X                                                                       .     .                       .     . .     .     .   .     .                                                                           X                                                                                                                                       X                                                                               .                   .   .                                                                     X                                                               ",
"                                                                                                                                                                                                                                                                                                                                                                                                                                                                  .   .                                                                                                                                           X                                             ",
"                                                                                                                                                                                                                                                                                                                                                                                                                                                                                                                                                                                                                                                                ",
"                                                                                                                                                                                                                                                                                                                                                                                                                                                                                                                                                                                                                                                                ",
"                                                                                                                                                                                                                                                                                                                                                                                                                                                                                                                                                                                                                                                                ",
"                                                                                                                                                                                                                                                                                                                                                                                                                                                                                                                                                                                                                                                                ",
"                                                                                                                                                                                                                                                                                                                                                                                                                                                                                                                                                                                                                                                                ",
"                                                                                                                                                                                                                                                                                                                                                                                                                                                                                                                                                                                                                                                                ",
"                                                                                                                                                                                                                                                                                                                                                                                                                                                                                                                                                                                                                                                                ",
"                                                                                                                                                                                                                                                                                                                                                                                                                                                                                                                                                                                                                                                                ",
"                                                                                                                                                                                                                                                                                                                                                                                                                                                                                                                                                                                                                                                                ",
"                                                                                                                                                                                                                                                                                                                                                                                                                                                                                                                                                                                                                                                                ",
"                                                                                                                                                                                                                                                                                                                                                                                                                                                                                                                                                                                                                                                                ",
"                                                                                                                                                                                                                                                                                                                                                                                                                                                                                                                                                                                                                                                                ",
"                                                                                                                                                                                                                                                                                                                                                                                                                                                                                                                                                                                                                                                                ",
"                                                                                                                                                                                                                                                                                                                                                                                                                                                                                                                                                                                                                                                                ",
"                                                                                                                                                                                                                                                                                                                                                                                                                                                                                                                                                                                                                                                                ",
"                                                                                                                                                                                                                                                                                                                                                                                                                                                                                                                                                                                                                                                                ",
"                                                                                                                                                                                                                                                                                                                                                                                                                                                                                                                                                                                                                                                                ",
"                                                                                                                                                                                                                                                                                                                                                                                                                                                                                                                                                                                                                                                                ",
"                                                                                                                                                                                                                                                                                                                                                                                                                                                                                                                                                                                                                                                                ",
"                                                                                                                                                                                                                                                                                                                                                                                                                                                                                                                                                                                                                                                                "
};
