/* XPM */
static char *begin_floor1_033[] = {
/* columns rows colors chars-per-pixel */
"320 200 111 2 ",
"   c #242424",
".  c #272828",
"X  c #2B2C2C",
"o  c #2E3333",
"O  c #333434",
"+  c #343B3B",
"@  c #3B3B3B",
"#  c #364242",
"$  c #3B4545",
"%  c #3B4A4A",
"&  c #3E5252",
"*  c #434343",
"=  c #444B4B",
"-  c #4C4C4C",
";  c #425555",
":  c #4C5353",
">  c #445B5B",
",  c #4C5B5B",
"<  c #545454",
"1  c #555B5B",
"2  c #5C5D5D",
"3  c #764F4F",
"4  c #7D4E4E",
"5  c #6E5555",
"6  c #665E5E",
"7  c #6D5C5C",
"8  c #755555",
"9  c #795656",
"0  c #735A5A",
"q  c #7B5C5C",
"w  c #466161",
"e  c #496464",
"r  c #4C6C6C",
"t  c #546464",
"y  c #5D6262",
"u  c #546B6B",
"i  c #5D6B6B",
"p  c #4E7272",
"a  c #527575",
"s  c #5E7474",
"d  c #537A7A",
"f  c #5E7A7A",
"g  c #636363",
"h  c #686161",
"j  c #616B6B",
"k  c #6D6E6E",
"l  c #736161",
"z  c #7D6565",
"x  c #746A6A",
"c  c #617272",
"v  c #697171",
"b  c #617979",
"n  c #6C7B7B",
"m  c #747676",
"M  c #7B7272",
"N  c #BF1F1F",
"B  c #8E3F3F",
"V  c #9D3636",
"C  c #943E3E",
"Z  c #9E3B3B",
"A  c #A62E2E",
"S  c #AD2C2C",
"D  c #B52525",
"F  c #B82424",
"G  c #B02A2A",
"H  c #A13535",
"J  c #A83131",
"K  c #C21E1E",
"L  c #854646",
"P  c #884747",
"I  c #844848",
"U  c #8B4B4B",
"Y  c #954646",
"T  c #845353",
"R  c #8C5353",
"E  c #815858",
"W  c #836161",
"Q  c #568282",
"!  c #5B8484",
"~  c #5C8B8B",
"^  c #5E9393",
"/  c #628383",
"(  c #648E8E",
")  c #6B8A8A",
"_  c #748484",
"`  c #788282",
"'  c #639393",
"]  c #6E9797",
"[  c #669B9B",
"{  c #699B9B",
"}  c #739494",
"|  c #65A1A1",
" . c #6BA6A6",
".. c #6DA9A9",
"X. c #73A4A4",
"o. c #6EB1B1",
"O. c #73B5B5",
"+. c #78B2B2",
"@. c #75BABA",
"#. c #7ABDBD",
"$. c #77C0C0",
"%. c #7BC1C1",
"&. c #7FC9C9",
"*. c #80C6C6",
"=. c #82CBCB",
"-. c #87D1D1",
";. c #8AD4D4",
":. c #8ED9D9",
">. c #93DDDD",
",. c #96E1E1",
"<. c #9BE5E5",
/* pixels */
"                                                                                                                                                                                                                                                                                                                                                                                                                                                                                                                                                                                                                                                                ",
"                                                                                                                                                                                                                                                                                                                                                                                                                                                                                                                                                                                                                                                                ",
"                                                                                                                                                                                                                                                                                                                                                                                                                                                                                                                                                                                                                                                                ",
"                                                                                                                                                                                                                                                                                                                                                                                                                                                                                                                                                                                                                                                                ",
"                                                                                                                                                                                                                                                                                                                                                                                                                                                                                                                                                                                                                                                                ",
"                                                                                                                                                                                                                                                                                                                                                                                                                                                                                                                                                                                                                                                                ",
"                                                                                                                                                                                                                                                                                                                                                                                                                                                                                                                                                                                                                                                                ",
"                                                                                                                                                                                                                                                                                                                                                                                                                                                                                                                                                                                                                                                                ",
"                                                                                                                                                                                                                                                                                                                                                                                                                                                                                                                                                                                                                                                                ",
"                                                                                                                                                                                                                                                                                                                                                                                                                                                                                                                                                                                                                                                                ",
"                                                                                                                                                                                                                                                                                                                                                                                                                                                                                                                                                                                                                                                                ",
"                                                                                                                                                                                                                                                                                                                                                                                                                                                                                                                                                                                                                                                                ",
"                                                                                                                                                                                                                                                                                                                                                                                                                                                                                                                                                                                                                                                                ",
"                                                                                                                                                                                                                                                                                                                                                                                                                                                                                                                                                                                                                                                                ",
"                                                                                                                                                                                                                                                                                                                                                                                                                                                                                                                                                                                                                                                                ",
"                                                                                                                                                                                                                                                                                                                                                                                                                                                                                                                                                                                                                                                                ",
"                                                                                                                                                                                                                                                                                                                                                                                                                                                                                                                                                                                                                                                                ",
"                                                                                                                                                                                                                                                                                                                                                                                                                                                                                                                                                                                                                                                                ",
"                                                                                                                                                                                                                                                                                                                                                                                                                                                                                                                                                                                                                                                                ",
"                                                                                                                                                                                                                                                                                                                                                                                                                                                                                                                                                                                                                                                                ",
"                                                                                                                                                                                                                                                                                                                                                                                                                                                                                                                                                                                                                                                                ",
"                                                                                                                                                                                                                                                                                                                                                                                                                                                                                                                                                                                                                                                                ",
"                                                                                                                                                                                                                                                                                                                                                                                                                                                                                                                                                                                                                                                                ",
"                                                                                                                                                                                                                                                                                                                                                                                                                                                                                                                                                                                                                                                                ",
"                                                                                                                                                                                                                                                                                                                                                                                                                                                                                                                                                                                                                                                                ",
"                                                                                                                                                                                                                                                                                                                                                                                                                                                                                                                                                                                                                                                                ",
"                                                                                                                                                                                                                                                                                                                                                                                                                                                                                                                                                                                                                                                                ",
"                                                                                                                                                          .                     . . .     .                                                                                                                                                                                                                                                                                                 .       .                                                                                                                                                           ",
"                                                                                    .                                               .           .     .   .     .     .           .         .                                                 .         .                         .                       .                         X                                             .                                                                     .     .   .             . .   . .   . . .     . .                                           X                                                                                                           ",
"                    .     .                     .         .     .   .                     .           . .     .                       . . . .   . . . . . . . . . . .           . . . . . . . .             .         .   .                                 .   .   .                     .           .       .                             X     X             X                         .                         .     .                 .     .   . . . . . . . . .         . . . . . . . . . . . . . . . .                     X     X                     X   .               .   .   .                       .     .                     .         .     ",
"                        . . . .           .   .   .   . . . . . .     .         .     . .     . . . . .   .                       . . . . .   . . . . . . . .   . o   . . .   . . X . . . . . .                 . .     . . . .         .   .   .   .   .   . . .     .         .     . .     . . . . .                                   X           X                         .     . .   . .                         . . . .         .   . . . . . . . . . X . o . . . . . . X X . . . . . . . . . . . . . .                                       X X           .             . . . . . .                           . . . .           .   .   .   . . . . . ",
"                        . . . .         . . . . . . . . . . . . . . .           . . . . . . . . . . . .                         . o . . . o o . o . o o o . o o o . o o o . o o X X X o . o X .                 . . . . . . . .         . . . . . . . . . . . . . . .           . . . . . . . . . . . .                         X   X   X     X X   X   X   X X   X X           . . . . . . . .                         . . . .         . . . . . X . X X X X X o . o . o o . o X X o X o o . o o . o X X X X .                 X   X   X X X   X   X       X X   X             . . . . . . . .                         . . . .         . . . . . . . . . . . . ",
"X X   X X X X X X X . . X . X . X . X . X X X X X . X . . X X . X . . X X . X X X X . X . . . X . X X . X X X X   X X X X   X X . X X . X o o X o o o o o o o o o o o o o o o o o o o o o o o o X X X X X . . X X . X . X X X . X   X X X   X X . X X . X . X . X X . X X   X X   X X X . X . X . X X . X X X X X X   X . . X . X . X . X X   X X   X X X X   X . X . X X . X X X X   X . . X . X X   X X X   X X . X . . X . . X X . X X X X . . X X X o X o o o o o o o o + o o o o o o o o o o o o o o o X X X X X . X X X X . . X . . X X . X X . X X X   X X   X X X . X . X X . X . X X . X X   X X X   X . X X . . X . . X X   X X X   X . X X . . X . . ",
"X X X X X X X X X X X X X X X X X X X X X X X X X X X X X X X . X X X X X X X X X X X X X X X . X X X X X X X X X X X X X X X X o X o O o O O + + + + + + + # + + # # # # + + # # o + o + o o o o O o X X O X X X X X X X X X X X X X X X X X X X X X . X X X X X X X X X X X X X X X X X X X X X X X X X X X X X X X X X X X X X X X X X X X X X X X X X X X X X . X X X X X X X X X X X X X X X X X X X X X X X X X X X X X . X X X X X X X X o o o O o + o o o + + + + + + # + + # + + # + + # o + + O + o o O o o X X X X X X X X X X X X . X X X X X X X X X X X X X X X X X X X X X X X X X X X X X X X X X X X X X X X X X X X X X X X X X X X X X X X X ",
"X O X O X X X X O X X O O X X X X O X O X X X X O X X X O O X O O X O X O X X X X X O X O X O X X X O O X X X O X X O X X O O X O O O O + + + + # # # # % % % % % % % % % & # # % % # % # # # + + O O o O O O X O X X O X X X O X O X O X O X O O O X O O X X X O X O X X O X O X O X X O X O X X X O X O X X X X X X O X O X O O X O X X O X X O X X X X X X O X O O X O X X X X X X O X O X O X O X O X X X O O X X X O O X O X X X O O X O O O O O + + + # # # # # % # % # % % % % % % % % % # # # # + + + + O O O O X O O X O X X X O X O X O X O X X O X X O X X X O X O X X X X X O X X X X O X O X X X O O X X X O O O X X O X O X X X O O X X X O O O X ",
"O O O O O O O O O O O O O O O O O O O O O O O O O O O O O O O O O O O O O O O O O O O X O O O O O O O O O O O O O O O O O O O O O + + @ + $ % % % % & & & & & & & & & & & & & & & & & & % % # # # + @ + O O O O O O O O O O X O O O X O O O O O O O O O O O O O O O O O O O O O O O O O O O O O O O O O O O O O O O O O O O O O O O O O O O O O O O O O O O O O O O O O O O O O O O O O O O O O O O O O O O O O O O O O O O O O O @ O O O O O O + + + # $ $ % % & & & & & > & & > & & & & & & & & & & % % $ $ # + + + O O O O O O O O O O O O O O O O O O O O O O O O O O O O O O O @ X O O O O O O O O O O O O O O O O O O O O O O O O O O O O O O O O O O O O ",
"O O O @ O @ O @ O O O @ O @ O @ O O O @ O @ O @ O O @ O @ O @ O @ O @ O O O @ O @ @ O @ @ O @ @ O O O O @ O O @ @ O @ O @ @ O @ @ @ $ $ % = & ; & w w w w w e e e e e e r r w w w w > & > ; ; % = $ # @ @ @ O @ @ O @ O @ @ O @ O O @ O O @ O @ O O @ O O @ O @ O O @ O @ O O O O @ @ O O O O @ O @ O @ O @ O @ O @ @ O O @ @ O O O O @ O O O @ O @ O O @ O @ O @ O O @ O @ O @ O @ @ O @ O O O O O O @ O @ O @ O O @ O @ O @ O O @ O @ @ + @ @ @ # $ % = ; ; > & w w e r r w r e e e e e e e w w > > & & & % % $ # @ @ @ @ @ O O @ O @ O @ O @ O O @ O @ O O @ O @ O O O O O @ @ O @ @ O @ O @ O O O @ @ O O @ O O @ O O @ O O O O O @ @ O O @ O O @ O O O @ O ",
"@ @ @ @ @ @ @ @ @ @ @ @ @ @ @ @ @ @ @ @ @ @ @ @ @ @ @ @ @ @ @ @ @ @ @ @ @ @ @ @ @ @ @ @ @ @ @ @ @ @ @ @ @ @ @ @ @ @ @ @ @ @ @ * @ $ = = ; ; > w e r r r p p p d d p d p p d d p p p p e e w > ; = = % * $ @ @ @ @ @ @ @ @ @ @ @ @ @ @ @ @ @ @ @ O @ @ @ @ @ @ @ @ @ @ @ @ @ @ @ @ @ @ @ @ @ @ @ @ @ @ @ @ @ @ @ @ @ @ @ @ @ @ @ @ @ @ @ @ @ @ @ @ @ @ @ @ @ @ @ @ @ @ @ @ @ @ @ @ @ @ @ @ @ @ @ @ @ @ @ @ @ @ @ @ @ @ @ @ @ @ @ @ @ @ @ @ @ @ $ * * = : ; > > e p r p p p p p p d p p d d a p a p r r e w w ; & = = $ $ $ @ @ @ @ @ @ @ @ @ @ @ @ @ @ @ @ @ @ @ @ @ @ @ @ @ @ @ @ @ @ @ @ @ @ @ @ @ @ @ @ @ @ @ @ @ @ @ @ @ @ @ @ @ @ @ @ @ @ @ @ @ @ @ @ @ @ @ ",
"* * * * * * * * @ * * @ @ * @ * * * * * @ * @ * * * * * * @ * * * @ * @ @ * * * * * * @ @ @ * @ * * * * * * * * @ * * * * * * * = = = : : w e r p d Q Q Q ~ ~ ~ ~ ~ ~ ~ ~ ~ Q Q Q Q d d p r e , , ; : = * * * * * @ * @ * @ * * * * * * @ * @ * * * * * * * @ * * * @ * * * * * * @ * * @ * * * * * * @ * @ * @ * * @ * * * @ * * * * * * * * * * * * * * * * * * @ @ * * * * @ * * @ * * * * * * * * * @ * @ * * * * * * @ * * @ * @ * * * * = = = : > w e r p d Q Q Q ~ ~ ~ ~ ~ ~ ! ~ ~ ! Q Q Q Q p p r r w > : = = * * * * @ * * * @ * @ @ * * * @ * * * * * * * * * * * * * * * * * * @ @ * * * * * @ * @ * * * * * * * * @ * * * * @ * @ * * * * * * * * @ ",
"* * * * * * * * * * - * - * * * * * * * - * * * * * * * * * * * * * - * * * * * * * * - * * * * * * * * * * * * * * * * * * * * = - : , e r a d Q Q ~ ^ ^ ^ ^ | [ [ [ [ [ [ | ^ ^ ^ ~ ~ d d p u e , : = - - * * * - * * * * * * * * * * - * * * * * * * * * * * * * * * * * * * * * * * * * * * * * * - * * * * * * * * * * * * * * * * * * * * * * * * * * * * - * * * * * * * * * * * * * * * * * * * - * * * * * * * * * * * * * * * * * = = - : , w r p d Q Q ~ ^ ^ ^ ^ ^ | [ [ [ [ [ [ [ ^ ^ ~ Q Q d p e w , : - - = - * * * * * - * * * * * * * * * * * * * * * * * * * * * * * * * * * * * * * * - * * * * * * * * * * * * * * * - * * * * * * * * * * * ",
"* - - - - - * - - - - - - * - - * - - - - - - * - * - - - - - * - - * - - - * - * - * - - - * - * - - - * - - - - - - * - - - - : : , t e a d Q ~ ^ [ |  .....X.........X.........{ ^ ^ ^ Q d a t e , : : - - = - * - - - * - * * - - - - - * - - - - - * - - - - - - - - - - - - - - - * - * - - * - - - - - - - - * - - - - - - - - - * - * - 3 @ - - - - * - - * - - - - - - - - - - - - - - * - - - - - * - - - * - * - - * - - - - * - - : : , t r a d Q ~ ^ | | | ....o...........X..... .| ^ ^ ^ ! d a u e , : : - - = - - - - - * - - - - - - - * - * - * * - * - - - - * - - - - - * - * - - - - - - * - - * - * - - - * - - - - - * - - - - - * - - - ",
"- - - - - - - - - < - - - - - < - - - - - - - - < - - - - - < - - < - - - - - < - < - - - - - < - - - < - - - - - - - - - - - - : , t t u f ! ~ ^ |  .o.o.O.@.@.@.@.#.#.@.@.@.O.O.....| ^ ~ Q d a t t 1 : : - - - - - - - - - - - - - - - - - - - - - - - - - < - - - - - - - - 3 - - - - < - - - - - - - - - - - - - - - - - - - - - - - < - - - - - - - - - - < - - - - - - - - - - - - - - - - - - - - - - - - - - < - - < - - - - - - - : < , t t u s ! ^ ^ | | o.o.@.$.O.#.#.#.#.#.@.O.O.O.o.| | ^ ~ ! a a u 1 1 : : - - - - - - - - - - - - - - - - < - - 3 - < - - - - - - - - - - - - < - - - - - - - - - - - < - - - < - - - - - - - - - - - - - - - < ",
"3 < < < < < < < < < < < < < < < 3 < < < < < < < < < < < < < < < < < 5 - < < < < < < < < < < < < < < < < < < < < < < < < < < < < < 1 t i a f ~ ^ | ..o.O.#.$.&.&.*.*.*.*.*.*.&.$.$.@.o...| ^ ~ ! s i t 1 1 < < < < < - < < < < < 3 < < < < < < < < < < < < < < < < - < < < < < < - < < < < < < < < < < < < < < < < < < < < < < < < - < < < < < < < - < < - < < < < < < < < < < < < < < < < < < < 3 < < < < < < < < < < < < < < < < < < - : < < 1 1 t u a d ~ ^ | o.o.o.$.&.&.&.&.&.=.&.&.*.&.$.$.@.o. .| [ ! f a u t 1 1 < < < - < - < < < < < < < < < 1 < < < < < < < < < < < < < < < < < < < < 3 < < < < < < < < < < < < < < < 3 < < < < < < < < < - < < < < < ",
"< < < < < < 1 < < < < < < < < < < < < < < < < < < < < < < < < < < < < < < 1 < < < < 1 < < < < < < < < < < < < < < < < < < < < 1 1 t y a f ! ^ [  .o.O.#.&.=.=.=.-.-.-.-.-.-.=.&.&.$.@.o.| [ ( ! s a t 1 1 1 < < < < < < < < < 2 < < < < < < 1 < < < < < < < < < < < < < < < < < < < < < < < 5 < 1 < < < < 1 < < < 1 1 < < < < < < < < 1 1 < < < 5 < < < < 6 < < < < < < < < < < < < < < < < < < < < < < < < 1 < < 1 < < < < < < < 1 < < < < < 1 2 u i f ! ' [ | o.o.$.&.&.&.&.&.=.-.=.-.-.=.=.&.$.@.o. .[ ~ ! f i t t 1 < 1 < < < < < < < < < 1 < < < < < < < < < < < < < < < < < < 1 < < < < < < < < < < < < < 1 < < < < < < < < < < < < < < < < 1 1 < < < < < ",
"1 1 2 2 6 1 < 2 2 1 1 < 1 1 2 2 1 1 2 1 6 < 2 2 1 2 1 1 2 < 2 2 6 < 2 1 1 < 2 1 6 < 2 1 2 1 2 2 6 1 < 6 2 2 1 1 2 < 2 < 1 1 < 2 1 t i i f ~ ^ | o.o.$.&.=.;.;.:.;.:.:.:.:.;.;.;.&.&.$.@...| ' ! f s i t 1 1 < 2 < 2 < 2 < 2 < 2 2 2 < 2 6 1 < 2 2 1 1 1 2 2 < 2 6 < 2 < 1 2 1 1 1 1 2 2 1 1 < 6 2 2 < 2 < 1 1 2 < 2 1 < 1 2 2 < 6 1 < 6 2 < 2 2 1 1 2 2 < 2 < 2 1 2 1 1 1 1 2 2 < < 2 2 2 2 1 1 2 2 < 2 6 1 < 2 2 < 2 1 1 1 2 1 1 < 2 < 2 < 1 2 t u a f ! [ | ..o.$.&.>.&.,.&.,.:.:.:.:.;.;.-.&.&.$.o.o.{ [ ! f a u t 1 1 1 2 < 2 < 2 < 2 < 2 1 6 1 < 2 2 1 1 1 6 < 2 2 1 1 2 2 < 6 2 2 < 2 2 2 < 1 1 2 6 1 < 6 2 1 2 1 2 2 < 2 < 1 1 2 6 1 < 6 2 < 2 2 1 1 2 2 ",
"2 2 2 2 < 6 2 6 2 2 6 1 6 2 2 2 6 2 2 2 2 2 6 2 2 2 2 2 2 2 2 2 2 6 2 2 2 6 2 2 2 6 2 2 2 2 2 2 2 2 2 2 2 2 2 2 2 2 2 2 < 6 2 2 y u i a f ~ [ | o.o.&.&.;.;.:.>.>.>.>.>.,.:.:.:.-.&.$.$.o.| [ ~ f a i y t 2 1 2 1 2 2 2 2 2 2 2 2 2 2 2 < 6 2 6 2 2 6 2 2 2 2 2 2 2 2 6 2 2 2 2 6 2 2 2 2 2 2 2 2 2 2 2 6 2 2 2 6 2 2 6 2 2 2 2 2 2 2 2 2 2 2 2 6 2 2 2 6 6 2 2 2 2 2 2 6 2 2 2 6 2 2 2 2 2 2 2 2 2 2 2 < 6 2 6 2 2 2 2 2 2 2 2 2 2 2 2 1 2 1 y y i b b ~ [ | ..$.&.&.&.&.>.>.>.>.>.>.>.:.:.:.;.&.&.@.o.| [ ~ f c i y y 2 1 2 2 2 2 2 2 2 2 2 2 < 6 2 6 2 2 6 2 2 6 2 2 2 6 2 2 2 2 2 2 2 2 2 2 6 2 2 2 2 2 2 2 2 2 2 2 2 2 2 2 6 2 2 2 2 2 2 2 2 2 2 2 6 2 2 2 ",
"6 2 2 2 6 2 2 2 2 y 6 2 2 2 2 2 2 2 2 6 y 2 2 2 2 6 g 2 2 6 g 2 6 2 2 2 6 2 2 2 2 2 y 2 6 2 2 2 6 2 6 2 2 2 g 2 2 2 2 2 2 2 2 2 y y i f ! ( |  .o.$.&.&.;.:.>.>.,.,.,.,.,.,.>.:.:.&.&.$.o. .^ ( ! s i u y 2 2 2 2 2 2 2 2 6 2 g 2 2 2 g 6 2 2 2 2 g 2 2 2 2 2 y y 2 6 2 2 6 2 2 2 2 2 2 6 2 2 6 2 2 2 2 6 2 2 y 6 2 6 2 2 6 2 6 2 6 2 6 2 y 2 2 2 2 2 2 2 2 2 2 y 6 6 2 2 2 2 2 2 2 6 2 2 2 g 2 2 2 2 g 6 2 2 2 6 y 2 2 6 2 6 2 2 2 2 2 2 1 y y y i b ! ( '  .o.$.&.&.&.,.,.,.,.,.,.,.,.,.>.:.;.&.&.@.o.| [ ( f s i t y 2 2 2 2 2 2 2 2 2 2 2 6 6 y 2 2 2 g 6 2 2 2 g 2 2 2 g 2 6 2 2 2 2 6 2 2 6 2 2 g 2 2 6 2 6 2 2 2 2 2 2 y 6 2 2 g 2 2 2 6 2 g 6 2 2 2 2 2 ",
"y 6 y 6 y y 6 g 6 y y g 2 6 g g 2 6 y y 6 6 y 6 y y 6 2 g y g g 2 g g g y 6 g g 6 2 g 6 2 6 g y y y 6 2 g 2 g 2 y 6 y 2 2 y 2 2 y i i s f ( ^ ..o.&.&.&.:.>.,.,.,.<.,.,.,.,.,.:.:.&.&.%.o. .| ~ b b i i y y 2 2 6 y 2 y 6 y 2 y 6 g 2 g y y 6 g 2 g g y 6 g 6 g g 6 y g y g g 6 y 6 y 6 y y g 2 g g g g 2 g 6 y y g 2 g g 2 g g y 2 g 2 6 g g g 2 6 g y g 6 g g 2 g y g 2 6 g y g 6 y 6 g g 2 g 6 g 2 g y y 6 g 2 g g g 2 6 2 g 2 6 y 2 y 2 y y i i s f ( [  .o.$.$.&.>.,.,.,.,.,.<.,.,.,.,.>.:.&.&.$.o. .[ ( / s s i y y y 2 2 2 2 g y 6 g g 2 y 2 g 6 2 g y g 6 2 g 2 6 2 g 2 2 g g g g 2 y g 2 g 2 g g g g 2 2 g g y 6 g 6 y 6 y 2 g g g g 2 2 g y g 2 6 g g ",
"g g 6 y g g g g g g g g g g g g g g g g g g g g g g g g g g g g g g g g g g g g g g g g g g g g g g g y g g g g g g g y g y 2 y y i s f / ( [ ..O.#.&.-.;.>.<.,.<.,.<.<.<.<.<.>.:.-.=.$.O. .[ ( / f i i y y g 2 g 2 2 g g g 2 g g g g g g g g g g g y g g g g g g g g g g y g 6 g g g j h g g g g g g g g g g g g g g g g g g g g g g g g g g g g g g j h g g g g g g g g g g g g g g g g g g g y g g g g g g g g g g g g g 6 g g y g y 6 y y y i i b / ( [  .O.$.&.;.:.,.,.<.,.,.<.<.<.<.,.>.:.:.&.$.@...[ ( / s i i y g 2 y 6 g g g 2 g g g g g g g y g g g g g g g g g g g g g g g g g g g g g g g g g g g g g g g g g g g g g g g g g g g g g g g g g g g g ",
"g g g g g g g g g g g g g g g g g g g g g g g g g g g g g g g g g g g g g g g g g g g g g h j g g g g g g g g g g g g g 2 g y g g i i b / ( [ ..O.#.&.;.>.>.,.<.<.<.<.<.<.<.>.>.>.-.=.$.O...{ ( / f c j i y y g g g g g g g g g g g g g g g g g g g g g g g g g g g g g g g g g g g g g g g g g g g g h g g g g g g g g g g g g g g g g g g g g g g g g g g g g g g g g g g g g g g g g g g g g g g g g g g g g g g g g g g g g g y 2 g y y g y i s b / ( { ..O.$.&.;.:.,.,.<.<.<.<.<.<.<.<.>.;.;.&.$.@...{ ( ! b c i i y g y y g g g g g g g g g g g g g g g g g g g g g g g g g g g g g g g g g g g g g g g g g g g g g g g g g g g g g g g g g g g g g g g g ",
"g g g g g g g g g g g g g g g g g g g g g g g g g g g g g g g g j g g g g g g g g g g g g g g g g g g g g g g g g g g g g y g y g i i b / ( [ ..O.$.&.;.>.>.<.<.<.<.<.<.<.<.<.>.:.-.=.$.O. .{ ( / b s j y g y g g y g g g g g g g h g g g g g g g g g g g k g g g g g g g g g g g g g g g g g g g g g g g g g g g g g g g g g g g g g g g g g g g g g g g g g g g g g g g g g g g g g g g g g g g g g g g g g g g g g g g g g g g g g g g g y j j i b / ( {  .O.$.=.-.:.>.,.<.<.<.<.<.<.<.>.>.>.;.&.$.o...{ ' / b c i y g y g g g g g g g g g g g g g g g g g g g g g g g g g g g g g g g g g g g g g g g g g g g g g g g g g g g g g g g g g g g g g g g g g g ",
"g g g g g g g g g j g g g g g g g g k g g g g g g g g g g g g g g g g g g g g g g g g g g g g g g g g g g g g g g g g g g g g g i j c b / ( { ..@.$.=.;.>.>.>.<.<.<.<.<.<.<.<.>.>.;.=.$.O...{ ( / b j i i g g y g g g g g g g g g g k g g g g g g g g g g g g g g g g g g g g g g g g g g g g g g g g j g g g g g g g g g g g j g g g g g g g g g g g g g g g g g g g j g g g g g g k g g g g g g g g g g g g g g g g j g g g g g g g g g y g y j s b / ( [ ..O.%.=.;.>.,.,.<.<.<.<.<.<.<.<.>.>.;.&.$.@.X.{ ( / b s j g y g y g g g g g g g g g g g g g g g k g g g g g g g g g g g g g g g g g g g g g g g g g g g j g g g g g g g g g g g g g g g g g g g k g ",
"g g h g g g g g g g g g g g g g g g g g g g g g g g h g g g g g g h g g g g g g g g g g g g g g g g g g g g g g j g g g g g g y i j s b / ( { ..O.$.=.;.>.>.<.<.<.<.<.<.<.<.<.>.:.-.=.$.O...[ ( / b s j g y g g g g g g g g j g g g g g g g g g g g k g g g g g k g g g g j g g k g g g g g g g g g g g g g g j g g g g g g j g g k g g g g j g k g g g k g g g g g g g g g g g g g g g g g g g g g g k g g g g g g g g g g g g g g g g g g g y j s b / ( { ..O.%.=.;.>.,.<.<.<.<.<.<.<.<.<.>.>.;.=.%.O...{ ( / b c j y g g g g g g g g g g j g g g g g g g g g g g g g k g g g g g k g g g g g g g g k g h k g g g g k g g g g g g g k g k g g g g g g g g g g ",
"g g g k g g g k g g g g g g k g g g g g k g g g g g g k g g g k g g g g k g g g g j g g g h g g g g k g g g g g g g g g g y g j g j c b / ( { ..O.$.=.;.>.>.>.<.<.<.<.<.<.<.<.>.>.-.=.%.O...{ ( / b c j g j y g g g g g g g g g g g g g k g g g g g g g g g g g g g g g g g g g g g g g g g g g g g g g g g g g g g g k g g g g g g g g g g g g g g g g g g g g g g g k g g g g g g g g g g g g g g g g g g g h g g g g g g j g g g g g g y g j j c b / ( { ..O.$.=.-.>.,.<.<.<.<.<.<.<.<.>.>.>.;.=.%.O...{ ( / b c j j g y g g g g g g g g g g g g g k g g g g g g g k g g g g g g g g g k g g g g g g g g g g g g g g g g g g g g g g g g g g g g g k g g g g ",
"j g g g g g g g g k k g g g g g k g g g g g g g j g g g g g g g g g g k g g g g k g g h k g g g g g g g g g k g g g g g g g g y i j c b / ( { ..O.%.=.;.>.,.<.<.<.<.<.<.<.<.<.>.>.;.=.$.O...{ ( / b c j i j g g g g g g g k g g k g g g g g j g g g g g g g g g g g g g g g g g g g g g g g g g g k g g g k g g g g g h g g g g g g g g g g g g g g g g h g j g g g g g g g g k g k g g k g g g g j g g g g g g k g g g g g g g g g g g g i g i i c b / ( { ..O.$.=.;.>.<.<.<.<.<.<.<.<.<.<.>.>.;.=.%.O...{ ' / b s j j i g y g g g g k g g g g g g g g g k g g g g g g g g g g g g g g g g g g g g g g g g g g g g g g g g g g g g g g g g g g g g g g g k g g ",
"g g g g g g g g g g g g g g g g g g g g g g g g g g g g g g g g g g g g g g g g g g g g g g g g g g g g g g g g g g g g y g g y g i c b / ( { ..O.%.=.;.:.>.<.<.<.<.<.<.<.<.<.>.>.;.=.%.O...{ ( / b c i y g y g g g g g g g g g g g g g g g g g g g g g g g k g g g g k g g g g g g g g k g g g g g g g h g g g g g g g g k g g g g g g k g g g g g g g g g g g k g g g g g g g g g g g g g g g g g g g g g g k g g k g g g g g g g g g y g g y j c b / ' { ..O.$.=.;.:.<.<.<.<.<.<.<.<.<.<.>.>.;.&.%.O...{ ( ! b c i y g y g g g g g g g g g g g g g g g g g g g g g g g g g g k g g g g g g g g j g g g g g g g g g g g g g k g k g g g g g j g g g g g g g g ",
"g g g g g g g g g g g g g g g g g g g g g g j g g g g g g g g g g g g g k g g g g g g g g g j g g g g g g g g g g g g y 6 g y g i i c b / ( [ ..O.$.=.;.>.>.,.<.<.<.<.<.<.<.<.<.>.-.=.%.O...{ ( / b j i y y y g g g g g g g g g g g g g g g g g g g g g g g g g g g g g g g g g g g g g g g g g g g g g g g g g g g j g g g g g g g g g g g g g g g g g g g g g g g g g g g g g g g g g g g g g g g g g g g g g g g g g g g g g g g g g g y g i i c f / ( { ..O.%.=.;.>.>.<.<.<.<.<.<.<.<.<.>.>.;.=.$.O...[ ( / f j j y g g g g g g g g g g g g j g g g g g g g g g g g g g g g g g g g g g j g g j g g g g g g k g g g g g g g g g g g g g g g g g g g g g g g ",
"g g g g g g g g g g g g g g g k g g g g g g g g g g g g g g g g g g g g g g g g g g g g g g g g g g g g g g g g g g g g y y 2 y g i i b / ( { ..O.%.=.-.>.>.<.<.<.<.<.<.<.<.<.<.>.-.=.$.O...[ ( / b s i g y g y g g y g g g g g g g g g g g g g g g g g g g g g g g g g g g g g g g g j g g g g g g g g g g g g g g g g g g g g g g g g g g g g g g j g g g g g g g g g g g g g g g g g g g g g g g g g g g g g g g g g g g g g g g g 2 g y y y i i b / ( { ..O.%.=.-.:.>.<.<.<.<.<.<.<.<.<.,.>.;.=.%.O...[ ( / b s i i y y y y 2 g g g g g g g g g g g g g g g g k g g g g g g g g g g g g g g g g g g g g g g g g g g g g g g g g g g g g g g j g g g g g g g ",
"g g g g g g g g g g g g g g g g g g g g g g g g g g g g g g g g g g g g g g g g g g g g g g g g g g g g g g g g g g g g g 2 y y y i i f / ( [ ..O.%.=.-.;.>.<.<.<.<.<.<.<.<.<.<.>.-.=.%.O...{ ( / s i i y y 2 y 2 g g 6 g g g g g g g g g g g g g g g g g g g g g g g g g g g g g g g g g g g g g g g g g g g g g g g g g g g g g g g g g g g g g g g g g g g g g g g g g g g g g g g g g g g g g g g g g g g g g g g g g g g g g 2 g y 2 g y y i j b / ( { ..o.%.=.-.>.>.<.<.<.<.<.<.<.<.<.<.>.;.=.$.O...[ ( / s c i y y y 6 y g g y g g g g g g g g g g g g g g g g g g g g g g g g g g g g g g g g g g g g g g g g g g g g g g g g g g g g g g g g g g g g g ",
"g g g g g g g g g g g g g g g g 6 g g g g g g g g g g g g g g g g g g g g g g g g y g g g g g g g g g g g g g g g g g 2 2 g 2 y y y s s / ( [ ..O.%.=.-.>.<.<.<.<.<.<.<.<.<.<.<.>.-.=.%.O...{ ( / s s i y y y y g 2 y g g g g g g g g g g g g g g g g g g g g g g g g g g g g g g g g g g g g g g g g g g g g y g g g g g g g g g g g g g g g g g g g g g g g g g g g g g g g g g g g g y g g g g g g g g g g g g g g g g g g g g g 2 g 2 y y y i i s ! ( { ..O.%.=.;.>.>.<.<.<.<.<.<.<.<.<.<.<.;.=.#.O...{ ' / f i y y y 2 y 2 2 y 6 g g g g g g g g g g g g g g g g g g g g g g g g g g g g g g g g g g g g g g g g g g g g g g g g g g g g g g g g g g g g g ",
"g g g g y g g g g y g g g g g g g g g g g g g g g g g g g g g g g g g g g g g g g g y g g g 6 g g g g g g y g g 6 g g y y 6 y 2 y y i f b ( { ..O.%.=.;.:.,.<.<.<.<.<.<.<.<.<.,.>.-.=.$.O...[ ( / f i i y y 2 2 2 2 6 y y g g g y g g g y 6 g g g g g g g y g g g g g g g g y g g g g g g g g g g g g g g y g 6 g g y g g g g g g g g g g g g g g g g g g g g 2 g g g g 6 y g g g g g g g g g g g g g g 2 g g g g y g g g g g g y 6 y 2 y 2 2 y i s s / ( [ ..O.#.=.-.>.>.>.<.<.<.<.<.<.<.<.>.:.;.=.$.O...[ ) b b a y y 2 2 y 2 y 6 y g y g g g g g g g g g g g g g g g g g h g y g g y g g g g g g g g g g y y g g g g g g g g g 2 g g g y y g g g g g g g g g ",
"g g g g 6 g g g g 6 g g g g 6 g g y y g g g g 2 g g g g 2 g g g g g 2 g g g g g g g g 6 g y g y g g y g g y 6 y y g 2 2 2 2 2 y t i s s ! ( { ..O.$.=.;.>.,.,.<.<.<.<.<.<.<.<.,.>.;.=.$.O...[ ( / s i y y 2 y 2 g y 2 y 6 y g 2 6 g g g g g g y g g g g 6 g g g g g g g y 6 6 g g g y 6 g y g g g g g g 6 g g g g g 6 g g y g g g g g g y 6 6 y g g g g y g g g g g g g g g g y g g 2 g g g g g g g g g g g g g g 6 g g g g 6 g 6 y 2 2 2 2 y y y i b ! ) {  .O.%.=.-.>.<.<.<.<.<.<.<.<.<.<.>.>.;.=.$.O...{ ( ! s i i y y 2 2 6 2 y 6 y 6 y 6 g g g g g g y 6 y y g g g g j g g g g g 6 2 g g g g g g g g y g 6 g y 6 y g g g g g g g g g 6 g g g g g g y g 6 y ",
"y 6 g y g y g g g y g y g y g y g 6 6 y 2 g g g 2 g g y g g g g g 2 g g y g g g 6 y g 6 6 y g g 2 g g g g 6 6 y 2 g 6 2 2 2 2 y y i s s / ( { ..O.$.=.;.>.,.<.<.<.<.<.<.<.<.<.,.:.-.=.$.O...{ ( / s a y y y 2 2 2 2 g 6 y 6 g g g y g g g y 6 g y 6 g g g y 2 g g g g g g g 6 g g 6 y g 6 g 6 y g g g g y g 2 g g g 6 g g g g g g g g g g g g g g y g 2 6 g g g g g g y g y g 6 g y g g y y g y 2 g g g g g g g y g 6 y y 6 y g y 2 y 2 2 2 t y i i s / ( [ ..O.%.=.;.>.>.<.<.<.<.<.<.<.<.<.,.>.;.=.%.O...[ ( / s i i y 2 y 2 y y 6 y g y g y g g y 6 y 6 g y 6 6 g g 2 2 g g g 6 y g 2 g g g 2 6 g g 6 g 6 6 g 6 y g g g g g g g g g g g g y g g y 6 g g g g g ",
"g g g g g y 6 g y 6 6 y g 6 g g g y g g g g g g g g g g g g 2 g g g y 6 g g g g g g y y g g g g g g y 6 g y g g g 2 y 2 y 2 y 1 y y i s / ( { ..O.%.=.;.,.<.<.<.<.<.<.<.<.<.,.,.>.;.=.#.O...[ ( / b i i y 2 y 2 2 y 2 2 g y y 6 y 6 g y 6 g y g g g g y g g g g g g g g g y y g g g g g y g y g g g g g g g g g g g y g 6 y g 2 g g g g g 2 g g g 6 g g g y 6 y g g 6 g y 6 g g g g g g g 6 g 6 g g g y g g 2 g y 6 g y g g g 2 6 y 2 2 2 y y y y i s / ( { ..O.%.=.;.>.>.<.<.<.<.<.<.<.<.>.>.>.;.=.%.O...[ ( / f i t y y 2 2 2 2 2 6 2 y 6 6 y g 6 g g y g g g g y g g g g g g g g g g g g g g y y g g g g y y g g y 6 g g g g g 2 g g g 2 6 g g 6 y g g g g g ",
"g y g g g 2 g g g g g g g g g 2 g g g g g g g g g g g g g g 6 y g g g g g g g 6 y g g g g g g g g g g g g 6 y g g 2 y y 2 2 y 2 y i i s / ( { ..O.%.=.;.>.>.>.<.<.<.<.<.<.<.<.<.>.-.=.%.O...{ ( / s s y y y 2 2 g 2 2 g g y g 6 y g 6 y g g 6 y g g g g g g y g g g g g g g g g g g g g g g g g g g g g g g g g 6 g g g g g g g g 2 g g g g g g g g g g g g g g g g g g g g g g g g g g g g g g g g g g g g g g g g g g y y g 6 y 2 2 2 y 2 y y i j f / ( { X.O.$.=.;.>.>.<.<.<.<.<.<.<.<.<.<.>.-.=.%.O...{ ' / b i i y 2 2 y 2 g 2 g g g g 2 g g g g y g g g g g g 6 y g g g 2 g g g g g g 2 g g g g 2 g g g g g g g g g 6 y g g g g g g g g g g y g 6 g g g g ",
"g g y 6 g g g g g g g g g g g g g g g g g g g g g g g g g g g g g g g g g g g g g g 2 g g g j h g g g g y g y 6 g 2 6 2 6 y 2 2 y y s s / ( { ..O.%.=.;.>.<.<.<.<.<.<.<.<.<.>.>.>.-.=.%.O...{ ( / s i i y y y 2 2 g 2 g g g g g g g g y g g g g g g g g g g 6 g g g g g g g g g g g g g g g g g g g g g g g g g y g g g g g g g g g g g g g g g g g g g g g g g g g g g g g g g 6 g g g g g g g g g g 2 g g g g g g g g g 6 g y 6 y g 2 2 y y y y a b / ' { ..O.&.=.-.:.>.<.<.<.<.<.<.<.<.<.>.>.;.=.%.O...{ ( / b c i y y 2 y 2 2 g g 2 g 2 g g g g 6 g g g g g g g g g g g g g g g g g g g g g g g g g g g g g g g g g y g g g g g g g g g g g g g g y g g g g ",
"g g g g g g g g g g g g g g g g g g g y g g g g g g g g g g g g g g g g g g g g g g g g g g g g g g g g g g g g g g 2 y 2 2 y y y i i b / ( { ..O.%.=.;.:.>.<.<.<.<.<.<.<.<.<.<.>.-.=.%.O...{ ( / b i i y y y 2 y 2 g g g g g g g g g g g g g g g g g g g g g g g g g g g g g g g y g g g g g g g g g g g g g g g g g g g g g g g g g g g g g g g g g g g g g g g g g g g g g g y g g g g g g g g g g g g g g g g g g g g g g 2 y 6 2 g 2 2 y y y s s / ( { ..O.$.=.;.>.>.<.<.<.<.<.<.<.<.<.<.>.;.=.%.O...{ ' / s i i y y 2 2 g y 2 g g g g g g g g g g g g g g g g g g g g g g g g g g g g g g g g g g g g g g g g g g g g g g g g g g g g g g g g g g g g g g ",
"g g g g g g g g g g g g g g g g g g g g g g g g g g g g g g g g g g g g g g g g g g g g g g g g g g g g g g g g g g g 6 y g y y i i c b / ' { ..O.*.=.;.>.>.<.<.<.<.<.<.<.<.<.<.>.-.=.%.@.X.{ ' / b c i y y y y g 6 y g g g g g g g g g g g g g g g g g g g g g g g g g g g g g g g g g g g g g g g g g g g g g g g g g g g g g g g g g g g g g g g g g g g g g g g g g g g g g g g g g g g g g g g g g g g g g g g g g g g g g g g g 2 g y g y i c b / ' { ..O.%.=.;.>.>.<.<.<.<.<.<.<.<.<.<.<.;.=.%.O.X.{ ' / b s j y y y 6 y 6 g g g g g g g g g g g g g g g g g g g g g g g g g g g g g g g g g g g g g g g g g g g g g g g g g g g g g g g g g g g g g g g ",
"g g g h g g g g g g g g g g g g g g g g g g g g g g g g g g g g g g g g g g g g g g g g g g g g h g g g g g g g g g g y g y y y y j c b / ' { X.O.%.=.;.>.>.<.<.<.<.<.<.<.<.<.<.>.;.=.%.O...{ ' / b s j i y g y y g g g g g g g g g g g g g g g g g g g g g g g g g g g g g g g g g g g g g g g g g g g g g g g g g g g g g g g g g g g g g g g g g g g g g g g g g g g g g g g g g g g g g g g g g g g g g g g g g g g g g g g g g g g g y y g j c b / ' { ..@.%.=.-.>.<.<.<.<.<.<.<.<.<.<.>.>.;.=.%.O.X.| ) / b c i g y g y g g g g g g g g g g g g g g g g g g k g g g g g g g g g g g g g g g g g g g g g g g g g g g g g g g g g g g g g g g g g g g g g g ",
"g g g g g g g g g k g g g g g g g g g g g g g g h g k g g g g g g g g g g g g g g g g g g g g g g g g g g g g g g g g g g g g g j i c b / ' | X.O.%.=.;.>.>.<.<.<.<.<.<.<.<.<.<.>.;.=.#.O...{ ' ) b c i g g y g y 6 g g g g g g h g k g g g g g k g g g g g g g g g g g g g g g g g g g k g g g g g g g g g g g g g g g k g g g g g g g g g g k g g g g k g g g g g g g g g g g g g g g k g g g g g g g h g g g g h g g g g g g g g g y g g y i i c b ) ' { X.O.%.=.;.:.>.<.<.<.<.<.<.<.<.<.>.>.;.=.%.O...{ ' / b c i i g y y g g g g g g g g g g g g g g g g g g g g g g g g g g g k g k g g g g g g g g g g g g g k g g g g g g g g g g h g g g g g g g g g g ",
"g k g g g j g g g g g g g g g g g g g g g g g g g g g g g j g g g g g g k g g g g g g g k g g g g g g g g g g g g g g g y g g i j j c b / ( { ..O.%.=.;.:.>.<.<.<.<.<.<.<.<.<.<.>.-.=.*.@...{ ' / b c j i g g y g g g g g g g g g g g g g j g g g g g g g g g g g g g g g g g g g g g g g g g g j g g g g g g g g g g g g g g g g g g g h g g g g g g g g g g g j g g g g g g g g g g g g g g g g g g g g g k g g g g g g g g g g g g y y g y j j c b / ' { X.@.%.=.;.>.>.>.<.<.<.<.<.<.<.>.>.>.;.=.%.O...] ] / b c i g y g g g g g g g k g g g g g g g g g k g g g g g g g g g g g g g g h g g g g g g k g g g g g g g g g g g g g g g g g g k g g g g g g g g ",
"g g g g g g g g g g g g g k g g g g g g k g g g g g g g g g g g k g g g g g g g g g g g g g g g k g g j g g g g g g g g g g g y j j c n / ] | ..+.*.=.;.>.>.>.<.<.<.<.<.<.<.<.<.>.-.=.%.@...{ ) / b c j i g g y g g g g g g g g g g g g g g g g g g g g g k g g g g g g g g k g g g g g g g h g g g g g h g k g g g j g g g g g g g j g g g g g j g g g g g h g g g g g h g k g g g j g g g g g g g j g g g g g g k g g j g g g g g g g g g g g j c b / ( { ..@.%.=.;.>.<.<.<.<.<.<.<.<.<.<.>.>.;.=.&.O...| ' / b b j j g y g g g g g g g g g g g g g j g g g g g g h g g g j g g g g g g g g g g g j g g h g g g g g g g g g g k g g g g g g g g g g g g k g g ",
"g g k g g k g g g g g g g g g g g g g g g h g g g g g h g g h g g g g g g g k g k g g g g h g g g g g g g g g g h g g g g g g g g j c b ) ( { ..@.%.=.;.>.>.<.<.<.<.<.<.<.<.<.>.>.-.=.%.O...| ' / b b j g g g g g g h g h g g g g g g k g g g g g g g g g g g g g k g k g g g g g g g g g g g g g g g g g g g k g g g g g g g g g h g h g g h g g g g g g g g g g g g g g g g k g g g g g g g g k g g g g h g g g g g g g k g h g g g g g g g i j c b / ' { X.O.%.=.;.>.>.<.<.<.<.<.<.<.<.<.>.>.;.=.%.O.X.{ ( / b c j j g y g g g g g g g g g g h g g g g g g g g g g g g g g g g g g g g h g g k g g g g h g g g g g k g g g g k g h g g g g g g g g g h g g g ",
"g g g h g g h g g g h k h g k h k g h g g g g g g g g g g k g g h g k h g g g g h g h g g g g g g g h k g g g k g g g g g g y g i j c b / ' { X.O.%.=.;.>.>.<.<.<.<.<.<.<.<.<.<.>.-.=.%.O.X.{ ' / b c j g j g g g g g g g g g g g g g g h g k h g g k g g g k h g g g g g g g h h g k g g g g g h g g h g g g h h g k g g g g h g g g g g k g g h g k g g g g g h g g g g g g h h g k h g g g h g g h g g g g g g g g g g g g g h g g g g g g j j b b / ' | ..O.%.=.-.>.>.<.<.<.<.<.<.<.<.>.>.>.;.=.%.@...{ ( / n c j j g g g g g g h g g g k g g k g h k g h g g k g g h g k h g g k g g g g k g g h g g g g g g k g g g g g h g g g g g g g g k h g g g g g g ",
"g g g g g h g g g g g h g g g g g g g g k h g g k g g g h g g g g g h g g h g g g g g g k h g g g g g h g g g g g g g g g g g y g j c b / ( { ..O.%.=.;.>.>.<.<.<.<.<.<.<.<.>.>.>.-.=.%.@...{ ( / n c j j y g g g g g g g k g g g h g g g g h g g g h g g g h g g h g h g g k h h g g g h h g g g g g g g h g g g g h g h h g g k g g g h g g g h g g g h k h g g g g h g h g g g g g g g h g g g g g g k h g g h g k g g g g g g g g g g g g i j c n / ( { ..O.#.=.;.>.<.<.<.<.<.<.<.<.<.<.>.>.;.=.%.O...| ( ) f c j j g g g g h g g g g g g g g g g g h g g g h g h g g g g g g g h g g g g g g g g g k h g g g g h h g g k h h g g g h k h g h g g g k h g g ",
"h h h g h g g h h g h g h g h g g h h g g h h g h h h g h h g h g g h g h g h h g h g h g h h g h g h g h h g g h g h h 6 g g g y j s n / ' { ..O.%.=.;.>.>.>.<.<.<.<.<.<.<.<.<.>.-.=.%.O...{ ) / b c j g g g g g h h g h h h g h g h h g h g g h g h h h g h g h g h g g h h g g g h g h g k h h h h k h g g h g h g g h g h k h h h g h g h h g h g g h g g h h h k h h g g h h g h g h g h k g h h g g h h g g h h h h g h h h g 6 g g g g g j v c / ] { ..O.%.=.-.>.>.<.<.<.<.<.<.<.<.<.>.:.;.=.%.@.X.{ ( / b j j g g g g g g g h h h h h h g h g h g h g h h g h h h g h g g g h h g h h h g h h g g h h g h g h g g h h g g h g g h g g h h g g h h g h g ",
"h h h h h h g h h h h h h g g h h h h h h h h g h h h h h h h h g h h h h h h h h h h h g h h h h h g h h h g 7 h h 6 6 6 g 6 y g j c b / ( { X.O.%.=.;.>.>.<.<.<.<.<.<.<.<.<.>.>.;.=.%.O...{ ' / n j j g g g 2 7 g 6 g g h h g h h g h 7 g h h h h g h h h g h h h h g h h h h g h h h h h h h h h h g h h h h g h h h h g g 7 h g h g h g h h h h g h h h h h h h h g h h h h g h h g h g h h h h h h g h h g h g h 6 h h h h 6 6 6 6 6 g g g j c b / ( { X.O.%.=.-.>.>.<.<.<.<.<.<.<.<.<.<.>.;.=.%.O...{ ( / b s j g g 6 6 g 6 6 6 g 7 g 7 g h h h h g h h h h h g h g h g h h h g h h h h g h h h h h h h g h g h g h h h h g h h h h h h h h h h h g h h h ",
"h l h 7 7 7 7 7 7 l h 7 7 7 7 7 0 h 0 h h 7 7 7 7 7 h 7 h l 7 h 7 7 7 h 7 h 7 7 7 h h 7 7 7 7 h 0 h 7 7 h 7 7 7 7 7 7 6 6 6 6 6 g j j n / ( { ..O.%.=.;.>.>.>.<.<.<.<.<.<.<.<.>.>.;.=.%.O.X.{ ( / n j j g 6 6 6 6 7 7 7 7 7 7 7 h l h 7 7 7 h 7 0 h 7 7 h 7 7 7 7 h 7 7 0 h 7 h 7 7 7 7 7 h 7 7 h 7 7 7 l h 7 7 7 7 7 h 7 7 7 7 7 7 7 7 x 7 7 7 7 7 7 7 7 h 7 7 7 h 7 7 l h 7 7 7 7 7 7 7 7 7 7 0 h h 7 7 7 7 7 7 7 7 7 l 7 h 7 7 6 6 6 6 6 6 g g c c / ( { ..O.%.=.-.:.>.<.<.<.<.<.<.<.<.<.>.>.;.=.%.O.X.{ ( / b k g g 6 6 6 6 7 6 7 6 7 h 7 7 l 7 h 7 7 7 7 h 7 x 7 7 7 7 7 7 h 0 7 7 h 7 h 7 0 h 0 h h 7 7 7 7 7 7 7 7 h h 0 7 7 7 7 7 h 7 7 h 0 7 h 7 7 7 h ",
"0 0 7 0 7 7 0 7 7 0 7 0 7 0 7 0 7 0 0 7 7 0 0 7 7 0 0 7 7 0 0 7 7 0 0 7 7 0 0 7 7 0 0 0 0 5 7 0 0 0 7 0 0 7 7 0 0 7 5 5 5 5 6 6 h g k c n ( { ..O.%.=.;.>.>.<.<.<.<.<.<.<.<.<.<.:.-.=.%.O.X.{ ) / v j g 6 6 6 5 5 5 7 7 7 5 5 0 0 0 7 0 7 0 7 0 0 0 7 0 7 0 7 0 7 0 7 0 0 7 0 0 0 7 7 0 7 7 0 7 0 7 0 7 7 0 0 7 7 0 0 7 7 0 0 7 0 7 7 0 0 7 7 0 0 7 7 0 7 7 0 7 0 7 0 7 7 0 0 7 7 0 0 7 7 0 0 7 7 0 0 0 7 0 0 7 7 0 0 7 7 0 7 7 5 7 7 5 6 5 6 6 g k n n ( { ..O.%.=.;.>.>.>.<.<.<.<.<.<.<.<.<.>.;.=.%.O...{ ( / v j g g 6 5 5 7 5 7 7 7 7 7 7 0 7 0 0 7 0 7 7 7 7 0 7 0 7 0 7 0 0 7 0 7 0 0 7 0 7 0 0 7 7 0 0 7 7 0 7 0 0 7 0 0 0 7 7 0 7 7 0 7 7 0 0 7 7 0 0 7 ",
"8 8 8 8 8 8 8 8 8 8 8 8 8 8 8 8 8 8 8 8 8 8 8 8 8 8 8 8 8 8 8 8 8 8 8 8 8 8 8 8 8 8 8 8 8 8 8 9 0 8 8 8 8 8 8 8 8 0 0 8 0 5 5 5 7 g j v / ) { X.O.%.=.;.>.>.<.<.<.<.<.<.<.<.>.>.>.-.=.%.O.X.{ ( / v g g 7 7 5 5 5 8 8 8 8 8 8 8 8 8 8 8 8 8 8 8 0 8 8 8 8 8 8 8 8 8 8 8 8 8 8 8 8 8 8 8 8 8 8 8 8 8 8 8 8 8 8 8 8 8 8 8 8 8 8 8 8 8 8 8 8 8 8 8 8 8 8 8 8 8 8 8 8 8 8 8 8 8 8 8 8 8 8 8 8 8 8 8 8 8 8 8 8 8 8 8 8 8 8 8 8 8 8 8 8 8 5 5 5 5 7 7 g k c b ) ] ..O.#.=.;.>.<.<.<.<.<.<.<.<.<.<.<.<.;.=.%.O...{ ) n v j g 6 5 5 5 5 8 8 8 8 8 8 8 8 8 8 8 8 8 8 8 8 8 8 8 8 8 8 8 8 8 9 8 8 8 8 8 8 8 8 8 8 8 8 8 8 8 8 8 8 8 8 8 8 8 8 8 8 8 8 8 8 8 8 8 8 8 8 8 8 ",
"4 4 4 4 4 4 9 I I 9 4 4 4 4 4 T 9 I 9 4 9 I 9 4 4 4 4 4 4 4 9 I I 9 4 4 4 4 9 I 9 4 4 I 4 4 4 9 4 4 4 4 4 4 4 4 4 4 3 3 3 3 3 3 0 0 k v n ( { X.+.#.*.;.>.<.<.<.<.<.<.<.<.<.<.<.:.;.=.#.+.X.] ) / v h 0 7 8 3 3 3 3 3 4 4 4 4 4 4 4 9 I 9 4 9 I 4 4 4 4 4 4 9 I 4 9 4 I T 4 4 4 4 4 9 I 9 4 4 4 4 4 4 4 4 4 4 9 I 9 4 4 9 I 9 4 4 9 I 9 9 I 9 4 4 4 4 4 4 4 4 4 4 I 9 4 4 4 9 I 9 4 4 4 9 I 9 4 9 I 4 4 4 4 4 4 4 4 4 4 4 4 4 4 4 3 3 3 3 3 3 5 7 g v / ) { ..O.#.=.;.:.<.<.<.<.<.<.<.<.<.<.,.:.;.=.#.+.X.{ ) n v g 7 5 0 3 3 3 3 3 4 3 4 4 4 4 4 4 4 4 9 I 9 I 4 9 I 9 I 9 9 I 4 4 4 4 4 4 9 I 9 I 4 4 4 4 4 4 T 4 4 4 4 4 9 I 9 4 4 4 4 4 4 4 4 4 4 4 4 4 9 I ",
"P P P P P P P P P P P P P P L P P P P P P P P P P P P P P P P P P U P P P P P P P P P P P P P P P P P P P P P L L L L L B 4 3 3 8 0 h v n ) } X.+.#.-.;.:.>.>.<.<.<.<.<.<.<.<.<.>.;.-.#.+.X.] ) n x x 0 8 3 4 3 B 4 L B L L P L P P P P P P P P P P P P P P P P P P P P P P L P P P P P P P P P P P P P P P P P P P P P P P P P P P P P P P P P P P P P P P P P P U P P P P P P P P P P P P P P P P P P P P P P P P P P P P L L P L L 4 L 3 3 3 0 x x n ) } X.+.#.*.;.>.>.<.<.<.<.<.<.<.<.<.,.:.;.=.%.O...] ) _ k x 0 8 3 4 4 L L L B L L P P L P P P P P P P P P P P P P P P P P P P P P P P P P P P P P P P P P P L P P P P P P P P P P P P P P P P P P P P P ",
"C C C C C C Y C C C C C C C Y C C C C C C C C C C C C C C Y C C C C C Y C C C C C C Y C C C C C C C C C C C C C V B B B B B L L 4 9 q x n _ ] +.+.#.*.:.:.>.<.<.<.<.<.<.<.<.<.<.:.-.*.#.O.X.] ) n x l 9 4 L L L B B B B C C C C C C C C C C C C C C Y C C C Y C C C C C C C C Y C C C C C C C C Y C C C C C C C C C C C C C C C C C C C C C C C C C C C C Y C C C C C Y C C C C C C C C C C C C C C Y C C C C C C C C C C C C C C C B B B B L 3 9 0 M n ) { X.O.#.-.;.:.>.<.<.<.<.<.<.<.<.,.,.>.;.=.#.O.X.] _ n x 0 q 4 4 L B B B C B C C C C C C C C C C C C C C C C C C C C C C C Y C C C Y C C C Y C C C C C C C C C C C C C C C C C C C C C C C C Y C C C C ",
"H H H H H H H H H V H H H H H H H H H H H H H H H H H H V H H H H H H H H H H H H H H V H H H H H H H H H H H V V V V V V B B B P I q x m ) } X.+.#.*.;.>.>.>.<.<.<.<.<.<.<.<.<.>.;.=.#.O.X.} _ m x q T P B C V V V V A H H V V H H H H H H H H H H H H H H H H H H H V H H H H H H H H H H H H H H H H H H H H H H H H H H H H H H H H H H H H H H H H H H H H H H H H H H H H H H H H H H H H H H V H H H H H H H H H H H V H V V V V C C P P T q x m _ } X.+.#.=.;.:.>.<.<.<.<.<.<.<.<.<.>.>.;.*.*.+.X.] _ m x q T L B B V V V V V V H H H H H H H H H H H H H H H H H V H H H H H H H H H H H H V H H H H H H H H H H H H H H H H H H H H H H H H H H H H H ",
"S S S S G G S J S S S S G S S S S S S S S S S S S S S S S S S S S S S S S S S G S S S S S S S S S S S S S S S S S S A A A A V C P U q z ` ` } X.+.#.-.:.>.>.<.<.<.<.<.<.<.<.<.<.>.;.=.#.O.X.} ` m W W U P C V A A A A A G A S S S S S S G G S S S S S S G G J G S S G S S G G S S S S G S S S S S S G S S S S S S S S S S S S S S S S S S S S S S S S S S S S S G S S S S S G G S S S S S S S S S S G G S S S S S S S S S S S S S A A A A V C B U E W m ` } X.+.#.-.;.>.<.<.<.<.<.<.<.<.<.<.>.:.;.=.#.+.X.} _ m x E P P V V V A A A G G S S S S S S S S S S S S S S S S G G S S S S S S G G J G S S G G S S S S S S S S S S S S G J G G S S S S G S S S S S S S ",
"F F F F F F F F F F F F F F F F F F F F F F F F F F F F F F F F F F F F F F F F D F F F F F F F F F F F D N D D D D D D G S V V Y Y T z W } } X.+.#.=.;.>.>.<.<.<.<.<.<.<.<.<.<.:.:.*.*.+.X.} ` m W E U C V A A G G D D D N D N F F F F F F F F F F F F F F F F F F F F F F F F F F F F F F F F F F F F F F F F F F F F F F F F F F F F F F F F F F F F F F F F F F F F F F F F F F F F F F F F F F F F F F F F F F F F F F D D D D D D A A V C R E W m ` } X.+.#.=.;.>.<.<.<.<.<.<.<.<.<.<.>.:.;.*.*.+.X.} } ` W T Y C V A A G G D D D D F F F F F F F F F F F F F F F F F F F F F F F F F F F F F F F F F F F F F F F F F F F F F F F F F F F F F F F F F F F ",
"K K N N K K K K K K N N K K K K K K K K K K K K K K K K K K K K K K K K K N K K K K K K K K K K K K K N K K K N N N N N D D S H Z Y R W W } ` X.+.#.*.;.>.>.>.<.<.<.<.<.<.<.<.<.>.;.=.#.+.X.} ` m W T Y Z A S D N D N N N N N K K K K F K K K K K K K F K K K K N N K K N K N K N N K K K K K N K K K K K N K K K K K K K K K K K K K K K K K K K K K K K K K N K K K K N N K K K K K K K K K K N N K K K K N N K K K K K N K N N F F D G S J C Y R W W ` } X.+.#.*.;.:.<.<.<.<.<.<.<.<.<.<.>.>.;.*.#.+.X.} W W W R Y Z A A D D N N N K K N K K K K K K N K K K K K K K K K K K K K K F K K K K N N K K K K N N K K K K K N K K N N K K K K N N K K K K K N K K ",
"K K K K K K K K K K K K K K K K K K K K K K K K K K K K K K K K K K K K K K K K K K K K K K K K K K K K K K K K K N N N N D S A H Y R W W ` } X.+.#.=.;.:.>.<.<.<.<.<.<.<.<.<.<.:.;.=.#.+.X.} ` W W R Y H J G D N N N N N K K K K K K K K K K K K K K K K K K K K K K K K K K K K K K K K K K K K K K K K K K K K K K K K K K K K K K K K K K K K K K K K K K K K K K K K K K K K K K K K K K K K K K K K K K K K K K K K K K K K K K F F G J H Y W W W ` } X.+.#.*.;.:.<.<.<.<.<.<.<.<.<.<.>.>.;.=.#.+.X.} } W W R Y V A G D N N K K K K K K K K K K K K K K K K K K K K K K K K K K K K K K K K K K K K K K K K K K K K K K K K K K K K K K K K K K K K K K K ",
"K K K K K K K K K K K K K K K K K K K K K K K K K K K K K K K K K K K K K K K K K K K K K K K K K K K K K K K K K K K N N D G A Z Y R W M ` } X.+.#.=.;.:.,.<.<.<.<.<.<.<.<.<.>.:.;.*.#.+.X.` ` M W R Y H J S D N N N K K K K K K K K K K K K K K K K K K K K K K K K K K K K K K K K K K K K K K K K K K K K K K K K K K K K K K K K K K K K K K K K K K K K K K K K K K K K K K K K K K K K K K K K K K K K K K K K K K K K K K N N N D G A Z Y R W M n } X.+.*.*.-.>.>.<.<.<.<.<.<.<.<.<.>.>.;.=.#.+.X.} ` M W R Y H J G F F N N N K K K K K K K K K K K K K K K K K K K K K K K K K K K K K K K K K K K K K K K K K K K K K K K K K K K K K K K K K K K K K ",
"K K K N K K K K N N K K K K K N K K K K K K K K K K N K K K K K N N K K K K N K K N K N K K K N K K K K K K K K N N N N D G S A Z Y T W M ` } X.+.*.*.:.:.,.,.<.<.<.<.<.<.<.<.<.:.;.-.#.+.X.} ` M W R Y H H S D D D N N K K K N K K K K K K K K N N K K K K N N K K K K K K K K K K N N K K K K K K K K K K K K K K K K K K K K K K K K K K K K K K K K K K K K N K K K K K N N K N K N K K N N K K K K N N K K K K K K N K K K N N N D G S J Z Y R W M ` } X.+.*.*.-.>.>.<.<.<.<.<.<.<.<.<.>.>.:.=.#.+.X.} ` M W R Y H H G G F N N N N N K K N K K K N K K K K K K N K K K K K N N K K K K N N K K K K N N K K K K K K K K K K K K K K K K K K K K K K K K K K ",
"F F F F F F F F F F F F F F F F F F F F F F F F F F F F F F F F F F F F F F F F F F F F F F F F F F F F F F F F D D D D G A A V Y U T W M ` } X.+.#.*.;.>.,.<.<.<.<.<.<.<.<.<.>.>.;.*.#.+.X.} ` m W T U Y V J S G D D D F F F F F F F F F F F F F F F F F F F F F F F F F F F F F F F F F F F F F F F F F F F F F F F F F F F F F F F F F F D F F F F F F F F F F F F F F F F F F F F F F F F F F F F F F F F F F F F F F F F D D D G G S A V Z Y T z M _ } X.+.#.-.;.:.>.<.<.<.<.<.<.<.<.<.<.>.;.*.#.+.X.} ` M W T Y Y V A S G D D D D N D D D F F F F F F F F F F F F F F F F F F F F F F F F F F F F F F F F F F F F F F F F F F F F F F F F F F F F F F F F ",
"G G S S S S S G S S S S G G J G S S S S S S S S S S S S S G S S S S S S G G J G G G S G S S S S S S S S S S S S S S A A A A V B Y P E z m ` } X.+.#.=.-.:.,.<.<.<.<.<.<.<.<.<.>.:.;.=.#.+.+.} ` m z E U Y C V H A A A S S S S S G G S S S S S S S S S S G G S S S S S S S S S S G G S S S S S G S S S S S S S S S S S S S S S S S S S S S S S S S S S S S S S S S S S S G S S S S G G S S G S S J S G G S S S S J S G G S S S S G A A A A V C P R 9 z m _ } X.+.#.-.;.>.>.<.<.<.<.<.<.<.<.<.<.<.:.*.#.+.X.} _ m x E U P C V H A A A S S S S S S S G S S S S S S S S S S S S S G S S S S G G S S J S G G S S S S G J G G S S S S S S G G S S S S S S S S S S S S ",
"H H H H H H H H V H H H H H H H H H H H H H H H H H H H H H H H H H H H H H H H H H H H H H H H H H H H V H H H A V V V V V B B L T q x m _ } X.+.*.=.;.<.<.<.<.<.<.<.<.<.<.<.>.>.;.=.*.+.X.} ` m x q T L B B V V V V V V H H H H H H H H H H H H H H H H H H H H H H H H H H H H H H H H H H H H H H V H H H H H H H H H H H H H H H H H H H H H H H H H H H H H H H H H H H H H H H H V H H H H H H H H H H H H H H H H H H V V V A V B B P L T q x m _ ] X.+.+.*.;.;.>.<.<.<.<.<.<.<.<.<.>.:.;.=.#.+.X.] _ m x q I L P C V V V V V V V H H H H H H H H H H H H H H H H H H H H H H H H H H V H H H H H H H H H H H H H H H H H H H H H H H H H H V H H H H H ",
"C C C C Y C C C C C C C C C C C C C C C C C C C C C C C C C C Y C C C C C C C C Y C C C C C C C C C C C C C C C C C B B B B L L 4 9 l x n ) { X.+.#.=.;.>.<.<.<.<.<.<.<.<.<.<.>.:.;.*.#.+.X.] _ n x 0 9 3 3 B B B B B B C C C C C C C C C C C C C C C C C Y C C C C C C C C C C C C C C Y C C C C C Y C C C C C C C C C C C C C C C C C C C Y C C C C C C C C C C C C C C C C C Y C C C C C C C C Y C C C C C C Y C C C C C C C B B B B B B L 4 9 0 x n ) ] ..+.*.*.;.>.<.<.<.<.<.<.<.<.<.<.>.>.;.*.#.+.X.] ) n x l 9 4 L L B B B C C C C C C C C Y C C C C C C C C C C Y C C C C C C C C C C Y C Y C C C C C C C Y C C C C C C C Y C C C C C C C C C C C C C C ",
"P P P P P P P P P P P P P P P P P P P P P P P P P P P P P P P P P P P P P P P P P P P P P P P P P P P P P P L L L L L B 3 4 3 3 9 0 x k n ) ] X.+.*.*.;.>.>.<.<.<.<.<.<.<.<.<.>.>.;.=.%.@.X.] ) n k l 0 8 3 3 L L L L L L P L P P P P P P P P P P P P P P P P P P P P P P P P P P P P P P P U P P P P P P P P P P P P P P P P P P P P P P P P P P P P P P P P P P P P P P P P P P L P P P P P P P P P P P P P P P P P P P P L L L L L L 3 3 3 3 0 x k n ) ] X.O.*.*.;.>.>.>.<.<.<.<.<.<.<.>.>.>.;.=.*.+.X.] ) n k h 7 8 3 4 3 4 L L L L P P P P P P P P P P P P P P P P P P P P P P P P P P P P P P P P P P P P P P P P P P P P P L P P P P P P P P P P P P P P ",
"4 4 4 9 I 9 I 9 4 I 9 4 4 4 4 4 4 9 I 9 4 4 9 4 I 9 4 4 4 4 4 4 4 4 4 4 4 4 4 9 I 9 4 4 4 4 4 4 9 I 9 4 4 4 4 4 4 3 3 3 3 3 3 3 5 7 h v n ( { X.+.#.=.;.>.>.<.<.<.<.<.<.<.<.<.>.:.-.=.%.O...] ) n n g 7 5 3 3 3 3 3 4 3 4 4 4 4 4 4 4 9 I 9 I 9 4 4 4 4 4 4 4 4 4 9 I 9 4 4 4 9 I 9 4 4 4 9 I 4 I 9 4 4 4 4 4 4 4 9 I 9 4 4 9 I 9 4 4 4 I 9 4 4 4 4 4 4 4 9 I 9 4 4 4 9 I 9 4 4 4 4 4 T I 4 9 4 I 9 I 9 4 4 4 4 I 9 4 4 4 4 4 4 3 4 3 3 3 3 3 5 h h v n ) { ..+.+.-.;.>.>.<.<.<.<.<.<.<.<.<.>.>.;.=.%.+...{ ) n k k 5 5 3 3 3 3 4 3 4 4 4 4 4 4 4 4 4 4 4 4 4 9 I 9 4 4 4 4 4 4 4 4 4 4 4 4 I 9 I 9 I 9 4 4 4 4 4 I 9 4 9 I 9 4 T 4 4 4 9 I 9 4 4 4 9 I 9 I 9 4 ",
"8 8 8 8 8 8 8 8 8 8 8 8 8 8 8 8 8 8 8 8 8 8 8 8 8 8 8 8 8 8 8 8 8 8 8 8 8 8 8 8 8 8 8 8 8 8 8 8 8 8 8 8 8 8 8 8 8 8 8 8 5 5 5 5 7 h g n n ( { ..+.$.=.;.>.>.<.<.<.<.<.<.<.<.<.<.>.-.=.%.O.X.{ ) n v j h 7 5 5 5 8 3 8 8 8 8 8 8 8 8 8 8 8 8 8 8 8 8 8 8 8 8 8 8 8 8 8 8 8 8 8 8 8 8 8 8 8 8 8 8 8 8 8 8 8 8 8 8 8 8 8 8 8 8 8 8 8 8 8 8 8 8 8 8 8 8 8 8 8 8 8 8 8 8 8 8 8 8 8 8 8 8 8 8 8 8 8 8 8 8 8 8 8 8 8 8 8 8 8 8 8 8 8 0 8 8 8 5 5 5 5 7 h j n n ) { ..O.*.-.-.>.>.<.<.<.<.<.<.<.<.<.<.:.;.*.#.+...{ ( / v g h 7 7 5 5 5 0 8 8 8 8 8 8 8 8 8 8 8 8 8 8 8 8 8 8 8 8 8 8 8 8 8 8 8 8 8 8 8 8 8 8 8 8 8 8 0 8 8 8 8 8 8 8 8 8 8 8 8 8 8 8 8 8 8 8 8 8 8 8 8 ",
"0 7 7 0 0 7 7 0 0 7 7 0 0 7 7 0 7 0 0 7 7 0 0 7 7 0 0 7 0 0 0 7 0 7 7 0 0 7 7 0 0 7 7 0 0 7 7 0 7 0 0 7 7 0 7 0 7 7 5 5 7 5 6 6 g g k c / ) { X.O.$.=.;.>.>.<.<.<.<.<.<.<.<.<.<.>.;.=.%.O...{ ( / b k g 6 6 6 6 6 5 7 7 5 7 5 7 7 0 0 7 7 0 0 7 7 0 0 7 7 0 0 7 7 0 0 7 7 0 0 7 7 0 0 7 7 0 7 0 0 7 7 0 0 7 7 0 0 7 7 0 0 7 7 0 7 0 0 7 7 0 0 7 7 0 0 7 7 0 0 7 7 0 0 7 7 0 0 7 0 0 7 0 0 7 0 7 0 7 7 0 0 7 0 0 0 7 0 7 7 0 7 0 7 7 5 5 5 6 6 g g j v / ) ] ..O.#.*.-.>.>.<.<.<.<.<.<.<.<.<.>.:.;.*.*.+.X.{ ( n c v g 6 6 7 7 5 5 7 5 7 7 5 0 7 7 7 7 0 7 0 0 7 7 0 7 0 0 7 7 0 7 0 0 7 7 0 7 0 7 0 7 7 0 7 0 0 0 7 7 0 0 7 0 7 0 7 0 7 0 7 0 7 7 0 7 7 0 7 0 0 ",
"7 7 7 7 h 7 7 l 7 7 7 7 7 7 7 7 7 h 7 h 7 7 7 7 7 7 7 h 7 h h 0 h 7 7 7 7 h 7 l 7 7 h 7 7 7 7 7 h 7 7 l 7 7 7 7 7 7 6 6 6 6 6 g g j j b / ( { ..O.%.=.-.>.>.>.<.<.<.<.<.<.<.<.<.>.;.=.%.O...{ ( / c j j g 6 6 6 6 6 7 7 7 7 7 7 7 h 7 h 7 7 7 7 h 7 7 7 h 7 0 h 7 7 7 7 7 7 7 7 7 7 h l 7 7 h 7 7 7 7 7 h 7 7 l 7 7 7 7 h 7 7 7 h 7 l h 7 7 h 7 h 7 7 7 h 7 0 h 7 7 h 7 7 7 7 7 h 7 h 0 7 7 h 7 7 7 7 h 7 h h 7 7 h 7 7 7 7 h 0 6 6 6 6 6 6 6 g j k c / ( [ ..+.*.-.;.>.>.<.<.<.<.<.<.<.<.<.<.>.;.=.#.+...{ ) / n j j g 6 6 6 6 7 6 7 7 7 7 g 7 7 7 7 7 h 0 h 0 7 7 h 7 7 7 7 7 7 7 h 7 7 7 7 7 7 7 7 7 7 7 h 0 7 7 7 h 7 7 7 7 7 7 7 7 7 h l 7 7 7 7 7 7 h l h ",
"g h h g h h h h g h g h g h h g h h h h h h g h g h h h h h h h h h h g h h h h g 7 g h g h h g h h h h g h h g g h 6 6 g 6 6 g g j j b / ( { ..O.%.=.;.>.>.<.<.<.<.<.<.<.<.<.<.>.-.=.%.O.X.{ ( / b j j g g g 6 6 6 6 6 g h g g h h h h h h g h h h h g h h h h h h g h g h h g h h h h g h h h g h h g h h h h g h g h h h h g h h h h h h h h h h h g h h h h h h h h h h g g h h h h g h h h h g h h h h h h h g h g 7 g h h 7 6 g 6 6 6 g g j j b / ( [ ..O.#.*.;.>.>.<.<.<.<.<.<.<.<.<.<.<.;.*.*.O.X.{ ( / b c j g y 6 6 6 g 7 g h g 7 7 g h h g h h h h h g h h h h h h g h h h h g h h g h g h h h g h h h g h h h g h h h g g h h h h h h g h h h h h h ",
"h g h g g h h h h h h g h g g h h h g h h g g h g h h g g h h g h g h h g g h g h h h h h g h g h g h h k h h h g g h h h g g g g j c b / ( { ..O.%.=.;.>.>.<.<.<.<.<.<.<.<.<.>.>.-.=.%.O...{ ( / n c j g g g g g h g h g h g h k h g h g h g h g h h g h g h g k h g h g h g h h g g h h k h h h g g h g h h h h g h h h h g g h g h h h h h k g h g h h g h g h k g h g h g g g h h g g h g h g h g h k h h h h h h g g h g h g 6 g g g g g j j c b / ( { ..O.#.*.-.>.>.<.<.<.<.<.<.<.<.>.>.:.;.=.%.O...{ ( / b j j j g g 6 g h g h h h h h h g h g h g g h g h h g h g g g h h g h h g h g h h g g h h h g h g h g g h g h h g h h g g h g h h g g h g h h h ",
"g g g h g g g g g k g h g g h g k g h g g h g g g g h k g g g g g g g h g g g g g k g g g g h g g g g g h g g g g h g g g g g g g j j b / ( { ..O.#.=.;.:.>.<.<.<.<.<.<.<.<.<.<.>.-.=.%.+...{ ( / b c j j y g g g g g g h g g g h g h g g h g g g g h k g g g h g g h g g g g g g g h g h g g g g g g h g g g g g h g g g g h g g g g h g g g h g g h k g g g h g g h h g g g h h k g g h g h g h g g g g h g g g g g g g g h g g g g g g g y g j c b / ( { ..O.#.*.-.>.<.<.<.<.<.<.<.<.<.<.<.>.;.=.%.O...{ ( / b s j g y g g g g g g g g g g k g g h g g g g g g k g h g g h g g h g k h g g g g g h g k g g g h g g g g h g k g g g g h g g g g g h g g g g g ",
"g h g k g g k g g g g g g h g g g h g k g h g k g g g g g h g k g g h k g g g h g g g g g h g g g k g g g g g g g g g g g g g y j j c b / ( { ..O.%.=.;.>.>.>.<.<.<.<.<.<.<.<.>.:.-.=.%.O...[ ( / b c j g g g g g g k h g h g g g h g g h g k g g g g g g h g k h g g g h k g h h g g g g g g h g h g k g g k g k g g g g g g g g g k g g g g g g g g g g h g k g g g g g k g h h g g g g g g g h g g g g g g g k g g g h g g g h g g g g g g i j c b / ( { ..O.*.*.;.>.>.>.<.<.<.<.<.<.<.<.>.>.;.=.#.O...{ ( / b c j j g g g g g h g g g g g g g g g h h h g k g g g g g g g g g g g h g g k h g h g g h g g g h g h g g g k g h k g h k h g g g h g g h g g g ",
"g g g g h g g g g g g g g g k g g g g g g g g g g g h g g g g g g g g g g h k g g g g g g g k g g h g g g g g g g g g g g g g g i j c b / ' { X.O.%.=.;.>.>.<.<.<.<.<.<.<.<.<.<.>.-.=.$.O...{ ( / b c j i g y g g g g g g g g g g g g k g g g g g g h g g g g g g g g g g g g g k g g g g g g g g g g g h g g g g g g g k g h g g h g g g g g g g g g h g g g g g g g g g g g g g g g g k g k g g k g g h g g g g g h g k g g g g g g g g y g g j c b / ( [ ..O.#.-.;.>.>.<.<.<.<.<.<.<.<.<.>.>.;.=.%.O...{ ( / b c i g y y g g g g k g g g g h g g g k g g g g g g g g g h g k g g g g k g g g g g k g g g g g g k g g g g g g g g g g g g g g g g k g g k g g ",
"g g h g g j g g g g g g g g h g g g g g g g g g g g g k j g g g g g k g g g g g g g g g g k g h g g g g g g g k g g g g g g y g g i c b / ( { ..O.%.=.;.>.,.<.<.<.<.<.<.<.<.<.<.>.;.=.%.O...{ ( / b c j g g g g g g g g g g g g g g g g g g g g g g g g g g g g g g g g g j g g g k g h g g g g g g h g g g g g g g g g g k g h g g g j g g k g g g g k j g g g g h g g g g g g g k g g g g g g g g k g g g g g g g g g g g g g g g g g g y g y j s b / ( { ..O.#.-.;.>.>.<.<.<.<.<.<.<.<.<.>.:.;.=.$.O...{ ( / b c j j g y g g g g g g g g g g g g g g g g g g g g k g g g g g g h g g g g g g g g g g g g g g g g g g g g g g g g k g g g g g g g g g g g g g ",
"g g g k g g g g g g g g g k g g g g g g g g g g g h g g g g g g g h g g g g g g g g g g g g g g g g g j g g g g g g g g y g g g y j s b / ( { ..O.%.=.;.:.>.<.<.<.<.<.<.<.<.<.<.>.;.=.%.O...{ ( / b c j i y y g g g g g g g g g g g g g g g g g g g g k g g g g g g g g g g g g g g g g g g g j k g g g g g g g g g g g g g g g g g g g g g g g g h g g g g g g g g g g g g g g g g g g g g g g g g g g g g k g g g g g g g g k g g g g y g g j j s b / ( { ..O.*.*.;.>.>.<.<.<.<.<.<.<.<.>.>.>.;.=.%.O...{ ' / b c i g y g g g g g g g g g g g g g k g g g g g g g g h g g j g g g g g g g g g g g g k g g g k g g g g g g g g g g g g g g g g g g j g g g k g ",
"g g g g g g g g g k g g g g g g g g g g g g k g g g g g g g g g g g g g j g g g g k g g g g g g g g g g g h g g g g g 6 g y y y j i c b / ( { ..O.#.=.;.>.>.>.<.<.<.<.<.<.<.<.<.:.-.=.$.O...{ ( / b s i y g g y g g g g g g g g g g g g g g g g g g g g g g g g g g g k g g g g g g g g g g g g g g g g g j g g g g k g g g g g g g g g g h g g g g g g g g g g g g g k g g g g g g g g g g g g g g g g g g g g g g g g g g g g g g g y y g y i j j f / ( { ..O.#.*.;.:.,.<.<.<.<.<.<.<.<.<.<.:.;.=.$.O...{ ( / s i j j y g y g y g g g g g g j g g g g g g g g g g g g g g g g g g g k g g g g g g g g g g g g g g g g g g g k g g g g g g k g g g g g g g g g ",
"g g g g g g g g g g g g g g g g g g g g g g g g g g g g g g g g g g g g g g g g g g g g g g g g g g g g g g g g g g g y g g g y g i i b / ( [ ..O.%.=.;.>.>.<.<.<.<.<.<.<.<.<.<.>.;.=.$.O...{ ( / s j i i y y y 6 y g g g g g g g g g g g g g k g g g g g g g g g g g g g g g g g g g g g g g g g g g g g g g g g g g g g g g g g g g g g g g g g g g g g g g g g g g g g g g g g g g g g g g g g g g g g g g g g g g g g g g g g g g 6 g y g y i s b / ( { ..O.#.*.;.>.>.<.<.<.<.<.<.<.<.<.>.>.;.=.#.O...{ ( / b s i y y y g y 6 y g g g g g g g g g g g g g g g g g g g g g g g g g g g g g g g g g g g g g g g g g g g g g g g g g g g g g g g g g g h g g g ",
"g g g g g g g g g g g g g g g g g g g g g g g g g g g g g g g g g g g g g g g g g g g g g g g g g g g g g g g g g g g 2 6 y y y y i i b / ( [ ..O.%.=.;.>.>.<.<.<.<.<.<.<.<.<.>.:.-.=.%.O...{ ( / s s i y y y 6 g y y g g g g g g g g g g g g g g g g g g g g g g g g g g g g g g g g g g g g g g g g g g g g g g g g g g g g g g g g g g g g g g g g g g g g g g g g g g g g g g g g g g g g g g g g g g g g g g g g g g g g g g g g y 2 y g y i i b / ' { ..O.#.-.;.:.,.<.<.<.<.<.<.<.<.<.>.:.;.=.$.O...[ ( / b a i y y y 6 y 2 g g g g g g g g g g g g g g g j g g g g g g g g g g g g g g g g g g g g g g g g g g g g g g g g g g g g g g g g g g g g g g g ",
"g g g g g g g g g g g g g g g g g g g g g g g g g g g g g g g g g g g g g g g g g g g g g g g g g g g g g g g g y g 2 g y y 2 y y i i f / ( { ..O.#.=.-.:.>.<.<.<.<.<.<.<.<.<.>.>.-.=.$.O...{ ( / f s y y y 2 y 2 2 6 g g g g g g g g g g g g g g g g g g g g g g g g g g g g y g g g g g g g g g g g g g g g g g g g g g g g g g g g g g g g g g g g g g g g g g g g g g g y g g g g g g g g g g g g g g g g g g g g g g g g y 6 g 2 g y 2 y y i i s / ( { ..O.#.=.;.>.,.,.<.<.<.<.<.<.<.<.,.>.;.=.%.O...{ ( / b i i y y 2 y 2 g g g g g g g g g g g g g g g g g h g g g g g g g g g g g g y g g g g g g g g g g g g g g g g g g g g g g g g g g g g g g g g g ",
"g g g g g g g g g g g g g g j h g g 6 g g g g g g g g g y g g g g g g g g g g g g g g g g g g g g g g g g 6 g y y 6 g 2 2 2 2 y y y s s / ( { ..O.%.=.;.>.<.<.<.<.<.<.<.<.<.<.>.>.;.=.%.O...{ ( / f i i y y y 2 2 g 6 y g y g g g g g y g g g g g h g g g g g g g g g g g g g 6 g g g g g g g g g g g g g g g g g g g g g g g g g g g g g g g g g g g g 6 y g g g g g g g g g g g g g g g g g g g 6 g g g g g g g g y g 2 g g 6 y 2 2 2 y 2 y y y s s / ( [ ..O.#.=.:.:.,.<.<.<.<.<.<.<.<.<.<.>.;.=.%.O...[ ( / b i i y y 2 2 6 g 2 2 g g y g g g g g g g g g g g g g g g 2 g g g g g g g g g g g g g g g g g g g g g g g g g g g g g g g g g g g g g g 6 y g g ",
"g g g g 2 g g g g 2 g g g g g g g g y g y g g g g g g g 6 g g y g g g g y 6 g y g g g g g g g g g y 6 y g y 6 y g y 6 y y 2 2 y y i i b / ( { ..O.%.=.;.:.>.>.<.<.<.<.<.<.<.<.>.>.;.=.%.O...{ ( / b i y y y 2 y 2 2 y 2 6 g g g g y 6 g g g g g g g j g 2 g g g g g g g g g g g g g g g g g g g g g g g g y 6 y g g g g g g g g g y 6 g y g g g g g g g g g g y g g g g g g g g g g g g g g g g g y g g g g g g y g 6 g g g g y 6 y y 2 2 2 y y i i f / ( { ..O.*.=.;.:.>.<.<.<.<.<.<.<.<.<.<.<.;.=.%.O...{ ( / s i y y y y 2 2 2 2 g y 6 g g g g g g g g y 6 y g g g g g g g g g g g g g g g g g g g g g g g g g g y 6 y g g g 2 g g g g g g g y 6 g y g g g g ",
"g g y g 6 g 6 y g g g y g 6 y g g g g 2 g g g 2 g g g g g y g 6 g g g g g 6 g y g g g g g g g y g 6 2 g g 2 g g g 2 g 2 y 2 y 2 y i i f / ( { ..O.%.=.;.>.,.<.<.<.<.<.<.<.<.<.<.>.;.=.$.@...{ ( / s i i y 1 2 y y 2 g 2 g g 6 y g y g 6 y g 6 y 2 g g g 2 g 2 g y 6 y g g y g g g y y 6 g g g g g g 6 y g g g g g g g g 2 g g g y g g g g y g g 6 y g 6 g g g 6 g g g g g g g g g 2 g y g g g g g g g g g g g g g g g g 2 g 2 g g 2 2 6 2 2 2 y y a b b ( { X.O.#.=.;.:.<.<.<.<.<.<.<.<.<.<.>.:.;.=.%.O...{ ' / s s y y y 2 y 2 2 y g g 2 g 2 g g 6 y g g g 6 g y 6 g y g g g g 2 g y 6 g y g g 6 g 2 g g y 6 g g 6 6 y g 6 y g g g g g g g g g y y g g g g y g ",
"g g g g y g g g g g g g g y 6 y y 6 g y g g g g g g g g g 6 y g g g 2 g g y g g g g g g y g y 6 g y g g g g g 2 g 2 2 2 6 2 2 2 y i i b / ( { ..O.%.=.;.>.,.<.<.<.<.<.<.<.<.<.<.:.;.=.$.O...{ ( / f i i y y 2 2 2 2 2 g y 6 g y 6 g y g g g y g g g g g g g g g g g g 6 g g g g 6 g g g g g g g g g y g y g g 2 6 g g y g g g 2 6 g 6 y 6 g g g y g g y g y y g g 2 g y 6 g g g g g g 6 g y 6 g g 2 g g g y 2 g 2 g g g g g g 2 g 2 y 2 y 2 t y i i b / ( { ..O.%.=.;.:.<.<.<.<.<.<.<.<.<.<.>.>.;.=.%.O...{ ( / s i i y y 1 2 2 2 6 2 g 6 g g g g g g y g y y g g g g 6 g y g g g g g g g 6 g g y g g g g g g y g y g g y g g g g g 2 g 2 g g g 6 g y 6 g 6 6 y ",
"g g 2 g g y g y g g g g g 6 y g g y g 6 g 6 g g g g g g y g 6 g g g g g y g 6 y g g g g g y g g g g 2 g g g g g 2 g g 2 2 2 y y t i i f / ( { ..O.%.=.;.>.>.<.<.<.<.<.<.<.<.<.>.>.;.-.%.O...{ ( / b i y y 2 2 y y 6 2 y 2 g y 6 y g g y g g g g g g g g g 2 g g g y g y g 6 g g y g y g g g g g g g g g g g g g y g y 6 6 y g g g g g g y g g 2 g y g g g g g g g g g 6 y g g g g g g g 6 y g g g g 2 g g g g g g g g 2 g g g g g 2 6 2 2 2 y y y s b / ( { ..O.%.=.;.>.>.<.<.<.<.<.<.<.<.>.>.>.;.=.%.@...{ ( / b s y y 2 y y 2 2 y 6 y y y g g g g g 6 g g g g g y y g g 6 g g g g g y g g g g y 6 g g g 6 g g g g 6 g g g g 2 g g g g g g g 2 6 g g g g g g g ",
"g g g g g 6 g g g g g g g g g g g g g g g y g g g g g g g g y g g 2 g g g g g g g g g g g 6 g g g g g g g 2 g g g g 2 g y 2 2 y y y s s / ' { ..O.*.=.;.:.>.<.<.<.<.<.<.<.<.<.>.:.;.=.%.O...{ ' / s s i y y y 2 2 2 g 6 g g g g g g g 6 g y 6 g g g g g g g g g g g g g g y g g g g g 6 g g g g g g y 6 g g g g g g g g g g g g g g g g g g g g g 6 g g g g g g y g g y g g g g g g y g g g g g g g g g g g g g g g g g g g g 2 g 2 y y 2 y y y i i f / ' | ..O.%.=.;.>.>.<.<.<.<.<.<.<.<.<.>.>.;.=.%.O.X.{ ( / f i i y y 2 y 2 g 2 y 6 g g 6 y g g g y g g g g g g g g g y g g g g g g y 6 g g g g g y g g g g g y g y g g g g g g g g g g g g y y g g g g g g ",
"g g g g g g g g g g g g g g g g g g g g g g y g g g g g g g g g g g g g g g g g g g g g g g g g g g g g g g g g 6 y 2 2 g 2 y y y i i b / ( { X.O.%.=.;.>.>.<.<.<.<.<.<.<.<.<.>.:.;.=.%.@...] ' / b c y y y y y 2 g 6 y g g g g g g g g g g g g g g g h g g g g g g g g g g g g g g g g g g g g g g g g g g g g g g g g g g g g g g g g g g g g g g g g g g g g g g g g g g g g g g g y g g g g g g g g g g g g g g g g g y 6 y g 2 g 2 y y y y i j b / ' { X.O.%.=.;.>.<.<.<.<.<.<.<.<.<.>.>.:.;.=.%.O...{ ( / b s i i y 2 y 6 g 6 y y g g g g g g g g g g g g g g g g g g g g g g g g g g g g g g g g g g g g g g g g g g g g g g g g g g g g g g g g g g g g ",
"g g g g g g g g g g g g g g g g g g g g g g g g g g g g g g g g g g g g g g g g g g g g g g g g g g g g g g g g g g g g y g 2 y g i s b / ( | ..O.%.=.;.>.>.<.<.<.<.<.<.<.<.<.<.>.;.=.%.@.X.{ ( / b c i y y g y g y y g g g g g g g g g g g g g g g j g g g g g g g g g g g g g g g g g g g g g g g g g g g g g g g g g g g g g g g g g g g g g g g g g g g g g g g g g g g g g g g g g g g g g g g g g g g g g g g g g g g g g g y 2 g y g y y i s b / ' { ..@.%.=.-.>.<.<.<.<.<.<.<.<.<.<.<.>.;.=.%.O.X.{ ( / b j i y g y 2 y g g g g g g g g g g g g g g g g g g g g g g g g g g g g g g g g g g g g g g j g g g g g g g g g g g g g g g g g g g g g g g g g ",
"g g g g g g g g g g g g g g g g g g g g g g g g g g g g g g g g g g g g g g g g g g g g g g g g g g g g g g g g g y g g g 2 g y y i c b / ' { X.O.%.=.;.:.>.<.<.<.<.<.<.<.<.>.>.:.;.-.%.O...{ ' / b c i y y y 6 g g g g g g g g g g g g g g g g g g g k g g g g g g g g g g g g g g g g g g g g g g g g g g g g g g g g g g g g g g g g g g g g g g g g g g g g g g g g g g g g g g g g g k g g g g g g g g g g g g g g g g g g g 6 y g g y y j j s b / ( { X.O.%.=.;.>.<.<.<.<.<.<.<.<.<.<.>.:.;.=.%.O...{ ' ) b i i g y g g g g g g g g g g g g g g g g g g g g g g g g g g g g g g g g g g g g g g g g g g g g g g g g g g g g g g g g g g g g g g g g g g g ",
"g g g g g g g g g g g g g k g g j g g g g g g g g g g g g g g k g g g g g g g g g g g g g g g g g g g g g g g g g g g g g g y g j j j b ) ' | ..O.%.=.;.>.>.>.<.<.<.<.<.<.<.<.<.:.;.=.%.O.X.{ ( / b s j j g y y g g g g g g g g g g g g g g g g g g g g g g g g g g g g g g g g g g g g g g g g g g g g g g g g g j g g g g g g g k g g g g g g g g g g g g g g g g g g g g g g g g g g g g g g g g g g g g g g g g g g g g g g g g g y 6 g y g j j b / ( { ..@.%.=.-.>.<.<.<.<.<.<.<.<.<.<.,.>.;.=.&.O...| ' / b c i g y y g y g g g g g g g g g g g g g g g g g g g g g g g g g g g g g g k g g g g g g g g g g g g g g g g g g g k g g g g g g g g g g g j g ",
"j g g g g g g g g g g g g g g g g g g g g k g g g g g k g g g g g g g g g g g g g k g g g g g g g j g g g g g g g g g g g y g i g i c b ) ( { X.O.%.=.;.>.>.<.<.<.<.<.<.<.<.<.>.>.;.=.#.O...{ ' / b b j j g y g y g g g g g k g g g g g k g g g g g g k k g g g g g g g g g g g g g g k g g g g g g g g g g g g g g g g g g g k g g g g g k g g g k g g g g g g g g g g g g g g g g g k g g g g g g g g g g g g g g g g g g g g g g g g y g y i j c n / ' { X.O.%.=.;.>.>.<.<.<.<.<.<.<.<.<.,.>.;.=.$.@.X.{ ' / b c j j g g y g g g g g k g g g g g g g g g k g g g g g g g g g g g g g g g g g g g g g g g g g g j g g g g k g g g g g g k g g g g g g g g g g ",
"g g g g g g k g g g g g g g g g g g g k g g g g g g g g g g g g g g g g g k g g g g g g g g k g g g g g g g g g k g g g g g y g i j c b / ( { ..O.%.=.;.>.>.<.<.<.<.<.<.<.<.<.<.>.;.=.%.O...{ ' / b c j j y g g g g g g g g g g j g g g g g g g g g g g g g g g g g k g g g k g g g g g g g g g g g k g g g g g g g g g g g g g g g g g g g g g g g g g g g g k g g g k g g g k g g g g g g g g g g k g g g g g g j k g g g g g g g g g y g g g i c f / ( | ..O.%.=.-.:.,.<.<.<.<.<.<.<.<.<.>.>.;.=.%.O...] ' / b c j y y g g g g g g g g g g g k g g g g g g g g g k g g g g g g g k g g g g g g g g k k g g g g g g g g g g h g g g g g g g g g k g g g g g g ",
"g g k g g g g g g g k g g k g g g g h g g g g g g g g g g g g g g g g k g g g g g k g g g g g g g k g g g g g g g g g g g g g j j j c b / ' { ..O.%.=.;.>.>.<.<.<.<.<.<.<.<.<.<.>.;.=.%.@...{ ( / b c j j g y g g g g g g g g g g g g g g g g g g g g g g g g g g g g g g g g g g g g g g g g g g g g g g k k g g g g g k g g g k g g g g g g k g g g g g g g g g g g g g g g g g g g g g g g g g g g g k g k g g g h g g g g g g g g g g y j j j c b / ' { ..O.%.=.;.>.>.<.<.<.<.<.<.<.<.<.<.>.;.=.%.O...| ( / b c j j g j g g g g g g g g g k g g g g g g g g g g g g g g k g g g g g g k g g g g g g g g g g g g g g g g g g k g g g g g g g g g g g g k g k ",
"g g g h g g k g g g g g g g g g g g g g g g g k k g g g k g g g g g g g g g g g g g g g g g k g g g g g k g g g g g g g g y g g j j c b / ( { ..O.%.=.;.>.>.>.<.<.<.<.<.<.<.<.<.>.;.=.%.O.X.{ ( / b c j i g g g g g g g g g g g g g g k g g g k k g g g g g g k g g g g g g g g k g g g g g k g g g g g g g g g g g g k g g g g g g g g g g g g g g g g g k g g g g g g g g g g g k g g g g k g g g g g g g g g g g g g g g g k g g g g g g g i j c b ) ( { ..O.%.=.;.>.>.<.<.<.<.<.<.<.<.<.<.<.;.=.%.@.X.{ ' / b c j j y g y g g g g g g g g g g g g k g g g g g g g g g g g g g g k g g g g g k g g g g g g k g g k g g g j g g g g g g g g k g g g g g g g g ",
"g g g g g g g g g g g g k g k g g g g g g g g g g g g g g g g g g g g g g k k g g g g g g g g g g g g g g g g g g g g g g g g y g i c b / ( { ..O.%.=.;.:.,.<.<.<.<.<.<.<.<.<.<.:.-.=.%.O...{ ' / b c j i g y g g g g g g g g g g g g g g g g g g h g g g g g g g g g g g g g g g k g g g g g g g g g g g g g g g k g g g g g g g g k g g g g g g k g g k g g g k g g g k g g g k g g g g g g g g g g g g g g g g g g g g g g k g g g g g g g i j c b / ( { ..O.#.=.-.>.>.<.<.<.<.<.<.<.<.<.>.>.;.=.$.@...{ ( / b c i g g y g g g g g g g g g k g g g k g g k g g g g g g k g g g g g g g k g g g g g g g g g g g g k g g g g g g g k g g g g g g g g g g g g g ",
"g g g g g g g g g k g g g g g g g g g g k g g g g g k g g g g g k g g g g g g g g g g g g g g g g g g g g g g g g g g g g g y g g i s b / ( { ..O.%.&.;.>.,.,.<.<.<.<.<.<.<.<.<.>.-.=.%.O...{ ( / b j j j y g g g g g g g g j g g g g g k g g g g g g g g k g g g g g g g k g g g g g g k g g g k g g g g k g g g g g g g g g g g g g g g g g g g g g g g g g g g g g g g g g g g g g g k g g g k g g g g k g g g k g g g g g g g g g g y g y g i c b / ( { ..O.%.=.;.:.>.<.<.<.<.<.<.<.<.<.>.>.;.=.$.O...{ ( / b s j i i g g g g g g j g g g g g g g g g g g g g g g g g g g g g k g g g g g g g g g g g g g g g g g g h g k g g g g g g g g g g k g g g g g g ",
"g g g g g k g g g g g g g g g g g k g g g g g g g g g g g g g k g g g g g g g g g g g k g k g g g g g g g k g g g g g g g g y g i j c b / ' { ..O.%.=.;.:.,.<.<.<.<.<.<.<.<.<.<.>.-.=.$.O...{ ( / b s i y y g y g g g g g g g g g k g g g g g g g g g g g g g g k g g g g g g g g g g g g g g g g g g g g g g g g g g g g g g g g g g g g g k g g g g g g g g g g g g g k g g g g g g g g g g g k g g g g g g g g g g g g g g g g g y g g y y i j c b / ( { ..O.%.=.;.>.>.<.<.<.<.<.<.<.<.<.>.>.;.=.%.O...{ ( / b s i g y y y g g g g g g g g g g g g g g g g g g k k g g g g g g g g g g g g g g g g g g g g g g g g g g g g g g g g g g k k g g g g g g g g g ",
"g g g k g g g g g g g g g g g g g g g g g g g g g g g g g g g g g g g g g g g g g g g g g g g g g g g k g g g g g g g g g y y y y i i b / ( { ..O.%.=.;.:.,.<.<.<.<.<.<.<.<.<.<.>.-.=.#.O...{ ( / b c i g y y g y g g g g g g g g g g g g g g g g g g g g g g g g g g k g g g g g g g g g g g g k g g g g g g g g g g g g g k g g g g g k g g g g g g g g g g g g g g g g g g g g g g g g g g g g g g g g g g g g g g g g g g g g y 6 g g y g y i i f / ( { ..O.%.=.;.>.>.<.<.<.<.<.<.<.<.>.>.>.;.=.%.O...{ ( / b i i y g y 6 y g g g g g g g g g g g g g g g g g g g g g g g g g g g g g g g g g k g g k g g g g g g g g g g g g g g g g g g g g g g g g g g g ",
"g g g g g g g g g g g g g g g g g g g g g g g g g g g g g g g g g g g g g g g g g g g g g g g g g g g g g g g y g g y g 6 y y y y i i b / ( ' ..O.%.=.;.>.<.<.<.<.<.<.<.<.<.<.>.>.;.=.$.O...[ ( / s s y y y 2 y 2 y g g g g g g g g g g g g g g g g g g g g g g g g g g g g g g g g g g g g g g g g g g g g g g g g g g g g g g g g g g g g g g g g g g g g g g g g g g g g g g g g g g g g g g g g g g g g g g g g g g g g g g g g y y y 2 y y i i f / ( [ ..O.#.=.;.>.>.<.<.<.<.<.<.<.<.<.<.>.-.=.#.O...{ ( / s i y y y y y 2 g g g g g g g g g g g g g g g g g g g g g g g g g g g g g g g g g g g g g g g g g g g g g g g g g g g g g g g g g g g g g g g g ",
"g g g g g g g g g y g g g g g g g g g g g g g g g g g g g g g g g g g g g g g g g g g g g g g g g g g g g g g 6 g y 6 g 2 y 2 y y i i f / ( { ..O.#.=.-.:.>.>.<.<.<.<.<.<.<.<.>.>.;.=.%.O...{ ( / f i i y y y y y 6 y g y g g y g g g g g g g g g g g g g g g g g g g g g g g g g g g g g g g g g g g g g g g g g g g g g g g g g g g g g g g g g g g g g g g g g g g g g g g g g g g g y g g g g g g g g y g g g g g g g g g y g 2 6 2 2 g y y y s s / ( [ ..O.$.=.-.:.>.<.<.<.<.<.<.<.<.<.>.>.;.=.$.O...{ ( / s s i y y y 2 g 2 g 2 g g g g g g g g g g g g g g g g g g g g g g g g g g g g g g g g g g g g g g g g g g g g g g y g g g g g y g g g g g g g y ",
"g g g g g g g g g g g g g g g g g g g g g g g g g g g g y g g g 2 g g g g 6 g y 6 y g g y g g g g g g g g y g g 2 g y 2 y 2 y 2 y i i f / ( { ..O.$.=.;.>.>.<.<.<.<.<.<.<.<.<.>.>.-.=.$.O. .{ ( ! b i i y y 2 2 6 2 g 2 6 y g 6 g 2 g g y g g g g y g g g g g g g g g g 2 g g g g g g g g g 6 g y g g g g g 6 g y g g g g g y g g g g g g 6 g g g g g g g g 2 g g g y g g g g g g 6 g g g g g 6 g g y g g 6 y g g g g y g g 6 y 2 g y 2 2 2 y y y s s / ( [  .O.$.=.;.>.>.<.<.<.<.<.<.<.<.<.<.>.-.=.%.O...' ( / s s y y y y 2 y 2 g g g g g g g g g 6 y y g g g g g g g g y g g g g 6 g y y g g g g g 2 g g y 6 y g g g g g 2 g g 6 y g g y g 6 g g g g g g g g ",
"2 g y g 6 y g g 6 g g y 6 g y 6 g g y 6 g y g g g y y 6 g g y 6 g g g g g y g g g g g g y 6 g g 6 y y 6 g g g y y 6 6 y 2 2 2 y y y i f f ( [ ..O.%.=.;.>.>.>.<.<.<.<.<.<.<.<.>.>.-.=.$.O...' ( / s i i y 2 y 2 2 y 2 y 6 g g g g g g g y 6 g g 6 g g g g 2 g y g g g g g g g g g g 2 g y g y g g 6 g y g g y g 6 y g g g g y 6 g y 6 g y g y g g g g 2 g g g g y 6 g g g g g 2 g y g y g g y g 2 g g g g g g g g y g 6 y g y 6 g g 2 6 2 y y y i i s ! ( [ ..O.$.=.;.>.>.<.<.<.<.<.<.<.<.<.<.<.;.=.%.O...[ ( / f i i y 2 2 2 2 2 g 2 2 2 g g y 2 g g g 6 g g g y g 6 y g 6 g y g g y g 6 g g g g g g g g g g g 6 y g g g g g g g g g 6 g g g g 6 y g g 6 y g g ",
"g g g 2 g g g 2 y y g 6 g g g g 2 g g 2 g g g 2 6 g 6 y g 6 y g g g g g g g 2 g y y g g g y g y y g 6 y g g 6 6 y g 2 y y 2 2 2 y y a b b ( { ..O.#.=.;.>.>.<.<.<.<.<.<.<.<.<.>.:.-.=.$.O. .[ ( b s i i y 1 2 2 2 2 2 g 6 y g y g g g g g g g g y g 6 y y g g 6 g g g g g y 6 g g g 2 g g g g h g g 6 y g g y g g y g g 6 g y 6 g g 6 y g g g g g y g 6 y g g g 6 g y 6 g g g g 6 y g 6 g g g g g g g g g 2 y 6 y 6 g y 6 6 y y g 2 2 2 2 2 t y y a s / ( [ ..O.#.=.;.:.>.<.<.<.<.<.<.<.<.<.>.:.;.=.%.O...{ ( ! s i y t y 2 y 2 g 2 g g g g g g g g g g y 6 6 y g g g g g g g g g 6 y g g g g h 2 g 6 y g g y g y 6 g y 2 g g y g g g g g g g g y g g g 6 y g g ",
"g g g g 2 g g g g g g y g g g y g g g g 2 g g g y g g g g g g g g 2 g g g g g g g 6 6 g g g g 6 g g g g y 6 y y 6 2 g 2 2 2 2 y y u i c ! ( [ ..O.%.=.;.>.>.<.<.<.<.<.<.<.<.<.>.>.-.=.%.O...[ ( ! b i y y y y 2 2 g 2 g y 6 y 6 g 2 g g y 6 2 g g g y g 6 g y g y y 6 y g g g y g y g g g g g j y 6 g g g y g y y 6 g y y g g y y 6 y g g g g g y 6 y g g g y 6 y g g y 2 g 6 y y g g g y g g g g g y 6 g g g g g g g 6 y g y 6 g 2 2 y y 2 2 y y j s ! ) [  .O.%.=.-.>.<.<.<.<.<.<.<.<.<.<.>.>.-.=.%.O...[ ( f f i i y 2 2 2 2 2 2 2 g 2 2 g g g g y 6 y g g y y y 6 y g 2 g g g g g y g g g j g g g g 6 y g y g g g 6 g g g 6 2 g g y 6 g g j g g y 6 y g 2 g ",
"g y g g g g 6 g g g g g g g g g g 2 g g g g 2 g g g y g g g g g g g 2 g 2 g g g g g y g g g g g g g y 6 g y 6 g 6 y 2 2 2 2 2 2 y i i f b ' { ..O.%.=.-.>.>.<.<.<.<.<.<.<.<.<.,.>.;.=.%.O. .[ ( / s a y y 2 2 2 2 2 2 g y y y g g g 2 g y g y 6 g g g g g g g g g 6 6 g g g g g g 6 g g g g g g g y 6 g 6 g g 6 g g y 6 g y g g g g g g g g g g g g 6 g 6 g g g g g g g 6 g g y g g g g 6 g g g 6 g y g g g 2 g y g g y 6 g g 2 g 2 2 y 2 2 2 y i i s / ( [  .O.%.=.;.>.>.<.<.<.<.<.<.<.<.<.>.>.;.=.%.O...{ ( / s i i y y 2 2 y 6 y 6 g g g g 2 y g y g g g 6 g g 6 6 g g g 2 g 6 y g g g g g g g y 6 y g g g 6 g y g y y 6 y g g g 2 g g g g g 6 g y g g 6 y g ",
"g 6 g g g y g y g y 6 g g g g g g g g g g g g g g y 6 g g g g g g g g g g g g y 6 y g g g g g g g y g g g g y g y y 6 g y 2 y y y i i s / ( [ ..O.$.=.;.>.>.>.<.<.<.<.<.<.<.<.>.:.;.=.#.O...{ ( / f j i y y y 2 y g 2 g 6 g g g g g g g g g g g g g y 6 g g g g y g y g g g y 6 g g y y 6 g g g g g g y y g g g 6 g g g g 6 g g y g g g g g g g g g y g y g y g y g g g y g g g y 6 g g y g g g y g g g g g g g g g g g y g g g g 2 g 2 2 y y y i i f / ( [ ..O.$.=.;.>.>.>.<.<.<.<.<.<.<.>.>.>.;.=.$.O...' ( / b a y y y 2 y 2 y 2 y 2 g g g g g 6 g g g g y g y g y g g g g g g y g y 6 g g g g g g g y g g g g g g g g g g g g g g g g g g g y g g g g g g g ",
"g g g g g g g g g g g g j h g g g g g g g g g g g g g g g g g g g g g g g g g g g g g g g g g g g g g g g g g g g y 6 2 y 2 2 y y i s s / ( [ ..O.$.=.;.:.,.<.<.<.<.<.<.<.<.<.<.>.-.=.$.O...[ ( / s i i y y y 2 y 2 g 2 g g g g g y g g g g g g g g g g g g h g g g g g j h g g g g g g g g g g g g g g g g g g g y g g g g g g g g g g g g g g g g g g g g g g g g g g g g g g g g g g g g g g g g g g g g g g g g g g g g g g g y 6 y 6 2 y y i i b ! ( { ..O.%.=.-.>.>.<.<.<.<.<.<.<.<.>.>.>.-.=.$.O...{ ( / b i i y y 2 y 6 g 6 g g g g g g j g g g g g g g g g g g g g g h g g g g g g g g g g g g g g g g g g g g g g g g g g g g g g g g g g g g g g g g ",
"g g g g g g g g g g g g g g g g g g g g g g g g g g g g g g g g g g g g g g g g g g g g g g g g g g g g g g g g g g y g 2 g g y y y i b / ( [ ..+.%.=.;.>.>.>.<.<.<.<.<.<.<.<.<.>.-.=.#.O...{ ( / f c y y y 2 g 6 g g g g g g g g g g g g g g g g g g g g g j g g g g g g g g g g g g g g g g g g g g g g g g g g g g g g g g g g g g g g g g g g g g g g g g g g g g g g g g g g g g g g g g g g g g g g g g g g g g g g g g g g 2 y 2 y y y y y i b / ( [ ..O.%.=.-.>.>.<.<.<.<.<.<.<.<.<.>.>.;.=.%.O...[ ( / b i i y y y 2 y g g y g g g g g g g g g g g g g g g g g g g j g g g g g g g g g g g g g g g g g g g g g g g g g g g g g g g g g g g g g g g g g ",
"g g g g g g g g g g g g g g g g g g g g j g g g g k g g g g g g g g g g g g g g g g g g g g k g g g g g g g g g g g g g g y 2 y i i c f / ( { ..O.%.=.;.>.,.<.<.<.<.<.<.<.<.<.<.>.-.=.%.O...{ ( / s s i y g y g g g j g g g g g g g g g g g g g g g g g g g g g g g g g g g g g g g g g g g g g g g g g g g g g g g g g g g g g g g g g g g g g g g g g g g g g g g g g g g k g g g g g g g g g g g g k g g g g g g g g g g g g g g g y y 2 y i i c b / ) [ ..O.#.=.-.>.>.<.<.<.<.<.<.<.<.<.>.:.;.=.$.O...[ ( / b s i g g 2 g y j g g g g g g g g g g g g g g k g g g g g g g k g g g g g g g g g g g g g g g g g g g g g g g g g g g g g g g g g g g g g g g g ",
"g g g g g g g g g g g k g g g g g g g g g g g g g g g g g g g g g g g g g g g g g g g g g g g g g g g g g g g g g g g g g g g y y i j b / ( [ ..O.%.=.;.:.>.<.<.<.<.<.<.<.<.<.<.>.-.=.%.O...[ ( / b c i y y y g g g g g g g g g g g g g g g g g g g g g g k g g g g g g g g g k g g g g g g g g g g g k g g g g g g g g g j g g g g g g g g g g g g g g g g g g g g g g g g g g g g g g g g k g g g g g g g g g g g g g g g g g g g g g g g g y j s f / ( [ ..O.$.=.-.>.>.<.<.<.<.<.<.<.<.<.>.>.;.=.#.O...{ ( / b i j y y y g g g g g g g g g g g g g g g g g g g g g g g g g g g g g g g g g g g g g g g k g g g g g g g g g g g g g g g g g g g g g g g j g k ",
"g g g k j g g g g g g g g g k g g g g g g g g g g g g g g g g k g g g k g g g g g g k g g g g h g g g g g g g j g g g g g g g y g i c b / ( { ..O.%.=.-.>.<.<.<.<.<.<.<.<.<.<.<.>.-.=.%.O...{ ( / b c i j g g y g g g g g g g g g g g g g g g g k g g g g g k g g g g g g g g g g g g g g k g g g g g k g g g g g g g g g g g g g g g g g k g g k j g g g g g g g g g g g g g g g g g g g g g g g g g g g k g g g g g g g g g g g g g g g y y i i c b / ( { ..O.%.=.-.>.>.<.<.<.<.<.<.<.<.<.>.>.;.=.$.O...{ ( / b j j j g g y g g g g g g g g g g g h g g g g g g g g g g g g g g g g g g k g g g g k g g g g g g g g g g g g g g g g k g g g g g h g g g g g g ",
"g g g g g g g g g g g g g h g g g g g g g g g g k g g g g g g g g g g g j g g g g g g g g g g g g k g g g g g g g g g g g g y g y j s b / ( { ..O.%.=.;.:.<.<.<.<.<.<.<.<.<.<.<.>.-.=.$.O...{ ( / b c j j y g g g g g g g g k g g g g g g g g g g g g g g g g g g g g g g g g g g g g g g g g g g g g g k g g g g g g k g g g k g g k g g g g g g g g g g g g k g g g k g g g g k g k g g g g g g g k g g g g g g g g g g g g g g j g g g g g g j j b / ( { ..O.%.=.-.>.>.<.<.<.<.<.<.<.<.<.<.>.;.=.%.O...{ ( / b c i y y g g g g g g g g g g g g k g g g g g g g g g g g g g g g g g g g g g g g g g g g g g g g g g g g g g g g g g g k g g g k g g g g g g g ",
"g g g g g g g g g g g g g g g g k g g g g g k g g g g g g g g g g g g g g g g g g g k g g g k g g g g g k g g g g j g g g y g j j j c b / ( { ..O.%.=.;.>.>.<.<.<.<.<.<.<.<.<.<.>.-.=.%.O...{ ' / b s j g j y g g g g g g g g g g k k g g g k g g g g g g g g g g g g g g g g g g g g g g g g k g g g g g g g g g g g g g g h g g g g g g g g g k g g h g g g g g g g g g g g g g g g g g k g g g g g g g g g g g g g h g g g g g g g g g y y j i c b / ' { ..O.%.=.;.>.>.<.<.<.<.<.<.<.<.<.<.>.;.=.%.O...{ ( / b s j j j y g g g g g g g k g g g g g g g g g k g g g k g g g g g g g g g g g g k g g g g k g g g g g k g g g k g g g g g g g g g g g g g g g k ",
"g g g g g g k g k g g g g g g g g g k g g g g g g g g g k g g g g g g g g g k g g g g g g g g g g g g g g g g g g g g g g g y g j j c b / ( { ..O.#.=.;.>.>.<.<.<.<.<.<.<.<.<.>.>.-.=.$.O...{ ( / b c j i y g g g g g g g g g g g g g g g g g g g g g k g g g g g g g k k g g g g k g g g g g g g g g g g g g g k g g g g g g g g g k g g g g g g g g g g k g g g g g g g k g g g g g g g g g g g g g g g g g k g g k g g g g j g g g g g g g j j c b / ( [ ..O.$.=.;.>.>.<.<.<.<.<.<.<.<.<.<.<.;.=.%.O...{ ' / b c j i g g g y g g g g g g k g g g g g g h g g g g g g g k g g g k g g g g g k g g g g g g g g g k g g g g g g k g g g g g g k g g g g g g h g ",
"k g g g j g g g g k g g g g k g g g g g g g g g g g k g g j g g k g g g g g j g g g g g g k g g g g g g g g g g g g g g g g g g y j c b / ( { ..O.$.=.;.>.,.<.<.<.<.<.<.<.<.,.,.:.;.&.$.O...[ ( / b c i j g y y g g g g g g g g g j g g g g g g g k g g g g g g g g k g j g g g g g g g j g g g k g g g g g j g g g g g g g g g g g j g g g g g g g g g g g g g g h g g g g g g g k g g g g g g g g g g k g g g g g j g g g k g g g g g y y g y i c b / ( { ..O.$.=.-.>.,.,.<.<.<.<.<.<.<.<.>.>.;.=.$.O...{ ( / b c j i g g g g g g g g g g g g g g k g j g g g g g g g g g g g g g g g g g g g g g g g g g g g g g g g g g g g g g g g g k g g g j g g g g g g ",
"g g g g g g g g h g g g g g g g g g g g g g g g g g g g g g g g g g g g g g g g g g g g g g g g g g g g g g g g g g g g y g y y j i c b / ( { ..O.%.=.;.:.>.<.<.<.<.<.<.<.<.<.<.>.:.&.%.O...[ ( / b s j j y g g g g g g g g g g g g g g g g g g g g g g g g g g g g g g g g g g g k g g g g g g g g g g g g g g k g g g g g g k g g g g g g g g g g k g g g g g g g k g g g g g g g g g g g g g g k g g g g g g g g g g g g g g g g g g g g g i j s b / ( {  .O.$.=.;.:.,.<.<.<.<.<.<.<.<.<.>.:.;.=.$.O...{ ( / b c j i y g g y y g g g g g g g g g g g g g g g g g k g g g g g g k g g g g g g g g g k g g k g g g g g g g g g g g g g g g g g g g g g k g g g ",
"g k g g g g g g g g g g g g g g g g g g g g k g g g g g g g g g g k g g g g g g g k g g g g g g g g g g g k g g g g g g g g g y g i i b / ( { ..O.%.=.;.>.>.>.<.<.<.<.<.<.<.<.<.:.;.=.%.O...[ ( / b j i y g y g g g g g g g g g g g g g g k g g g g g g g g g g g g g g g g g g g g g g g g g g g k g g g g g g g h g g g g g g g g g g g g g g g g g g g g g g g g g g j g g g g g g g j g g g g g g g g k g g g g g g g g g g g g g g g g y g j c s / ( { ..O.%.=.;.>.,.<.<.<.<.<.<.<.<.<.,.>.;.=.%.O...{ ' / s i j g y g y g g g g g g g g g g g g g g g g g g g g g g g g g g g g g g j g g g g g g g g g g g g g g g g k g g g g g g g g g g g g g g g g g ",
"g g g g g g g g g g g g g g g g g g g g g g g g g g g g g g g g g g g g g g g g g g g g g g g g g g g g g g g g g g g g 2 g y g y i s b / ( [ ..O.$.=.;.>.>.<.<.<.<.<.<.<.<.<.<.:.;.=.%.O...[ ) / b j i y y g y y g g g g g g g g g g g g g g g g g g g g g g g g g g g g g g g g g g g g g g g g g g g g g g g g g g g g g g g g g g g k g h g g g g g g g g g g g g g g g g g g g g g g g g g g g g g g g g g g g g g g g g g g g g g y y y i y s f / ( { ..O.$.=.;.:.,.,.<.<.<.<.<.<.<.>.>.>.;.=.%.O...{ ( b b s i y y 2 y g g g g g g g g g g g g g g g g g g g g g g g g g g g g g g g g g g g g g g g g g g g g g g g g g g k g g g g g g g g g g g g g g ",
"g g g g g g g g g g g g g g g g g g g g g g g g g g g g g g g g g g g g g g g g g g g g g g g g g g g g g g g g g g g g 2 y y y y i a b / ) [ ..O.$.=.-.>.<.<.<.<.<.<.<.<.<.<.>.:.:.=.$.@...[ ( / f i i y y y 2 y g 2 g g g g g g g g g g g g g g g g g g g g g g g g g g g g g g g g g g g g g g g g g g g g g g g g g g g g g g g g g g g g g g g g g g g g g g g g g g g g g g g g g g g g g g g g g g g g g g g g g g g g g g g g g 2 g y y y s s / ( [ ..O.%.=.-.>.,.,.<.<.<.<.<.<.<.,.,.:.;.=.$.O...{ ( ! b a i y y 6 y 2 g g g g y g g g g g g g g g g g g g g g g g g g g g g g g g g g g g g g g g g g g g g g g g g g g g g g g g g g g g g g g g g g ",
"g g g g g g g g g g g g g g g g g g g g g g g g g g g g g g g g g g g g g g g g g g g g g g g g y g g g g 6 g g g g 2 g g 2 2 y y i i f ! ( [ ..O.$.=.-.;.>.>.<.<.<.<.<.<.<.,.,.:.;.=.$.O...[ ( / s s y y y y 2 6 2 g g g g g g g y g g g g g y g g g g g g g g g g g g g g g g g g g g g g g g g g g g g g g g g g g g g g g g g g g g g g g g g g g g g g g g g g g g g g g g g g g g g g g g g g g g g g g g g g g g 6 g g g 2 g 2 2 2 y y y i s f / ( [  .O.%.=.-.>.,.<.<.<.<.<.<.<.<.<.,.:.-.=.$.O...{ ( / b i i y y y 2 g 2 y 2 g g 6 g g g g g g g g g g g g g g g g g g g g g g g g g g g g g g g g g g g g g g y g g g g g g g g g g g g g g g g g g g ",
"g g g g g g g 2 g g g g g g g g g g y 6 y g g 6 g g g g g g g g g g g g g g g g g g g g g g g g g g g g y g g y g 6 y g 2 y 2 y y i i s b ( [  .O.$.=.-.:.>.<.<.<.<.<.<.<.<.,.,.:.;.&.$.O...[ ( ! s i i y y 2 y 2 y y g y 6 g g g 6 6 g g g g 6 g g g g g g g g g g g g y g g g g g g g g 6 g g g g g g g y g y g g g g g g g g y g y g g g g g g g g g g g g g g g g g g g g g g g g g g g g g y g g g g g g g g 6 g y y g 6 y g 2 2 y 2 y y y y i s / ( [  .O.#.=.-.:.,.,.<.<.<.<.<.<.,.,.,.:.-.&.$.O...[ ( / s i i y y y 2 y g 6 y 6 g g g g g h g g g g g g g g j h g g g g g g g g g g 2 g g g g g g g g g g g g y g g g 6 g g g g g h g g g g g g y g g g ",
"g g g g 6 y g g g 2 g g g g h j y g g g g g y g g g g g g g g g g g g 6 y g 6 y 6 g g g g g g g g g g 2 g g g g g y 2 2 2 2 2 y y y i f / ( [  .O.$.=.-.:.>.<.>.<.<.,.<.<.,.,.>.:.;.&.$.o. .[ ( / s s y y y 2 2 2 2 2 6 y g y g g g y g y g g g g g g g g g g g g g g g 6 g g g g g g g y g g g g g g g g g g 6 y g g g g g g g 6 g g g y 6 y g g g g g g g g y g g g g y 6 g g g g g g y 6 g g y 6 g g g g g g y g g 6 g y g y 2 g y 2 2 2 2 y i i f f ( [  .o.$.=.-.:.,.<.<.<.<.<.<.<.,.,.,.:.;.=.$.O. .[ ( f s i y y 2 2 2 2 2 y 2 g g 2 y g g j g g g g g 2 g g g g g y 6 g g g g g g g g g g y g g g g g g g y g 6 g g g y y g g g g g j g 2 g g y 6 g y 6 ",
"y g g g g g g g g g 6 y g y g g y g g g g y y g g g g g g y g y g g g g y g g g y g g g g y g g g 2 g 2 g g g 2 6 g 2 y 2 y 2 y t y u s f ( [ ..O.#.&.;.:.>.>.,.,.<.,.,.<.,.,.:.:.-.&.$.o. .' ( b s i t y 2 2 2 2 6 g 2 g g g 2 y g y g g 6 y g y g g g g g g g g g 2 g g g g g y 6 y y g g g 2 g g g g y 6 6 g g 6 y g g g g 2 y 6 y y g g y 6 2 g 6 y 6 g 6 g g g g g g y g g g 2 g 6 y g 6 y g g g g g g 6 y 6 6 y g g g 6 g g y 2 2 2 2 2 t y a s b ( '  .O.#.&.;.:.>.,.,.,.,.<.,.,.,.,.:.:.&.&.$.o.| [ ( b s i i y 1 2 2 2 2 g 2 g g 6 g g 2 g 2 g y g g g g g 6 y g g g g g 2 g 2 g g g g g g 2 g g g 6 2 g y 6 y g g g g 6 g 6 y 6 y g g g g g g g y 6 g ",
"6 y 6 g 6 g 2 y y 6 g g y 6 g 2 6 g 2 g y 6 6 g g 2 g g g 6 y 6 g 2 g g 6 6 y g y 6 2 g y 6 y 6 g g g g 2 g y 6 y 2 g 2 2 2 2 1 y i i s f ~ [ | o.#.&.&.:.:.>.,.,.,.,.,.,.,.>.:.;.-.&.$.o. .' ( ! b a y t y 1 2 2 2 2 y 2 g g g 6 g 6 y g y 6 y 6 y 6 g 6 g 2 y y 6 g g g 2 g 2 g y g 6 g 2 g g g 2 g 2 g g y y g y 6 g 2 g g g g y g 6 g 2 g g g g y g y y y g 6 y 2 g y 6 y 6 g g g g 6 y y g g 2 g 2 y 6 y g y g 6 y 2 g y 2 2 6 2 2 2 t y y y i s ! ~ [  .o.@.&.&.:.:.>.,.,.,.,.,.,.,.,.:.;.-.&.$.o. .[ ( ! b a y t y 2 2 2 2 g g 2 y y 2 g g g g g 6 y 6 y g 2 y g g 2 y 6 g g g g 2 g g 2 6 y g g y 6 y g g g 6 g 2 g 6 y y g 6 y y g g 2 g 2 y 6 g g y g ",
"y 6 g 2 y y y 6 y g 2 g g y g 6 6 y y 6 g 6 y y 2 g g 2 2 g g g 2 g g 2 y g g 2 y g 2 y 6 y y 6 g 2 g 2 g g 2 g 2 2 2 2 2 2 2 2 y t i s ! ( [ | ..@.$.&.&.:.:.>.>.>.>.>.:.:.:.:.-.&.%.@.o.| ' ~ b s i i y 2 2 2 2 2 2 2 2 g 2 g 6 y y 6 2 g g g y g g 2 y y y 6 g 2 g g g g g g g 6 6 y g g 2 g 2 g y g 2 g g g 2 2 g y y 6 6 y g 6 6 y g g 2 g g 6 g g g 2 2 g y y 6 y 6 y y 6 g 2 g 2 y y 6 y 2 g g 6 y y g g 2 g y 6 2 g 6 g y 2 y 2 2 2 1 y y i s f ( ' | o.@.%.&.;.:.:.>.>.>.>.>.>.:.:.:.;.&.&.@...| ' ~ f s i y y 2 1 2 2 2 2 6 2 6 g 6 g g 2 2 g y 6 y 6 g g 2 y 6 y y 6 g 2 6 g g g g g y 6 2 g g y 6 g g g y g g g g g g y y g 6 y y 6 6 y y 6 g 2 6 g ",
"2 y y g 2 6 y 6 6 y g 2 6 g 2 y y g 2 g 2 g y 6 g 2 g 2 y 6 2 g y 6 g 2 g 2 g 2 6 y g 6 y y 6 y g 2 g g 2 g g 2 2 g y 2 2 2 2 2 y y i s b ! ^ [ ..@.$.&.&.;.;.;.;.:.:.;.:.:.:.-.&.&.$.O...| ' ( f s u y y 1 2 2 2 y y 6 y 2 y 6 y g 2 g g 2 2 g g 2 g 2 y 6 y 6 6 y g 2 2 2 g 2 g 2 y g 2 g g 2 2 g 6 y 6 y 2 g g g 6 y 2 y 6 y g 2 y g 2 g g 2 2 y 2 y 6 g g g 6 y y 6 y y 6 y g 2 g g 6 y y 6 g g 2 y 6 g 2 y g g 2 y g y 2 2 2 6 2 2 2 2 2 2 t i s ! ~ ^ | o.@.@.&.&.&.;.;.:.;.:.:.;.:.;.-.=.&.$.@...{ [ ~ f s y t y y y 2 2 2 y 2 g 2 y y 2 g g g g 2 y g g 2 g g 6 y y 6 y g 2 y g g 2 2 g 6 y y 6 g 2 y y 2 2 g 2 2 g 2 y 2 6 g 2 g 2 g y y y 6 y g 2 y g ",
"g g 2 6 2 2 g g 2 6 2 6 2 y 6 y 2 g 2 g 6 2 6 2 2 2 g 2 6 2 y g 2 g 2 g 2 6 2 g g 2 2 6 2 g 6 2 6 2 6 y 6 y 2 6 2 g 2 2 2 2 2 1 t y i a f ! ( [  .o.@.$.&.&.-.-.-.-.=.-.-.-.-.&.&.%.@.o.| [ ^ ! f a i y y 1 2 2 2 2 2 6 6 2 y 6 2 g 2 g y 2 y 6 2 g 6 2 6 y 2 y 2 y 2 2 g 6 y 2 2 6 2 g 2 g 2 6 g 2 g 2 2 6 2 g 2 2 2 2 g y 6 2 2 6 2 g 2 g 2 6 y 2 y 6 6 2 2 2 2 2 2 2 2 y 2 g 2 g 2 g g 2 2 6 2 g y 2 g 2 6 2 2 g 2 6 y 2 6 2 2 2 2 2 2 2 y t y i a f ! ' [  .o.O.$.&.&.&.;.-.-.-.-.-.-.&.&.&.$.@.o. .[ ~ ! f a i t y 1 2 2 2 2 2 2 2 2 2 2 2 2 g 2 g 2 6 y 2 2 g 2 6 2 g 6 y g 6 2 y g 2 6 2 y 2 2 6 y 2 6 2 g 2 6 2 y 2 6 2 y 6 g g 2 6 2 g 2 g 6 2 2 g 2 2 ",
"2 2 2 2 6 2 2 2 2 y 2 2 2 2 2 2 2 2 2 2 2 2 2 6 2 g 2 2 2 6 2 2 2 2 2 2 2 6 2 2 2 g 2 6 2 2 y 2 2 2 2 2 2 2 2 2 2 2 2 2 2 2 1 2 2 t t i a ! ~ [ | ..o.@.&.%.%.&.*.&.=.*.&.&.%.$.$.O.o...| ^ ~ ! d i y t 1 2 2 1 2 2 2 2 2 2 2 2 2 6 2 2 2 6 2 6 2 2 y 2 2 2 2 6 2 6 2 6 2 2 2 2 2 6 2 2 2 2 2 2 2 2 6 2 2 6 2 2 2 6 2 6 2 2 2 2 2 6 2 2 2 2 2 2 2 6 2 2 2 2 2 g 2 6 2 6 2 6 2 2 2 6 2 2 2 2 2 6 2 2 6 2 2 2 2 2 2 2 6 6 2 2 2 2 2 2 2 2 2 < 2 1 t t i s f ~ ^ | ..o.@.$.&.&.&.&.*.*.*.*.&.&.$.@.@.o. .| [ ~ ! s i t y 2 1 2 2 1 2 6 2 2 2 6 2 6 2 2 2 2 2 6 2 2 2 2 2 2 2 2 2 2 2 6 2 2 2 2 2 6 2 2 2 2 2 2 2 2 2 2 2 2 6 2 2 2 2 2 2 2 2 2 6 6 2 2 2 2 2 2 6 2 ",
"2 2 2 2 < 6 2 2 2 2 2 2 2 2 2 2 2 2 2 2 2 2 6 1 2 6 2 2 6 < 6 < 2 2 2 2 6 1 2 2 2 2 2 < 2 2 2 2 6 2 2 2 2 2 < 6 < 2 2 1 2 < 1 1 1 t t i a f Q ^ ^ |  ...o.o.O.#.#.#.#.$.O.@.@.@.o.o. .| ^ ^ ! f a u t 1 1 1 < 2 < 2 < 6 < 2 2 2 6 2 1 6 2 2 2 < 2 2 2 2 < 6 < 1 2 2 6 2 1 6 2 2 6 1 2 2 2 2 6 2 2 2 2 2 6 1 2 6 2 2 6 1 2 2 2 2 6 1 2 6 2 2 6 2 2 2 2 2 6 2 2 2 2 2 6 1 2 2 2 2 6 2 1 6 2 2 6 < 2 2 2 2 2 2 2 2 2 < 6 < 2 2 2 2 2 < 6 2 < 2 1 1 t t i a d ! ^ ^ |  ...o.O.@.@.@.#.#.@.#.@.@.@.o.o.o.| ^ ^ ! f a u y 2 1 1 1 1 1 < 2 2 2 2 2 6 1 2 2 2 2 6 2 1 6 2 2 2 2 2 2 2 2 2 < < 2 2 2 6 2 2 2 2 2 2 2 2 2 2 2 2 2 2 2 2 2 2 2 2 2 2 2 2 < 2 < 6 6 2 2 2 2 ",
"< 2 < 1 1 1 < 2 < 1 < 2 < < 2 < 2 < < 2 < < 1 < 1 < 1 1 < 1 1 1 1 < 2 < 1 1 < < 2 < 1 1 < < 2 < < < 1 1 1 < 1 6 < < 1 < 1 < < < 1 1 1 t r p d Q ^ ^ [ | ................X..... . .| ^ ^ ~ Q f a u t t 1 1 1 < < < < 1 2 < 1 1 < < < < < 1 1 1 1 < < 2 < 1 6 < 5 1 1 < < < 1 1 1 < 1 1 < 2 < < < 1 1 1 < < 1 < < 1 1 1 1 < 1 < 2 < 1 < < 1 1 < < 1 1 1 < < < 1 1 < 2 1 1 < < 2 < < < < 1 1 < < 5 < 2 < < 2 < < 2 1 1 1 1 2 < < 1 1 1 < < < < < 1 1 1 t u a f Q ~ ^ ^ {  ..................... . .^ ^ ^ ^ Q d a u t 1 < 1 < < 1 < 1 < < < 2 < < 1 1 < 2 < < < < 1 1 1 < 2 < < 2 < 1 6 < 1 1 < < < 2 < < 2 2 < < 2 2 < < 2 1 < < 2 < 2 < < 1 < 1 1 1 1 1 < < 2 < 1 ",
"< < < < < < < < 3 - < < < < < < < < < < < < < < < < 5 < - < < < < < < < < < < < < < < < < < < < < < 5 < < < < - 3 - < - < < < < : : 1 , e u a d Q Q ^ ^ ^ ^ ^ | | [ [ [ [ ^ [ ^ ^ ^ ~ Q Q d p r e 1 , : < : < < < < < - < < < < < < < < < < < < 5 - < < < < < < < < < < < < < < < < < < < < < < < < < < < < < < < < < < < < < < < 3 - < < < < < < < < < < < < < < < < < < < < < < < < < < < < < < < < < < < < 3 < < < < < < < < < < < < < : : < < , e t u p d Q ~ ^ ^ ^ ^ ^ | [ | ^ | | ^ ^ ^ ^ ^ ~ Q Q d a r e t , < : < : < : < < < < < < < < < < < < < < < < < < 5 < - < < < 3 < < < < - < < < < < < < < < < < < < < < < - 5 < < < < < < < < < < < < < < < < ",
"- - - - - - - - - < - - - - - - - - - - - - - - - - - - - - - - - - - - - - - - - - - - < - - - - - - - - - - - < - - - - - - - - : : , , e e r p d Q Q Q Q Q ~ ~ ~ ~ ~ ~ Q ~ ~ Q Q Q d p r r e , > : : - - - - - - - - - - - - - - < - - - - - - - - - - - - < - - - - - - - - - - < - - - - - - - - - - - - - - - - - < - - - - - - - - - - - - - - - - - - - - - - - - - - - - - - - < - - - - - - - - - - - - - - - - - - - - - - - - - - - : : : , w r r p d d Q Q ~ ~ ~ ~ ~ ~ ~ Q Q ^ ~ Q Q Q d p r r , , : : : - - - - - - - - - - - - - - - - - - - - - - - - - - - - - - - - - - - - - - - - - - - - - - - - - - - - - - - - - - - - - - - - < - - - - ",
"* * * * * - - * * * * * * * - - - * * - * - - * * * * * * - - * * - - * - * - - - * * - * * * * * * * * * - - * * * * * * * * * = * = = : > , w r r r p p p p p p d p a d d p d p p r e e > > > : = = = = - * * - * = * * - * - * * - * - * * * * * * * * * - * - * * - * - - * * * - * - * * * * - - * - * - - - * * - * * * * - * * - * - - * * * * * * - - * * - - * - * - - - * * - * * * * * - * - * * * * * - * - - * * * * * - * * = - * = = = ; ; , w e r r p p p p p d p p d p d d p p p r r e w , , ; = = = * * = * * * * - * * * - - - * * - * - * * * * * * - * - * * * - * - * - - * - * - - * - * * - * - - * * * * - * - - * - * * - * * * - * - ",
"* * * * * @ * * * * * * * * * @ @ * * @ * * @ * * * * * * @ * * * @ * * @ * * @ * * @ * * * * * * * * * * * @ * * * * * @ * * * $ * * % % = & ; & > > w w r r w e e e e e e w e e w w > > ; ; = = % * * $ @ * @ * @ * * * @ * * * * @ * @ * * * * * * * * * @ * * * @ * * @ * * * * @ * @ * * * * @ * * @ * * @ * * @ * * * * * @ * * @ * * @ * * * * * * @ * * * @ * * @ * * @ * * @ * * * * * @ * * @ * * * * * @ * @ * * * * * * @ * * @ @ $ * $ = % = & > & & w w w e e e e r w r r e e w w w w w & ; ; % % = $ * $ * @ * * * * @ * * * * @ * * @ * * * * * * * * * * * @ * * * * * @ * * @ @ * * @ * * @ * * @ * * @ * * * * @ * @ * * @ * * @ * * @ * * @ ",
"@ @ @ @ @ @ @ @ @ @ @ @ @ @ @ @ @ @ @ @ @ @ @ @ @ @ @ @ @ @ @ @ O @ @ @ @ @ @ @ @ @ @ @ @ @ @ @ @ @ @ O @ @ @ @ @ @ @ @ @ @ @ @ @ @ @ @ # # $ % % & & & & & & & & > & & & & & & & & & % % % $ $ @ # @ @ @ @ @ @ @ @ @ @ @ @ @ @ @ @ O @ @ @ @ @ O @ @ * @ @ @ @ @ @ @ @ @ @ @ @ @ @ @ @ @ @ @ @ O @ @ @ @ @ @ @ @ @ @ @ @ @ @ @ @ @ @ @ @ @ @ @ @ @ @ O @ @ @ @ O @ @ @ @ @ @ @ @ @ @ @ @ @ @ @ @ @ @ @ O @ @ * @ @ @ @ @ @ @ @ @ @ @ @ @ @ @ @ @ @ @ $ # % % % & & & & & & & > & > & & & & & & & & & % # % # # @ $ @ @ @ @ @ @ O @ @ @ @ @ @ @ @ @ @ @ @ @ @ @ @ @ @ O @ @ @ @ O @ @ @ @ @ @ @ @ @ @ @ @ @ @ @ @ @ @ @ @ @ @ @ @ @ @ @ @ @ @ @ @ @ @ @ @ @ @ @ ",
"O @ O O O @ O O O O O O O O O O O O O O O O O O O O O O O O @ O O O O O O O O O O O O O @ O O O O O O O O O O O O O O O O O O O O O + + + + @ # # # # # % % % % % % % % % & # % % # # # # # + + + + + O O O O O O O O O O O O O O O O O O O O O O O O O O O O O O O O O O O O O O O O O O O O O O O O O O O O O O O O O @ O O O O @ O O O O O O O O O O O O O O O O O O O O O O O O O O @ O O O O O O O O O O O O O O O O O O O O O O O O O O O O + + + + # # # # # % % % % % % # % % % % % % # # # # # # # + + + O + O O O O O O O O O O O O O O O O O O O O O O O O O O O O O O O O O O O O O O O O O O O O O O O O O O O O O O O O O O O O O O @ O O O @ O O ",
"X O O O X O X O O O X O O O X O O O O O O O O O O O O O O O X X O O O O O O O O X O O X O X O O O O O O O O O O O X X O X O O O o o o O o o O + o + + + # + + + + # + + + # + # + + + + + O + o O O O O X O O O X O O O O O X O O O O O O O O O O O O O O X O O X O O O O O X O O X O O X O O O O O O O O O O O X O O X O X O O X O O O O O O O O O O O O O O O O O O O O O O O X O O X O X O O O O O O O O O X O O O O O O X O X O X O O O o O o O o O o o + o o + + + + # + + + # # + # + # + # + o + o o o o O O O X O O O X O O O O O O O O X O O O O X O O O O O O O O O O O O O O O O X O X O O O O O X O O O O O O O X O O O O O O O O O O O X O X O O O ",
"X X X X X X X X X X X X X X X X X X . X . X . X X . X X X X X X X X . X X X X X X X X X X X X X X X X X . X X X O X X X X X X X X X X X o X o o o o o o o o o o o o o o o o o o o o o o o o o X X X X X X X X X X X X X X X X X X X X X X X X . X X X X X X X X X X . X X X X X X X X X X X O X X X . X X X X X X X X X X X X X X X X X . X . X X X X X . X X X X X . X X X X X X X X X X X X X . X X . X X X X X X X X X X X X X X X X X X . X X X X X X o o o o o o o o o o o o o o o o o o o o o o o o X o o X . X X X X X X X X . X X X X X X X X X X X X X X X X X X X X . X X . X X X X X X X X X X X X X X X X X X X X X . X X X X X . X . X X X X X X X ",
". . X . X . X X . X X X X X   X X X   X X X X X . X . . X X . X . X . . X . . X . .             X X   X X   X   X X   X   X X   . X X . X . X X o X o X o . o o o o . o o o o o o . X o X X X X . X X . X . . X . .             X X . X X X X X X X   X X X X X X . . X X X   X X X X X   X X   . X . . X . . X . .             X X   X X X   X X X X X   X X   . X . . X . . X . .             . X X . X X . X X . X X . X X X X X . . X . . X             X o X o X X o . o o o o o . o o . o o X X X X X X X X . X . X . X . . X . . X . . X . .             X X X . X   X X   X X   X   X X X X X X . . X . X X X X X X X X . X X X X X X X             . X ",
". . . . . . . . . . .   X     X     X X   .   . . . . . . . . . . . . . . . . . .                 X X   X     X   X X   X     X . . . . . . . . . . X . X . . .   . . o   . . . X . X . . . X . . . . . . . . . .               . .   .   X       X X     X     . . . X   X   X X     X X   X   . . . . . . . . .                   X X     X X .     X X     X . . . . . . . . .               . . . . . . .   . . . . .     X . . . . . . . .         . . . . . . . X . o . .   . . . . . . . . . . . . . . . . . . . . . . . . . . . . . . . .                 . X   X     X   X X   X     X X   . . . . . .   X           X . . . .                     . . ",
".   .   .   . . X       X   .                 .   . . . . . . . .     . . .     . .               X       X X     X       X X     . . . . . . . . . . . . . . .   . . .   . . . . . . . . . . . . .   . . .     . .             .   .   .     X X           X     . .       X             X     .     . . .     . .                               X   .         .     . . .     . .             . . . .   X     . . . .   X     .   . . .     .           . . . . . . . . . . . . . . . . . . . . . . . . . . . . . . . .   .   .     . . .     . .               X       X X     X       X X             . .             X         . .       X                 ",
"    .   .         .                 X       .                     .   .       . .                                                 .       .         .   .     . .     .     .       .     .       .   .       . .                 .                                 .                 X           .   .       . .                   X       X             X       .   .       . .                           .                     .       .               .         . .   .   . .   .   .     . .     .   .     .         .       .   .       . .                                                     X     .   X                 .                             ",
"                                                                                                                                        .           .       .         .       .   .                                                                                   .                                                               .                                                                                 .                                               .               .                     .                                                                                                                               X                 ",
"                                                                                                                                                                                                                                                                                                                                                                                                                                                                                                                                                                                                                                                                ",
"                                                                                                                                                                                                                                                                                                                                                                                                                                                                                                                                                                                                                                                                ",
"                                                                                                                                                                                                                                                                                                                                                                                                                                                                                                                                                                                                                                                                ",
"                                                                                                                                                                                                                                                                                                                                                                                                                                                                                                                                                                                                                                                                ",
"                                                                                                                                                                                                                                                                                                                                                                                                                                                                                                                                                                                                                                                                ",
"                                                                                                                                                                                                                                                                                                                                                                                                                                                                                                                                                                                                                                                                ",
"                                                                                                                                                                                                                                                                                                                                                                                                                                                                                                                                                                                                                                                                ",
"                                                                                                                                                                                                                                                                                                                                                                                                                                                                                                                                                                                                                                                                ",
"                                                                                                                                                                                                                                                                                                                                                                                                                                                                                                                                                                                                                                                                ",
"                                                                                                                                                                                                                                                                                                                                                                                                                                                                                                                                                                                                                                                                ",
"                                                                                                                                                                                                                                                                                                                                                                                                                                                                                                                                                                                                                                                                ",
"                                                                                                                                                                                                                                                                                                                                                                                                                                                                                                                                                                                                                                                                ",
"                                                                                                                                                                                                                                                                                                                                                                                                                                                                                                                                                                                                                                                                ",
"                                                                                                                                                                                                                                                                                                                                                                                                                                                                                                                                                                                                                                                                ",
"                                                                                                                                                                                                                                                                                                                                                                                                                                                                                                                                                                                                                                                                ",
"                                                                                                                                                                                                                                                                                                                                                                                                                                                                                                                                                                                                                                                                ",
"                                                                                                                                                                                                                                                                                                                                                                                                                                                                                                                                                                                                                                                                ",
"                                                                                                                                                                                                                                                                                                                                                                                                                                                                                                                                                                                                                                                                ",
"                                                                                                                                                                                                                                                                                                                                                                                                                                                                                                                                                                                                                                                                ",
"                                                                                                                                                                                                                                                                                                                                                                                                                                                                                                                                                                                                                                                                ",
"                                                                                                                                                                                                                                                                                                                                                                                                                                                                                                                                                                                                                                                                ",
"                                                                                                                                                                                                                                                                                                                                                                                                                                                                                                                                                                                                                                                                ",
"                                                                                                                                                                                                                                                                                                                                                                                                                                                                                                                                                                                                                                                                ",
"                                                                                                                                                                                                                                                                                                                                                                                                                                                                                                                                                                                                                                                                ",
"                                                                                                                                                                                                                                                                                                                                                                                                                                                                                                                                                                                                                                                                ",
"                                                                                                                                                                                                                                                                                                                                                                                                                                                                                                                                                                                                                                                                ",
"                                                                                                                                                                                                                                                                                                                                                                                                                                                                                                                                                                                                                                                                "
};
