/* XPM */
static char *begin_floor1_000[] = {
/* columns rows colors chars-per-pixel */
"320 200 220 2 ",
"   c #3C2D1F",
".  c #242424",
"X  c #292624",
"o  c #2D2825",
"O  c #272828",
"+  c #2B2B2B",
"@  c #252728",
"#  c #332B23",
"$  c #3A2D22",
"%  c #312F2C",
"&  c #263E2B",
"*  c #2B3C2C",
"=  c #2C332F",
"-  c #39352B",
";  c #2C2F31",
":  c #2E3333",
">  c #2B3C33",
",  c #2C3D36",
"<  c #333434",
"1  c #343C33",
"2  c #343B3B",
"3  c #3B3C3C",
"4  c #393835",
"5  c #532E0D",
"6  c #5B320D",
"7  c #452E1A",
"8  c #4C331C",
"9  c #48311C",
"0  c #53351A",
"q  c #583617",
"w  c #4E2C0E",
"e  c #68380C",
"r  c #743D0C",
"t  c #663B14",
"y  c #723E10",
"u  c #443323",
"i  c #443C2C",
"p  c #493926",
"a  c #543C26",
"s  c #453D35",
"d  c #503F30",
"f  c #613F21",
"g  c #2C412C",
"h  c #37412D",
"j  c #2D4139",
"k  c #3B4434",
"l  c #384338",
"z  c #7C420E",
"x  c #69421B",
"c  c #784516",
"v  c #47422A",
"b  c #57432A",
"n  c #44443C",
"m  c #4B443B",
"M  c #474537",
"N  c #5C4C3B",
"B  c #564737",
"V  c #5E523F",
"C  c #674728",
"Z  c #774C26",
"A  c #7C522C",
"S  c #634D38",
"D  c #68523B",
"F  c #775537",
"G  c #5D401E",
"H  c #3B3E42",
"J  c #793D44",
"K  c #6A3E47",
"L  c #403F45",
"P  c #364343",
"I  c #3B4344",
"U  c #3C4B4C",
"Y  c #3C4549",
"T  c #3F5252",
"R  c #434343",
"E  c #4A4643",
"W  c #4C4B44",
"Q  c #45444A",
"!  c #4B444B",
"~  c #434B4B",
"^  c #4C4C4C",
"/  c #444B43",
"(  c #534C44",
")  c #524E4C",
"_  c #594748",
"`  c #54514D",
"'  c #5C544C",
"]  c #5B5145",
"[  c #4B4C51",
"{  c #454D51",
"}  c #564C53",
"|  c #425454",
" . c #4C5354",
".. c #445B5B",
"X. c #4B5B5B",
"o. c #4E5559",
"O. c #545454",
"+. c #5A5653",
"@. c #5D5955",
"#. c #555B5B",
"$. c #5C5C5C",
"%. c #57555A",
"&. c #4D514B",
"*. c #67444B",
"=. c #7E4D4E",
"-. c #76454A",
";. c #645344",
":. c #62564B",
">. c #6A5B4C",
",. c #67584A",
"<. c #725A44",
"1. c #674C52",
"2. c #635B54",
"3. c #695E54",
"4. c #625E5C",
"5. c #6C5D5D",
"6. c #685458",
"7. c #765656",
"8. c #7B5252",
"9. c #725959",
"0. c #7C5A5A",
"q. c #725758",
"w. c #754E51",
"e. c #64615D",
"r. c #686059",
"t. c #5E5E60",
"y. c #635F60",
"u. c #466161",
"i. c #4B6363",
"p. c #4D6B6B",
"a. c #546363",
"s. c #5D6262",
"d. c #536B6B",
"f. c #5C6B6B",
"g. c #537474",
"h. c #5D7474",
"j. c #557A7A",
"k. c #5B7C7C",
"l. c #4F7171",
"z. c #636363",
"x. c #696060",
"c. c #616B6B",
"v. c #6B6B6B",
"b. c #7B6363",
"n. c #736B6B",
"m. c #786868",
"M. c #627474",
"N. c #6B7373",
"B. c #647C7C",
"V. c #6B7B7B",
"C. c #7B7C7C",
"Z. c #767777",
"A. c #9E3636",
"S. c #943F3F",
"D. c #9A3A3A",
"F. c #973639",
"G. c #8A393E",
"H. c #A92F2F",
"J. c #A33434",
"K. c #A83030",
"L. c #A92F30",
"P. c #844A17",
"I. c #81450F",
"U. c #825126",
"Y. c #824F21",
"T. c #873D41",
"R. c #923F40",
"E. c #8D4444",
"W. c #844B4B",
"Q. c #8C4B4B",
"!. c #844346",
"~. c #934242",
"^. c #934747",
"/. c #835353",
"(. c #845B5B",
"). c #8A5757",
"_. c #846464",
"`. c #836868",
"'. c #827171",
"]. c #817C7C",
"[. c #5B8383",
"{. c #5E8B8B",
"}. c #658484",
"|. c #6A8383",
" X c #638C8C",
".X c #698C8C",
"XX c #738C8C",
"oX c #7C8A8A",
"OX c #768484",
"+X c #649393",
"@X c #6C9494",
"#X c #679A9A",
"$X c #6E9D9D",
"%X c #719191",
"&X c #7D9494",
"*X c #719D9D",
"=X c #7D9D9D",
"-X c #6DA4A4",
";X c #6FA8A8",
":X c #73A6A6",
">X c #7AA2A2",
",X c #75AEAE",
"<X c #7AAEAE",
"1X c #75B2B2",
"2X c #7AB4B4",
"3X c #7CB9B9",
"4X c #7FC1C1",
"5X c #808787",
"6X c #809A9A",
"7X c #81A9A9",
"8X c #82B4B4",
"9X c #83BEBE",
"0X c #83C4C4",
"qX c #88C5C5",
"wX c #86CACA",
"eX c #89CDCD",
"rX c #8DD3D3",
"tX c #8FD8D8",
"yX c #90D7D7",
"uX c #94DDDD",
/* pixels */
". . . . . . . . . . . . . . . . . . . . . . . . . . . . . . . . . . . . . . . . . . . . . . . . . . . . . . . . . . . . . . . . . . . . . . . . . . . . . . . . . . . . . . . . . . . . . . . . . . . . . . . . . . . . . . . . . . . . . . . . . . . . . . . . . . . . . . . . . . . . . . . . . . . . . . . . . . . . . . . . . . . . . . . . . . . . . . . . . . . . . . . . . . . . . . . . . . . . . . . . . . . . . . . . . . . . . . . . . . . . . . . . . . . . . . . . . . . . . . . . . . . . . . . . . . . . . . . . . . . . . . . . . . . . . . . . . . . . . . . . . . . . . . . . . . . . . . . . . . . . . . . . . . . . . . . . . . . . . . . . ",
". . . . . . . . . . . . . . . . . . . . . . . . . . . . . . . . . . . . . . . . . . . . . . . . . . . . . . . . . . . . . . . . . . . . . . . . . . . . . . . . . . . . . . . . . . . . . . . . . . . . . . . . . . . . . . . . . . . . . . . . . . . . . . . . . . . . . . . . . . . . . . . . . . . . . . . . . . . . . . . . . . . . . . . . . . . . . . . . . . . . . . . . . . . . . . . . . . . . . . . . . . . . . . . . . . . . . . . . . . . . . . . . . . . . . . . . . . . . . . . . . . . . . . . . . . . . . . . . . . . . . . . . . . . . . . . . . . . . . . . . . . . . . . . . . . . . . . . . . . . . . . . . . . . . . . . . . . . . . . . . ",
". . . . . . . . . . . . . . . . . . . . . . . . . . . . . . . . . . . . . . . . . . . . . . . . . . . . . . . . . . . . . . . . . . . . . . . . . . . . . . . . . . . . . . . . . . . . . . . . . . . . . . . . . . . . . . . . . . . . . . . . . . . . . . . . . . . . . . . . . . . . . . . . . . . . . . . . . . . . . . . . . . . . . . . . . . . . . . . . . . . . . . . . . . . . . . . . . . . . . . . . . . . . . . . . . . . . . . . . . . . . . . . . . . . . . . . . . . . . . . . . . . . . . . . . . . . . . . . . . . . . . . . . . . . . . . . . . . . . . . . . . . . . . . . . . . . . . . . . . . . . . . . . . . . . . . . . . . . . . . . . ",
". . . . . . . . . . . . . . . . . . . . . . . . . . . . . . . . . . . . . . . . . . . . . . . . . . . . . . . . . . . . . . . . . . . . . . . . . . . . . . . . . . . . . . . . . . . . . . . . . . . . . . . . . . . . . . . . . . . . . . . . . . . . . . . . . . . . . . . . . . . . . . . . . . . . . . . . . . . . . . . . . . . . . . . . . . . . . . . . . . . . . . . . . . . . . . . . . . . . . . . . . . . . . . . . . . . . . . . . . . . . . . . . . . . . . . . . . . . . . . . . . . . . . . . . . . . . . . . . . . . . . . . . . . . . . . . . . . . . . . . . . . . . . . . . . . . . . . . . . . . . . . . . . . . . . . . . . . . . . . . . ",
". . . . . . . . . . . . . . . . . . . . . . . . . . . . . . . . . . . . . . . . . . . . . . . . . . . . . . . . . . . . . . . . . . . . . . . . . . . . . . . . . . . . . . . . . . . . . . . . . . . . . . . . . . . . . . . . . . . . . . . . . . . . . . . . . . . . . . . . . . . . . . . . . . . . . . . . . . . . . . . . . . . . . . . . . . . . . . . . . . . . . . . . . . . . . . . . . . . . . . . . . . . . . . . . . . . . . . . . . . . . . . . . . . . . . . . . . . . . . . . . . . . . . . . . . . . . . . . . . . . . . . . . . . . . . . . . . . . . . . . . . . . . . . . . . . . . . . . . . . . . . . . . . . . . . . . . . . . . . . . . ",
". . . . . . . . . . . . . . . . . . . . . . . . . . . . . . . . . . . . . . . . . . . . . . . . . . . . . . . . . . . . . . . . . . . . . . . . . . . . . . . . . . . . . . . . . . . . . . . . . . . . . . . . . . . . . . . . . . . . . . . . . . . . . . . . . . . . . . . . . . . . . . . . . . . . . . . . . . . . . . . . . . . . . . . . . . . . . . . . . . . . . . . . . . . . . . . . . . . . . . . . . . . . . . . . . . . . . . . . . . . . . . . . . . . . . . . . . . . . . . . . . . . . . . . . . . . . . . . . . . . . . . . . . . . . . . . . . . . . . . . . . . . . . . . . . . . . . . . . . . . . . . . . . . . . . . . . . . . . . . . . ",
". . . . . . . . . . . . . . . . . . . . . . . . . . . . . . . . . . . . . . . . . . . . . . . . . . . . . . . . . . . . . . . . . . . . . . . . . . . . . . . . . . . . . . . . . . . . . . . . . . . . . . . . . . . . . . . . . . . . . . . . . . . . . . . . . . . . . . . . . . . . . . . . . . . . . . . . . . . . . . . . . . . . . . . . . . . . . . . . . . . . . . . . . . . . . . . . . . . . . . . . . . . . . . . . . . . . . . . . . . . . . . . . . . . . . . . . . . . . . . . . . . . . . . . . . . . . . . . . . . . . . . . . . . . . . . . . . . . . . . . . . . . . . . . . . . . . . . . . . . . . . . . . . . . . . . . . . . . . . . . . ",
". . . . . . . . . . . . . . . . . . . . . . . . . . . . . . . . . . . . . . . . . . . . . . . . . . . . . . . . . . . . . . . . . . . . . . . . . . . . . . . . . . . . . . . . . . . . . . . . . . . . . . . . . . . . . . . . . . . . . . . . . . . . . . . . . . . . . . . . . . . . . . . . . . . . . . . . . . . . . . . . . . . . . . . . . . . . . . . . . . . . . . . . . . . . . . . . . . . . . . . . . . . . . . . . . . . . . . . . . . . . . . . . . . . . . . . . . . . . . . . . . . . . . . . . . . . . . . . . . . . . . . . . . . . . . . . . . . . . . . . . . . . . . . . . . . . . . . . . . . . . . . . . . . . . . . . . . . . . . . . . ",
". . . . . . . . . . . . . . . . . . . . . . . . . . . . . . . . . . . . . . . . . . . . . . . . . . . . . . . . . . . . . . . . . . . . . . . . . . . . . . . . . . . . . . . . . . . . . . . . . . . . . . . . . . . . . . . . . . . . . . . . . . . . . . . . . . . . . . . . . . . . . . . . . . . . . . . . . . . . . . . . . . . . . . . . . . . . . . . . . . . . . . . . . . . . . . . . . . . . . . . . . . . . . . . . . . . . . . . . . . . . . . . . . . . . . . . . . . . . . . . . . . . . . . . . . . . . . . . . . . . . . . . . . . . . . . . . . . . . . . . . . . . . . . . . . . . . . . . . . . . . . . . . . . . . . . . . . . . . . . . . ",
". . . . . . . . . . . . . . . . . . . . . . . . . . . . . . . . . . . . . . . . . . . . . . . . . . . . . . . . . . . . . . . . . . . . . . . . . . . . . . . . . . . . . . . . . . . . . . . . . . . . . . . . . . . . . . . . . . . . . . . . . . . . . . . . . . . . . . . . . . . . . . . . . . . . . . . . . . . . . . . . . . . . . . . . . . . . . . . . . . . . . . . . . . . . . . . . . . . . . . . . . . . . . . . . . . . . . . . . . . . . . . . . . . . . . . . . . . . . . . . . . . . . . . . . . . . . . . . . . . . . . . . . . . . . . . . . . . . . . . . . . . . . . . . . . . . . . . . . . . . . . . . . . . . . . . . . . . . . . . . . ",
". . . . . . . . . . . . . . . . . . . . . . . . . . . . . . . . . . . . . . . . . . . . . . . . . . . . . . . . . . . . . . . . . . . . . . . . . . . . . . . . . . . . . . . . . . . . . . . . . . . . . . . . . . . . . . . . . . . . . . . . . . . . . . . . . . . . . . . . . . . . . . . . . . . . . . . . . . . . . . . . . . . . . . . . . . . . . . . . . . . . . . . . . . . . . . . . . . . . . . . . . . . . . . . . . . . . . . . . . . . . . . . . . . . . . . . . . . . . . . . . . . . . . . . . . . . . . . . . . . . . . . . . . . . . . . . . . . . . . . . . . . . . . . . . . . . . . . . . . . . . . . . . . . . . . . . . . . . . . . . . ",
". . . . . . . . . . . . . . . . . . . . . . . . . . . . . . . . . . . . . . . . . . . . . . . . . . . . . . . . . . . . . . . . . . . . . . . . . . . . . . . . . . . . . . . . . . . . . . . . . . . . . . . . . . . . . . . . . . . . . . . . . . . . . . . . . . . . . . . . . . . . . . . . . . . . . . . . . . . . . . . . . . . . . . . . . . . . . . . . . . . . . . . . . . . . . . . . . . . . . . . . . . . . . . . . . . . . . . . . . . . . . . . . . . . . . . . . . . . . . . . . . . . . . . . . . . . . . . . . . . . . . . . . . . . . . . . . . . . . . . . . . . . . . . . . . . . . . . . . . . . . . . . . . . . . . . . . . . . . . . . . ",
". . . . . . . . . . . . . . . . . . . . . . . . . . . . . . . . . . . . . . . . . . . . . . . . . . . . . . . . . . . . . . . . . . . . . . . . . . . . . . . . . . . . . . . . . . . . . . . . . . . . . . . . . . . . . . . . . . . . . . . . . . . . . . . . . . . . . . . . . . . . . . . . . . . . . . . . . . . . . . . . . . . . . . . . . . . . . . . . . . . . . . . . . . . . . . . . . . . . . . . . . . . . . . . . . . . . . . . . . . . . . . . . . . . . . . . . . . . . . . . . . . . . . . . . . . . . . . . . . . . . . . . . . . . . . . . . . . . . . . . . . . . . . . . . . . . . . . . . . . . . . . . . . . . . . . . . . . . . . . . . ",
". . . . . . . . . . . . . . . . . . . . . . . . . . . . . . . . . . . . . . . . . . . . . . . . . . . . . . . . . . . . . . . . . . . . . . . . . . . . . . . . . . . . . . . . . . . . . . . . . . . . . . . . . . . . . . . . . . . . . . . . . . . . . . . . . . . . . . . . . . . . . . . . . . . . . . . . . . . . . . . . . . . . . . . . . . . . . . . . . . . . . . . . . . . . . . . . . . . . . . . . . . . . . . . . . . . . . . . . . . . . . . . . . . . . . . . . . . . . . . . . . . . . . . . . . . . . . . . . . . . . . . . . . . . . . . . . . . . . . . . . . . . . . . . . . . . . . . . . . . . . . . . . . . . . . . . . . . . . . . . . ",
". . . . . . . . . . . . . . . . . . . . . . . . . . . . . . . . . . . . . . . . . . . . . . . . . . . . . . . . . . . . . . . . . . . . . . . . . . . . . . . . . . . . . . . . . . . . . . . . . . . . . . . . . . . . . . . . . . . . . . . . . . . . . . . . . . . . . . . . . . . . . . . . . . . . . . . . . . . . . . . . . . . . . . . . . . . . . . . . . . . . . . . . . . . . . . . . . . . . . . . . . . . . . . . . . . . . . . . . . . . . . . . . . . . . . . . . . . . . . . . . . . . . . . . . . . . . . . . . . . . . . . . . . . . . . . . . . . . . . . . . . . . . . . . . . . . . . . . . . . . . . . . . . . . . . . . . . . . . . . . . ",
". . . . . . . . . . . . . . . . . . . . . . . . . . . . . . . . . . . . . . . . . . . . . . . . . . . . . . . . . . . . . . . . . . . . . . . . . . . . . . . . . . . . . . . . . . . . . . . . . . . . . . . . . . . . . . . . . . . . . . . . . . . . . . . . . . . . . . . . . . . . . . . . . . . . . . . . . . . . . . . . . . . . . . . . . . . . . . . . . . . . . . . . . . . . . . . . . . . . . . . . . . . . . . . . . . . . . . . . . . . . . . . . . . . . . . . . . . . . . . . . . . . . . . . . . . . . . . . . . . . . . . . . . . . . . . . . . . . . . . . . . . . . . . . . . . . . . . . . . . . . . . . . . . . . . . . . . . . . . . . . ",
". . . . . . . . . . . . . . . . . . . . . . . . . . . . . . . . . . . . . . . . . . . . . . . . . . . . . . . . . . . . . . . . . . . . . . . . . . . . . . . . . . . . . . . . . . . . . . . . . . . . . . . . . . . . . . . . . . . . . . . . . . . . . . . . . . . . . . . . . . . . . . . . . . . . . . . . . . . . . . . . . . . . . . . . . . . . . . . . . . . . . . . . . . . . . . . . . . . . . . . . . . . . . . . . . . . . . . . . . . . . . . . . . . . . . . . . . . . . . . . . . . . . . . . . . . . . . . . . . . . . . . . . . . . . . . . . . . . . . . . . . . . . . . . . . . . . . . . . . . . . . . . . . . . . . . . . . . . . . . . . ",
". . . . . . . . . . . . . . . . . . . . . . . . . . . . . . . . . . . . . . . . . . . . . . . . . . . . . . . . . . . . . . . . . . . . . . . . . . . . . . . . . . . . . . . . . . . . . . . . . . . . . . . . . . . . . . . . . . . . . . . . . . . . . . . . . . . . . . . . . . . . . . . . . . . . . . . . . . . . . . . . . . . . . . . . . . . . . . . . . . . . . . . . . . . . . . . . . . . . . . . . . . . . . . . . . . . . . . . . . . . . . . . . . . . . . . . . . . . . . . . . . . . . . . . . . . . . . . . . . . . . . . . . . . . . . . . . . . . . . . . . . . . . . . . . . . . . . . . . . . . . . . . . . . . . . . . . . . . . . . . . ",
". . . . . . . . . . . . . . . . . . . . . . . . . . . . . . . . . . . . . . . . . . . . . . . . . . . . . . . . . . . . . . . . . . . . . . . . . . . . . . . . . . . . . . . . . . . . . . . . . . . . . . . . . . . . . . . . . . . . . . . . . . . . . . . . . . . . . . . . . . . . . . . . . . . . . . . . . . . . . . . . . . . . . . . . . . . . . . . . . . . . . . . . . . . . . . . . . . . . . . . . . . . . . . . . . . . . . . . . . . . . . . . . . . . . . . . . . . . . . . . . . . . . . . . . . . . . . . . . . . . . . . . . . . . . . . . . . . . . . . . . . . . . . . . . . . . . . . . . . . . . . . . . . . . . . . . . . . . . . . . . ",
". . . . . . . . . . . . . . . . . . . . . . . . . . . . . . . . . . . . . . . . . . . . . . . . . . . . . . . . . . . . . . . . . . . . . . . . . . . . . . . . . . . . . . . . . . . . . . . . . . . . . . . . . . . . . . . . . . . . . . . . . . . . . . . . . . . . . . . . . . . . . . . . . . . . . . . . . . . . . . . . . . . . . . . . . . . . . . . . . . . . . . . . . . . . . . . . . . . . . . . . . . . . . . . . . . . . . . . . . . . . . . . . . . . . . . . . . . . . . . . . . . . . . . . . . . . . . . . . . . . . . . . . . . . . . . . . . . . . . . . . . . . . . . . . . . . . . . . . . . . . . . . . . . . . . . . . . . . . . . . . ",
". . . . . . . . . . . . . . . . . . . . . . . . . . . . . . . . . . . . . . . . . . . . . . . . . . . . . . . . . . . . . . . . . . . . . . . . . . . . . . . . . . . . . . . . . . . . . . . . . . . . . . . . . . . . . . . . . . . . . . . . . . . . . . . . . . . . . . . . . . . . . . . . . . . . . . . . . . . . . . . . . . . . . . . . . . . . . . . . . . . . . . . . . . . . . . . . . . . . . . . . . . . . . . . . . . . . . . . . . . . . . . . . . . . . . . . . . . . . . . . . . . . . . . . . . . . . . . . . . . . . . . . . . . . . . . . . . . . . . . . . . . . . . . . . . . . . . . . . . . . . . . . . . . . . . . . . . . . . . . . . ",
". . . . . . . . . . . . . . . . . . . . . . . . . . . . . . . . . . . . . . . . . . . . . . . . . . . . . . . . . . . . . . . . . . . . . . . . . . . . . . . . . . . . . . . . . . . . . . . . . . . . . . . . . . . . . . . . . . . . . . . . . . . . . . . . . . . . . . . . . . . . . . . . . . . . . . . . . . . . . . . . . . . . . . . . . . . . . . . . . . . . . . . . . . . . . . . . . . . . . . . . . . . . . . . . . . . . . . . . . . . . . . . . . . . . . . . . . . . . . . @ . . . . . . . . . . . . . . . . . . . . . . . . . . . . . . . . . . . . . . . . . . . . . . . . . . . . . . . . . . . . . . . . . . . . . . . . . . . . . . . . . ",
". . . . . . . . . . . . . . . . . . . . . . . . . . . . . . . . . . . . . . . . . . . . . . . . . . . . . . . . . . . . . . . . . . . . . . . . . . . . . . . . . . . . . O . . . . . . . . . . . . . . . . . . . . . . . . . . . . . . . . . . . . . . . . . . . . . . . . . . . . . . . . . . . . . . . . . . . . . . . . . . . . . . . . . . . . . . . . . . . . . . . . . . . . . . . . . . . . . . . . . . . . . . . . . . . . . . . . . . . . . . . . . @ . . . . . . . . . . . . . . . . . . . . . . . . . . . . . . . . . . . . . . . . . . . . . . . . . . . . . . . . . . . . . . . . . . . . . . . . . . . . . . . . . . . . . . . . . . . . . . . . ",
". . . . . . . . . . . . . . . . . . . . . . . . . . . . . . . . . . . . . . . . . . . . . . . . . . . . . . . . . . . . . . . . . . . . . @ . . . . . . . . @ . . . . . . . O . . . . . O . . . . . . . . . . . . . . . . . . . . . . . . . . . . . . . . . . . . . . . . . . . . . . . . . @ . . . . . . . . . . . . . . . . . . . . . . . . . . . . . . . . . . . . . . . . . . . . . . . . . . . . . . . . . . . . . . . . . . . . . . . . . . . @ . @ . . . . . . . . @ . @ . . . . . . @ @ . . . . . . . . . . . . . . . . . . . . . . . . . . . . . . . . . . . . . . . . . . . . . . . . . . . . . . . . . . . . . . . . . . . . . . . . . . . . . . . . ",
". . . . . . . . . . . X . . @ . . . . . . . . . . . . . . @ . . . . . . . . . . . . . . . . . . . . . . @ . . . . . . . . . . . . @ . @ . . @ . @ @ @ @ @ @ @ @ @ . O O O . O . @ @ @ . @ . . O . . . . . @ . . . . . . . . . . . . . . . . . . . . . . . . . . . . . . . . . . . . . . . . . . . . . . @ . . . . . . . . . . . . @ . . . X . . . . . . . . . . . . . . @ . @ . . @ . . . . . . . . . . . . . . X . . . . @ . . . . . . . . . . @ . . . . @ . . @ . . . O O . O @ @ @ @ @ @ @ @ @ . . . . . . . . . . . . . . . . X . . . . . . . . . . X . @ . . . . . . . . . . X @ . . @ . @ . . . . . . . . . . . . . . . . . . . . . . @ . . . . . X . . . ",
". . . . X . . . @ @ . . . . . . . . . . . . @ @ @ . . @ . . X . . . . . . @ @ @ @ . @ . X . . . @ . . . . . . @ . . . . . . . . @ . @ . @ @ @ @ @ @ @ @ @ @ @ @ @ @ @ @ . O O O @ @ @ @ @ . @ @ . . . . . . @ . @ . . @ . o @ . . . . . @ . . @ . @ . @ . . @ @ . . . . . . . @ @ . X @ . . . @ @ . @ . . . @ . . . . . . . . . . . . . . @ . . @ . X . . . @ . . . . . . . . . . . @ . . @ @ . . . . . . . @ @ . . @ . . . . @ . . . . @ . @ @ X . @ @ @ @ O @ @ @ @ @ O . . O @ @ @ @ @ @ @ @ O O O @ O @ @ @ . . . . . . . . . . @ . @ X @ X . . @ . . . . . . . . . @ @ @ . . . . . . . . . . . . . . . . @ @ X . . . . X @ . . . . . . . . @ . @ X . . @ . ",
". . . . . @ @ @ @ @ . @ @ @ @ @ . . . . . . + . . @ . @ @ . @ @ . . . . X . @ . @ . @ . X X . @ @ X @ X . X . X . . . . . . . . . O . @ . o @ O @ @ @ @ @ @ @ @ O @ O @ O . O O O O O @ @ O O O . . . . . o @ . o . o . @ . @ . . . . . . . @ . X . . X . . + . . . . . . @ . X . . @ @ @ . . @ . X . X @ . @ @ . . . . . . . . . X @ X @ . X @ @ . @ . X @ @ @ . . . . . . @ . . @ . . . . X . . . . . X . X @ . X @ X . @ . @ . . . . @ . . @ . @ @ @ @ @ @ @ @ . @ O O O O O @ @ @ @ @ @ = O O O @ . O O O O . . . . . . . . . @ X @ . @ . . X @ . @ @ . @ . . . . . @ . . . . . @ @ X . @ . . . . . @ X . . X @ @ @ . @ @ @ . . . . @ . . . @ . . . @ . @ @ ",
". . . . X @ @ . X . X @ . @ @ X . . . . + . . . X @ X . @ X . @ . . . . @ @ . @ . @ X @ @ . @ X @ . @ @ @ @ . @ . . . . . . . . O O O @ O O O O O @ @ = @ = @ @ = O = @ O * O O O ; O O O O O O . . . . @ @ @ O . @ @ @ . @ . o . . . . @ @ X @ @ @ @ @ + . . . . . . . @ X @ @ @ . @ . X @ X X @ @ @ X @ @ @ X . . . . . . . . @ . @ @ . @ @ X @ X . X @ @ @ X . . . . X @ @ X @ @ X @ X X @ @ . . . . @ @ . @ @ @ @ . @ @ X @ @ . . . @ X @ @ @ o O o O O + O O & O + = + O = @ ; @ @ = @ @ O O O = O O O O O . . . . . . . . @ X @ @ @ X @ . X @ X @ @ X @ X . . . . . @ X @ @ . @ . X X X @ . . . . @ @ @ @ . @ . X @ X . @ . . . . @ @ @ . X @ @ X @ X . @ ",
". . o O O o o @ @ @ @ @ @ X X X X X @ X @ @ . @ X + @ @ X @ @ X @ + @ @ X X + . + @ @ . + @ + X @ O @ X o @ O o O o O O . . . . O O + + + + @ ; = O O ; ; ; ; ; ; @ ; ; ; + ; + ; ; @ ; ; O + + . . @ O O O O O O @ O o O O o . O O O X O X X @ X @ . X @ + + . X @ X @ X @ @ @ @ @ X @ @ . @ + X X X X @ @ X X O O o O . . . . @ @ o @ X @ X @ X X @ @ X @ @ @ @ @ + @ X @ @ @ @ + . @ O X O X . . o . O O O O @ @ @ X @ X X @ X X + @ @ X X + O O O + + + + O @ ; @ ; O ; ; O @ ; ; ; : @ ; ; = + + + + + O O O + O O . @ @ @ @ @ @ @ X @ X @ @ X @ @ X @ @ @ @ X @ X X + @ @ X @ + @ @ X + X . . o . O O O o @ @ @ @ @ X X X X @ + . @ X . + X X + @ @ @ X @ ",
". . O O O @ O + X @ + X + X X @ + X + X X + + X X @ @ + + X @ X @ X X @ X + @ + @ X X + X @ X X X O O + + O O O O O + O . . O O + + + + @ ; ; ; = = ; = ; ; ; ; > ; > ; > : > = : ; ; ; ; + ; + @ . + + + + O + O O O O O O + O O O O X X + @ + X X + X + @ . + @ @ + + X + + X X + + @ + + X X @ X @ + + O X O O O @ o . . . . @ o @ o @ + @ @ @ @ @ + @ X + X + X @ X + + X X X + + X + O O O . . + O O O O o o X @ + X + + X X + + X + + + O + + + + + ; ; ; : ; : ; > ; : > ; ; > ; : : : ; > ; ; ; + + ; + + + + + @ @ + O + o o @ @ + @ @ @ @ o + @ @ + o + @ + @ + X + X . + + . + @ + X . . + O O O O o O X + X @ + + X + X @ X @ + + X + + X @ + X @ + ",
". . . O O + + + + + + + + + + + + + + + + + + + + + + + + + + + + + + + + + + + + + + + + + + + + + + + + + + O O + + + + + + + + + ; ; : ; : : : : > : , ; ; > , : > ; : , : : : : : : > ; ; ; O ; + + + + + + + + + + + + + + + + + + + + + + + + + + + + X + + + + X + + + X + + X + + + + + + + + + + O + + + O + + + + O O @ + + @ ; o o + + @ + + + + X + + + + + + + + + + X + + + O + + . . . O + + + + O + + + + + + + + + + + + + + ; + ; + : ; : : : , : ; : , : : , > > : > , : ; : : > > : : : ; : : + + + + + + + + @ ; o ; o o + o + + @ o + @ + + + + + X + + + + + + + + X + + . . . O + + + + + + + + + + + + + + + + + + + + + + @ + + + + X ",
". . O + + + + + + + + + + + + + + + + + + + + + + + + + + + + + + + + + + + + + + + + + + + o + + + + + + + + % + + + + ; + + : ; ; : : : : : : , 2 , 2 , H j H H H H H H , H H 2 , H , 2 : > : > ; : : : + ; + + + + % + + + + + + + + + + + + + + + % + + + + + + + + ; + + + + + + + + + + + + + + + + % + + + + + + + + + + % + + + + ; + % + % + + + + ; + + + + + + + + + + % + + + + + + . . O + + + + + + + + + + + + + + + + ; + + ; ; ; : < : > : : 2 : H H , H , H H H H H H , H H , H 2 2 : 2 < : : : : : + = = + + o ; + + + ; + + ; + + ; ; + + + + + + + + + + + + + + + + + + + . . O + + + + + + + + + + o + + + + + + + + + + + + + + + + + + ",
"+ ; % + < + + + + ; % + + + ; ; + + + + < + + + ; + ; ; + + ; ; % + ; % ; ; ; ; + + ; + % ; + ; + ; % ; ; ; % + % ; ; % ; ; < ; < : < : 2 < 2 2 2 P P P P P P P P P P P P P P P P P P P H , 2 2 2 < : : : : ; < % ; % ; + + + + + + % + + + ; ; + ; + + + + ; ; + % ; ; + % ; + ; % + % + + + % + ; + + + % ; ; % ; + ; + ; % + % + % ; + % ; ; + % % ; ; % % ; + + % + % + ; + % ; ; + ; + ; + ; + ; % + + + ; ; + + + + + + + + + + ; + : = < < : : 1 : 2 2 j H H P P P P P P U j U j U j j P P j j P H , , ; , ; ; ; ; ; ; ; ; ; % + < + + ; % + % + ; % + + + % + % ; + ; % + % ; + ; + ; + % + % + + + + + + ; % + + + + + + ; + ; % + ; + % + ; ; + + + + ",
"< % < < ; % < < < < % < < < < ; < < < < ; % < < % < % % < < < ; % % ; ; % < % % < < < % % < < < < % % % ; < < ; % < ; < < < < < < < 2 2 2 H l P P P U P U U U U U T T T T U U U U U P P P P P H 2 2 2 < < < < < < ; < < < < < < < < < < < < < ; < % < < < < < ; % % < % ; < < % ; < ; < < < % < < ; < < % < % < % < < % % < < ; < ; % < ; < % < < % ; < % ; % ; < < < ; < < % < < % < % % < < % % < % % < < < ; < % < < < < < < < < < < < < < < < 2 2 2 P l I P P P P U U U U T j T T U T T U P U U P P H H H H H H H ; , ; : : : : < ; % < < < < ; % < + < < < < < ; < < % % < ; < < % < < < % < < ; < < < < < < % < < < < < < < % < < < % < < < % < % < < < < ",
"< < < < < < < < < < < < < < < < < < < < < < < < < < < < < < < < < < < < < < < < < < < < < < < < < < < < < < < < < < < < < < < 4 2 2 2 P P P P Y U T U T T T T T T T T T T T T T T T U T U U P I P 2 H 2 2 < < < < < < < < < < < < < < < < < < < < < < < < < < < < < < < < < < < < < < < < < < < < < < < < < < < < < < < < < < < < < < < < < < < < < < < < < < < < < < < < < < < < < < < < < < < < < < < < < < < < < < < < < < < < < < < < 2 2 2 2 H H P I P U U T T T T T T T T T ....T T T T T T T T U H U H H H j H , 2 < 4 < < < < < < < < < < < < < < < < < < < < < < < < < < < < < < < < < < < < < < < < < < < < < < < < < < < < < < < < < < < < < < < < < ",
"< < < 4 < < 4 < < < 4 < < < < 4 < < 4 < 4 < 4 < < 4 4 4 < < < 4 4 4 < 4 s < < < < 4 < 4 < < 4 < 4 < 4 < < 4 < 4 < 4 < 3 2 3 2 2 H l I I Y U T T T T ..T ..u.u.u.u.u.p.u.u.u.u.u.T u.T T T T U U U I I H l 3 2 3 2 4 < 4 4 < 4 < < < < 4 < < < 4 4 < 4 4 < < < 4 4 < 4 4 4 4 < < < 4 < 4 < 4 < < 4 4 4 < < < 4 < < 4 < < 4 < 4 < 4 < 4 < 4 < 4 < < < 4 < 4 < 4 4 < 4 < 4 < < < 4 4 < 4 < 4 < 4 < < 4 3 < < < 4 4 4 < 4 < 3 < < < < 3 4 4 2 3 2 3 H P I Y U T T T T T ....u.u.u.u.u.u.u.u.u.u.u.u.....T T T T T H H H H H 3 3 2 2 4 4 4 < < 4 < < 4 < 4 < 4 < 4 < < < < 4 < 4 < < 4 4 < 4 < < < 4 < < < 4 < < 4 4 < < < 4 < < 4 < < < < 4 < < < 4 < < 4 4 < < 4 < ",
"4 3 4 3 3 3 4 3 3 3 3 4 3 3 4 3 3 3 4 3 3 3 3 3 3 3 4 3 3 3 4 3 3 3 4 3 H < 3 s 3 3 4 3 3 3 3 3 H 4 3 4 3 4 3 4 3 3 3 3 3 3 H H I I Y / { { | | ..u.u.u.p.p.p.p.p.l.l.l.p.p.p.p.i.u.u.......| { U ~ Y I I l H 3 3 3 3 3 3 2 3 3 3 3 3 4 3 3 4 3 4 3 < H 3 3 4 3 H 4 3 4 3 4 3 3 4 3 3 3 H 3 3 4 3 3 4 3 3 3 4 3 3 3 3 3 3 4 3 3 3 4 3 3 4 3 3 3 3 3 2 3 H 4 3 3 3 3 4 3 3 3 3 3 4 H 3 3 4 3 3 3 3 3 3 4 3 3 4 3 4 3 3 4 3 3 3 3 3 3 3 3 3 3 I I I U ~ U { | | ..u.u.u.u.p.p.p.p.p.p.p.p.p.l.p.u.u.u.u...T T T U U Y I I H H 3 3 3 3 3 3 3 3 3 3 3 3 3 3 3 3 3 3 3 3 3 4 3 3 3 4 3 3 4 3 3 3 3 3 3 3 < H 3 3 4 3 3 H 3 < 3 3 4 3 3 3 4 3 3 3 4 3 3 3 4 3 3 3 3 3 ",
"3 H 3 3 3 3 3 3 3 3 s H 3 3 3 s s H 3 H 3 H 3 3 H 3 L 3 3 3 3 s 3 H 3 H H 3 H H 3 3 3 3 3 3 3 H 3 H H 3 3 H 3 s 3 I 3 l H R I R U / ~ | | ....u.u.p.p.l.l.l.g.l.l.j.l.l.j.l.l.l.l.l.l.p.u.u.....| | ~ ~ / I R I H H 3 3 s 3 H 3 3 3 3 3 3 3 3 s H s 3 H 3 3 3 s 3 H H s 3 3 3 3 3 3 3 H 3 3 s H 3 3 3 3 3 3 3 3 3 H 3 3 3 3 3 3 3 H H 3 3 3 3 H 3 3 3 H H 3 3 3 3 3 3 H 3 3 3 H H 3 3 3 H 3 3 3 H 3 s 3 3 H 3 3 3 H s 3 3 3 3 3 3 3 3 I I R Y R ~ U | | ..X.u.i.p.l.l.l.l.l.l.j.j.j.l.j.l.l.l.l.l.p.p.u.u.u...T | ~ ~ / I R I H R l 3 3 3 3 3 3 3 H 3 3 3 3 3 3 3 3 3 3 H 3 3 3 3 3 3 3 3 3 3 H H s H 3 3 3 3 3 3 s 3 H 3 3 3 H s H 3 H 3 3 3 3 3 H 3 3 3 H 3 3 ",
"L L 3 L n L H R H s H L R I s L s R 3 L L s L R R s 3 L R I s L L s L s 3 L L L R R L R L n R s L s R R R R L L R s R R R Q / ~ / { |  ...u.i.p.p.l.g.j.j.[.j.[.[.[.[.[.[.[.[.[.j.j.g.g.d.p.i.u.X.| | { ~ Q ~ R R R R R R I R s L s L L R L R R s L L L R R I n L L L L L L s R R L s H R L L L R R L R R n R R L L s R R R L L L s I R L R L s L n R s s L L L R R s L H R R s 3 s L R L L n R I s H L L s L R L R H R R R R R n R R R / R / ~ { |  ...u.i.p.l.l.l.j.j.j.[.[.[.[.[.[.[.[.[.j.j.j.j.l.l.p.u.u...|  .{ ~ / Q R R R R R R R 3 R R 3 s H R L s R L R s R L L n L L R R L R L n R s n L 3 L R I s R L R L L R R s I L R 3 L R R R R s L L L L s R R ",
"R R s ! R R R R Q ! R R R R Q / Q R R ! R R / Q R R R ! R R Q / R Q ! L E E E L R R R R R R / E L ! R R R R R / R Q Q / Q Q ~ ~ |  .X.X.i.i.d.l.j.j.j.[.[.{.{.+X{.+X+X+X{.{.{.{.[.[.j.j.g.g.p.a.i.X... .| ^ ~ ~ Q Q R R R R Q / R R / ! R R R R Q R R E R R R E L E E L ! R Q R E R / ! R R R R R R R R R R R R E L Q R R R R E R ! R R E R R / R R R ! Q L E R R R Q R / R / E Q ! R R E R R R R ! R Q E R / R R R R Q R R R R / Q Q Q ~ ~ { |  . .X.i.i.p.l.g.j.j.[.{.{.{.{.+X+X{.+X+X{.{.{.{.j.j.j.j.l.p.p.u.u. .|  .{ ~ ~ Q Q Q R R R R R R Q ! Q R / R Q R R Q E R R R R ! R R R R R R R / R E R ! R R Q E R R R E R R Q R / R R ! R R R R Q R R E R R / R ",
"/ R E Q Q Q W Q Q Q W Q Q W ^ Q ^ Q ^ Q Q Q W Q ^ ^ R ^ E Q Q ^ ^ Q Q W ^ Q Q W ^ Q Q W ^ Q Q Q W Q Q ^ W Q Q Q Q ^ ^ Q ^ ~  . . .X.X.i.a.l.g.j.[.[.{.{.+X+X+X#X#X#X#X#X#X#X+X+X+X{.{.[.[.g.g.d.a.i.X.X. . . .&.Q ^ ~ ^ Q W ^ Q ^ ! Q ^ Q Q W Q Q ^ ^ R ^ Q ! Q W Q Q Q W Q Q ^ ! Q ^ E Q ^ Q Q ^ Q Q Q W Q ^ Q ! ^ R ^ W Q ^ Q Q Q ! ^ W Q Q ^ ! ^ ^ Q Q Q W Q ^ R ^ R ^ ! Q Q Q Q Q ! ^ R ^ ^ ^ ! ^ R ^ ! Q W ^ E ^ R ^ Q ^ R Q ^ ~ ^ ^ {  . .X.X.i.a.d.g.j.k.[.{.{.+X+X#X#X#X#X#X#X#X#X#X+X+X{.{.[.j.j.g.d.a.i.X.X. . . .&.~ ^ Q ^ ~ Q W ^ R W Q Q ^ Q ! ^ E Q ^ ^ R ^ Q Q W ^ Q Q W ^ Q Q W ! Q ^ E Q ^ R ^ ^ R ^ R ^ ^ E ^ E ! ! Q Q Q W Q ^ R ^ R ^ ^ ^ R ",
"Q ! W Q ^ Q ^ W ^ ^ ^ ^ ^ ^ ^ ^ ^ ^ ^ ^ &.^ ^ ` ^ ^ ^ ^ ^ ^ ^ ^ ^ ^ ^ ^ ^ ^ ^ ^ ^ ^ ^ ^ ^ ^ &.^ ^ ^ ^ ^ ^ ^ &.^ ^ ^ ^ ^  . . . .X.X.a.d.d.g.j.k.[.{.+X#X#X#X-X-X;X;X;X;X;X;X-X#X#X#X+X{.[.[.j.g.l.a.a.X.X. . . .&. .^ ^ ^ ^ ^ ^ ^ ^ ^ ^ ^ ^ ^ &.^ ^ ^ ^ ^ ^ ^ ^ ^ ^ ^ ^ ^ ^ ^ ^ ^ ^ ^ ^ ^ ^ ^ ^ ^ ^ ` ^ ^ &.^ ^ ^ ^ ^ ^ ^ ^ ^ ^ &.^ ^ ^ ^ ^ ^ ^ ^ ^ ^ ^ ` ^ ^ &.^ ^ ^ ^ ^ ^ ^ ^ ` &.^ ^ ^ ^ ^ ^ ^ ^ ^ ^ ^ ^ ^ ^ ^ ^ ^ ^ ^ ^ ^ ^  .^ ^  . . . .X.i.a.a.g.g.j.[.[.+X+X+X#X;X#X#X;X;X;X;X;X;X#X#X#X#X+X X{.k.k.g.g.a.a.X.X. . . . .^ ^ ^ ^ ^ ^ ^ ^ ^ ^ ^ ^ ^ ^ ^ ^ ^ ^ ^ ^ ^ ^ ^ ^ ^ ^ ^ ^ ^ ^ ^ ^ ^ ^ ^ ^ ^ ^ ^ ^ ^ ^ ^ ^ ^ ^ ^ ^ ^ ^ ^ ^ &.^ ^ &.^ ^ ^ ^ ^ ^ ^ ^ ",
"W ^ ^ ^ ^ ^ &.^ ^ ^ ^ &.` ^ &.^ ^ ` [ ^ O.^ ` ^ ^ ^ &.` O.^ ^ ` ) ^ `  .&.[ ` &.O.^ ` ` ^ ^ ` &.` O.^ [ `  .&. . .&. . .O. . .#.#.a.a.d.h.j.[.{.{.+X#X#X-X;X1X1X1X1X1X1X1X;X1X4X;X#X#X+X X{.[.j.h.d.a.a.#.X. . . . . .&.&. .^ ^ &.^ [ ` ` ^ ` &.^ `  .` ` ^  .^ ` O.^ O.` &.&. .` &.[ &. .^ ` ` ^ [ &.&.` ^ ` ^ &.[ ^ ) &.O.&.` ` &.^ &.O.^ &.&.^ ` [ ^ ` ^ ` &. .) &.&.&.^ O.^ ` &.^  .^ O.&.^ ^  .) ^ ) ^ &. .^ ^  .` ` ^ O.^ &. .`  .O.X.#.X.a.a.g.h.k.k.{. X+X#X#X;X;X;X4X4X1X1X1X1X1X1X;X1X#X#X+X X{.[.j.g.d.d.a.#.#. .&. . . .&.&.&. .) ^ ` &.^ [ &.` &. .) ^ `  .^ )  .&.` ^ `  .[ [ ` &.` &.[ &.) ^ )  .^ )  .` ^ ^ O.^ ) ^  .)  .^ ` ` ^ )  .` ^ ^ ` [ ",
"^ ^ ^ ^ ^ O.^ ` )  .O.` O.O.O.O.O.O.O.O.O.O.O.O.O.O.O.O.O.O.O.O.O.O.O.O.O.O.O. .O. .O.O.O.O.O.O.O.O.` O.O.O.O.` O.O.O.O.O.X.#.#.a.a.f.g.k.k.}.{.#X#X-X;X;X1X1X1X1X1X4X1X4X1X4X4X;X;X-X#X+X X[.[.k.g.f.a.a.#.#.#.O.O.O.O.O.O.O.O.O.O.O.O.O.O.O.O.` O.O.O.O.O.O.O.O.O.O.O.O.O.` O.O.O.O.O.O.O.O.O.O.O.O.O.O.O.O.O.O.O. .O.O.O.O.O.O.O.O.O.O.O.O.O.O.O.O.O.O.O.O.O.O.O.O.O.O.O.O.O.O.O.) O.O.O.O.O.O.O.O.O.O.O.O.O.O.O.O.` O. .O.O.O. .O.O.O.#.#.a.a.d.f.h.[.}. X+X#X;X;X;X1X1X4X4X1X3X3X1X1X1X1X4X;X-X#X+X.X[.k.h.h.d.a.a.#.#.#.O.O.O.O.O.O.O.O.O.O.O.O.O.O.O.O.` O.O.O.O.O.O.O.` O.O.O.O.O.O.O.` O.O.O.O.O.O.O.O.O.O.O.` O.O.O.O.O.O.O.O.O.O.O.O.O.O.O.` O.O.O.O.",
"^ ^ ^ ^ ) ` [ O.O.O.O.O.O.` O.+.+.+.O.O.O.O.+.O.+.+.O.O.+.+.O.#.O.O.O.O.O.%.+.+.O.O.+.+.O.#.#.O.O.O.O.O.O.O.+.+.O.+.+.#.#.#.a.a.a.f.h.h.k.[. X+X#X-X;X1X1X3X3X4X4X4X4X4X4X4X4X4X1X1X;X-X#X+X{.[.k.h.h.d.a.a.#.#.#.#.+.+.O.#.O.O.+.O.+.+.%.O.#.O.O.O.O.O.O.O.O.O.O.O.+.O.O.+.O.+.+.+.#.O.O.+.#.O.#.O.+.+.O.+.#.O.O.+.#.+.O.#.O.+.O.O.%.O.+.+.O.+.+.+.O.O.O.O.O.%.+.+.O.+.O.O.O.O.O.O.O.$.O.%.O.+.#.+.#.+.O.O.O.#.O.+.+.O.+.O.O.+.#.O.#.#.#.t.a.a.d.f.k.k.[. X+X#X#X;X1X1X4X1X4X4X4X4X4X4X4X4X4X4X,X;X-X#X+X X[.k.h.f.d.a.a.t.#.#.#.+.O.+.+.+.O.O.O.O.%.O.O.O.%.#.O.O.O.#.O.%.#.+.O.O.O.+.O.#.#.O.#.+.%.O.O.O.O.O.O.#.+.O.O.+.O.+.+.+.O.#.O.#.+.O.#.O.O.#.%.O.O.O.",
"^ ^ ` `  .` O.O.O.O.O.#.%.#.#.#.#.%.%.#.#.%.@.%.%.#.#.#.#.%.%.%.$.$.$.O.%.$.%.%.%.$.%.%.%.#.@.%.O.$.%.$.#.#.#.%.#.#.#.$.#.#.t.a.a.f.h.k.}.}. X#X#X;X;X1X4X4X4X4X4X4X4X4X4X4X4X4X1X1X;X;X#X#X+X{.[.h.h.f.f.a.a.t.#.$.#.#.%.@.%.#.#.#.#.%.%.%.%.%.$.O.$.%.$.$.$.$.#.%.@.%.#.#.%.%.#.%.#.@.%.%.%.%.@.%.#.%.#.+.%.$.%.%.%.#.%.$.%.%.$.O.$.$.%.#.#.%.#.%.%.#.%.$.$.%.%.%.#.%.$.%.$.$.$.O.%.#.O.$.$.%.#.+.%.%.$.%.%.%.%.#.#.#.#.#.#.#.#.@.#.#.#.a.a.f.f.h.h.[.}.+X@X$X;X1X1X1X4X4X4X4X4X4XuX4X4X4X4X4X1X,X;X#X@X+X}.}.k.h.f.f.a.a.#.#.#.#.#.#.#.%.%.#.$.O.%.$.%.$.%.@.%.$.O.$.%.%.%.@.%.$.%.#.%.%.$.@.#.%.$.O.$.%.$.$.@.%.#.#.#.%.#.#.#.%.%.@.%.%.%.%.@.%.%.@.%.%.$.$.",
"^ ^ ) [ ^ O.O.O.O.O.+.#.%.@.%.@.@.#.$.$.$.$.$.$.$.$.$.$.$.@.$.$.$.$.$.$.$.$.$.$.$.$.$.$.@.$.$.$.$.$.$.$.$.$.$.$.@.#.$.$.$.s.s.s.f.h.h.k.[..X+X#X-X;X1X3X4X4XwX4X4X4X4XuXuX4X4X4X4X1X1X1X;X#X+X{.}.k.M.f.f.s.a.$.$.$.$.$.$.$.$.$.@.$.$.$.$.$.@.$.$.$.$.$.$.$.$.$.$.$.$.$.$.$.$.$.@.$.$.$.@.$.@.$.$.$.$.$.$.$.$.@.$.$.@.$.$.$.$.$.$.$.$.$.$.$.$.$.$.@.$.$.$.$.$.$.$.$.$.$.$.$.$.$.$.$.@.$.$.$.$.$.%.@.$.$.$.$.$.@.$.$.$.$.@.$.#.$.@.$.#.t.s.a.f.f.h.h.B.[. X+X#X-X;X1X1X4X4X4X4X4X4XuX4X4X4X4X4X4X3X1X;X-X#X+X X[.k.h.f.f.s.a.a.$.#.$.$.#.$.@.$.$.$.$.$.$.$.$.$.$.$.$.$.$.@.$.$.$.$.$.$.$.@.$.$.$.%.@.$.$.$.$.$.$.$.$.$.$.@.$.$.$.@.$.$.$.$.$.@.$.$.$.$.$.$.$.$.$.",
"! ^ ^ ^ ) [ ` O.+.+.%.%.$.$.$.$.$.$.$.$.$.t.$.$.$.$.$.$.t.$.y.$.$.$.$.$.$.$.$.$.$.$.$.$.$.$.$.$.$.$.$.$.$.$.$.$.$.t.$.$.a.a.s.f.f.h.M.B.}. X#X#X;X1X1X4X4X4XeXwX4XuXuX4X4XuX4X4X4X4X1X1X;X#X#X{.}.B.k.h.f.f.s.s.a.#.t.$.$.$.$.$.$.$.$.$.$.$.$.t.$.$.$.$.$.$.$.$.$.$.$.$.$.$.$.$.t.$.$.$.t.t.$.$.$.$.$.$.$.$.t.$.$.$.$.$.$.$.$.$.$.$.$.$.$.$.$.$.$.t.$.$.$.$.$.$.$.$.$.$.$.$.$.$.$.$.$.$.$.$.$.$.$.$.$.$.$.$.t.$.$.$.$.$.$.$.$.$.t.$.t.t.s.s.s.f.h.h.B.}..X@X$X:X1X1X4X4X4X4X4XuX4X4XuX4X4XuX4X4X3X2X,X;X$X@X.X}.B.B.M.f.f.s.s.s.t.t.$.$.$.t.$.$.$.$.$.$.$.$.$.$.$.$.$.$.t.$.$.$.$.$.$.$.$.$.$.$.$.$.$.$.$.$.$.$.$.$.$.$.$.t.$.$.$.t.$.$.$.$.t.$.$.$.$.$.$.$.$.$.",
"Q Q ^ ^ ^ ` O.O.O.%.%.@.$.$.$.$.$.$.z.$.4.t.$.z.$.$.z.$.$.z.$.$.$.y.e.t.$.$.$.$.y.$.4.$.4.$.$.y.$.$.e.$.$.t.$.$.s.$.$.s.s.s.f.f.h.h.M.B.}.+X@X-X:X1X3X3XwXwXeXrXrXtXtXtXrXrXeXwX0X4X3X1X:X-X#X.X XB.B.h.h.f.s.s.s.s.$.e.t.$.t.$.$.t.4.$.$.y.$.4.t.t.4.s.$.y.$.$.t.t.$.t.e.z.$.$.$.y.$.$.4.t.$.4.t.t.$.z.$.$.e.t.z.$.$.$.$.z.y.$.$.$.t.$.z.$.s.4.$.y.$.$.4.t.$.t.$.z.4.t.t.t.e.$.$.4.t.s.$.4.$.z.e.t.t.t.$.t.t.t.t.t.$.t.t.t.t.t.t.t.a.s.s.f.f.f.c.B.B.}..X@X-X:X1X4X4X4X4XuX4XtXrXtXrXtXrXeXrX4X4X3X1X;X*X$X.X}.B.B.h.f.f.s.s.s.t.t.t.t.t.t.t.t.$.t.t.t.$.4.t.$.$.$.$.$.4.$.$.y.$.$.$.t.z.$.$.t.e.t.t.t.$.4.t.s.$.4.$.s.$.t.$.s.$.$.z.$.4.s.$.s.4.$.$.z.$.$.z.$.",
"m E Q W ^ ) ) O.O.#.%.$.$.$.$.t.$.z.$.z.4.s.t.4.z.$.y.z.z.$.z.$.z.$.s.$.z.z.z.z.s.t.z.s.s.s.z.$.e.s.z.s.s.4.z.y.z.s.s.s.z.s.z.f.M.h.B.}.}.@X@X:X,X1X3X4X4XeXrXrXtXtXtXtXtXtXrXwX0X4X3X1X,X:X@X+X}.}.B.h.c.f.c.s.s.s.s.s.s.t.s.e.z.$.s.z.4.s.s.t.z.$.s.y.s.4.z.t.t.e.z.$.s.$.z.z.z.$.z.s.$.z.z.$.$.z.$.z.z.t.4.s.$.z.z.z.z.$.$.z.4.z.t.4.$.z.z.t.t.t.z.s.$.z.z.$.t.e.$.z.z.$.s.z.z.$.z.$.t.z.$.s.t.e.e.s.e.t.t.e.e.t.t.e.e.t.t.t.e.t.e.s.s.f.c.h.M.B.}. X@X#X-X,X3X4X4XuX4X4XuXuXtXtXtXtXrXrXwX4X4X3X1X,X-X@X+X.XB.B.M.c.c.f.c.s.s.t.t.e.t.t.t.e.e.t.t.e.s.t.z.t.z.z.z.z.s.s.z.$.z.z.z.$.$.t.z.t.t.e.e.t.z.$.z.$.t.z.e.t.z.4.$.z.z.t.$.z.s.y.z.$.t.z.z.$.z.$.4.s.",
"s R E E ^ ^ [ } O.%.@.$.$.$.t.e.z.$.$.z.z.y.s.s.y.s.s.z.z.t.z.4.z.s.t.z.z.s.z.$.z.y.s.4.z.y.s.z.s.y.y.s.4.s.z.$.$.s.z.s.s.c.f.c.c.M.B.}..X@X@X-X,X2X4X0XwXeXrXtXtXtXtXtXtXtXrXeXwX0X4X2X,X:X@X@X X}.B.M.f.c.f.z.z.s.z.s.t.z.e.s.z.t.z.t.z.y.s.4.z.t.4.s.y.s.z.t.z.e.s.s.z.y.y.s.y.s.z.y.z.s.4.s.z.s.4.t.y.s.z.s.z.$.z.t.z.$.z.$.z.e.s.s.s.y.z.$.y.z.y.s.z.s.e.y.s.y.s.$.$.z.z.$.y.s.z.t.z.t.z.e.s.e.t.e.t.z.e.t.t.s.e.s.e.s.e.s.t.s.s.z.z.c.c.M.M.B.}.}..X$X-X,X1X4X4X4XuXuX4XuXtXuXtXtXtXrXeXwX4X4X2X,X-X$X.X X}.B.M.h.c.f.s.z.z.s.z.s.e.t.e.s.e.s.e.s.z.4.s.e.z.s.z.$.z.y.t.z.z.s.4.z.z.z.z.z.e.s.t.z.y.s.e.s.z.$.z.t.z.$.z.z.z.t.z.y.y.4.z.y.z.$.z.s.s.z.s.y.",
"s n n E E ^ ) ` ` %.%.@.$.$.$.t.$.z.z.t.s.z.z.y.z.z.4.z.y.s.z.s.z.z.z.z.4.z.y.s.s.z.y.z.s.z.z.z.z.s.e.z.s.z.z.z.z.z.s.z.z.s.c.c.h.M.B.}..X+X$X:X,X3X3X0XwXeXrXtXtXuXuXtXtXtXtXeXwX0X3X2X:X:X$X@X X}.B.M.M.c.c.f.s.z.s.z.z.s.e.z.y.s.z.z.z.s.z.z.z.z.z.z.s.e.z.z.s.z.z.e.s.s.e.z.z.t.z.s.z.z.z.z.z.z.z.z.z.z.y.z.t.z.z.z.z.z.z.z.s.z.z.y.z.z.z.z.s.z.z.y.z.z.z.s.z.z.z.z.z.z.z.z.z.t.z.z.z.z.z.t.z.z.z.s.z.z.s.z.z.e.s.z.s.z.s.e.z.s.z.f.c.f.f.c.M.B.}. X@X$X:X,X1X4X4X4XuX4XtXuXtXuXuXtXtXrXrXwX0X3X2X,X:X$X@X.X}.k.M.M.c.c.c.s.s.z.s.z.s.z.s.z.z.s.e.z.s.y.z.z.4.z.y.s.z.z.z.s.4.z.s.z.z.z.z.z.z.z.s.e.z.s.z.z.z.z.z.z.z.z.y.z.y.s.z.z.z.s.z.s.z.z.y.z.4.z.z.s.",
"s H s L E ! ^ ) ` O.#.@.$.$.t.e.z.4.s.z.s.y.z.z.s.z.z.z.z.z.z.z.z.4.z.z.z.z.z.z.z.z.z.z.z.z.z.z.z.z.y.s.z.z.z.t.z.s.s.z.s.z.f.c.M.M.B.}..X@X$X:X,X2X4X0XeXrXtXtXuXuXuXtXuXtXtXeXeX0X4X3X,X:X$X@X.X}.B.M.M.c.c.z.z.s.s.z.s.z.z.z.z.z.s.z.z.s.z.z.z.y.z.z.s.z.z.z.z.z.z.z.z.z.z.y.z.z.z.z.z.z.z.z.z.z.z.z.z.z.s.z.z.z.z.y.z.z.z.z.z.z.z.z.z.z.z.e.z.z.z.z.z.z.z.z.z.z.z.z.z.z.z.z.z.z.z.z.z.z.z.z.z.z.z.s.z.z.z.z.z.e.z.s.z.z.s.z.e.s.z.z.c.h.c.c.M.B.}. X@X$X:X,X3X4X4XeXtXtXuXtXuXuXuXuXtXtXrXwX0X4X2X,X:X$X@X.X}.B.M.c.c.f.c.z.z.z.s.s.s.z.z.t.z.z.z.z.z.z.z.s.z.z.z.z.z.z.z.z.z.z.z.z.z.z.z.z.z.z.z.s.z.z.z.z.z.z.s.z.z.z.z.z.z.c.z.z.z.z.z.z.z.z.z.z.z.z.z.z.",
"< s s L s ! E ) O.O.+.@.$.e.$.s.t.y.z.z.z.z.z.z.z.z.z.z.z.z.z.z.z.z.z.z.z.z.z.z.z.z.z.z.z.z.z.z.z.z.z.z.z.z.z.z.z.z.z.c.c.c.c.c.M.M.B.}..X@X$X:X,X3X4X0XwXrXtXtXuXuXuXuXuXtXtXrXeX4X3X3X,X:X*X@X.X}.B.B.M.c.c.f.c.c.z.z.z.z.z.s.z.z.z.z.z.z.z.z.z.z.z.z.z.z.z.z.z.z.z.z.z.z.z.z.z.z.z.z.z.z.z.z.z.z.z.z.z.z.z.z.z.z.z.z.z.z.z.z.z.z.z.z.z.z.z.s.z.z.z.z.z.z.z.z.z.z.z.z.z.z.z.z.z.z.z.z.z.z.z.z.z.z.z.z.z.z.z.z.z.z.z.z.z.z.z.z.z.s.f.z.z.c.c.M.B.B.}..X@X$X:X<X1X4XeX4X4XtXuXuXuXuXuXuXtXrXrXwX0X4X3X,X:X$X@X X}.B.B.M.c.c.f.z.c.s.z.z.z.z.z.z.s.z.z.z.z.z.z.z.z.z.z.z.z.z.z.z.z.z.z.z.z.z.z.z.z.z.z.z.z.z.z.z.z.z.z.z.z.z.z.z.z.z.z.z.z.z.z.z.z.z.z.z.z.z.z.z.",
"- s s s s E E ) ` O.+.%.$.$.t.e.s.z.y.z.z.z.z.z.z.z.z.z.z.z.z.z.z.z.z.z.z.z.z.z.z.z.z.z.z.z.z.z.z.z.z.z.z.z.z.z.z.z.z.s.s.z.c.M.M.M.B.}..X@X$X:X,X3X3X0XwXrXrXuXuXuXuXuXuXtXrXrXeXqX4X3X,X:X$X@X.X}.B.M.M.c.c.z.z.s.s.z.s.z.z.z.z.z.z.z.z.z.z.z.z.z.z.z.z.z.z.z.z.z.z.z.z.z.z.z.z.z.z.z.z.z.z.z.z.z.z.z.z.z.z.z.z.z.z.z.z.z.z.z.z.z.z.z.z.z.z.z.z.z.z.z.z.z.z.z.z.z.z.z.z.z.z.z.z.z.z.z.z.z.z.z.z.z.z.z.z.z.z.z.z.z.z.z.z.z.z.s.z.c.z.z.c.c.c.M.M.B.}..X@X*X:X,X3X4X4XrXuXuXuXuXuXuXuXuXuXtXrXeX0X4X2X<X:X*X@X.X}.B.M.M.c.c.c.z.z.z.z.s.z.z.z.z.z.z.z.z.z.z.z.z.z.z.z.z.z.z.z.z.z.z.z.z.z.z.z.z.z.z.z.z.z.z.z.z.z.z.z.z.z.z.z.z.z.z.z.z.z.z.z.z.z.z.z.z.z.z.z.z.",
"u 4 4 s R E E ) ^ ` #.@.@.$.t.t.4.s.z.z.z.z.z.z.z.z.z.z.z.z.z.z.z.z.z.z.z.z.z.z.z.z.z.z.z.z.z.z.z.z.z.z.z.z.s.z.z.s.z.z.c.c.c.c.M.M.B.}..X@X$X:X,X3X0XqXeXrXtXtXuXuXuXuXuXtXtXrXeXwX3X3X1X:X*X@X.X}.B.M.M.c.c.c.c.z.z.z.z.z.z.z.z.z.z.z.z.z.z.z.z.z.z.z.z.z.z.z.z.z.z.z.z.z.z.z.z.z.z.z.z.z.z.z.z.z.z.z.z.z.z.z.c.z.z.z.z.z.z.z.z.z.z.z.z.z.z.z.z.z.z.z.z.z.z.z.z.z.z.z.z.z.z.z.z.z.z.z.z.z.z.z.z.z.z.z.z.z.z.z.z.z.z.z.z.z.z.z.z.z.s.c.s.c.c.M.B.B.}..X@X$X:X,X3X4X4XrX4XtXtXuXuXuXuXuXtXrXrXeXwX4X3X,X:X$X@X.X}.B.B.M.c.c.f.z.s.z.z.z.z.z.z.z.z.z.z.z.z.z.z.z.z.z.z.z.z.z.z.z.z.z.z.z.z.z.z.z.z.z.z.z.z.z.z.z.z.z.z.z.z.z.z.z.z.z.z.z.z.z.z.z.z.z.z.z.z.z.z.z.",
"- 4 - s s m E ) ` O.O.%.@.$.e.t.y.z.z.z.z.z.z.z.z.z.c.z.z.z.z.z.z.z.z.z.z.z.z.z.z.z.z.z.z.z.z.z.z.z.z.z.z.z.z.z.z.z.z.z.f.c.f.c.M.M.B.}..X@X$X:X,X3X4XwXeXrXtXtXuXuXuXuXuXuXuXuXeX0X4X3X,X:X*X@X.X}.B.M.M.c.c.f.s.z.z.z.z.s.z.z.z.z.z.z.z.z.z.z.x.z.z.z.z.z.z.z.z.z.z.z.z.z.z.z.z.z.z.z.z.z.c.z.z.z.z.z.z.z.z.z.z.z.z.c.z.z.z.z.z.z.z.z.z.z.z.z.z.z.z.z.z.z.z.z.z.z.z.z.z.z.z.c.z.z.z.z.z.z.z.z.z.z.z.z.z.z.z.z.z.z.z.z.z.z.z.s.c.z.z.z.f.c.c.M.M.B.}..X@X$X:X,X3X4X0XeXrXtXtXuXuXuXuXuXuXuXrXeX0X9X3X,X:X$X@X.X}.B.M.M.c.c.c.c.s.c.z.z.z.z.z.z.z.z.z.z.z.z.z.z.z.z.z.z.z.z.z.z.z.z.z.z.z.z.z.z.z.z.z.z.z.z.z.z.z.z.z.z.z.z.z.z.z.z.z.z.z.z.z.z.z.x.z.z.z.z.z.z.",
"u u u s s m E W ) ` ' %.$.$.t.e.s.4.s.z.z.z.z.z.z.z.z.z.z.z.z.z.z.z.z.z.z.z.z.c.z.z.z.z.z.z.z.z.z.z.z.z.z.z.z.z.z.s.s.z.z.c.c.c.M.M.B.}..X@X:X:X1X3X4X4XeXrXtXuXuXuXuXuXuXuXtXtXeXwX4X3X,X:X$X@X.X}.B.B.M.c.c.z.z.c.s.z.z.z.z.z.z.z.z.z.z.z.z.z.z.c.z.z.z.z.z.z.z.z.z.z.z.z.z.c.z.z.z.z.z.z.z.z.z.z.z.z.z.z.z.z.z.z.z.z.z.z.z.z.z.z.z.z.c.z.z.z.z.z.z.z.z.z.z.z.z.z.z.z.z.z.z.z.z.z.z.z.z.z.c.z.z.z.z.z.z.z.z.z.z.z.z.z.z.z.z.z.s.z.s.c.z.c.h.c.B.}.}..X@X*X:X<X2X4XwXeXrXtXuXuXuXuXuXuXuXuXrXeXwX4X3X<X:X$X@X.X}.B.M.M.c.f.c.z.z.z.z.z.z.s.z.z.z.z.z.z.z.z.z.z.z.z.z.z.z.z.c.z.z.z.z.z.z.z.z.z.z.z.z.z.z.z.z.z.z.z.z.z.z.z.z.z.z.z.z.z.z.z.z.z.z.z.z.z.z.c.z.z.",
"u u i s s E E ( ) ` +.@.@.$.$.e.z.z.t.z.e.z.z.z.z.z.z.z.z.z.z.z.z.z.z.z.z.z.z.z.z.z.z.z.z.z.z.z.z.z.z.z.z.s.s.z.z.z.z.z.c.z.c.c.M.M.B.}..X@X$X:X,X3X4XwXeXrXtXtXuXuXuXuXuXuXtXrXeX0X4X3X<X:X*X@X.X}.B.M.c.c.c.c.s.s.z.z.z.z.z.z.z.z.z.z.z.z.z.z.z.z.z.z.z.z.z.z.z.z.z.z.z.z.z.z.z.z.z.z.z.z.z.z.z.z.z.z.z.z.z.z.z.z.z.z.z.z.z.z.z.z.z.z.z.z.z.z.z.z.z.z.z.c.z.z.z.z.z.z.z.z.z.z.z.z.z.z.z.z.z.z.z.z.z.z.z.z.z.z.z.z.z.z.z.z.z.z.z.z.z.z.c.c.c.M.M.B.}..X@X*X:X1X3X4X0XeXrXtXtXuXuXuXuXuXuXuXtXeX0X4X3X<X:X$X@X.X}.B.M.M.c.c.s.z.z.s.z.s.z.z.z.z.z.z.z.z.z.z.z.z.z.z.z.z.z.z.z.z.z.z.z.z.z.z.z.z.z.z.z.z.z.z.c.z.z.z.z.z.z.z.z.z.z.z.z.z.z.z.z.z.z.z.z.z.z.z.z.z.",
"u s d s s m E ( ) ` O.%.$.$.t.t.$.z.z.z.z.z.s.z.z.z.z.z.z.z.z.z.z.z.z.z.z.z.z.z.z.z.z.z.z.z.z.z.z.z.z.z.z.z.z.z.z.s.s.c.z.f.c.c.M.M.B.}..X@X$X:X<X3X4X4XeXrXtXuXuXuXuXuXuXtXtXrXeX0X9X2X1X:X$X@X.X}.B.B.M.c.f.z.c.z.z.s.z.s.z.z.z.z.z.z.z.z.z.z.z.z.z.z.z.z.z.z.z.z.z.z.z.z.z.z.z.z.z.z.z.z.z.z.z.z.z.z.z.z.z.z.z.z.z.z.z.z.z.z.z.z.z.z.z.z.z.z.z.z.z.z.z.z.z.z.z.z.z.z.z.z.z.z.z.z.z.z.z.z.z.z.z.z.z.z.z.z.z.z.z.z.s.z.z.z.z.s.s.z.s.c.s.c.c.M.B.B.}..X@X$X:X,X3X4X0XeXrXtXuXuXuXuXuXuXuXuXyXeX0X4X3X1X:X$X@X.X.XB.M.M.f.c.z.f.c.s.z.z.z.z.s.z.z.z.z.z.z.z.z.z.z.z.z.z.z.z.z.z.z.z.z.z.z.z.z.z.z.z.z.z.z.z.z.z.z.z.z.z.z.z.z.z.z.z.z.z.z.z.z.z.z.z.z.z.z.z.z.z.",
"u u d s s m ( _ ` O.+.@.@.$.e.t.s.z.4.z.y.z.z.z.z.z.z.z.z.z.z.z.z.z.z.z.z.z.z.z.z.z.z.z.z.z.z.z.z.z.z.z.z.z.z.z.s.z.z.c.s.c.c.f.h.M.B.}..X@X$X:X,X3X4XqXeXrXtXtXuXuXuXuXuXuXtXrXeXwX4X3X,X:X*X@X.X}.B.k.M.f.c.c.s.z.z.s.s.z.s.z.z.z.z.z.z.z.z.z.z.z.z.z.z.z.z.z.z.z.z.z.z.z.z.z.z.z.z.z.z.z.z.z.z.z.z.z.z.z.z.z.z.z.z.z.z.z.z.z.z.z.z.z.z.z.z.z.z.z.z.z.z.z.z.z.z.z.z.z.z.z.z.z.z.z.z.z.z.z.z.z.z.z.z.z.z.z.z.s.z.z.z.z.z.z.z.s.z.s.z.s.z.f.c.h.M.B.}..X@X$X:X<X3X4XwXeXrXtXtXuXuXuXuXuXtXyXrXeXwX9X3X<X:X$X@X.X}.B.M.M.c.c.z.s.s.z.z.z.z.s.z.z.z.z.z.z.z.z.z.z.z.z.z.z.z.z.z.z.z.z.z.z.z.c.z.z.z.z.z.z.z.z.z.z.z.z.z.z.z.z.z.z.z.z.z.z.z.z.z.z.z.z.z.z.z.z.z.z.",
"u s d d B m ( ( ` ` +.@.$.$.$.e.y.s.z.z.z.z.z.z.z.z.z.z.z.z.z.z.z.z.z.z.z.z.z.z.z.z.z.z.z.z.z.z.z.z.z.z.z.z.t.z.z.z.s.s.s.c.c.c.M.B.B.}..X@X*X:X<X3X0X0XeXtXtXuXuXuXuXuXuXtXtXrXeX0X9X3X2X:X$X@X.X}.B.M.M.c.c.s.c.z.s.z.z.z.z.z.s.z.z.z.z.z.z.z.z.z.z.z.z.z.z.z.z.z.z.z.z.z.z.z.z.z.z.z.z.z.z.z.z.z.z.z.z.z.z.z.z.z.z.z.z.z.z.z.z.z.z.z.z.z.z.z.z.z.z.z.z.z.z.z.z.z.z.z.z.z.z.z.z.z.z.z.z.z.z.z.z.z.z.z.z.z.z.z.z.z.t.z.s.z.z.z.z.s.f.z.s.c.c.M.M.B.}..X@X*X:X1X3X4X0XeXrXyXuXuXuXuXuXuXuXyXrXeX0X4X3X1X:X$X@X.X}.B.B.c.M.f.f.z.z.s.s.z.z.y.z.z.z.z.z.z.z.z.z.z.z.z.z.z.z.z.z.z.z.z.z.z.z.z.z.z.z.z.z.z.z.z.z.z.z.z.z.z.z.z.z.z.z.z.z.z.z.z.c.z.z.z.z.z.z.z.z.z.",
"a d d d B ( ( ] ' ' +.@.$.$.e.t.z.y.y.z.z.z.z.z.z.z.z.z.z.z.z.z.z.z.z.z.z.z.z.z.z.s.z.z.z.z.z.z.y.z.z.s.z.s.z.s.z.s.s.z.z.f.c.c.c.M.B.}..X@X$X:X,X2X4X0X4XtXuXuXuXuXuXuXuXuXtXrXeXwX4X3X,X:X$X@X.X}.B.M.M.c.c.f.s.z.s.z.z.s.z.z.z.z.z.z.z.z.z.z.z.z.z.z.z.z.z.z.z.z.z.z.z.z.z.z.z.z.z.z.z.z.z.z.z.z.z.z.z.z.z.z.z.z.z.z.z.z.z.z.z.z.z.z.z.z.z.z.z.z.z.z.z.z.z.z.z.z.z.z.z.z.z.z.z.z.z.z.z.z.z.z.z.z.z.z.z.z.z.z.z.z.z.z.s.z.z.s.s.z.z.s.c.c.c.M.k.B.}..X@X$X:X1X3X9X0XeXrXtXtXuXuXuXuXuXtXtXrXeX0X4X3X<X:X*X@X.X}.B.M.M.c.f.c.z.s.z.z.s.z.z.z.s.z.z.z.s.z.z.z.z.z.z.z.z.z.z.z.z.z.z.z.z.z.z.z.z.z.z.z.z.z.z.z.z.z.z.z.z.z.z.z.z.z.z.z.z.z.z.z.z.z.z.z.z.z.z.z.z.",
"a a d _ B ( ( ` ' +.@.@.e.$.t.e.4.s.z.z.s.z.z.z.z.z.z.z.z.z.z.z.z.z.z.z.z.z.z.z.z.z.z.z.z.z.z.z.z.z.z.z.z.z.y.z.z.z.z.z.s.z.c.f.h.B.B.}..X@X*X:X1X3X9XwXrXtXuXuXuXuXuXuXuXtXtXrXeX0X9X3X<X:X$X@X.X}.B.B.c.f.c.z.c.s.z.s.z.e.z.s.z.z.z.z.z.z.z.z.z.z.z.z.z.z.z.z.z.z.z.z.z.z.z.z.z.z.z.z.z.z.z.z.z.z.z.z.z.z.z.z.z.z.z.z.z.z.z.z.z.z.z.z.z.z.z.z.z.z.z.z.z.z.z.z.z.z.z.z.z.z.z.z.z.z.z.z.z.z.z.z.z.z.z.z.z.z.z.z.z.z.z.z.z.z.4.z.z.e.f.z.s.c.c.M.M.B.}..X@X*X:X,X2X9XwXeXrXyXuXuXuXuXuXuXuXyXrXeXwX9X3X<X:X$X@X X}.B.M.M.c.c.c.s.z.s.z.y.z.s.z.z.z.z.z.z.z.z.z.z.z.z.z.z.z.z.z.z.z.z.z.z.z.z.z.z.z.z.z.z.z.z.z.z.z.z.z.z.z.z.z.z.z.z.z.z.z.z.z.z.z.z.z.z.z.z.z.z.",
"d d B B N N ] ` ' @.@.@.$.e.$.z.e.z.s.z.z.z.z.z.z.z.z.z.z.z.z.z.z.z.z.z.z.z.z.z.z.z.z.z.z.z.z.z.z.z.z.z.z.z.z.z.z.z.s.z.z.f.f.c.M.M.B.}..X@X:X:X,X3X0XqXeXtXtXuXuXuXuXuXuXuXtXrXeXqX9X3X,X:X*X@X.X}.B.M.M.c.z.f.z.z.z.s.z.z.s.z.z.z.z.z.z.z.z.z.z.z.z.z.z.z.z.z.z.z.z.z.z.z.z.z.z.z.z.z.z.z.z.z.z.z.z.z.z.z.z.z.z.z.z.z.z.z.z.z.z.z.z.z.z.z.z.z.z.z.z.z.z.z.z.z.z.z.z.z.z.z.z.z.z.z.z.z.z.z.z.z.z.z.z.z.z.z.z.z.z.z.z.z.y.z.z.z.s.z.s.f.z.f.c.M.M.B.}..X@X@X:X1X3X9XwXeXrXtXtXuXuXuXuXuXuXuXrXeXqX4X3X,X:X$X@X.X}.B.B.M.f.c.s.z.s.z.z.z.z.s.s.z.z.z.z.z.z.z.z.z.z.z.z.z.z.z.z.z.z.z.z.z.z.z.z.z.z.z.z.z.z.z.z.z.z.z.z.z.z.z.z.z.z.z.z.z.z.z.z.z.z.z.z.z.z.z.z.z.",
"f B B B _ ;.] ' ' @.@.4.$.e.s.e.z.z.e.z.z.z.z.z.z.z.z.z.z.z.z.z.z.z.z.z.z.z.z.z.z.z.z.z.z.z.z.z.z.z.z.z.z.z.z.z.s.z.z.f.s.z.c.M.M.M.B.}..X@X$X:X<X3X3XwXeXrXtXuXuXuXuXuXuXuXrXrXeX0X0X3X,X:X$X@X.X}.B.B.M.c.c.f.z.s.z.z.z.z.z.y.z.z.z.z.z.z.z.z.z.z.z.z.z.z.z.z.z.z.z.z.z.z.z.z.z.z.z.z.z.z.z.z.z.z.z.z.z.z.z.z.z.z.z.z.z.z.z.z.z.z.z.z.z.z.z.z.z.z.z.z.z.z.z.z.z.z.z.z.z.z.z.z.z.z.z.z.z.z.z.z.z.z.z.z.z.z.z.z.z.z.z.z.z.z.y.z.z.z.z.z.c.c.c.M.M.B.}..X@X:X:X2X2X4XqXeXrXtXuXuXuXuXuXuXuXuXyXeXqX9X3X<X:X*X@X.X}.B.M.c.c.c.f.z.z.c.s.z.z.z.z.z.z.y.z.z.z.z.z.z.z.z.z.z.z.z.z.z.z.z.z.z.z.z.z.z.z.z.z.z.z.z.z.z.z.z.z.z.z.z.z.z.z.z.z.z.z.z.z.z.z.z.z.z.z.z.z.z.",
"S C d ;.] ] :.+.' 4.@.4.e.t.e.e.z.z.z.z.z.z.z.z.z.z.z.z.z.z.z.z.z.z.x.z.z.z.z.z.z.z.z.z.z.z.z.z.z.z.z.z.z.z.z.z.z.z.z.z.c.z.f.c.M.M.B.}..X@X*X:X<X3X4X0XeXrXtXtXuXuXuXuXuXyXtXrXeXwX4X3X,X:X*X@X.X}.B.M.M.c.c.z.z.z.s.z.z.z.z.z.z.e.z.z.z.z.z.z.z.z.z.z.z.z.z.z.z.z.z.z.z.z.z.z.z.z.z.z.v.z.z.z.z.z.z.z.z.z.z.z.x.z.z.z.z.z.z.z.z.z.z.z.z.z.z.v.z.z.z.z.z.z.z.z.z.z.z.z.z.v.z.z.z.z.z.z.z.z.z.z.z.z.z.z.z.z.z.z.z.z.z.z.z.z.z.s.z.s.s.z.z.c.c.M.M.B.}..X@X*X:X,X3X9X0XeXrXtXuXuXuXuXuXuXuXuXuXeXqX4X3X<X:X*X@X.X}.|.M.M.c.c.c.z.z.s.z.z.z.z.z.z.z.z.z.z.z.z.z.z.z.z.z.z.z.z.z.z.z.z.z.z.z.z.z.z.z.z.z.z.z.z.z.z.z.z.z.z.v.z.z.z.z.z.z.z.z.z.z.z.z.z.z.z.z.z.z.z.",
"S B *.S ;.;.' :.@.2.4.$.t.e.e.s.e.y.z.z.z.z.z.z.z.z.x.z.z.z.z.z.z.z.z.z.z.z.x.z.x.z.z.z.z.z.x.z.z.z.z.z.y.z.z.z.s.z.z.z.z.c.c.c.c.B.B.}..X@X*X:X1X2X0XwXeXrXtXuXuXuXuXuXuXuXtXrXrX0X3X3X2X:X:X@X.X}.B.B.M.f.c.c.s.f.z.z.z.z.z.z.z.z.z.z.z.z.z.z.z.c.x.z.z.x.z.z.z.z.z.z.z.x.z.z.z.z.z.z.z.z.z.z.z.x.z.z.z.z.z.z.z.z.z.z.z.z.z.z.z.z.z.z.z.z.z.z.z.z.z.z.z.x.z.z.z.z.z.z.z.z.z.z.z.z.z.z.x.z.z.z.z.z.z.z.z.z.z.z.z.z.z.z.z.z.z.z.z.z.c.z.f.c.c.M.B.}.}..X@X*X:X,X3X0XwXeXrXtXtXuXuXuXuXuXuXuXyXeXwX9X3X1X:X:X@X.X}.B.V.h.c.c.f.z.z.s.z.z.z.z.z.z.z.z.z.z.z.z.x.z.z.z.z.x.z.z.z.z.z.z.z.z.z.x.z.z.z.x.z.z.z.z.z.z.z.x.z.z.z.z.z.z.z.z.x.z.z.z.x.z.z.z.z.z.z.z.x.z.",
"N S N N ] ] 1.@.@.4.4.4.4.y.z.z.z.z.z.z.z.z.z.z.z.z.x.z.x.z.x.z.z.x.z.z.z.z.z.z.z.z.z.z.z.z.z.z.z.z.z.z.z.z.z.z.z.z.z.z.z.c.c.c.M.M.|.}..X@X:X:X1X3X9X0XeXrXtXyXuXuXuXuXuXuXtXrXeXwX9X3X,X:X*X@X.X|.|.M.M.c.c.c.c.z.z.z.z.z.z.z.z.z.x.z.z.z.z.z.z.z.x.z.x.z.z.x.x.z.x.z.z.v.z.z.z.z.z.x.z.z.x.z.z.z.z.z.z.z.z.y.z.z.z.z.y.z.z.x.x.z.z.x.z.z.x.z.v.z.z.z.z.z.z.z.z.z.z.z.z.z.z.z.v.z.z.z.z.z.z.z.z.z.z.x.z.z.z.x.z.z.z.z.z.z.z.z.z.c.z.c.z.c.c.M.M.B.|.@X@X*X:X2X2X0X0XeXrXyXuXuXuXuXuXuXuXyXrXeX0X0X3X<X:X*X@X.X}.B.M.M.c.c.z.z.z.z.z.z.z.z.z.z.z.z.z.z.z.z.z.z.z.z.z.z.x.z.z.v.z.z.z.z.z.z.z.z.z.z.z.z.v.z.z.x.z.z.x.z.z.z.z.x.z.z.z.z.z.z.z.z.x.z.x.z.z.z.z.z.",
"S S S ;.;.:.' 2.2.@.4.4.z.z.y.x.y.z.z.5.z.z.x.z.v.z.z.z.z.z.z.z.z.z.z.z.z.z.x.z.v.z.x.z.x.z.z.z.z.x.z.z.z.z.y.z.z.z.z.z.z.c.c.c.M.V.B.}..X@X*X:X<X3X0XqXeXrXtXuXuXuXuXuXuXuXuXtXeX0X9X3X<X:X:X@X.X}.B.V.M.v.c.c.c.z.z.z.z.z.z.z.z.z.z.z.y.z.x.z.z.z.z.z.z.z.z.z.z.z.z.z.z.z.z.z.x.z.z.z.z.z.z.z.z.x.x.z.x.z.z.v.z.x.z.v.v.z.z.z.z.z.z.z.z.z.z.z.z.z.z.x.z.x.x.z.x.z.z.x.z.z.x.z.z.z.z.x.x.z.x.z.z.x.z.z.v.z.z.z.z.x.z.z.y.z.z.z.z.z.z.z.c.c.c.M.V.B.}..X@X*X:X<X3X4XwXeXrXtXuXuXuXuXuXuXuXyXrXeXwX3X3X,X:X*X@X.X.XV.M.M.M.c.z.c.z.z.z.z.z.z.x.z.z.z.x.z.z.x.z.z.z.x.z.z.z.z.z.z.z.x.v.z.x.z.x.z.z.x.z.z.z.z.z.z.x.z.z.z.z.z.z.z.z.x.x.c.x.z.x.z.z.z.z.z.x.z.z.z.",
"S N N ;.] :.:.2.2.4.4.z.4.z.y.x.z.z.z.z.z.x.z.z.z.z.z.z.x.z.x.z.z.x.v.z.x.z.z.x.z.z.x.z.z.z.z.x.x.z.x.z.x.z.z.z.z.z.z.z.z.c.c.c.M.M.B.}..X@X*X:X2X2X3XwXeXrXyXuXuXuXuXuXuXuXuXuXeXwX4X3X2X:X*X@X.X|.B.V.c.c.c.z.z.z.z.z.z.z.x.z.x.z.z.z.x.z.z.z.z.x.z.z.z.x.z.z.x.z.x.z.z.x.z.z.x.z.x.z.z.x.z.z.x.x.z.v.z.z.x.z.x.z.y.z.z.z.x.z.x.z.x.z.z.x.z.z.z.z.z.x.z.z.z.x.z.z.x.z.z.x.z.x.z.z.z.x.z.z.x.z.z.z.z.z.z.z.x.z.x.z.x.z.z.z.z.y.z.z.z.z.c.c.c.N.M.B.}..X@X$X:X<X3X9XwXeXeXtXuXuXuXuXuXuXyXyXrXeXwX3X3X<X:X*X@X.X}.V.V.M.c.c.c.z.z.z.z.z.z.z.z.z.5.z.z.z.z.z.z.x.x.z.z.x.z.z.z.x.z.z.z.x.z.x.x.z.z.z.z.x.x.z.z.z.z.v.x.z.x.z.x.z.z.z.z.x.z.x.x.z.x.z.x.z.z.x.z.x.",
"S N ;.] :.:.@.@.@.4.4.4.4.y.y.y.z.y.z.z.x.z.x.z.z.x.x.x.z.z.x.x.z.x.z.z.x.x.x.x.z.x.z.x.x.x.x.z.z.x.z.x.z.x.y.z.z.x.z.z.z.v.c.M.M.N.V..X.X@X*X:X<X3X0XqXeXrXrXuXuXuXuXuXuXuXuXuXeXqX9X3X<X:X*X@X.X}.B.M.M.N.c.c.z.z.z.z.x.z.z.x.z.x.x.z.x.z.x.x.z.x.x.x.z.x.x.z.z.z.x.x.z.x.x.x.z.x.z.x.x.z.x.x.z.y.z.y.x.x.z.x.z.z.x.x.x.z.x.x.z.x.z.x.z.x.x.x.x.x.z.x.x.z.x.x.x.x.z.x.x.z.x.z.x.x.x.z.x.z.x.x.x.x.x.x.z.x.z.x.z.x.z.x.z.5.z.z.x.z.z.z.z.v.c.M.V.B.}..X%X:X:X2X2X0XqXeXrXtXuXuXuXuXuXuXuXyXrXeXqX0X3X2X:X:X@X.X}.B.M.M.v.c.c.z.x.z.z.x.z.x.x.x.z.z.5.z.x.x.x.z.x.x.z.x.x.x.x.z.x.z.x.z.x.z.z.x.x.x.x.z.z.x.x.x.x.y.z.x.z.x.z.x.x.z.x.z.x.z.z.x.x.z.v.z.x.z.x.z.",
"N N ] ] ] 1.@.2.@.4.4.4.y.y.y.y.z.z.x.x.x.x.x.y.x.x.x.x.x.x.x.x.x.x.x.x.x.x.x.x.x.x.x.y.x.x.y.y.x.x.x.x.x.x.x.x.x.z.x.z.c.v.c.v.M.M.B.}..X%X*X:X2X3X9XwXeXrXyXuXuXuXuXuXuXyXyXrXeXwX9X3X,X:X*X@X.X|.V.V.M.c.v.z.z.z.z.x.z.x.y.z.x.x.x.x.x.x.x.x.x.x.x.x.x.x.x.x.x.x.x.x.x.x.x.x.x.x.x.x.x.z.x.x.x.x.x.x.x.x.x.x.x.x.m.y.5.x.x.x.x.x.x.x.x.x.x.x.x.x.x.x.x.x.x.x.x.x.x.x.x.x.x.x.x.x.z.x.x.x.x.x.x.x.z.x.x.x.x.x.x.x.x.z.y.x.x.z.x.x.x.c.c.v.v.M.M.V.}..X@X*X:X<X3X0X0XeXeXyXuXuXuXuXuXuXuXrXrXeXqX0X3X<X:X*X%X.X}.V.M.M.c.c.z.z.z.x.z.z.x.x.x.x.x.x.x.x.x.x.x.x.x.z.x.x.x.x.x.x.x.x.x.x.x.x.x.x.x.x.x.x.x.x.x.x.x.z.x.x.x.x.x.x.x.x.x.z.x.x.x.z.x.x.x.x.x.x.x.x.",
"N N ] ] ' :.+.@.$.4.$.4.y.y.y.y.y.x.x.x.x.x.y.y.y.x.x.x.x.x.y.x.x.5.x.x.x.x.x.x.x.5.y.y.x.x.x.5.y.x.y.x.y.y.x.5.x.x.x.x.x.z.x.c.N.N.V.|..X@X*X:X<X3X0XqXeXrXyXuXuXuXuXuXuXuXyXrXeX0X9X3X2X:X*X@X.X|.B.N.N.c.c.z.x.x.x.z.5.z.5.5.y.x.x.y.x.x.x.y.x.5.x.x.x.x.x.x.x.x.x.x.x.y.x.x.x.x.x.x.y.y.x.x.x.x.y.x.x.x.y.x.y.5.y.y.5.y.5.5.x.x.x.x.x.x.x.x.5.x.x.x.x.x.x.x.x.x.x.x.x.x.x.x.5.e.r.x.y.x.y.y.x.y.x.x.x.x.x.x.x.5.e.5.y.9.x.x.x.x.x.x.x.z.c.M.V.|.|..X@X*X:X2X3X9XqXeXyXyXuXuXuXuXuXuXuXyXrXeXqX9X3X<X:X*X%X.X}.V.N.M.v.v.v.x.x.x.x.x.y.x.x.x.y.x.x.x.x.y.x.x.x.x.x.x.y.e.x.x.x.y.r.x.x.x.x.x.x.y.x.x.x.r.x.x.y.y.x.x.x.x.y.x.x.x.x.x.x.x.x.x.x.x.x.x.x.r.x.x.",
"N ( _ ] ' +.+.@.4.$.4.4.y.y.y.y.y.y.5.x.y.5.5.5.5.x.5.y.x.5.9.x.y.5.5.5.y.y.9.5.5.5.y.0.5.b.y.5.5.x.9.x.5.y.3.5.x.5.x.x.x.x.z.v.v.V.V.}..X%X*X:X<X3X9X0XeXrXtXyXuXuXuXuXuXuXyXrXeXqX4X3X2X:X*X%XXX|.V.N.v.v.x.v.x.x.y.5.5.5.5.5.5.x.9.x.r.y.e.5.x.x.5.5.x.5.5.5.x.x.5.x.y.x.9.x.5.r.5.r.9.x.x.x.y.y.9.y.x.x.9.x.y.5.5.y.5.5.5.y.x.y.5.x.x.x.y.9.r.y.5.5.5.y.9.x.y.x.x.x.5.x.5.y.5.5.5.5.5.y.5.5.9.x.5.5.5.5.r.r.5.5.5.5.5.5.5.x.y.y.x.x.v.v.c.N.N.V.|.XX%X*X:X<X3X4XwXeXrXyXuXuXuXuXuXuXuXyXrXeXwX3X3X<X:X*X%X.X|.V.V.N.v.x.z.x.x.x.5.r.5.y.5.y.5.5.x.5.5.5.5.e.x.5.y.9.5.5.5.5.5.x.5.y.x.5.x.5.9.x.5.x.y.5.r.x.9.x.5.x.9.x.9.x.y.9.5.5.5.5.x.5.9.x.5.y.y.9.5.r.",
"B ( ( ( ` +.+.+.@.$.4.$.6.y.y.y.y.5.y.5.y.9.5.5.9.5.9.5.9.x.9.9.9.y.0.y.0.5.9.y.5.5.5.9.q.y.5.9.9.5.9.9.9.5.5.5.5.5.5.x.v.x.x.v.N.N.V.|.XX%X*X:X<X3X9XwXeXrXyXuXuXuXuXuXuXuXyXrXeXwX9X3X<X:X*X%X.X|.V.N.N.c.x.x.x.x.5.5.5.5.5.5.5.5.9.9.5.9.9.5.9.9.5.9.5.9.5.5.9.5.9.5.9.9.5.9.5.9.5.5.9.9.9.9.0.5.y.0.9.9.9.9.9.5.5.9.b.y.9.5.9.5.9.9.9.9.y.9.5.9.5.5.9.5.9.x.9.9.9.9.9.5.9.9.5.5.5.5.9.5.9.b.5.9.5.9.5.5.9.5.5.5.5.5.5.5.5.5.5.5.x.x.x.x.v.v.N.V.|..X%X*X:X<X3X4XqXeXrXyXyXuXuXuXuXuXuXyXrXeXqX0X3X2X>X*X@XXX|.V.N.v.v.v.v.x.r.5.5.5.5.9.9.5.5.9.5.9.5.9.9.5.9.x.9.5.9.5.5.5.9.5.9.9.5.9.9.y.9.9.5.5.9.9.9.5.9.5.9.5.9.y.9.9.9.5.5.5.5.9.9.5.9.9.5.5.9.5.5.5.",
"( ( ( ( ` +.+.%.%.$.6.t.y.y.y.q.9.y.9.9.5.q.9.5.9.9.9.9.9.9.9.9.9.9.9.9.9.9.9.9.0.0.9.9.9.9.9.9.9.9.9.9.9.9.q.5.9.5.5.5.5.5.x.n.v.N.V.|.OX%X*X>X<X3X9XqXeXrXyXuXuXuXuXuXuXuXtXrXeXwX9X3X<X>X*X%X.XOXV.N.v.v.v.x.x.9.9.9.9.9.9.9.7.9.9.9.9.q.9.9.0.5.9.9.9.9.9.9.9.9.9.9.7.9.9.9.9.9.9.9.9.q.q.q.9.q.9.q.9.9.9.9.9.9.9.9.9.9.9.9.9.9.9.9.7.9.9.9.9.9.9.9.9.9.9.9.9.9.9.9.9.9.9.9.9.9.9.9.9.9.9.9.7.9.9.9.q.q.9.9.q.q.q.q.9.9.9.5.5.9.5.5.b.x.x.v.N.V.V.XX%X*X>X<X3X9XwXeXrXyXuXuXuXuXuXuXuXuXrXeXwX0X3X<X>X*X%X.X|.V.v.v.x.x.x.9.r.9.9.5.6.q.6.q.9.9.9.9.9.9.9.9.7.9.9.9.9.9.9.9.0.9.9.9.9.9.9.9.9.9.9.9.q.q.q.9.9.9.9.9.9.9.9.9.9.9.9.9.9.9.9.9.9.9.9.9.q.q.q.9.",
"m E E ) ) O.O.%.%.%.%.y.t.6.y.y.5.9.6.9.6.7.q.7.q.9.7.7.7.7.7.7.7.7.7.7.7.7.7.7.q.7.7.7.7.7.7.7.7.7.7.7.7.7.7.7.7.7.q.9.9.9.x.n.n.N.V.V.XX%X*X:X<X3X4XqXeXrXyXyXuXuXuXuXuXyXyXrXeXqX9X3X<X>X*X%X|.OXN.N.n.v.9.5.9.9.9.9.q.q.q.7.7.7.7.7.7.7.7.7.7.7.7.7.7.7.7.7.7.7.7.7.0.7.7.7.7.7.7.7.7.7.7.7.7.7.7.7.7.0.7.7.7.7.7.7.7.7.7.7.7.7.7.8.0.7.7.7.7.7.7.7.7.7.7.7.7.7.7.7.7.7.7.7.7.7.7.7.7.7.7.7.7.7.7.7.7.7.7.7.7.7.7.q.7.7.7.7.q.9.9.9.9.y.n.v.N.V.|.OX%X*X>X<X3X9XqXeXrXyXuXuXuXuXuXuXuXuXrXeXqX3X3X<X>X*X%XXXV.Z.N.v.v.x.b.9.9.7.q.7.0.7.0.7.7.7.7.7.7.7.7.7.7.0.7.7.7.7.7.7.7.7.7.7.7.7.7.7.7.7.7.0.7.7.7.7.7.7.7.7.0.7.7.7.7.7.7.7.7.7.7.7.7.7.0.7.7.7.7.7.",
"E E ) ) ) } O.O.%.%.y.t.6.y.6.6.6.q.q.q.7.7.7.8.8.8.8.8.8.8.8.8.8.8.8.8.8.8.8.8.8.7.8.8.w.8.8.8.8.8.8.8.8.8.8.8.8.8.7.7.9.7.5.x.n.n.Z.OX|.%X=X>X<X8X9XqXeXrXyXuXuXuXuXuXuXuXtXrXeXqX9X8X<X>X=X%XXXV.N.v.n.9.b.9.7.7.0.7.8.8.8.8.8.8.8.8.8.8.8.8.8.8.8.8.8.8.8.8.8.8.8.8.8.8.8.8.8.8.8.8.8.8.8.8.8.8.8.8.8.8.8.8.8.8.8.7.8.8.8.8.8.8.8.8.8.8.8.8.8.8.8.8.8.8.8.8.8.8.8.8.8.8.8.8.8.8.8.8.8.8.8.8.8.8.8.8.8.8.8.8.8.8.8.8.8.8.8.8.8.7.q.0.9.x.m.n.n.N.V.OXXX=X>X8X8X9XqXeXrXyXuXuXuXuXuXuXuXuXuXeXqX9X8X<X>X*XXX.XV.Z.v.n.b.x.9.7.7.7.7.8.8.8.8.8.8.8.8.8.8.8.8.8.8.8.8.8.8.8.8.8.8.8.8.8.8.8.8.8.8.8.8.8.8.8.8.8.8.8.8.8.8.8.8.8.8.8.8.8.8.8.8.8.8.8.8.8.8.8.8.8.",
"E E ! ^ [ `  .O.+.+.} 6.} 6.6.6.q.w.7.w.8.8.=.8.=.=.=.=.W.=./.W.W.8.W.=.W.W.8.W.W.W.=.W.=.W./.W./.W.=.=.=.=.=.=.=.8.8.8.0.0.0.b.x.m.Z.V.OX%X&X:X<X8X9XqXeXrXyXuXuXuXuXuXuXuXyXrXeXqX9X8X<X>X*XXXOXZ.Z.n.n.b.9.0.8.8.8.=.=.=.=.W./.=.W.=.W.=.W.=.W.=.W.W.8.W.W.=.=.W.W.=.W./.=.W.W.=.W.=.W./.W.=./.W.=./.=.W.=.W.8.W.W.W.W.W./.W.8.W.8.W.W.8.W.W.W.8.W.W.8.W.W.=.W.W.8.W.W.=./.W.W.=.W./.=.W.W.W.W.=.W./.=.W.=.W.=./.W.=.=.=.=.=.=.8.8.8.0.0.5.m.n.Z.OXOXXX*X>X<X2X9XqXeXrXyXyXuXuXuXuXuXuXuXyXeXqX9X8X<X>X*XXXOXC.Z.n.n.b.7.0.0.8.8.=.=.=.=.=./.=.W.=.W.=.W.=.W.W.8.W.W.=.W./.=.W.8.W.W.W.8.W.W.8.W.=.W.=.W.=./.=.W.W.=.W.=./.W.W.8.W.W.8.W.W.W.8.W.=.W./.=.W.W.",
"! ! ! [ [ [ o.} } %.1.%.6.6.6.1.w.w.w.=.w./.T./.W.W./.T././.!.Q.Q.W.E.W.W.E.W.Q.!.Q.W.E.Q.Q.Q.W.Q.!.Q.W.W.W.W.W.W.W.W./.=.8.0.0.b.m.Z.Z.OXoX6X6X7X8XqXqXqXyXyXuXuXuXuXuXuXuXyXyXqXqX8X8X7X6X6X5XOXZ.Z.m.b.b.0.=.=./.W.W.W.!.W.W.W.!.W.Q.W.Q.Q.Q.E.W.E.W.W.E.W.Q.W.Q.W.!.Q.Q.Q.W.W.^.W.Q.!.Q.W.!.Q.W.Q.!.W.Q.!.Q.W.E.W.W.Q.Q.!.W.Q.W.E.W.Q.Q.Q./.!.Q.!.W.W.W.!.W.Q.Q.Q.!.W.Q.Q.!.W.W.Q.!.W.E.W.W.W.W.W.E.W.W.E.W.Q.Q.W.W.W.!.W.W.W.W.=.8.8.0.0.b.m.Z.Z.OXoX*X>X<X7XqXqXqXqXyXyXuXuXuXuXuXyXyXyXqXwX9X3X<X>X=XXXOXZ.Z.m.b.9.0.8././.W.W.W.!.W.W.W.Q.W.!.W.Q.W.!.Q.W.Q.!.Q.W.!.Q.W.W.W.W.E.Q.W.Q.Q.Q.W.Q.!.W.W.E.W.Q.!.Q.W.Q.!.Q.W.E.W.W.E.W.Q.!.W.W.Q.Q.!.Q.!.Q.!.",
"Q Y ! [ [ [ } o.} %.%.%.1.6.1.w.w.w.=.-.T.T.W.T.Q.T.R.R.R.R.^.T.E.~.E.E.E.E.E.E.E.E.E.E.R.^.T.^.E.E.E.E.R.E.R.E.Q.!.!.W./././.0.b.m.n.C.OXoX6X7X7X8X8XqXyXqXyXyXuXuXuXuXuXuXyXqXrXqXqX8X7X7X&X&XOXZ.m.m.0.0.8././.!.W.!.Q.~.E.E.Q.^.R.R.T.Q.R.R.E.E.E.E.E.E.E.E.E.E.~.E.R.R.T.^.^.T.^.~.E.E.~.E.E.E.E.E.E.E.E.E.E.E.E.~.^.R.^.T.E.E.E.E.R.R.R.T.^.R.^.R.R.^.~.~.^.~.R.E.E.E.E.E.~.E.E.E.~.E.E.E.E.E.~.E.E.E.E.E.R.R.T.^.T.^.E.^.E.W.W.W././.0.b._.Z.Z.OXXX&X>X7X8XqXqXqXyXyXuXuXuXuXuXuXuXyXyXrXqX9X8X7X>X&XoXOXC.n.m.b.0././.W.Q.!.!.Q.E.E.E.~.R.E.E.E.E.~.E.E.E.E.E.E.~.E.~.~.~.~.~.^.T.~.T.^.E.E.E.E.~.E.E.E.E.~.E.E.E.E.E.E.E.E.E.E.E.E.E.E.E.~.E.E.E.E.E.E.",
"Q ! ! [ [ [ } [ } } 1.1.1.1.1.-.w.=.T.W.T.T.T.R.R.R.R.R.R.R.R.R.R.R.~.~.R.S.S.S.R.R.U.R.R.R.R.R.S.R.R.R.R.R.R.R.R.R.^.!.T./.)./.(.b.m.C.OXoX6X6X7X8XqXqXqXyXyXuXuXuXuXuXuXyXyXrXqXqXqX8X7X>X&XoXOX].m._.(.(./.Q.Q.Q.R.R.~.R.R.R.R.R.R.R.R.R.R.R.U.R.S.S.S.S.~.S.R.R.U.R.^.S.R.R.R.R.R.R.R.R.R.R.R.D.~.~.S.S.S.S.D.U.S.S.R.R.D.^.S.S.S.S.S.U.S.~.R.R.R.R.R.R.R.R.R.R.R.~.R.S.R.R.S.S.S.S.S.S.S.~.S.S.S.S.U.S.S.S.U.R.S.S.R.R.R.R.R.E.E.Q.W././.(.b.m.C.C.oX&X>X<X8XqXqXqXyXyXuXuXuXuXuXuXyXyXrXqXqX9X8X<X>X&XoXC.Z.`.b.(././.W.Q.^.^.R.R.R.R.R.R.R.R.R.R.R.R.R.~.S.S.S.S.~.S.R.R.R.R.R.R.R.R.R.R.S.S.S.S.S.S.S.S.~.~.R.~.S.S.S.S.S.S.S.S.S.S.S.S.~.R.R.~.~.S.S.S.",
"! { [ [ [ [ [ [ } } } } 1.1.w.-.J -.T.T.R.R.R.R.R.R.R.A.A.R.A.R.D.D.D.D.D.D.D.D.A.D.D.A.D.D.D.D.D.D.D.F.D.D.D.R.R.R.R.R.R.^.Q.).(._.`.'.OX5X6X6X7X8X8XqXqXyXyXuXuXuXuXuXuXuXyXyXrXqX8X8X7X>X&XoXC.].`._.(./.W.^.T.R.R.R.R.J.R.R.R.A.D.D.D.D.D.D.D.D.D.D.D.D.D.D.A.D.D.A.D.D.D.D.R.R.J.J.D.D.D.A.D.D.D.D.D.D.D.D.D.D.D.F.D.D.A.S.D.D.D.D.D.D.D.D.R.R.J.A.J.R.J.R.D.D.D.D.D.D.A.D.D.D.D.D.D.D.D.D.D.D.D.D.A.D.D.D.D.D.F.F.R.R.J.R.R.R.~.E.Q.Q./.(._.`.Z.5XoX&X6X7X7XqXqXyXqXyXyXuXuXuXuXuXuXyXyXqXqX9X8X7X=X6XoX].Z.`._.(./.Q.Q.E.R.R.R.R.R.A.R.A.D.D.D.A.D.D.D.D.D.D.D.D.D.D.D.D.D.D.R.J.R.J.D.D.D.D.D.D.D.D.D.D.J.R.J.R.D.D.D.D.D.D.D.D.D.D.D.D.D.D.J.R.D.D.D.D.",
"{ { ! [ [ [ [ } } } } } 1.K 1.-.J T.T.T.R.R.R.F.J.R.A.A.J.J.A.A.J.J.J.J.J.J.J.J.J.A.J.J.A.J.J.J.J.J.A.A.J.A.A.D.J.R.R.R.R.^.^.)./.(.`.'.].5X6X6X7X8XqXqXqXyXyXuXuXuXuXuXuXuXuXyXeXqX8X8X7X=X&XoX].'.'._.).Q.^.^.~.R.D.D.D.J.J.J.J.J.J.A.J.A.J.J.J.A.A.J.J.J.J.J.J.J.J.J.J.A.J.A.J.J.J.J.J.J.J.J.J.J.J.J.J.J.J.J.J.A.J.J.A.J.J.A.J.A.J.J.A.J.J.J.J.J.J.J.J.J.J.J.J.D.J.J.J.J.J.J.J.J.J.J.J.D.J.J.J.J.A.J.J.J.A.A.A.A.A.A.A.A.A.A.D.D.R.~.~.Q.).)._.`.'.].oX&X6X7X8X8XqXyXyXuXuXuXuXuXuXuXyXyXrXrXqX9X8X7X6X6X5X5X'.`.).).Q.Q.^.^.U.A.D.D.A.A.A.A.J.J.J.J.A.J.J.J.J.J.J.A.J.J.D.J.J.J.J.J.D.J.A.D.A.J.J.J.J.J.A.J.J.J.J.J.J.J.J.J.J.J.J.J.J.J.J.J.J.J.J.J.J.J.J.J.",
"! { { [ [ [ [ [ } } } } 1.*.K J -.T.T.R.F.F.F.F.J.A.J.J.J.J.J.J.J.K.J.J.J.J.J.K.J.J.J.J.J.J.J.J.J.J.J.J.J.J.J.J.J.A.J.J.D.^.^.).)._.`.'.5X5X5X7X7X8XqXqXqXyXyXuXuXuXuXuXuXuXuXuXeXqX9X8X7X7X5X5X].'.`.).).).^.^.R.D.D.D.J.J.J.J.K.J.J.J.J.J.J.J.J.K.J.J.J.J.J.J.J.J.J.J.J.J.K.J.J.J.J.K.J.J.J.J.J.K.J.J.J.J.J.K.J.J.J.J.J.J.K.J.J.J.J.J.J.J.J.J.J.J.J.J.J.J.J.J.K.J.J.J.J.J.J.J.J.J.J.J.K.J.J.J.J.J.J.J.J.J.J.J.J.J.K.J.J.J.A.A.J.D.J.^.~.^.Q.).(.`.'.].5X&X7X7X8XqXqXqXqXuXuXuXuXuXuXuXuXyXrXqXqX9X8X7X6X5X5X].'.`._.).Q.Q.^.D.D.F.A.J.A.J.J.A.J.J.J.J.J.J.K.J.J.J.J.J.K.J.J.J.J.J.J.J.K.K.K.K.J.J.J.J.J.J.J.J.J.K.J.J.J.J.J.J.J.J.J.J.J.J.J.J.J.K.J.J.J.J.J.J.",
"{ [ [ [ [ [ ! } ! } } K *.K J J T.T.T.R.F.F.F.F.J.J.J.K.K.K.H.H.K.K.K.K.J.K.K.K.H.H.K.K.K.K.K.K.K.K.L.L.K.K.J.K.J.J.J.R.D.^.^.^.)._.`.'.].5X6X6X7X8X8XqXqXyXrXuXuXuXuXuXuXuXuXuXeXqX9X8X7X6X6X5X].'.`.).).Q.^.D.D.D.J.J.J.J.K.J.K.K.K.K.K.K.K.K.K.K.H.H.K.K.K.K.K.K.K.K.K.K.K.K.J.K.K.K.K.K.K.K.K.K.K.K.J.K.K.K.H.H.K.K.K.K.K.K.H.H.K.K.K.K.K.K.K.K.L.K.K.L.K.K.K.K.K.K.K.K.K.K.K.K.K.K.K.K.K.K.K.K.K.K.K.H.H.H.K.K.K.K.K.K.A.J.J.D.D.D.R.^.Q.).(.`.'.].5X5X6X7X7XqXqXqXuXuXuXuXuXuXuXuXyXyXyXrX9X9X8X7X7X5X5X].'.`._.).Q.^.~.D.A.A.A.K.K.K.K.K.K.K.K.L.K.K.K.K.K.K.H.H.K.K.K.K.K.K.K.K.K.K.K.K.K.K.K.K.K.K.H.K.K.K.K.K.K.K.K.K.J.K.K.K.K.K.K.K.K.K.K.K.K.K.K.K.",
"[ [ [ [ ! } ! } ! } } 1.K K K J J T.T.R.F.K.L.K.J.L.K.K.K.H.H.H.H.H.H.K.K.K.H.K.H.H.H.H.H.H.H.H.H.H.L.L.K.K.K.J.J.J.J.J.D.R.^.^.).).`.'.].5X5X6X7X8X8XqXqXrXyXuXuXuXuXuXuXuXuXuXqXqX9X8X7X6X6X5X].'.`._.).^.^.~.D.A.J.J.J.J.K.K.K.K.K.K.H.H.H.H.H.H.H.H.H.H.H.H.H.H.H.H.K.H.H.H.L.K.H.H.H.L.K.K.H.H.H.K.K.K.H.H.H.H.H.H.K.H.H.H.H.H.H.H.H.H.H.H.K.K.H.L.L.L.L.L.H.H.H.H.K.K.H.H.K.H.H.H.H.H.H.H.H.H.H.H.H.H.H.H.L.L.K.K.K.K.K.K.J.J.J.D.R.^.^.).)._.'.].5X6X7X7X8X8XqXyXuXuXuXuXuXuXuXuXuXyXrXqXqX9X8X7X6X6X5X].'.`.).).Q.^.^.J.A.A.A.A.K.K.L.L.L.L.L.L.L.L.L.L.H.H.H.H.H.H.H.H.H.H.H.L.H.H.K.K.H.H.H.H.H.H.H.H.H.H.L.L.K.K.H.H.H.H.H.H.H.H.H.H.H.H.H.K.K.K.H.H.",
"[ [ [ { [ [ ! [ ! } K ! K K K J J G.G.F.F.J.J.J.K.K.L.L.L.L.L.L.K.K.H.H.H.H.K.K.H.L.L.L.L.L.L.K.H.H.H.H.H.H.L.K.J.J.A.A.D.~.^.).).).`.'.].5X6X6X7X8XqXqXqXyXyXuXuXuXuXuXuXuXyXeXeXqX8X8X7X6X6X5X].'.`.).).^.^.S.D.A.J.J.J.L.J.H.K.K.K.K.K.H.H.H.H.H.H.H.H.H.H.H.H.H.H.H.H.H.H.H.L.L.K.K.L.L.L.H.H.H.H.H.H.H.H.H.H.H.H.K.H.K.K.K.H.H.H.H.H.H.H.H.H.H.K.K.H.H.H.H.L.L.H.H.H.H.K.H.H.H.H.H.H.H.H.H.H.H.H.H.L.L.L.L.L.L.L.L.L.L.J.K.J.J.R.D.~.^.^.).)._.'.].5X5X6X7X7XqXqXyXyXuXuXuXuXuXuXuXuXuXrXqXqX9X8X7X6X6X5X].'._.).).^.^.^.J.A.J.J.J.K.L.K.L.L.L.L.L.L.L.L.L.H.H.H.H.H.H.H.H.K.K.K.K.K.H.K.K.H.H.H.H.K.H.H.H.H.H.H.H.L.H.H.H.H.H.H.H.H.H.H.H.H.H.H.H.L.H.H.H.",
"[ [ [ [ [ ! [ ! ! ! ! K K K K J J J G.F.F.F.F.J.J.J.J.K.L.J.L.L.K.K.K.K.K.K.K.K.L.K.K.K.K.K.K.K.K.K.J.L.H.J.K.J.J.J.A.A.D.~.^.^.).).`.'.].5X6X6X7X8X8XqXqXyXyXyXuXuXuXuXuXuXyXrXeXqXqX8X7X6X5X5X].'.`.(.).).^.R.U.D.A.J.J.J.H.J.K.K.K.K.K.K.K.K.K.K.K.K.K.K.H.J.K.K.K.K.K.K.K.K.K.K.K.J.K.K.K.K.K.K.K.K.K.K.K.K.K.K.K.K.K.K.K.K.K.K.H.H.K.K.K.K.K.K.K.K.K.K.K.K.K.K.K.K.K.K.K.K.K.K.K.K.K.K.K.K.K.K.K.K.K.K.L.K.K.K.K.K.L.J.K.A.J.J.D.D.~.^.Q.)._._.'.].5X6X6X7X7XqXqXqXqXuXuXuXuXuXuXuXuXuXyXrXqX9X8X7X6X6X5X].'._._.).Q.^.^.D.D.A.A.J.K.J.K.K.K.K.K.K.K.K.L.K.K.K.K.K.K.K.K.K.K.K.K.K.K.K.K.K.K.K.K.K.K.K.K.K.K.K.K.K.K.K.K.K.K.K.K.K.K.K.K.K.K.K.K.K.K.K.K.K.",
"[ [ [ { [ ! ! [ ! K ! K *.K K J J G.G.G.G.F.A.A.F.J.L.J.J.K.J.J.J.J.J.J.J.J.J.J.J.K.J.J.K.J.J.K.J.J.J.J.J.J.J.A.A.A.A.D.U.^.R.^.).).`.'.].5X6X6X7X8X9XqXqXyXyXuXuXuXuXuXuXyXyXrXeXqX9X8X7X6X6X5X].'.`.(.).).R.^.D.D.D.A.J.J.J.J.K.J.J.J.J.J.K.J.J.J.J.J.J.J.J.J.J.J.J.J.J.J.J.J.K.J.J.J.J.J.K.J.J.J.J.J.K.J.J.J.K.J.K.J.K.K.K.K.J.K.J.J.J.J.J.J.J.J.J.J.K.J.J.K.J.J.J.J.J.J.J.J.J.J.J.J.J.J.J.J.J.J.J.J.J.J.J.J.J.J.J.J.J.J.J.A.J.D.D.^.~.^.Q.)._.`.'.].5X6X6X7X8X8XqXqXqXyXuXuXuXuXuXuXuXuXyXqXqX9X8X7X6X&X5X].'._._.).Q.^.^.D.D.D.A.A.A.J.J.J.J.J.J.J.J.K.J.J.J.J.J.J.J.J.J.J.J.K.K.K.K.K.K.K.J.J.J.J.J.K.J.K.A.K.J.K.J.J.J.J.J.J.J.K.J.K.J.J.K.J.J.K.J.J.J.J.",
"[ [ [ ! { ! ! ! ! ! ! ! ! K K K J J T.T.T.F.F.R.R.J.F.J.R.J.J.F.J.J.J.J.J.J.J.J.J.J.J.D.J.J.J.J.J.A.J.A.A.A.A.A.D.D.D.S.^.^.^.).)._.`.'.C.5X6X6X7X8X9XqXrXyXyXyXuXuXuXuXuXyXyXeXeXqX8X8X7X6X6X5XC.'.`._.).Q.^.^.R.^.D.D.F.A.A.A.A.A.J.J.J.J.A.J.J.A.J.J.J.J.J.J.J.J.A.J.J.J.J.J.J.J.J.J.J.J.J.J.J.D.J.J.J.J.J.D.A.A.J.A.A.D.A.J.J.J.D.J.J.J.J.A.J.J.J.J.J.J.D.J.J.J.J.J.J.J.J.J.J.J.A.J.J.J.J.J.J.J.J.J.J.J.J.J.J.A.J.J.A.A.A.D.D.D.D.~.~.W.).).).'.'.].oX&X6X7X8XqXqXyXyXyXyXuXuXuXuXuXuXuXrXqXqX9X8X7X6X&X5XC.'.'.).).).^.^.^.S.D.D.D.A.A.A.A.J.J.J.D.J.J.J.J.J.J.J.A.J.J.J.J.J.A.A.J.J.D.D.J.J.J.J.J.A.J.D.K.A.K.A.A.A.J.J.J.J.D.J.J.D.J.J.J.A.J.D.J.J.J.J.J.",
"[ { ! ! Q ! Q ! ! ! K K _ K K K J J J G.T.R.R.R.R.R.R.R.R.K.R.J.D.D.D.D.D.D.D.D.R.D.D.D.A.R.J.D.D.D.D.D.D.D.D.S.D.S.S.E.~.Q.Q.).(._.`.Z.C.oX&X>X7X8X9XqXqXyXuXuXuXuXuXuXuXuXyXrXeXqX9X8X7X6X6X5XC.Z.`._.(./.W.^.R.R.R.R.F.S.D.D.D.D.D.A.R.J.R.J.D.D.D.D.D.D.D.D.D.D.D.D.A.D.D.A.D.D.D.D.R.J.R.J.D.D.D.D.D.A.D.D.D.A.D.D.D.D.D.A.D.A.D.D.D.D.D.D.D.D.D.D.R.D.D.D.R.J.R.J.D.D.A.R.D.A.D.D.D.D.D.D.D.D.D.D.D.D.R.J.R.A.D.D.D.D.D.S.~.~.~.E.Q.Q./.(._.`.'.C.oX&X>X7X7XqXqXyXyXyXuXuXuXuXuXuXuXyXrXeXqX9X8X7X=X&XoX].C.`._.(.).Q.Q.~.E.~.S.D.S.D.D.D.R.J.R.J.R.J.R.J.A.J.R.R.D.A.D.D.R.J.R.J.A.A.D.D.D.D.D.D.D.D.R.D.D.D.R.J.R.J.A.D.D.D.R.D.D.D.R.J.R.D.J.R.J.R.D.D.",
"! Q { Q Q Q Q Q L ! L ! _ _ *.K J J J J !.T.R.T.R.R.R.R.R.R.R.R.S.R.S.S.R.R.R.R.R.R.R.R.R.R.R.R.R.R.R.U.S.S.S.S.E.E.E.E.Q.W././.(._.m.Z.C.oX&X>X7X8X9XqXrXyXuXuXuXuXuXuXuXuXrXrXeXqX9X8X7X7X6X5X].Z.m.`.(.(./.W.^.Q.R.R.E.R.R.R.R.R.R.R.R.R.R.R.S.S.S.S.S.S.S.S.R.R.D.^.R.U.R.R.S.S.S.S.R.R.~.~.R.R.R.D.R.R.R.R.^.R.R.R.R.R.R.R.~.U.R.R.R.S.S.S.R.R.R.R.R.R.D.R.R.R.R.R.R.R.R.R.U.R.^.R.S.S.S.S.R.R.R.R.R.R.R.R.R.R.R.R.R.R.~.E.~.~.E.Q.W././.(.b.'.Z.C.oX&X>X7X7X8XqXqXyXyXuXuXuXuXuXuXuXyXrXeXqX9X8X7X>X&XoXOXZ.m.b.0././.W.Q.E.E.E.S.R.R.R.R.R.R.R.~.R.R.R.R.R.R.R.R.~.U.R.R.R.R.R.R.R.R.R.U.U.~.R.R.R.R.R.R.R.R.R.R.R.R.R.R.D.U.R.R.R.R.R.R.R.R.R.R.R.R.R.R.",
"H [ Q Q Q Q L ! ! ! ! ! ! K *.K *.-.J J J !.!.!.R.R.T.^.R.T.R.R.E.E.E.E.~.~.E.~.E.R.~.^.R.Q.T.^.R.R.E.E.E.E.!.E.!.E.Q.W.W./.8.0.b.m.n.C.OXoX&X>X7X8XqXqXqXyXuXuXuXuXuXuXuXuXyXrXeXqX9X8X<X=X6XoXOXZ.n.m.b.8./././.!.Q.Q.E.E.E.E.E.E.E.E.E.~.~.E.E.E.~.E.E.E.E.E.R.T.R.^.E.E.~.E.E.E.E.E.E.E.^.~.~.E.E.E.E.~.R.E.E.~.~.^.Q.T.^.R.R.^.R.R.E.E.E.E.~.~.~.E.E.E.^.^.~.E.Q.R.R.R.T.^.R.T.R.R.E.E.E.E.^.R.R.T.^.T.Q.E.~.E.E.E.E.E.Q.E.Q.!.W.W././.0.b.m.n.C.OXXX&X>X<X8XqXqXyXyXuXyXuXuXuXyXuXyXyXrXeXqX9X8X7X>X&XoXC.C.n.m.b.0././.W.W.E.E.E.E.E.E.E.E.E.^.~.R.~.^.R.R.^.R.^.R.^.R.R.R.Q.^.T.R.^.E.~.R.R.R.T.R.^.R.R.^.R.^.~.^.R.E.E.R.R.R.R.R.T.^.^.R.R.E.T.^.E.E.E.",
"! H Q L L L L L L ! ! ! _ ! _ *.*.*.-.-.-.=.W.W.!.!.W.W.Q.W.Q.!.W.!.Q.!.Q.W.!.W.Q.Q.!.Q.W.W.Q.!.Q.Q.E.W.W.!.W.W.W.W.W.W.8.8.0.0.b.m.Z.Z.OXXX=X>X7X7XqXqXqXyXuXuXuXuXuXuXuXyXyXrXeXqX9X8X<X>X=XXXOXZ.Z.m.b.b.0.8.=.W./.W.W.W.W.!.Q.W.!.Q.W.!.W.Q.W.E.W.W.W.E.W.Q.Q.W.Q.Q.W.E.W.W.!.Q.!.Q.W.Q.!.Q.W.!.Q.!.Q.W.W.Q.W.!.Q.Q.!.Q.W.!./.T./.Q.E.W.Q.!.Q.W.W.!.Q.!.Q.Q.!.Q.!.W.W.Q.Q.W.Q.Q.Q.Q.W.W.E.W.Q.Q./.!.Q.^.Q.!.W.Q.Q.!.W.!.W.!.W.W.W.8.8.0.0.b.m.Z.C.OXXX=X>X<X7XqXqXqXqXqXuXuXuXuXuXuXuXyXtXeXqX9X8X7X>X*XXXOXC.Z.m.m.0.8.8./.=.=.W.W.W.W.W.!.Q.!.W.Q.W.!.W.W.W.!.Q.!./.T./.Q.W.Q.!.W.Q.Q.!.W.Q.Q./.Q.Q.!.W.W.Q.W.W.!.Q.Q.W.!.Q./.Q.W.Q.^.W.!.Q.Q.W.Q.E.Q.Q.!.",
"H Q H Q L L L L L ! ! ! ! ! *.} 1.1.1.w.-.w.=.=.=.=.=.W.W.=.W.W.=.W.=.W.W.W.8.W.W.=.W.=.W.W.W.8.W.W.8.W.=.=.=.=.=.=.8.8.0.7.9.b.n.n.Z.V.OXXX*X>X<X2X9XqXeXrXtXuXuXuXuXuXuXuXyXyXeXqX9X8X<X>X=X%XOXC.n.n.x.b.0.0.8.8.8.=.=.=.=.=.=./.=.W.=.W.W.=.W.=./.=.W.=.W.8./.W.W.W./.W.=.W.W.W.8.W.W.8.W.W.=.W./.=.W.W.8.W.W.8.W.=./.=.W.=.W.8.W.W.8.W.W.W.8.W.W.8.W./.=.W.=.W.W.=.W.=./.=.W.W.8.W.W./.W.=.8.W.=.W.W.=.W.W./.=.W.=.=.=.=.=.=.8.8.0.0.7.9.b.n.Z.OXOX%X&X>X<X8XqXqXrXyXyXuXuXuXuXuXuXuXuXrXeXqX9X8X<X>X&XXXOXV.Z.n.m.9.7.0.8.8.8.8.8.=.=.=.=.W.=.W.=.W.=.W.=.W.8.W.8.W.W.8.W./.=.W.=.W.=.W./.=.W./.=.W.W.8.W.W.W.8.W.W.=.W.W.=.W.=.W.W.=./.W.8.W.=.W.W.=.W.W.",
"H H H H H 3 H L L L L ! ! K } *.} 1.1.w.1.w.w.w.w.7.8.w.8.8.7.8.8.8.8.7.8.8.8.8.8.8.8.8.7.8.8.8.8.8.8.8.8.8.8.8.8.7.7.7.7.9.b.x.x.n.N.C.XXXX=X>X<X3X4XqXeXrXtXuXuXuXuXuXuXuXyXyXeXqX9X3X<X>X%X%XOX|.Z.N.n.b.9.9.9.7.7.8.8.8.8.8.8.8.8.8.8.8.8.8.8.8.8.8.8.8.8.8.w.7.8.8.8.8.8.8.8.8.8.8.8.8.8.8.8.8.8.8.8.8.8.8.8.8.8.8.8.8.8.8.8.8.8.8.8.8.8.8.8.8.8.8.8.8.8.8.8.8.8.8.8.8.8.8.8.8.8.8.8.8.8.8.8.8.8.8.8.8.8.8.8.8.8.8.8.8.8.8.8.7.7.0.9.b.x.n.n.N.V.OXXX*X>X<X8XqXqXqXrXyXuXuXuXuXuXuXuXuXrXeXqX9X8X<X>X*X%XXXV.N.n.n.n.9.9.9.7.8.8.8.8.8.8.8.8.8.8.8.8.8.8.8.8.8.8.8.8.8.8.8.8.8.8.8.8.8.8.8.8.8.8.8.8.8.8.8.8.8.8.8.8.8.8.8.8.8.8.8.8.8.8.8.8.8.8.8.8.8.8.8.",
"H H H H H H H H L L ! ! ! } ! } 1.1.6.1.6.w.q.q.w.7.7.7.7.7.7.7.7.7.7.7.7.7.7.7.7.7.7.7.7.7.7.7.7.7.7.7.7.7.7.7.7.q.q.9.9.9.x.v.n.N.V.OX.X%X*X>X<X2X9XqXeXrXrXuXuXuXuXuXuXuXuXyXeXqX9X3X<X:X*X%XXXV.V.N.n.x.n.9.9.9.9.9.7.7.7.7.7.7.7.7.7.7.7.7.7.7.7.7.7.7.7.8.7.7.7.7.7.7.7.7.7.7.7.q.7.7.7.7.7.7.7.7.7.7.7.7.7.7.7.8.7.7.7.7.7.7.7.7.7.7.7.7.7.8.7.7.7.7.7.7.7.7.7.7.7.7.7.7.7.7.7.7.7.7.7.7.7.7.7.7.7.7.7.7.7.7.7.7.7.7.7.q.9.9.9.9.9.v.v.v.N.V.OX|.%X*X>X<X8XqXqXrXrXyXuXuXuXuXuXuXuXuXyXeXqX9X3X<X>X*X@XXXOXZ.N.v.n.5.x.9.9.9.7.7.7.7.7.7.7.7.7.7.7.7.7.q.8.7.7.7.7.7.7.7.8.7.7.7.7.7.7.7.7.7.7.7.7.7.7.8.7.7.7.7.7.7.7.7.7.7.7.7.7.7.7.7.7.7.7.7.7.7.7.7.",
"< < H H H ; H H L L L ! ! ! } } } } 6.1.6.y.6.q.y.7.y.q.9.9.9.0.9.9.9.9.0.q.q.q.9.9.9.9.0.9.9.9.9.9.9.9.9.9.5.9.5.9.9.5.b.x.x.x.v.N.V.V.OX%X*X:X<X8X9XqXeXrXrXuXuXuXuXuXuXuXuXuXeXqX9X2X<X>X*X%XXX|.N.N.v.v.x.x.x.9.5.9.5.q.5.9.9.9.9.7.9.9.9.9.q.q.q.q.9.9.9.9.9.9.9.9.9.9.9.9.9.9.9.0.9.9.9.9.9.9.9.9.9.9.9.7.9.9.9.9.9.q.9.9.9.9.9.0.9.9.9.9.9.9.9.9.9.9.9.9.9.9.9.9.9.9.q.q.9.9.9.9.9.9.9.9.9.9.9.9.9.9.q.q.q.q.9.9.7.6.q.5.9.5.9.9.y.x.v.v.N.V.|.|.@X=X:X<X8XqXqXqXrXyXyXuXuXuXuXuXuXuXyXeXqX9X2X<X:X*XXXOXV.V.N.v.v.m.x.x.5.9.5.9.5.9.q.9.9.q.9.9.9.9.9.0.9.9.9.9.9.9.9.9.9.9.9.9.9.9.9.9.9.9.9.9.9.9.9.9.9.9.9.9.9.9.5.0.9.9.9.9.9.9.9.7.9.9.9.9.9.9.q.q.",
"< < < H H ; H H H H H Q ! [ [ } } %.t.t.6.6.y.6.q.y.q.9.y.9.5.5.y.9.5.5.0.5.0.y.9.9.5.9.5.9.5.5.5.5.9.9.9.5.5.9.5.5.y.5.x.x.v.v.v.N.V.|..X@X*X>X<X3X4X0XeXrXyXuXuXuXuXuXuXuXyXrXeXqX9X3X<X>X*X%X.XV.V.N.v.v.v.x.x.5.5.5.5.9.9.y.9.5.5.5.b.5.5.9.5.9.9.5.9.5.5.5.5.5.0.y.y.9.5.5.9.9.9.9.5.0.5.0.5.5.9.9.5.9.5.5.9.9.5.9.5.5.9.5.9.9.5.9.y.0.5.0.5.5.9.x.9.5.5.9.y.9.5.9.5.5.9.5.5.9.5.5.9.5.5.5.9.5.9.5.9.5.5.5.5.5.5.9.5.5.5.5.5.5.e.x.x.v.v.v.N.V.|..X%X*X:X<X8XqXqXeXrXyXuXuXuXuXuXuXuXtXrXeXwX9X3X<X>X*X%X.X}.V.N.c.x.v.x.x.9.x.5.5.5.5.5.9.5.5.5.9.5.9.9.5.x.9.5.9.5.5.9.5.9.5.5.9.x.9.y.9.5.5.5.9.5.5.5.5.5.5.5.9.9.5.9.9.5.9.9.5.5.5.9.5.5.0.5.5.5.b.5.5.",
"< ; ; H < H H H H H Q ! ! [ [ } } %.%.6.t.y.6.6.q.y.y.q.9.y.5.5.y.5.5.5.5.y.5.5.x.x.x.9.y.5.y.5.5.5.5.e.x.9.y.5.y.3.x.x.x.v.z.v.N.M.V.|..X%X*X:X<X3X9XwXeXrXyXyXuXuXuXuXuXuXyXrXeXwX9X3X,X:X*X%X.X|.V.M.N.c.c.x.x.x.x.x.3.y.x.9.5.x.5.5.5.5.5.y.r.e.5.5.5.x.5.5.5.5.y.0.5.5.5.5.y.5.x.x.y.5.y.y.5.5.x.x.x.x.5.5.x.y.5.5.5.5.r.5.5.y.x.5.5.5.y.y.9.y.9.y.5.x.5.5.5.r.5.5.5.5.5.r.5.5.5.5.5.5.5.b.5.x.5.5.5.5.y.b.3.5.5.e.5.5.5.5.5.5.x.x.x.c.c.v.N.V.|..X%X*X:X<X8X9XqXeXrXyXyXuXuXuXuXuXuXtXrXeXwX3X3X<X:X*X%X.X|.V.N.v.v.z.x.x.x.y.y.9.x.9.y.5.5.5.5.5.y.e.5.5.y.9.y.5.5.5.r.5.5.5.5.x.x.9.x.9.5.5.5.5.5.5.5.5.x.5.9.y.5.y.x.x.r.y.5.x.5.5.x.5.5.y.5.5.5.5.5.5.",
"; ; < ; H H H H H Q H { { [ [ o.%.%.%.%.t.t.y.y.y.y.y.y.y.y.5.5.5.5.x.x.5.y.x.y.x.x.x.y.x.x.y.5.x.x.5.y.x.x.y.e.y.x.x.x.x.x.v.v.c.V.V.|..X@X*X:X,X3X4XqXeXrXyXuXuXuXuXuXuXyXtXrXeXwX3X3X,X:X*X@X.X|.V.M.c.c.v.x.x.z.x.x.y.y.x.x.x.x.9.y.y.y.x.x.x.x.x.x.x.x.x.x.y.5.y.y.5.x.y.x.x.x.x.x.y.5.y.x.5.y.9.x.x.x.x.x.x.x.x.x.y.x.x.x.x.x.x.x.y.5.y.x.x.x.x.x.x.x.x.x.x.x.x.y.x.x.x.x.x.x.y.x.5.y.y.y.x.5.x.x.x.x.r.y.x.y.x.x.5.z.5.z.z.x.z.x.x.v.c.N.M.V.|..X@X*X:X<X9X9XqXeXrXyXuXuXuXuXuXuXyXtXrXeXwX9X3X,X:X*X@X.X}.V.V.M.v.z.c.x.x.z.x.x.x.e.y.5.e.e.x.x.5.x.x.x.x.x.x.x.y.x.x.x.x.x.5.x.x.x.x.y.x.x.x.e.x.5.x.x.x.x.x.x.x.x.x.x.x.x.x.x.x.5.x.x.y.x.y.x.x.x.5.y.",
"; ; ; H ; ; ; H H H H { H ! [ o.} %.%.%.t.%.t.t.y.y.y.y.y.y.y.y.y.y.y.x.y.x.m.y.x.x.x.x.x.x.x.x.x.x.x.x.z.x.5.z.x.x.x.z.x.c.c.c.M.N.B.}..X%X*X:X<X3X9XqXeXrXyXyXuXuXuXuXuXuXyXrXeX0X0X3X<X:X*X@X.X|.V.V.M.v.c.z.x.z.x.x.x.z.x.x.x.x.x.x.x.y.x.x.x.x.x.x.x.x.x.x.x.x.y.m.y.x.x.y.x.x.x.x.x.x.x.x.z.e.x.x.x.x.x.x.x.x.x.x.x.x.x.x.x.x.x.x.x.x.x.x.x.x.x.x.x.x.x.x.x.x.x.x.x.x.x.x.x.x.x.x.x.x.x.x.z.x.z.x.x.x.x.x.x.x.x.x.z.5.z.5.x.x.z.z.x.c.c.M.N.V.|..X@X*X:X,X3X9XqXqXrXrXuXuXuXuXuXuXuXtXrXeXqX4X2X2X:X*X@X.X}.V.N.M.c.c.v.z.x.z.z.x.x.x.x.x.x.x.x.x.x.x.x.x.x.x.x.x.x.x.x.x.x.x.x.x.x.x.z.x.x.x.x.x.x.x.x.z.x.x.x.x.x.x.x.x.x.x.x.x.x.x.x.x.x.x.x.x.x.x.x.y.",
"@ ; ; ; ; 2 ; 2 H H H Y Y { { { o.o.%.%.t.t.t.t.t.t.y.t.y.y.y.z.y.z.y.z.z.x.z.x.x.z.z.x.x.x.z.x.z.x.z.x.z.z.5.z.z.e.z.z.e.c.c.c.M.M.V.}..X@X:X:X<X2X9X0XeXrXtXuXuXuXuXuXuXuXtXrXeXqX9X3X2X:X*X@X.X}.B.M.M.N.c.z.c.z.z.z.z.z.x.z.x.z.x.x.z.x.x.z.x.z.z.x.x.x.x.x.x.y.z.y.x.z.x.x.x.x.x.z.z.x.x.x.x.x.x.x.x.z.x.z.x.z.z.x.z.x.z.x.z.x.x.x.z.x.x.z.z.x.z.z.z.x.z.x.x.z.x.z.x.x.z.x.z.y.x.z.x.x.z.z.x.z.z.x.z.x.z.x.x.x.z.z.x.z.z.z.z.z.z.z.c.c.c.M.M.B.}..X@X*X:X2X3X9X0XeXrXtXuXuXuXuXuXuXuXtXeXeXqX4X2X2X:X*X@X.X}.V.M.M.c.c.x.c.c.z.y.z.y.x.z.y.z.x.x.x.x.x.x.x.x.x.z.x.z.x.z.z.x.z.x.z.z.x.z.x.z.x.z.x.x.x.z.x.x.x.z.x.z.x.x.z.x.x.x.z.x.x.x.z.x.z.x.z.x.z.y.z.",
"@ @ ; ; ; ; 2 2 H H H H Y T { [ { o.o.%.t.o.%.t.t.t.t.t.t.z.y.y.z.y.z.e.z.z.x.y.z.x.x.z.z.z.x.z.x.z.x.z.z.x.z.z.z.z.z.z.c.v.c.c.M.V.B.}..X@X*X:X<X3X4XqXeXrXtXuXuXuXuXuXuXuXtXtXeXwX3X3X,X:X*X@X.X}.B.V.M.c.c.z.z.z.z.z.z.x.x.z.z.x.z.z.x.z.z.x.z.y.v.z.z.z.z.z.x.v.x.x.z.x.z.z.z.z.x.z.y.v.z.z.z.z.z.z.z.x.z.x.z.x.x.z.x.z.x.z.x.z.z.z.x.z.x.z.x.z.x.y.z.x.z.x.x.x.z.x.z.z.x.z.z.v.z.x.z.x.z.x.z.x.x.z.x.z.z.z.z.x.z.x.z.z.z.z.z.z.z.c.z.v.v.M.V.B.}..X@X*X:X<X3X9XwXeXrXtXyXuXuXuXuXuXtXtXrXeXwX9X3X<X:X:X@X.X}.}.M.M.c.c.c.z.z.z.z.z.z.z.x.z.x.z.z.z.z.z.z.z.x.x.x.z.x.z.v.z.z.x.z.x.x.z.x.z.z.z.x.z.z.z.x.z.z.x.z.x.z.z.x.z.z.z.z.x.z.z.x.z.z.y.z.x.z.x.v.z.",
"@ ; ; ; ; ; ; P H H H H Y Y { { o.o.o.o.o.t.o.a.t.t.t.t.t.s.y.z.y.z.z.z.z.5.z.z.z.x.z.x.z.z.z.z.z.x.z.z.z.z.z.x.z.z.z.c.z.c.c.c.M.M.B.}..X@X@X:X1X3X9XwXeXrXtXuXuXuXuXuXuXuXuXuXeXwX4X3X<X:X*X@X.X}.B.M.c.c.c.c.c.z.z.z.z.z.z.z.z.z.y.z.z.z.x.z.z.z.z.x.z.z.z.z.z.x.z.z.x.z.z.x.z.y.z.z.z.z.z.z.z.z.x.z.z.x.z.z.z.z.z.x.z.z.c.z.x.z.y.z.z.z.z.y.z.z.x.v.z.x.z.z.z.z.z.z.z.x.z.z.z.z.z.z.z.z.v.z.z.x.z.x.z.x.x.z.z.z.y.z.x.z.z.5.z.z.z.z.z.c.c.M.M.B.}..X@X*X:X,X3X0X0XeXrXtXuXuXuXuXuXuXuXtXrXeX0X4X3X,X:X*X@X.X}.B.V.M.c.c.z.z.z.z.z.y.z.z.x.z.z.z.z.z.z.z.x.z.c.x.z.z.z.x.x.z.x.z.z.x.v.z.z.x.z.z.z.x.z.z.z.z.z.z.z.v.z.z.z.z.x.z.z.z.z.z.z.z.z.v.x.z.z.x.z.x.",
"@ @ @ ; ; 2 ; 2 H H H H Y Y { { { { o.o.o.o.t.o.o.t.t.t.t.t.t.s.y.y.y.z.z.z.z.z.z.z.z.z.z.x.z.z.z.z.z.e.z.z.z.z.z.z.z.z.z.z.c.c.M.M.B.|..X@X:X:X<X3X3XwXeXrXtXtXuXuXuXuXuXuXuXuXeX0X9X3X1X:X*X@X.X}.B.V.M.c.c.z.z.z.z.z.z.z.z.z.z.x.z.z.z.z.z.z.z.x.z.z.x.z.z.v.z.z.z.z.z.z.z.z.z.v.z.z.x.z.z.x.z.z.z.z.z.z.z.z.z.x.z.z.z.z.x.z.z.z.z.z.v.z.z.z.z.z.z.z.z.z.z.z.z.z.z.v.z.z.x.z.z.z.x.z.z.z.z.z.z.z.z.z.z.z.z.z.z.z.z.z.z.z.z.z.z.z.c.z.c.c.c.M.V.B.}..X@X:X:X<X3X3XwXeXrXrXuXuXuXuXuXuXuXtXrXeXqX4X3X<X:X$X@X.X}.V.M.M.c.c.z.c.z.z.z.z.z.z.z.z.z.z.y.v.z.z.z.z.z.z.z.z.z.z.z.z.z.z.z.z.z.z.z.z.z.x.z.z.z.x.z.z.z.z.z.z.x.z.z.x.z.z.x.z.z.z.v.z.z.z.z.z.z.z.z.z.",
"@ @ @ @ ; ; ; 2 ; 2 2 P Y Y Y Y { { o.o.o.o.t.X.t.t.t.o.s.$.s.t.t.z.y.s.z.z.z.z.z.z.z.z.z.c.z.z.z.z.z.z.z.z.z.z.z.z.z.z.z.f.c.c.M.M.B.}..X@X$X:X,X3X4XqXeXrXtXuXuXuXuXuXuXuXyXrXeX0X0X2X,X:X*X@X.X}.|.M.M.c.c.f.s.z.z.z.z.z.z.z.z.z.z.z.z.z.z.x.z.z.z.z.z.z.z.z.z.z.z.z.z.z.z.z.z.z.x.z.z.z.z.z.z.z.z.z.z.z.z.v.z.x.z.z.x.z.z.z.z.z.z.z.z.z.z.z.z.z.x.z.z.z.z.z.z.z.z.z.z.z.x.z.x.z.z.z.z.z.z.z.z.z.c.x.z.z.z.z.z.z.z.z.z.z.z.z.z.z.z.z.s.c.c.M.M.B.}..X@X$X:X1X3X9XwXeXrXtXyXuXuXuXuXuXuXuXrXeX0X9X3X,X:X*X@X.X}.B.M.M.M.c.z.z.c.z.z.z.z.z.z.z.z.z.z.z.z.z.z.z.z.x.z.z.z.z.z.z.z.z.z.z.z.x.z.z.z.z.z.z.z.v.z.z.z.x.z.z.z.z.z.z.z.z.z.z.z.z.z.x.z.z.z.z.z.z.z.z.",
"@ @ @ ; ; ; ; 2 2 2 2 P H Y Y Y U U { { { o.| o.o.o.o.t.$.#.#.t.$.z.s.4.$.z.z.e.z.z.e.z.z.x.z.z.z.z.z.z.z.z.z.z.z.z.z.s.z.c.c.c.M.M.V.}..X@X$X:X<X3X4XwXeXrXtXtXuXuXuXuXuXuXtXrXeXwX4X3X2X:X$X@X.X}.B.V.M.c.c.z.z.z.s.z.z.z.z.z.z.z.z.z.z.z.z.z.z.z.z.z.z.z.z.z.z.z.v.z.z.z.z.z.z.z.z.z.z.z.z.z.z.v.z.z.z.z.z.z.z.z.z.z.z.z.z.z.z.z.z.z.z.z.z.z.z.z.z.z.z.z.z.z.z.z.z.x.z.z.z.z.z.z.z.z.z.z.z.x.z.z.z.z.z.z.z.z.z.z.z.z.z.t.z.z.s.z.f.z.c.c.c.c.B.B.}..X@X*X:X<X3X3X0XeXrXtXuXuXuXuXuXuXuXuXrXeXwX4X3X1X:X$X@X.X}.B.B.c.c.c.z.c.s.z.z.s.z.y.z.z.z.z.z.z.z.z.z.z.z.z.z.z.z.z.x.z.z.z.z.z.z.z.z.z.z.z.z.z.z.z.z.z.z.z.z.z.z.z.z.x.z.z.z.z.z.z.z.z.z.z.z.x.z.z.z.z.",
"@ @ @ ; ; ; ; ; ; 2 2 P P H Y Y U U { { { |  .o.o.o.o.o.#.%.$.$.$.s.4.y.z.z.z.z.e.z.z.z.z.z.z.z.z.z.z.z.z.z.z.s.s.z.s.z.z.f.c.c.M.M.B.}..X@X$X:X,X3X3XwXeXrXtXuXuXuXuXuXuXuXtXrXeXwX9X3X,X:X*X@X.X}.B.M.M.f.f.c.f.z.z.s.z.s.z.z.z.z.z.z.z.z.z.z.z.z.z.z.z.z.z.z.z.z.z.z.z.z.z.z.z.z.z.z.z.z.z.z.z.z.z.z.z.z.z.z.z.z.z.z.z.z.z.z.z.z.v.x.z.z.z.z.z.z.z.z.z.z.z.z.z.z.z.z.z.z.z.z.z.z.z.z.z.z.z.z.z.z.z.z.z.z.z.z.z.z.y.z.z.z.z.z.z.z.z.f.f.c.c.M.M.B.}..X@X*X:X1X3X9X0XeXrXtXuXuXuXuXuXuXuXuXuXeXqX4X3X<X:X*X@X.X}.B.B.M.c.f.f.z.s.z.z.z.z.z.z.z.z.z.z.z.z.z.z.z.z.z.z.z.z.z.z.z.z.z.z.z.z.z.z.z.z.z.z.z.z.z.z.z.z.z.z.z.z.z.z.z.z.z.z.z.z.z.z.z.z.z.z.z.z.z.z.z.",
"@ @ @ @ ; ; ; ; ; 2 : , P H H Y Y Y U U T { { |  .o.o.o.#.%.%.$.$.$.t.$.4.e.e.e.z.e.z.e.z.x.z.z.z.z.z.z.s.e.z.z.z.z.z.s.z.f.c.c.M.M.}.}..X@X*X:X<X3X0X0XeXeXtXuXuXuXuXuXuXyXyXrXeXwX3X3X2X:X$X@X.X}.B.B.M.c.z.c.s.z.z.s.z.y.z.z.z.z.z.z.z.z.z.z.z.z.z.z.z.z.z.z.z.z.z.z.z.z.z.z.z.z.z.z.z.z.z.z.z.z.z.z.z.z.z.z.z.z.z.z.z.z.z.z.z.z.z.z.z.z.z.z.z.z.z.z.z.z.z.z.z.z.z.z.z.z.z.z.z.z.z.z.z.z.z.z.z.z.z.z.z.z.z.z.z.z.s.z.z.z.s.z.z.s.s.z.z.c.f.M.B.B.}..X@X$X:X<X3X0XwXeXrXtXuXuXuXuXuXuXuXuXtXeX0X9X3X,X:X$X@X.X}.B.M.M.c.c.c.s.z.z.s.s.y.z.z.z.y.z.z.z.z.z.z.z.z.z.z.z.z.z.z.z.z.z.z.z.z.z.z.z.z.z.z.z.z.z.z.z.z.z.z.z.z.z.z.z.z.z.z.z.z.z.z.z.z.z.z.z.z.z.z.z.",
"@ @ ; @ ; ; ; ; : > , , H , j P P P U U U T T T |  . . .o.%.#.%.$.$.$.e.$.$.e.e.e.f.e.z.z.e.z.z.z.z.z.z.z.z.e.f.z.z.s.c.z.f.f.c.M.M.B.}..X@X$X:X,X3X0XwXeXrXtXuXuXuXuXuXuXuXuXuXeXwX3X3X,X:X$X@X.X}.B.B.h.c.c.c.c.z.s.s.z.z.z.z.z.z.z.z.z.z.z.z.z.z.z.z.z.z.z.z.z.z.z.z.z.z.z.z.z.z.z.z.z.z.z.z.z.z.z.z.z.z.z.z.z.z.z.z.z.z.z.z.z.z.z.z.z.z.z.z.z.z.z.z.z.z.z.y.z.z.z.z.z.z.z.z.z.z.z.z.z.z.z.z.z.z.z.z.z.z.z.z.z.z.z.y.s.z.z.s.z.s.z.z.f.c.c.M.B.B.}..X@X*X:X1X3X0XwXeXrXtXuXuXuXuXuXuXuXtXrXeXwX0X3X,X:X*X@X.X}.B.M.h.c.f.z.z.s.z.z.z.s.z.z.z.z.z.z.z.z.z.z.z.z.z.z.z.z.z.z.z.z.z.z.z.z.z.z.z.z.z.z.z.z.z.z.z.z.z.z.z.z.z.z.z.z.z.z.z.z.z.z.z.z.c.z.z.z.z.z.z.",
"@ ; @ ; ; ; ; ; ; > : H , , j H P P P P P U U U ~ ~ {  . .O.O.%.%.$.$.e.e.e.e.e.e.e.e.e.z.z.e.z.z.z.z.z.z.z.z.e.s.z.z.s.s.z.c.c.M.M.B.}..X@X-X:X<X3X9X0XeXrXrXuXuXuXuXuXuXuXtXrXeX0X0X3X1X:X*X@X.X}.B.M.c.f.c.s.s.s.z.z.s.z.s.z.z.z.z.z.z.z.z.z.z.z.z.z.z.z.z.z.z.z.z.z.z.z.z.z.z.z.z.z.z.z.z.z.z.z.z.z.z.z.z.z.z.z.z.z.z.z.z.z.z.z.z.z.z.z.z.z.z.z.z.z.z.z.z.z.z.z.z.z.z.z.z.z.z.z.z.z.z.z.z.z.z.z.z.z.z.z.c.z.z.z.z.z.z.z.y.z.z.s.s.c.s.c.f.c.M.B.}..X@X*X:X1X2X3XwXeXrXtXuXuXuXuXuXuXtXtXrXeXwX3X3X<X:X-X@X.X}.B.M.M.c.c.z.f.z.s.s.z.z.z.z.s.y.z.z.z.z.z.z.z.z.z.z.z.z.z.z.z.z.z.z.z.z.z.z.z.z.z.z.z.z.z.z.z.z.z.z.c.z.z.z.z.z.z.z.z.z.z.z.z.z.z.z.z.z.z.z.z.",
"; ; @ ; ; ; ; ; ; > > > , , j j j P j U P U P U U ~ ~ ^ [  .O.O.+.%.@.@.@.4.e.e.e.e.e.e.e.z.z.z.e.z.z.e.z.s.e.s.s.z.z.z.c.z.f.c.M.M.B.}..X@X*X:X,X3X0X0XeXrXtXuXuXuXuXuXuXuXtXrXeXwX9X3X<X:X$X@X.X}.B.B.M.c.c.z.z.z.z.z.z.s.z.y.y.z.z.z.s.z.z.z.z.z.z.z.z.z.z.z.z.z.z.z.z.z.z.z.z.z.z.z.z.z.z.z.z.z.z.z.z.z.z.z.z.z.z.z.z.z.z.z.z.z.z.z.z.z.z.z.z.z.z.z.z.z.z.z.z.z.z.z.z.z.z.z.z.z.z.z.z.z.z.z.z.z.z.z.z.z.z.z.z.z.z.z.z.s.s.z.s.z.z.c.z.c.c.M.B.B.}..X@X*X:X1X3X0X0XeXrXtXtXuXuXuXuXuXuXtXrXeXqX4X3X<X:X*X@X.X}.B.B.M.c.c.f.z.c.y.s.z.z.y.z.z.z.z.s.z.z.z.z.z.z.z.z.z.z.z.z.z.z.z.z.z.z.z.z.z.z.z.z.z.z.z.z.z.z.z.z.z.z.z.z.z.z.z.z.z.z.z.z.z.z.z.z.z.z.z.z.z.",
"; ; ; ; ; , ; ; ; > : : ; , , , j j j P j P P P I U ~ ~ ^ ^ &.O.+.+.@.2.4.e.@.e.e.e.e.e.e.z.e.z.z.z.z.z.z.z.z.z.z.z.s.s.z.f.c.c.M.M.B.}..X@X*X:X2X3X3XwXeXrXtXuXuXuXuXuXuXuXyXrXeXqX4X3X2X:X$X@X.X}.B.M.M.c.c.f.f.z.s.s.z.z.z.z.s.z.z.z.z.z.z.z.z.z.z.z.z.z.z.z.z.z.z.z.z.z.z.z.z.z.z.z.z.z.z.z.z.z.z.z.z.z.z.z.z.z.z.z.z.z.z.z.z.z.z.z.z.z.z.z.z.z.z.z.z.z.z.z.z.z.z.z.z.z.z.z.z.z.z.z.z.z.z.z.z.z.z.z.z.z.z.z.z.z.z.z.z.z.z.z.z.z.s.s.f.c.c.M.M.B.}..X@X$X:X<X3X3XqXwXrXtXuXuXuXuXuXuXuXtXrXeXwX9X3X1X:X$X@X.X}.B.M.M.c.c.f.z.s.z.z.y.s.z.z.z.z.z.z.z.z.z.z.z.z.z.z.z.z.z.z.z.z.z.z.z.z.z.z.z.z.z.z.z.z.z.z.z.z.z.z.z.z.z.z.z.z.z.z.z.z.z.z.z.z.z.z.z.z.z.z.z.",
"= : : : ; ; , ; & = > & j & & g j j j j j P j P P I R / W W ) ) ` @.' @.2.4.r.e.r.e.e.e.e.e.v.e.z.z.e.z.z.z.e.z.s.z.c.z.z.c.c.c.M.M.B.}..X@X-X:X<X3X0XqXeXrXtXyXuXuXuXuXuXuXtXeXeXwX3X3X2X:X*X@X@X}.B.M.M.c.c.z.c.z.z.z.z.z.s.z.z.z.z.z.z.z.z.z.z.z.z.z.z.z.z.x.z.z.z.z.z.v.z.z.z.z.z.z.z.z.z.z.z.z.z.z.z.z.z.z.z.z.z.z.z.z.z.c.z.z.z.z.z.z.z.y.z.z.z.z.z.z.z.z.z.z.z.z.z.z.z.z.z.z.z.z.z.z.z.z.z.z.z.z.c.z.z.z.z.z.z.z.z.y.s.z.z.s.z.z.c.c.c.M.B.B.}..X@X*X:X1X3X9XqXeXrXtXuXuXuXuXuXuXuXtXrXeX0X4X3X<X:X*X@X.X}.B.M.c.c.c.z.s.z.s.z.s.z.z.y.z.z.z.z.z.z.z.z.z.z.z.z.z.z.z.z.z.z.z.z.v.z.z.z.z.z.z.z.z.z.z.z.z.z.z.z.z.z.z.z.z.z.z.z.z.z.z.z.z.z.z.z.z.z.z.z.z.",
"4 < < < , ; ; , = = & = & g & & & & j j j j j P H I I R Q Q ^ ) ' ' ' 2.:.2.2.2.r.r.r.e.e.e.e.z.e.z.z.z.z.z.z.s.z.z.z.s.z.f.c.c.M.V.B.}..X@X*X:X<X3X3XwXeXrXtXuXuXuXuXuXuXuXtXrXeXqX0X3X<X:X$X@X.X}.B.M.M.f.c.f.s.z.s.z.z.z.z.z.z.z.z.z.z.z.z.z.z.z.z.z.z.z.z.c.z.z.z.z.z.z.z.z.z.z.z.z.z.z.z.z.z.z.z.z.z.z.z.z.z.z.z.z.z.z.z.z.z.z.z.z.z.z.z.c.z.z.z.z.z.z.v.z.z.z.z.z.z.z.z.z.z.z.c.z.z.z.z.z.z.z.z.z.z.z.z.z.z.z.z.z.z.z.z.z.z.z.z.f.z.c.c.M.M.B.}..X@X:X:X<X3X0XwXeXtXuXuXuXuXuXuXuXuXtXrXeXqX0X3X1X:X$X@X.X}.B.B.M.M.f.z.c.c.s.z.z.z.z.z.z.z.z.z.z.z.z.z.z.z.z.z.z.z.z.z.z.z.z.z.z.z.z.z.z.z.z.z.z.z.z.z.z.z.z.z.z.z.z.z.z.z.z.z.z.z.z.z.z.z.z.z.z.z.z.z.z.",
"4 4 4 1 < : > : & > & > & & & & & j & , , , j H l l l R m E W ( ] ` ' :.' 2.2.2.r.r.r.e.e.e.e.e.z.z.z.z.z.z.z.z.s.z.e.f.f.z.c.c.M.M.|.}..X@X*X:X,X3X3XwXeXrXrXuXuXuXuXuXuXuXtXrXeXwX9X3X1X:X$X@X.X}.B.B.M.M.c.z.f.z.s.z.s.z.z.z.z.z.z.z.z.z.z.z.z.z.z.z.z.z.z.z.z.z.z.z.z.z.z.z.z.z.z.z.z.z.z.z.z.z.z.z.z.v.z.z.z.z.z.z.z.z.z.z.z.z.z.z.z.z.z.z.z.c.z.z.z.z.z.z.v.z.z.z.z.z.z.z.z.z.z.z.z.z.z.z.z.z.z.z.z.z.z.z.z.z.z.z.z.z.z.z.z.f.z.z.f.c.c.M.B.}.}..X@X$X:X<X3X4X0XeXuXuXuXuXuXuXuXuXtXtXrXeX0X3X3X<X:X:X@X.X}.B.B.M.c.c.c.s.z.z.z.z.z.z.z.z.z.z.z.z.z.z.z.z.z.z.z.z.z.z.z.z.z.z.z.z.z.z.z.z.z.z.z.z.z.z.z.z.c.x.z.z.z.z.z.z.z.z.z.z.z.z.z.z.z.z.z.z.z.z.v.z.",
"l 2 2 1 2 > > > = > > & & & & & & & , & & , & , 1 1 3 k n m m ( ( ] ] ' ,.,.>.2.r.r.r.r.e.e.e.e.e.z.z.z.z.z.z.z.z.z.z.z.z.c.c.M.M.B.B.}..X@X-X:X1X3X0XqXeXrXtXuXuXuXuXuXuXuXtXrXeXwX3X3X2X:X:X@X.X}.B.M.M.c.c.c.z.c.z.z.z.z.z.z.z.z.z.z.z.z.z.z.z.x.c.z.z.z.z.z.z.z.c.z.z.z.z.z.z.z.z.v.z.z.z.z.z.z.z.z.z.z.z.z.v.z.z.z.z.z.z.z.v.z.z.z.z.z.z.z.z.z.z.z.z.z.z.z.z.z.z.z.z.z.z.z.z.v.z.z.z.x.c.z.z.z.x.z.z.z.x.z.z.z.z.z.z.z.z.s.z.z.s.c.z.c.c.M.M.B.}..X@X*X:X2X3X4XwXeXuXuXuXuXuXuXuXuXuXtXrXeXwX4X3X2X:X*X@X.X}.}.M.M.M.c.z.c.z.f.z.z.z.s.z.z.z.z.z.z.c.y.z.z.z.z.v.z.z.z.z.z.c.z.z.z.z.z.z.z.z.z.z.x.c.z.z.x.z.z.z.z.z.z.z.z.z.z.z.v.z.z.z.z.z.z.z.z.z.z.z.z.",
"R R 3 l l j g > * * * g & & & & & & & & * * = * 4 1 4 M M n m B N ] ] ] ;.,.,.>.3.3.3.5.v.r.e.v.v.e.z.z.z.z.z.z.z.c.e.z.z.c.c.c.M.M.B.}..X@X:X:X,X3X9XqXeXrXtXuXuXuXuXuXuXuXtXrXeXwX4X2X,X:X*X@X.X}.|.V.M.c.c.c.z.z.z.z.z.z.z.z.z.z.z.z.z.z.z.x.z.z.z.z.z.z.z.z.z.z.z.z.z.z.v.z.z.z.z.z.z.z.z.z.z.z.z.z.v.z.z.z.z.z.z.z.z.z.z.z.z.z.z.v.z.z.z.z.z.z.z.z.z.z.z.z.c.z.z.z.z.z.z.z.z.z.z.z.z.z.z.z.z.z.z.z.z.x.z.z.z.z.z.z.z.z.z.z.s.c.z.z.f.c.c.M.V.B.}..X@X$X:X2X3X9X0XeXrXtXuXuXuXuXuXuXuXuXrXeXqX0X3X,X:X*X@X.X}.V.M.h.c.c.z.c.z.z.z.z.z.z.c.z.z.z.z.z.z.z.z.z.z.z.z.z.z.z.z.z.z.z.z.z.z.z.z.v.z.z.z.z.z.z.z.z.z.z.z.c.x.z.z.z.z.z.z.z.z.z.z.z.z.z.z.z.z.z.z.z.",
"R l R l l l 1 h > * * & & & & & & & & & * * * = * - - 4 s s m B B ] ] S ;.>.,.6.3.3.3.4.r.r.e.e.e.e.e.v.z.z.z.z.z.z.z.c.c.z.c.c.c.B.}.}..X@X*X:X2X3X4X0XeXrXtXuXuXuXuXuXuXuXtXeXeXqX0X3X2X:X*X@X.X}.B.M.M.c.c.c.z.c.z.s.z.z.c.z.z.z.z.z.z.z.z.c.z.z.x.c.z.z.z.z.z.z.z.z.z.z.z.z.z.z.v.z.z.z.z.z.z.z.v.z.c.z.z.z.z.z.z.z.z.z.z.z.z.z.z.z.z.z.z.z.z.z.v.z.z.z.z.z.z.z.z.z.z.z.z.z.z.z.z.v.z.z.z.z.z.x.c.z.z.z.c.z.z.z.z.z.z.z.z.z.z.z.z.c.c.c.c.M.M.|.}..X@X*X:X,X3X3XwXeXrXtXuXuXuXuXuXuXuXuXrXeX0X9X3X<X:X*X@X@X}.}.V.c.M.c.c.z.z.z.f.z.z.z.z.z.z.z.z.z.z.z.c.z.z.z.z.z.z.v.z.z.z.z.z.z.z.v.z.z.v.z.z.z.z.z.z.z.z.z.z.z.z.z.z.z.z.z.v.z.z.z.z.z.z.z.z.z.z.z.z.z.",
"/ / n l l l l g g * g & & & & & & & & & * * * * - - 4 i s s d B B N S ;.;.;.,.>.2.>.r.r.r.e.e.e.e.v.e.z.v.e.z.z.c.z.f.e.c.c.c.c.h.B.B.}..X@X:X:X2X3X0X0XeXrXtXuXuXuXuXuXuXyXuXrXeXwX3X3X,X:X*X@X.X}.}.M.M.c.c.c.z.f.c.z.z.z.z.z.z.z.z.c.z.x.z.z.v.z.z.z.v.z.z.z.z.z.z.z.z.z.z.z.z.z.v.z.z.v.z.c.z.z.z.z.z.z.z.z.z.z.z.v.z.z.v.z.z.z.z.z.z.z.z.z.c.z.z.z.v.z.z.z.z.z.z.v.z.z.v.z.c.x.z.z.z.z.z.z.z.z.z.z.z.z.z.z.z.z.z.z.z.z.z.z.z.z.z.c.z.c.c.M.B.B.}..X@X*X:X2X3X9XqXeXrXtXtXuXuXuXuXuXuXuXuXeXwX4X3X<X:X:X@X.X}.B.V.M.M.c.c.z.s.c.z.z.z.z.z.z.z.z.z.v.z.z.z.z.z.v.z.z.z.z.z.z.z.z.z.z.z.z.z.z.z.z.z.z.z.z.v.z.v.z.z.z.z.z.v.z.z.z.z.z.z.z.z.z.v.z.z.z.z.z.v.z.",
"Q / / R l l l l h g & g & & & g & & & & * * - * g - - 4 i i d B B N N S ;.;.;.,.>.3.3.3.r.r.r.e.e.e.z.z.z.z.z.z.z.z.z.z.z.c.c.c.M.V.V.}..X@X$X:X<X3X3XwXeXeXtXtXuXuXuXuXuXuXtXrXeXqX0X3X2X:X*X@X.X}.B.B.M.c.c.c.c.z.z.z.z.z.z.z.z.z.x.z.c.z.z.x.z.z.z.z.z.z.z.x.z.z.v.z.v.z.z.z.z.z.z.z.z.z.z.z.z.z.z.z.z.z.z.z.z.z.z.z.z.z.z.z.z.v.z.z.z.z.z.v.z.z.z.z.z.z.v.z.z.z.z.z.z.z.z.z.z.z.z.z.z.z.c.x.c.z.z.x.c.z.x.z.z.z.z.c.z.z.z.c.c.z.z.s.c.c.M.M.B.B.}..X@X:X:X,X3X0XwXeXrXtXuXuXuXuXuXuXuXuXtXeXqX4X3X1X:X$X@X.X}.B.B.M.c.c.f.z.z.c.z.z.z.z.z.z.z.z.z.z.z.z.z.z.z.z.z.z.z.c.z.z.v.z.z.z.z.z.z.z.z.z.z.z.z.v.z.z.z.z.z.z.z.z.z.z.z.z.z.v.z.z.v.z.z.z.z.z.v.z.z.z.",
" ./ / / l l l g j g g g g g g g & & & * * * * - - - - i i v d d B B S S ;.;.,.,.>.>.>.r.r.r.e.e.e.e.e.e.z.z.z.z.z.z.z.z.c.c.c.M.M.M.B.}..X@X*X:X1X3X9XwXeXrXtXuXuXuXuXuXuXuXuXtXeX0X3X3X2X:X$X@X.X}.B.M.M.c.c.z.z.z.z.z.z.z.c.z.z.z.x.z.z.c.z.z.z.z.z.z.z.z.z.c.z.v.z.z.z.z.z.z.z.z.z.z.z.z.z.v.z.v.z.z.z.z.z.v.z.z.z.z.z.c.x.z.v.z.z.z.v.z.z.z.z.z.z.z.z.z.z.z.z.z.v.z.z.z.v.z.z.v.z.z.z.z.z.z.x.z.z.z.x.z.z.c.z.z.z.z.z.z.z.z.s.z.c.z.c.c.c.M.M.B.}..X#X*X:X<X3X0X0XeXrXtXuXuXuXuXuXuXuXtXrXeX0X0X2X,X:X*X@X.X}.B.M.M.c.c.z.c.c.z.z.z.s.z.z.y.z.z.z.z.z.z.z.z.z.z.v.z.z.z.z.z.z.z.z.z.z.c.v.z.z.z.z.z.z.z.z.z.z.z.z.z.z.c.v.z.z.z.z.z.z.z.z.z.z.z.z.z.z.z.z.z.",
"&.&.&.l / l l l h g g g g g g g & & g * - * - * - - - 4 i d d B B B B S S ;.;.,.,.>.2.r.r.r.r.e.e.z.v.z.z.z.z.z.e.f.c.z.z.s.c.c.M.M.B..X.X@X$X:X<X3X4XwXeXrXtXuXuXuXuXuXuXuXuXuXeXwX0X2X1X:X:X@X.X}.B.B.M.M.c.c.f.z.z.f.z.z.z.z.z.z.z.z.z.z.c.z.z.z.x.c.z.z.z.z.z.z.z.z.z.z.z.z.z.z.z.z.z.z.z.z.z.z.z.z.z.z.z.z.z.z.v.z.z.z.z.z.z.z.z.z.z.z.z.z.z.z.z.z.z.z.z.z.z.z.z.z.z.z.z.z.z.z.z.z.z.x.c.z.z.z.v.z.z.z.z.z.z.z.z.z.z.z.z.z.z.z.z.c.z.c.c.M.B.B.}..X@X*X:X2X3X3XwXeXrXtXuXuXuXuXuXuXuXtXrXeXwX4X2X2X:X-X@X.X}.B.M.M.M.c.c.z.z.z.s.z.z.z.z.v.v.z.z.z.z.z.v.z.z.z.z.z.z.z.v.z.z.v.z.z.z.z.z.z.z.z.v.z.z.z.z.z.z.z.z.z.z.z.z.z.z.z.z.z.z.z.z.v.z.z.z.z.z.z.z.z.",
"&.&./ / l l k l h h g g g g g g > g * > * - - - h - i i i i d d B B S S D ;.;.;.2.,.3.3.r.r.r.e.e.e.e.z.e.z.z.z.e.z.c.s.c.c.c.c.M.M.B.}..X@X:X:X,X3X0XqXeXrXtXuXuXuXuXuXuXuXuXuXeXwX3X3X<X:X*X@X.X.XB.V.M.M.f.c.z.s.z.z.z.z.z.z.z.c.z.z.z.x.z.z.z.z.z.z.z.z.z.z.z.z.z.z.z.z.z.z.v.z.z.z.z.z.z.z.z.z.z.z.c.x.z.z.z.z.z.z.x.c.z.z.z.z.z.z.z.z.z.z.z.z.z.v.v.z.z.z.z.z.z.z.z.z.z.z.z.z.x.c.z.z.z.z.z.z.z.z.c.z.z.z.z.z.z.z.z.c.z.z.c.z.z.z.c.c.c.M.M.}.}..X@X*X:X,X2X0XwXeXeXtXtXuXuXuXuXuXtXtXrXeXwX3X3X,X:X*X@X.X}.}.B.M.c.c.z.f.f.z.f.z.z.z.z.z.z.z.z.z.z.z.z.z.z.z.z.z.z.z.z.z.z.z.z.z.z.z.z.z.z.z.z.z.z.z.z.z.z.z.z.v.z.z.z.z.z.z.z.v.z.z.z.z.z.z.c.x.z.z.z.z.",
"&.&.&./ / k k l j g g g g g g g j g h 1 1 1 h 1 1 i i i d d d B b S S S S ;.;.<.>.>.3.3.r.r.e.e.e.v.z.e.z.z.z.z.z.s.z.z.z.f.c.c.M.M.B.}..X@X*X:X<X2X3XwXeXrXtXtXuXuXuXuXuXuXuXuXeX0X0X3X,X:X$X@X.X}.B.M.c.c.c.z.c.z.z.z.s.z.z.z.z.z.z.z.z.z.z.z.z.z.z.z.c.x.z.z.z.z.z.z.z.z.v.z.z.z.z.z.z.z.z.z.z.z.z.z.z.z.z.z.z.z.z.z.z.z.z.z.z.z.z.z.z.z.z.z.z.z.z.z.z.z.z.z.z.z.z.z.z.z.z.z.z.z.z.z.z.z.z.z.z.z.z.z.z.z.z.z.z.z.z.z.z.z.z.z.z.z.s.f.z.c.c.h.V.B.}..X@X$X:X2X3X3XqXeXrXtXuXuXuXuXuXuXuXtXrXeXqX0X3X<X:X*X@X.X}.B.M.M.c.c.c.z.z.z.y.z.z.z.z.z.z.z.z.z.y.v.z.z.z.z.z.z.z.z.z.z.z.z.z.z.z.z.z.z.z.z.z.z.z.v.z.z.z.z.z.z.z.z.z.z.z.z.c.z.z.z.z.z.z.z.z.z.v.z.z.z.",
"..&.&./ / k k h g g h g h g g h h h l l 1 k k k i - s s i d M B B B N N D D D ,.,.2.>.3.r.r.e.e.z.e.z.e.e.z.z.z.s.z.s.z.z.f.f.M.h.B.B.}..X@X$X:X1X2X3XwXwXrXrXuXuXuXuXuXuXuXtXrXeXqX9X3X<X:X$X@X.X}.B.B.M.c.f.z.c.s.z.z.s.z.z.z.z.z.z.z.z.z.z.z.c.z.z.z.z.z.z.z.z.z.z.z.z.z.c.y.z.z.z.z.z.z.z.z.z.z.z.z.z.z.z.z.z.z.z.z.z.z.z.z.c.z.z.z.z.z.z.z.z.z.z.z.z.z.v.c.y.z.z.z.z.z.z.z.z.z.z.z.z.z.y.z.z.z.z.z.z.z.z.z.z.z.z.z.z.z.z.s.z.s.c.c.c.f.M.M.M.B.}.+X@X$X:X<X3X4XwXeXrXtXuXuXuXuXuXuXuXuXrXeXwX4X3X,X:X*X@X X|.B.M.M.c.f.c.z.z.s.z.s.z.z.z.z.z.z.z.z.z.z.z.z.z.z.z.z.z.z.z.z.z.z.z.z.z.z.z.z.z.c.y.z.z.z.z.c.y.z.z.z.z.z.z.z.z.z.z.z.z.z.z.z.z.z.z.z.c.z.z.z.",
"V &./ / k / k k k h h h h h h h l l k k k l k M n M s d d M B B B N S S ] ] ,.,.,.>.2.3.r.r.e.e.e.e.z.z.z.z.s.y.z.z.z.z.z.z.c.c.c.M.B.}..X@X$X:X,X3X0XqXeXrXtXuXuXuXuXuXuXyXtXrXeX0X0X3X,X:X-X@X.X}.B.M.M.c.c.c.z.z.s.z.z.z.z.s.z.z.z.z.z.z.z.z.z.z.z.z.z.z.z.z.z.z.z.z.z.z.z.z.z.z.c.y.z.z.z.z.z.z.c.z.z.z.z.z.c.z.z.z.z.z.z.z.z.z.z.z.z.z.z.z.z.z.z.z.z.z.z.z.z.z.z.z.z.z.z.z.z.z.z.z.z.z.c.z.z.z.z.z.z.z.z.z.z.z.z.z.z.z.z.z.z.z.z.s.c.z.c.c.M.B.}..X@X*X:X1X3X4X0XeXrXtXuXuXuXuXuXuXuXuXrXeX0X4X3X,X:X$X@X.X}.B.M.h.c.c.f.z.c.s.z.z.z.z.s.z.z.z.z.z.z.z.z.z.z.z.z.z.z.z.z.z.z.z.z.v.z.z.z.z.z.z.z.z.z.z.z.z.z.z.z.z.z.z.c.z.z.c.z.z.z.z.z.z.z.z.z.z.z.z.z.z.",
"&.&.V k / k k h h h h h h k h k l k k k n k n n n n m m B m B N N N V V D :.] ,.,.2.r.r.r.r.e.e.e.z.z.z.z.z.z.z.z.z.z.s.s.c.c.c.M.M.B.}..X@X$X:X2X2X3XwXeXrXtXyXuXuXuXuXuXuXtXrXeXwX3X3X<X:X*X@X X}.B.M.c.f.c.s.s.z.z.s.z.z.z.z.z.z.z.z.z.z.z.z.z.z.z.z.z.z.z.z.z.z.z.z.z.z.z.z.z.z.z.z.z.z.z.z.z.z.y.z.z.z.z.z.y.z.z.z.z.z.z.z.z.z.z.z.z.z.z.z.z.z.z.z.z.z.z.z.z.z.z.z.y.c.z.z.z.z.z.z.z.z.z.z.z.z.z.z.z.z.z.z.z.z.z.s.z.s.z.s.z.s.s.z.s.f.c.M.M.B.}..X@X$X:X,X3X9X0XeXrXtXtXuXuXuXuXuXuXuXtXeX0X4X3X<X:X*X+X.X}.B.M.M.c.c.c.z.z.z.z.z.z.z.z.z.z.z.z.z.z.z.z.z.z.z.z.z.z.z.z.z.z.z.z.z.z.z.z.z.z.z.z.z.z.z.z.z.z.z.z.z.z.z.y.z.z.z.z.z.z.z.z.z.z.z.z.z.z.z.z.z.",
"&./ / / / k k h h h h h g k k k k k n n n / n n m m m E B m m B N N V V ;.:.,.,.,.3.r.r.r.r.e.e.z.e.e.z.z.e.z.z.z.s.s.z.z.f.f.c.M.M.B.}..X@X$X:X,X3X0X0XeXrXtXuXuXuXuXuXuXyXtXrXeX0X0X2X1X:X$X@X.X}.B.B.M.c.c.c.c.s.s.z.z.t.z.z.z.z.z.z.z.z.z.z.z.z.z.z.z.z.z.z.z.z.z.z.z.z.z.z.z.z.z.z.z.z.z.z.z.z.z.z.z.z.z.z.z.z.z.z.z.z.z.z.z.z.z.z.z.z.z.z.z.z.z.z.z.z.z.z.z.z.z.z.z.z.z.z.z.z.z.z.z.z.z.z.z.z.z.z.z.z.z.z.z.z.z.z.y.z.z.z.s.e.c.s.c.c.c.c.M.B.}..X@X$X:X<X3X9X0XeXrXtXuXuXuXuXuXuXuXuXtXeXwX4X3X,X:X*X@X.X}.B.M.M.c.c.f.s.s.z.s.s.s.z.z.z.z.z.z.z.z.z.z.z.z.z.z.z.z.z.z.z.z.z.z.z.z.z.z.z.z.z.z.z.z.z.z.z.z.z.z.z.z.z.z.z.z.z.z.z.z.z.z.z.z.z.z.z.z.z.z.z.",
"&./ k k M k h v h h v h h k M k n M M / n W W n E W E ( m ] V N ] ] ;.;.] ,.,.2.2.2.3.r.r.e.e.e.e.z.z.z.z.z.s.s.z.z.s.z.z.s.f.c.h.M.B.}..X@X$X:X<X3X9X0XeXrXtXtXuXuXuXuXuXtXtXrXeX0X4X3X2X:X@X@X X}.B.M.h.c.c.s.s.c.z.s.z.z.z.z.z.z.z.z.z.z.z.z.z.z.z.z.z.z.z.z.z.z.z.z.z.z.z.z.z.z.z.z.z.z.z.z.z.z.z.z.z.z.z.z.z.z.z.z.z.z.z.z.z.z.z.z.z.z.z.z.z.z.z.z.z.z.z.z.z.z.z.z.z.z.z.z.z.z.z.z.z.z.z.z.z.z.z.z.z.z.z.z.s.z.z.z.z.s.z.z.s.z.s.z.s.c.c.M.M.B.}. X@X$X:X1X3X4XwXeXrXyXyXuXuXuXuXuXtXtXrXeX0X4X3X,X:X$X@X.X}.B.M.h.f.c.s.z.s.z.z.z.s.z.z.z.y.z.z.z.z.z.z.z.z.z.z.z.z.z.z.z.z.z.z.z.z.z.z.z.z.z.z.z.z.z.z.z.z.z.z.z.z.z.z.z.z.z.z.z.z.z.z.z.z.z.z.z.z.z.z.z.",
"/ V &.M h h v h v h v h v k M M M &.M &.W W &.( W ( ( ( ( ] &.] ] ] :.] :.:.2.:.2.r.r.2.e.e.e.e.z.e.z.e.z.e.e.z.s.z.z.s.c.s.c.c.M.M.B.}..X@X$X:X,X3X3XwXeXrXtXuXuXuXuXuXuXuXtXrXeXwX4X2X,X:X$X@X.X}.B.M.M.c.f.z.z.s.z.z.s.y.z.t.s.z.z.z.z.z.z.z.z.z.z.z.z.z.z.z.z.z.z.z.z.z.z.z.z.z.z.z.z.z.z.z.z.z.z.z.z.z.z.z.z.z.z.z.z.z.z.z.z.z.z.z.z.z.z.z.z.z.z.z.z.z.z.z.z.z.z.z.z.z.z.z.z.z.z.z.z.z.z.z.z.z.z.z.z.z.z.z.z.z.z.z.z.z.z.t.z.z.z.f.c.c.f.c.M.B.}..X@X*X:X,X2X4X0XeXrXyXuXuXuXuXuXuXuXtXrXeXqX4X3X<X:X*X@X X}.B.M.M.c.c.z.f.z.s.s.z.z.y.z.s.z.s.z.z.z.z.z.z.z.z.z.z.z.z.z.z.z.z.z.z.z.z.z.z.z.z.z.z.z.z.z.z.z.z.z.z.z.z.z.z.z.z.z.z.z.z.z.z.z.z.z.z.z.z.z.z.",
"/ V M v v v v v v h v v v v v M &.M &.V &.( &.` ` ` ` ` &.' ' ] ' ' ' :.:.2.:.r.2.2.4.r.e.e.e.e.e.z.z.z.z.z.z.z.s.z.s.c.s.c.c.M.f.B.B.}..X@X$X:X1X3X0XqXeXrXtXuXuXuXuXuXuXuXtXrXeXwX4X2X,X:X$X@X.X}.B.M.M.c.c.f.z.s.s.z.s.z.s.z.s.z.z.z.z.z.z.z.z.z.z.z.z.z.z.z.z.z.z.z.z.z.z.z.z.z.z.z.z.z.z.z.z.z.z.z.z.z.z.z.z.z.z.z.z.z.z.z.z.z.z.z.z.z.z.z.z.z.z.z.z.z.z.z.z.z.z.z.z.z.z.z.z.z.z.z.z.z.z.z.z.z.z.z.z.z.z.z.z.z.y.z.z.z.z.z.z.s.s.c.z.f.f.M.B.B.}..X@X$X:X<X3X9X0XeXrXtXuXuXuXuXuXuXtXtXrXeXwX4X3X<X:X$X@X.X}.B.M.M.c.f.f.z.s.z.z.s.z.z.z.z.z.z.z.z.z.s.z.z.z.z.z.z.z.z.z.z.z.z.z.z.z.z.z.z.z.z.z.z.z.z.z.z.z.z.z.z.z.z.z.z.z.z.z.z.z.z.z.z.z.z.z.z.z.z.z.z.",
"M M M k v v h h v v v v v h V v M M V &.( ` ' ` ` ` ` ' ' ' ' ] ' @.' 1.@.2.2.2.4.r.4.4.e.e.e.z.z.z.z.e.z.z.s.z.z.z.s.z.z.z.f.f.M.M.B.}..X@X*X:X,X3X3XwXwXrXtXuXuXuXuXuXuXtXtXrXeXqX4X3X2X:X$X@X.X}.B.B.c.f.c.z.f.z.s.z.z.z.z.z.z.z.z.z.z.z.z.z.z.z.z.z.z.z.z.z.z.z.z.z.z.z.z.z.z.z.z.z.z.z.z.z.z.z.z.z.z.z.z.z.c.z.z.z.z.z.z.z.z.z.z.z.z.z.z.z.z.z.z.z.z.z.z.z.z.z.z.z.z.z.z.z.z.z.z.z.z.z.z.z.z.z.z.z.z.z.z.z.z.z.z.z.s.z.z.s.s.z.z.s.z.c.c.M.h.B.}..X@X$X:X,X3X4XwXwXrXtXtXuXuXuXuXuXuXtXrXeX0X4X2X<X:X$X@X.X}.B.M.c.c.c.c.s.z.s.z.y.z.s.z.z.z.z.z.z.z.z.z.z.z.z.z.z.z.z.z.z.z.z.z.z.z.z.z.z.z.z.z.z.z.z.z.z.z.z.z.z.z.z.z.z.z.z.z.z.z.z.z.z.z.z.z.z.z.z.z.z.",
"M M v M i i p v 9 v v v v v v V V &.] &.' ' ' X.' #.' +.' +.@.@.2.' @.2.2.2.2.e.r.e.e.e.e.e.e.z.z.e.z.z.z.z.z.e.z.s.z.z.s.c.c.c.M.M.B.}..X@X$X:X,X3X9XwXeXrXtXtXuXuXuXuXuXuXuXuXeXwX4X3X2X:X$X@X.X}.B.M.h.c.f.c.s.z.s.z.z.z.z.z.z.z.z.z.z.z.z.z.x.z.z.z.z.z.z.z.z.z.z.z.z.z.z.z.z.z.z.z.z.z.z.z.z.z.z.z.z.z.z.z.y.z.z.z.z.z.z.z.z.z.z.z.z.z.z.z.z.z.x.c.z.z.c.z.z.z.z.z.z.z.z.z.z.z.z.z.z.z.z.z.z.z.z.z.z.z.z.z.z.z.z.z.z.z.s.z.z.f.z.c.c.f.f.M.B.B.}..X@X*X:X1X2X9X0XeXrXyXtXuXuXuXuXuXuXtXrXeX0X4X3X<X,X$X@X.X}.B.M.M.c.c.z.s.z.s.z.s.z.z.z.z.z.z.z.z.z.z.z.z.z.z.z.z.z.z.z.z.z.z.z.z.z.z.z.z.z.z.z.z.z.z.z.z.z.z.z.z.z.z.z.z.z.z.z.z.z.z.z.z.z.z.z.z.z.z.z.z.",
"M v i v p p v 9 v v G v b G V b V V ] ] ' ' ' 2.' @.@.@.@.@.@.@.@.4.2.@.2.4.@.e.r.e.e.e.e.z.z.e.z.z.x.z.z.z.z.z.z.z.z.f.z.c.c.c.M.M.}.}..X@X*X:X<X3X4XqXeXrXtXuXuXuXuXuXuXuXuXuXeX0X3X3X,X:X*X@X.X}.B.M.M.c.c.c.z.z.c.y.z.s.z.z.z.z.z.z.z.z.z.z.c.z.z.z.z.z.z.z.z.z.z.z.z.z.z.z.z.z.z.v.z.z.z.z.z.z.z.z.z.y.c.z.z.z.z.z.z.z.z.z.z.z.z.z.z.z.z.z.z.z.z.z.z.z.x.z.z.z.z.z.z.z.z.z.z.z.z.z.z.z.z.z.z.z.z.z.z.z.z.z.z.z.z.z.z.z.z.z.z.s.z.s.z.c.c.M.M.B.}..X@X$X:X<X3X4XwXeXrXyXuXuXuXuXuXuXtXtXrXeXwX4X3X,X:X$X@X.X}.B.M.M.h.c.z.c.c.s.z.z.z.z.z.s.z.z.z.z.z.z.z.z.c.z.z.z.z.z.v.z.z.z.z.z.z.z.z.z.z.z.z.z.z.z.z.z.z.z.z.z.z.z.z.z.z.z.z.z.x.c.z.z.c.z.z.z.z.z.z.z.",
"v v v p v 8 8 p v q v G b b V V V V V V V @.' 2.@.@.$.$.$.$.2.$.4.@.4.4.e.@.e.e.e.e.e.z.z.e.z.z.z.z.z.z.z.z.z.z.z.s.s.z.s.c.f.c.h.M.B.}..X@X$X:X,X3X3XwXeXrXrXuXuXuXuXuXuXuXuXuXeXqX0X3X,X:X$X@X.X}.B.B.M.c.c.z.z.f.z.z.z.z.z.s.z.z.z.z.z.z.z.z.z.z.z.z.z.z.z.x.z.z.z.c.z.z.z.z.z.z.z.z.z.z.v.z.z.z.z.v.z.z.z.z.z.z.z.v.z.z.z.z.z.z.c.z.c.z.z.z.z.z.z.z.z.z.z.z.z.z.z.z.v.z.z.z.z.z.z.z.z.z.z.z.z.z.z.z.z.z.z.z.z.z.z.z.z.z.z.s.z.z.z.c.z.c.c.M.M.B.}..X@X$X:X<X3X9X0XeXrXyXuXuXuXuXuXuXuXtXrXwX0X4X3X,X:X$X@X.X}.B.B.M.c.c.f.z.z.z.z.z.z.z.z.z.c.z.z.z.z.z.z.z.z.z.z.z.z.z.z.z.z.z.z.z.z.z.z.z.z.z.z.z.z.z.z.z.z.z.c.z.z.z.z.z.z.z.z.x.z.z.z.z.z.z.z.z.c.z.z.z.",
"v v u p 8 v 8 0 G G G G G C b V S V V ,.2.' 2.2.2.$.2.2.$.2.s.2.4.4.e.4.e.e.e.e.e.z.e.e.z.z.z.z.z.z.z.z.z.z.z.z.z.z.z.c.c.z.c.c.M.M.B.}..X@X$X:X,X3X0X0XeXrXtXtXuXuXuXuXuXuXtXuXeXwX3X3X<X:X$X@X.X}.B.M.M.c.c.f.z.f.z.s.z.z.z.z.z.z.z.z.z.z.z.z.z.z.z.z.z.z.z.c.z.z.z.y.y.c.z.z.z.z.z.z.z.z.z.z.z.z.z.z.z.z.z.z.z.z.z.z.z.z.z.z.z.z.x.z.x.z.z.z.z.z.z.z.z.z.z.z.z.z.c.z.z.z.z.z.z.z.z.z.z.z.c.z.z.z.z.z.z.v.z.z.z.z.z.z.z.z.z.z.z.s.z.s.f.c.c.M.B.B.}..X@X$X:X1X2X4XwXeXrXyXuXuXuXuXuXuXtXtXrXeXwX9X3X<X:X$X@X.X}.B.M.M.c.f.z.c.s.z.c.s.z.z.z.z.z.z.z.z.z.z.z.z.z.z.z.z.z.z.z.z.z.z.z.z.z.z.z.z.z.z.z.z.y.c.z.z.z.z.z.z.z.z.z.z.z.z.z.c.z.z.z.z.z.x.z.z.z.x.z.z.",
"9 v 8 v 8 8 0 G G G G G C C C D D V <.V ,.,.2.2.2.$.2.$.4.4.e.e.$.e.e.s.e.e.e.e.e.z.e.z.z.x.z.z.z.e.z.z.z.z.z.z.z.z.c.z.z.z.c.c.M.V.B.}..X@X$X:X,X3X9XwXeXrXtXtXuXuXuXuXuXtXtXrXeX0X4X2X,X:X-X@X.X}.B.M.c.c.c.c.z.z.z.z.z.z.z.z.c.z.z.z.z.z.z.z.z.z.z.z.z.z.z.z.z.z.z.z.z.z.z.z.z.z.z.v.z.z.z.z.z.z.v.z.z.z.z.z.z.z.v.z.c.z.z.z.x.z.z.z.z.z.x.c.z.x.z.z.z.z.z.z.z.z.z.z.z.z.z.z.v.z.z.z.z.z.v.z.z.z.z.z.v.z.z.z.z.z.z.z.z.z.z.z.z.s.c.z.c.c.c.M.M.B.}..X@X-X:X,X3X4X0XeXrXyXtXuXuXuXuXuXuXuXrXeX0X4X3X<X:X$X@X.X}.B.M.M.c.c.c.z.z.z.z.z.z.z.z.z.z.x.z.z.z.z.z.z.z.z.z.z.z.z.c.x.z.v.z.v.z.z.z.z.v.z.z.z.z.z.z.v.z.v.z.z.z.z.v.z.z.z.z.z.z.z.z.x.z.z.z.c.z.z.z.z.",
"9 9 8 8 0 q 0 q G G G G G C C C F D D ,.,.>.2.2.2.e.e.e.4.4.s.e.e.t.e.e.$.e.z.z.z.e.z.z.z.z.z.e.z.c.z.z.z.z.z.c.z.z.z.s.c.c.c.M.M.M.}.}..X@X:X:X<X3X4XqXeXrXtXuXuXuXuXuXuXuXtXrXeXqX4X3X2X:X*X@X.X}.}.M.M.c.c.c.f.z.c.z.z.z.c.z.x.z.z.z.z.z.c.z.z.z.c.x.z.z.x.c.z.v.v.z.z.z.z.z.z.z.z.z.z.z.z.z.z.z.z.z.z.v.z.z.z.z.z.z.z.z.z.z.c.z.z.z.z.z.z.z.z.c.z.z.z.z.z.z.z.z.z.z.z.z.z.z.c.z.x.z.v.z.z.z.v.z.z.z.z.z.z.z.z.c.z.z.z.z.z.z.z.z.z.c.c.c.c.M.B.B.}..X@X*X:X<X3X9X0XeXrXyXuXuXuXuXuXuXuXuXrXeXwX9X3X,X:X*X@X.X.XB.B.c.M.c.z.c.c.z.z.z.z.z.z.z.z.z.c.z.z.z.z.v.z.z.z.z.z.z.z.z.z.c.z.z.z.z.z.v.z.z.z.z.z.z.z.z.z.z.z.z.z.z.z.z.x.c.z.z.z.z.z.c.z.z.z.x.z.z.c.x.",
"9 9 9 8 8 q q G G t x x C Z C D F D V <.<.>.>.3.3.2.2.e.e.e.e.s.e.z.e.z.z.e.e.z.z.z.z.z.z.z.x.c.z.z.z.z.z.z.z.z.z.s.c.z.z.f.c.c.M.M.B.}..X@X@X:X,X3X4X0XeXrXuXuXuXuXuXuXuXtXtXrXeXwX9X3X,X:X*X@X.X}.B.B.M.M.c.c.z.z.z.z.z.z.z.z.z.z.z.z.z.z.x.z.x.z.z.z.z.c.z.z.z.z.z.z.z.z.v.z.v.z.z.z.z.z.z.z.z.z.z.z.z.z.z.y.z.z.z.z.z.z.z.z.z.z.z.z.z.z.z.z.z.z.z.z.v.z.z.z.z.z.z.z.z.v.z.z.z.z.z.z.z.z.z.z.z.z.c.z.z.z.z.z.z.z.z.z.z.z.c.z.z.z.z.z.c.c.c.M.V.B.}..X@X$X:X<X2X4X0XeXrXyXuXuXuXuXuXuXuXuXtXeX0X4X3X<X:X$X@X.X}.B.V.h.c.c.f.z.z.z.c.z.z.z.z.z.z.z.z.z.x.z.z.z.z.z.z.v.z.x.z.z.z.z.z.z.z.z.z.z.z.z.z.z.z.z.z.z.z.z.z.z.v.z.z.z.z.z.z.z.v.z.z.z.z.x.z.z.z.x.z.x.",
"9 9 w 0 5 G 6 6 G x x x x Z Z Z Z F F D <.>.>.3.3.r.e.4.e.e.e.s.z.e.z.e.z.z.z.z.z.z.z.z.z.z.e.c.z.z.z.z.z.z.z.z.z.z.z.z.z.c.c.c.M.M.B.}..X@X:X:X,X3X4X0XeXrXuXuXuXuXuXuXuXuXtXrXeXwX3X3X,X:X$X@X.X}.B.M.M.c.c.z.c.z.c.c.z.z.z.z.z.z.z.x.c.z.z.z.c.z.z.z.z.x.z.z.z.z.z.z.z.z.z.z.z.z.z.z.z.z.c.y.v.z.z.z.z.z.z.v.z.z.z.z.z.z.v.z.z.z.z.z.z.v.z.z.z.z.z.v.z.z.z.z.z.z.z.v.z.z.z.z.z.z.z.z.z.z.z.z.z.z.z.z.z.z.z.z.z.z.z.z.z.z.z.z.c.z.s.c.z.c.c.h.M.B..X.X@X$X:X,X3X4XwXeXrXyXyXuXuXuXuXuXuXuXrXeXwX9X3X,X:X*X@X.X}.B.M.M.c.c.c.c.c.z.z.z.z.z.c.z.z.z.x.z.c.z.z.z.z.z.z.z.z.c.z.z.z.z.z.z.z.z.z.z.z.z.v.z.z.v.z.z.z.z.z.z.z.z.z.z.z.z.z.z.z.z.z.z.z.c.z.z.z.c.z.z.",
"7 7 w q 6 6 6 6 x x x z x Z Z Z A F F F <.>.>.3.3.3.r.r.e.e.e.e.e.z.e.z.e.z.z.z.z.z.z.z.z.z.z.x.z.z.z.z.z.z.z.z.z.z.c.z.z.c.c.M.M.M.B.}..X@X$X:X2X2X9X0XeXrXtXtXuXuXuXuXuXuX4XuX4X4X4X4X<X:X$X@X.X}.B.V.M.c.c.c.z.z.c.z.z.z.z.z.z.z.z.z.z.z.z.z.c.z.z.z.z.z.z.z.z.z.z.z.z.z.z.z.z.z.z.z.z.z.z.z.z.z.z.z.z.z.z.c.z.z.z.z.z.z.v.z.z.z.z.z.z.z.z.z.z.z.x.z.z.z.z.z.z.c.z.z.z.z.z.z.x.c.z.z.z.z.z.z.z.z.z.z.z.z.z.z.z.z.z.z.z.z.z.z.z.s.z.c.c.c.c.M.M.B.}..X@X-X:X<X4X4X4XuX4XuXuXuXuXuXuXuXuXuXuX4X0X4X3X<X:X$X@X.X}.B.B.M.c.c.c.c.c.z.z.z.z.z.z.z.z.z.z.z.z.z.z.z.z.c.z.z.z.z.z.z.z.z.z.z.z.z.z.z.z.z.z.z.z.z.z.c.z.z.z.z.z.z.z.z.z.x.z.z.x.z.c.z.z.z.z.z.z.z.z.z.",
"w w w 5 6 6 x e e z x z c c Z Z A F F F F <.<.>.3.3.r.r.r.e.e.e.z.z.z.z.z.z.z.z.z.z.z.z.z.z.z.z.z.z.z.z.z.z.z.z.z.s.s.z.z.c.f.c.M.M.B.}..X@X$X:X,X3X4X0XeXrXtXuXuXuXuXuXuX4XuXuXuX4X4X4X,X:X*X@X.X}.B.M.M.c.c.c.c.s.s.z.z.z.z.z.z.z.z.z.z.z.z.z.z.z.x.z.z.z.z.z.z.z.z.z.z.z.z.z.z.z.z.z.z.z.z.z.z.z.z.z.z.z.z.z.z.z.z.z.z.z.z.z.z.z.z.z.z.z.c.z.z.z.c.z.z.z.z.z.z.z.z.z.z.z.z.z.z.z.z.z.z.z.z.z.z.z.z.z.z.z.z.z.z.z.z.z.z.z.z.z.z.c.z.f.z.f.c.M.B.B.}..X@X*X:X,X4X4X4X4XuX4XuXuXuXuXuXuXuX4XuXuX0X4X3X,X:X$X@X.X.XB.M.M.c.c.f.z.s.z.z.z.z.s.z.z.z.z.c.z.z.z.z.z.z.z.z.z.z.z.z.z.z.z.z.z.z.z.z.z.z.z.z.v.z.z.z.z.z.z.z.z.z.z.c.z.z.z.z.z.z.z.z.z.z.z.z.z.z.z.z.c.",
"w w w 6 6 6 e e e x z x c c c A A A F /.F <.<.>.<.3.3.r.e.e.e.e.z.e.z.z.z.z.z.z.z.z.z.z.z.c.z.z.z.z.z.z.z.z.z.z.z.z.z.c.z.f.c.c.M.M.B.}..X@X$X:X,X2X0XwXwXrXrXtXuXuXuXuXuXuX4X4X4X4X4X4X,X:X$X@X.X}.B.B.M.c.c.c.z.z.s.z.z.z.z.z.z.z.z.z.z.z.z.z.z.c.z.z.z.z.z.z.c.x.z.z.z.z.z.z.z.z.z.c.z.z.z.z.z.z.z.z.z.z.z.z.z.z.z.z.z.z.z.z.z.z.z.z.z.z.z.z.z.z.z.z.z.z.z.z.z.z.z.z.z.z.z.z.z.z.z.z.z.z.z.z.z.v.z.z.z.z.z.z.z.z.z.z.z.z.z.z.z.z.z.z.z.c.c.M.M.B.}..X@X$X:X,X4X4X4XuXuX4XuXuXuXuXuXuXuXuXuX4XwX3X2X,X:X$X@X X}.B.M.c.c.c.c.z.c.z.z.s.z.z.z.z.z.z.z.z.z.z.z.z.z.z.z.z.z.z.z.z.z.z.z.z.z.z.z.z.z.z.z.z.z.z.z.z.z.z.z.z.z.z.z.z.z.z.z.c.z.x.z.z.z.z.z.z.z.z.z.z.",
"w 5 5 5 6 6 e e z z z z P.P.c P.U.U.U.U.F <.<.<.<.3.3.r.r.e.e.e.e.z.z.e.z.z.z.z.z.z.z.z.z.z.z.z.z.z.z.z.z.z.z.z.s.z.s.z.z.c.f.c.h.B.B.}..X@X@X:X,X3X3X0XwXrXtXtXuXuXuXuXuXuXuXuXuX4X4X4X,X:X$X@X X}.B.M.c.c.f.z.f.z.z.z.z.z.s.z.z.z.z.z.z.z.z.z.z.z.z.z.z.z.z.z.z.z.z.z.z.z.z.z.z.z.z.z.z.z.z.z.z.z.z.z.z.z.z.z.z.z.z.z.z.z.z.z.z.z.z.z.z.z.z.z.z.z.z.z.z.z.z.z.z.z.z.z.z.z.z.z.z.z.z.z.z.z.z.z.z.z.z.z.z.z.z.z.z.z.z.z.z.z.z.s.z.s.s.c.f.c.f.M.M.B.}..X@X$X:X,X4X4X4X4XuXuXuXuXuXuXuXuXuX4X4XuX0X4X2X<X:X*X.X.X}.B.M.M.f.c.c.s.z.s.z.z.z.z.z.z.z.z.z.z.z.z.z.z.z.z.z.z.z.z.z.z.c.z.z.z.z.z.z.z.z.z.z.z.z.z.z.z.z.z.z.z.z.z.z.z.z.z.z.z.z.z.z.z.z.z.z.z.z.z.z.z.",
"  5 5 6 6 e e e z z z z P.z P.Y.Y.U.U.U.U.F <.<.3.<.b.r.r.r.e.e.e.z.z.z.z.z.z.z.s.z.z.z.z.z.z.z.z.z.z.z.z.z.s.z.z.z.s.z.s.c.c.c.c.M.B.B..X+X@X:X;X3X4XwXwXeXrXtXuXuXuXuXuXuXuXuX4X4X4X1X1X-X@X@X.X}.B.M.h.c.f.c.z.s.z.s.s.z.z.z.z.z.z.z.z.z.z.z.z.z.z.z.z.z.z.z.z.z.z.z.z.z.z.z.z.z.z.z.z.z.z.z.z.z.z.z.s.z.z.z.z.z.z.z.z.z.z.z.z.z.z.z.z.z.z.z.z.z.z.z.z.z.z.z.z.z.z.z.z.z.z.z.z.z.z.z.z.z.y.z.z.z.z.z.z.z.z.z.z.z.z.z.z.z.z.z.z.z.s.c.z.z.f.M.M.B.}. X@X$X:X,X4X4X4X4X4XuXuXuXuXuXuX4X4XuX4X4X0X3X2X,X:X$X@X X}.B.M.M.c.c.z.s.z.s.z.e.e.z.z.z.z.z.z.z.z.z.s.z.z.z.z.z.z.z.z.z.z.z.z.z.z.z.z.z.z.z.z.z.z.z.z.z.z.z.z.z.z.z.s.z.z.z.z.z.z.c.z.z.z.z.z.z.z.z.z.z.",
"w 5 5 6 6 6 e e z z z z P.P.P.Y.Y.U.U.U.<.F F <.<.3.<.3.3.r.e.e.e.e.e.z.s.e.y.z.z.z.z.z.z.e.z.z.z.s.z.t.t.z.z.z.z.s.z.s.z.s.f.c.M.M.B.}.}.@X#X:X,X2X3X4XwXeXrXtX4XuXuXuXuXuX4X4XtX4X4X3X;X-X#X@X}.}.B.M.c.c.c.s.s.z.s.z.z.s.t.z.$.z.z.z.s.z.e.z.z.z.z.z.s.z.y.z.z.z.z.z.z.z.s.z.z.z.z.z.z.z.4.z.z.z.z.z.y.z.z.z.y.s.z.z.z.z.z.z.z.z.z.z.s.z.z.z.z.z.z.z.z.z.s.z.z.z.z.z.z.t.z.z.z.z.z.z.z.z.z.s.z.z.y.s.z.z.z.z.4.z.z.s.z.s.y.s.s.s.z.z.f.c.f.c.h.B.}.}..X#X:X,X1X4X4X4XuX4XuX4XuXuXuXuXuXuXuX4X0X4X1X,X$X$X@X.X}.B.h.M.c.f.f.z.s.z.z.s.s.z.t.z.z.z.z.z.z.z.e.z.z.z.z.z.z.z.z.z.z.z.z.z.z.z.z.z.z.s.z.z.z.z.z.y.s.z.e.z.z.z.z.z.s.z.z.e.z.z.z.z.z.z.z.z.y.z.z.z.",
"w w 5 6 6 6 e r z z z I.I.P.P.P.Y.Y.U.U.U.U.F F <.<.<.3.3.r.r.r.e.e.s.s.z.s.z.s.4.z.z.y.s.z.z.z.z.e.z.z.z.$.s.4.s.$.z.z.s.z.f.c.h.M.B.}..X.X#X-X,X2X3X4X4XeXeXtXuXuX4XuX4XuXuX4X4X4X4X1X;X-X$X@X.XB.B.h.h.f.c.z.s.s.s.y.z.s.z.s.z.z.z.z.z.z.z.s.z.z.z.z.z.s.z.z.e.z.z.z.z.z.y.z.z.z.z.z.z.z.z.z.z.z.z.z.z.z.z.z.z.z.z.z.s.z.z.y.z.y.z.z.z.z.z.4.z.z.y.z.s.z.z.z.z.z.z.z.z.z.z.z.z.z.z.z.z.z.s.z.z.t.z.z.y.z.z.z.s.z.z.z.$.z.e.s.s.z.s.s.s.c.c.M.M.B.}.}.+X$X-X:X3X4X4X4XuXuXuXuXuXuXuX4XuX4X4X4X4X3X,X,X:X#X@X}.B.B.h.c.c.f.s.z.z.s.t.z.s.z.e.s.t.z.z.s.t.z.z.z.z.z.z.z.z.z.s.z.s.z.z.z.y.s.z.s.y.z.z.y.s.z.z.z.z.z.z.z.z.t.z.e.y.z.s.z.y.z.y.z.z.t.y.z.s.z.z.s.",
"w 5 5 6 e e e r e x I.I.I.P.P.P.Y.U.U.U.U.<.F F <.<.3.3.3.3.r.e.t.e.e.e.4.z.4.z.y.s.s.z.4.y.s.e.z.z.$.t.z.z.z.z.s.z.s.s.s.f.s.f.f.M.k.B.}.+X@X:X;X1X4X4X4XwXeXeX4XuXuXuXuX4XuX4X4X4X4X3X;X-X#X.X}.[.B.h.f.c.f.s.s.z.s.z.$.y.s.4.s.e.t.s.e.t.z.s.z.y.$.z.4.z.y.s.s.z.t.z.z.$.z.s.y.s.y.z.s.y.s.4.s.y.t.z.t.z.t.z.z.t.t.z.y.z.y.s.s.z.t.4.s.y.s.z.z.z.z.$.z.4.t.z.z.t.z.e.z.z.$.z.t.y.s.z.s.4.z.y.y.z.z.t.z.s.z.y.z.z.$.z.$.z.z.t.s.t.s.z.s.f.f.f.h.B.B. X.X@X-X:X1X4X4X4X4X4X4X4XuX4XuXuXuX4XtX4X4X3X1X:X$X@X+X}.B.k.M.c.f.s.f.s.s.s.t.s.e.t.s.e.e.s.t.e.e.s.t.z.y.s.4.z.$.z.y.y.z.y.z.4.z.s.y.e.z.t.s.z.y.y.z.t.z.z.$.s.e.z.z.s.z.t.z.y.s.z.s.y.z.y.s.s.z.4.y.z.",
"w 5 5 6 6 e e e e z z z z I.I.P.P.Y.Y.U.U.U.F F D <.<.>.3.3.2.4.e.e.$.e.e.e.e.t.t.z.y.z.$.z.t.z.z.t.e.z.s.$.s.$.t.t.t.s.s.s.s.f.f.h.k.B.}..X@X$X-X,X1X4X4X4XeXrXuX4XuX4XuX4X4X4X4X3X1X,X:X$X@X.X}.B.M.h.f.f.f.s.s.s.s.s.4.t.z.$.e.t.s.t.e.t.e.e.z.e.s.e.t.e.t.e.t.y.$.z.z.z.z.s.e.s.t.s.e.s.z.z.$.z.4.z.e.z.$.z.$.z.z.y.s.4.s.y.e.s.t.s.e.s.s.y.t.t.s.e.t.e.e.t.$.z.t.e.s.s.e.s.z.y.s.y.s.4.z.z.s.z.$.z.e.s.z.z.z.s.z.$.$.z.$.z.$.z.s.s.s.s.f.f.M.M.}.}..X@X$X-X1X1X4X4X4XrX4XtXtXtXtXuX4XtX4X4X4X2X,X;X$X@X.X[.B.k.h.h.f.f.s.s.s.$.e.s.$.e.e.t.e.e.s.e.s.e.s.e.t.s.z.z.$.z.z.$.s.e.t.s.e.s.z.z.t.$.z.z.z.z.t.e.t.t.e.s.t.e.s.e.$.z.z.$.z.t.e.z.4.z.y.s.z.y.s.s.",
"w 0 6 6 6 e e e e z z z z I.I.I.P.Y.Y.Y.U.A A F F <.<.,.,.2.2.2.2.$.e.e.t.$.t.t.e.$.s.4.z.$.4.$.$.z.t.$.$.z.t.e.$.s.$.e.s.s.s.f.f.h.M.B.[..X+X#X-X,X1X3X3X4XeX4X4XuX4XuXuX4X4X4X4X3X1X,X-X#X+X X}.B.h.h.f.f.s.s.s.s.$.s.$.s.e.t.s.e.e.t.t.t.$.s.t.$.t.t.t.s.t.t.s.$.z.z.$.$.$.4.t.e.e.t.z.$.$.s.z.t.t.s.t.$.z.z.z.$.$.z.$.z.z.$.t.e.e.t.z.$.4.s.e.e.t.$.t.s.t.t.y.$.t.e.t.e.y.$.$.z.$.z.$.t.$.s.t.t.z.$.t.z.$.$.$.4.z.t.z.$.s.$.t.$.$.s.s.s.f.f.h.h.B.[. X+X$X-X1X1X1X4X4X4XtX4X4XrX4X4X4X4X4X4X3X1X;X-X#X+X.X}.B.h.c.f.s.s.s.t.s.t.t.t.t.t.s.$.s.$.t.t.$.t.t.t.t.4.$.z.z.$.$.z.t.e.t.e.z.$.$.s.t.z.$.$.$.z.t.t.t.e.t.t.e.t.t.t.z.$.$.z.t.y.$.s.s.$.z.$.t.4.$.e.",
"0 5 5 6 e 6 e e r r z z I.I.P.I.P.P.P.Y.U.A A F F <.<.;.,.2.2.2.@.e.@.$.$.t.$.e.$.t.$.s.$.s.t.$.4.$.$.$.$.$.$.t.$.e.$.a.a.s.s.s.f.f.h.k.}. X+X@X$X-X,X1X1X4X4X4X4X4X4X4X4X4X4X4X3X1X,X;X$X#X+X}.[.k.h.f.f.s.a.t.t.s.$.$.$.$.$.$.$.$.t.$.t.$.e.t.$.t.e.t.$.t.t.t.$.4.t.$.$.z.t.$.t.$.$.e.$.$.e.t.$.$.z.$.$.$.$.$.$.$.z.$.4.s.$.$.t.$.t.t.$.$.e.t.t.t.s.e.$.t.t.t.$.t.t.t.4.s.$.$.s.$.4.$.s.4.$.y.$.z.$.$.4.$.$.$.4.$.$.$.$.s.$.$.$.s.$.s.s.s.a.f.f.h.k.B. X.X#X$X;X;X1X3X4X4X4X4X4XrX4X4X4X4X4X3X1X,X:X$X#X X}.[.k.h.h.f.s.s.a.t.a.$.$.t.$.$.$.s.$.t.e.t.t.$.$.t.$.$.z.$.$.z.$.$.t.$.e.$.$.$.t.e.z.$.z.$.e.$.$.$.t.e.t.$.e.t.$.t.$.t.$.e.z.$.$.$.t.4.$.$.$.s.$.$.",
"0 0 0 q 6 t t e e z r z z I.I.P.P.P.P.Y.A Z A F F D <.;.,.,.:.2.@.@.e.$.$.$.$.$.$.$.$.$.$.$.$.$.$.$.$.$.$.$.$.$.$.$.#.$.t.$.a.s.f.f.h.h.k.[. X+X#X-X;X,X1X3X4X4X4X4X4X4X4X4X4X4X1X,X:X-X#X+X XB.[.h.h.f.f.a.a.t.#.$.#.$.$.$.$.$.$.$.$.$.$.$.$.$.$.$.$.$.$.$.$.$.$.$.$.$.$.$.$.$.$.$.$.$.$.$.$.$.$.$.$.$.$.$.$.$.$.$.$.$.$.$.$.$.$.$.$.$.$.$.$.$.$.$.$.$.$.$.$.$.$.$.$.$.$.$.$.$.$.$.$.$.$.$.$.$.$.$.$.$.$.$.$.$.$.$.$.$.$.$.$.$.$.$.#.$.a.a.s.f.f.h.k.k.[. X@X#X-X;X1X1X3X4X4X4X4X4X4X4X4X4X4X3X,X;X-X#X+X.X}.k.h.h.f.a.s.a.t.$.$.$.$.@.$.$.$.$.$.$.$.$.$.$.t.$.$.$.$.$.$.$.$.$.$.$.$.$.$.$.$.$.$.$.$.$.$.$.$.$.$.$.$.$.$.$.$.$.$.$.$.$.$.$.$.$.$.$.$.$.$.$.$.$.",
"0 0 w q q e e e e y r r z z c z z c P.Z Z Z Z F D F D *.;.:.:.2.' @.@.@.@.$.%.$.%.$.$.$.$.$.$.$.$.$.$.$.$.$.$.$.#.#.#.@.#.#.#.a.a.d.f.h.k.k. X X#X#X-X;X1X1X1X1X3X3X3X1X3X1X1X1X,X-X-X#X+X X{.[.h.h.g.a.a.s.a.$.$.#.#.%.$.%.$.#.%.%.$.$.$.@.%.$.$.@.$.#.$.%.@.$.$.@.%.$.$.$.$.$.$.$.@.%.%.$.$.$.$.$.$.$.$.$.O.$.$.$.$.$.$.$.%.@.$.$.$.@.@.$.%.$.$.@.#.$.$.%.@.$.$.@.$.%.$.$.$.%.$.$.$.$.$.%.$.$.$.$.$.%.$.%.$.$.$.$.@.$.$.#.$.O.%.#.#.#.t.a.a.s.d.f.h.h.[.}. X+X#X-X;X;X1X1X1X3X1X3X3X1X3X1X1X,X;X-X#X+X X{.[.k.h.f.d.a.a.#.$.#.$.%.#.%.$.$.O.$.$.@.$.$.$.%.@.$.$.$.$.$.$.$.$.$.$.$.@.%.%.$.$.$.$.$.%.$.%.@.$.#.$.@.@.$.$.@.%.@.$.$.$.$.O.$.$.$.$.$.$.$.$.$.$.$.",
"8 0 0 0 q q q e t e r z z z z c z G.c c Z Z C Z C D D D ;.;.' ' @.+.+.+.%.%.%.+.O.$.O.O.$.O.%.O.%.%.O.#.O.O.O.O.#.+.#.#.#.#.#.a.a.s.d.d.h.k.[.}.{.+X#X#X-X;X;X1X;X1X1X1X1X1X;X;X-X-X#X+X X{.[.k.k.f.f.a.a.#.#.#.#.#.#.%.%.#.#.+.#.%.%.+.#.@.%.%.@.#.%.#.%.%.%.@.%.%.%.%.$.O.%.O.%.%.#.#.%.%.%.%.$.O.$.O.$.O.$.O.O.%.O.%.%.#.O.$.%.%.#.O.#.@.%.%.#.+.%.#.#.%.%.@.#.@.%.%.%.%.+.#.$.O.O.O.%.#.O.%.%.%.$.O.@.%.O.#.#.%.%.%.O.#.$.O.#.%.O.#.#.#.#.a.s.d.g.h.k.[.{. X+X#X-X;X;X1X;X1X1X1X1X1X;X;X;X;X#X#X+X+X}.[.k.h.l.f.a.a.a.#.#.#.O.#.#.%.O.O.$.$.#.O.O.#.%.%.@.%.O.O.#.%.$.O.$.O.%.%.#.#.%.%.%.O.%.O.#.%.%.@.$.%.#.%.%.%.#.%.%.#.#.%.$.O.$.O.O.$.$.O.O.$.%.O.$.O.",
"8 0 0 0 q q q t t t e x x z c c c c c c y Z Z C C C S S ] _ ] ' ' ` O.+.O.O.O.O.O.O.O.O.O.O.O.O.O.O.O.O.O.O.O.O.O.O.` O.O.#.#.%.X.a.a.d.g.g.j.[.{.{.+X#X#X#X-X-X;X;X;X;X;X;X-X#X#X#X+X{.{.[.j.h.g.d.a.a.#.X.#.O.O.O.O.O.O.O.O.O.O.O.O.O.O.+.O.O.O.O.O.O.O.O.O.O.+.O.O.O.O.O.O.O.O.O.O.O.+.O.o.O.O.O.O.O.O.O.O.O.O.O.O.O.O.O.O.O.O.O.O.O.O.O.O.O.O.O.O.O.O.O.O.O.O.O.O.O.O.O.+.O.O.O.O.O.O.+.O.O.O.O.O.O.O.#.O.O.O.O.O.O.O.O.O.O.O.O.O.O.O.#.X.#.a.a.d.g.h.k.[.{.{.+X#X#X#X-X;X;X;X;X;X;X;X-X#X#X+X+X X{.[.k.h.l.d.a.a.#.#.#.#.O.O.O.O.O.O.O.O.O.O.O.O.O.O.O.O.O.O.O.O.O.O.O.O.O.O.O.O.O.+.+.O.O.O.O.O.O.#.O.O.O.O.O.O.O.O.#.O.O.O.O.O.O.O.O.O.O.O.O.O.O.O.O.O.O.",
"p p 8 8 0 q q q q e x e e e x c y x x c x C C C S S S S N ] ] ( ` ` ` ` ` ` O.` O.O.O.O.O.` O.O.`  .` O.O.O.O. .O.&.O. .O. . .X.#.#.a.d.p.l.g.j.[.[.{.{.+X+X#X#X#X#X#X#X#X+X#X+X+X{.{.[.k.k.g.g.a.a.i.#.#.X. .O. .&.`  .O.`  .` O.&.O.O.`  . .O.O.` O.`  .O.O.O. .`  .O.O.` O.O.`  .O.O.O.` ` ` O. .` O.O.O.O.` O.O.O.&.O.O.O.O.` O.O. .` O.O. .O.` O.` ` O.O. .O.` O. .O.` O. .O.` O. .O.` O.O.` O.O.O.`  .` O.O.` O.[ ` O.`  .`  . .O. .O.#.X.X.a.a.p.l.g.j.k.[.{.{.+X+X+X#X#X#X#X#X#X#X+X+X+X{.{.{.j.k.g.l.d.a.a.#.X.X.O. . . .O.[ O.&.O.^ O.O.O.` O. .` O.O.O.O.} ` O. .` O.` O.O. .O.&.O.O.O.O.O.` `  .O.` ` O.O. .`  .` O.O.` O.O.O.O.O.^ O.O.O.^ O.` O.O.",
"p 8 8 8 8 0 0 0 q t t t t t t t t t x x x J t C C d d S B B ( ( _ ) W ) ) ^ ` ^ ) ^ ^ ^ ^ ^ [ ^ ^ ) ^ ^ ^ ^ ^ ) ^ ^ &. .^  .&. . .X.X.X.i.d.d.g.l.[.[.[.[.{.{.{.{.+X{.+X+X{.{.{.{.[.[.j.l.l.l.p.a.X.X. . . .&. .&.^ ^ [ ^ ^ ^ ^ ^ ^ ^ ^ [ ^ ^ ` ^ &.[ ^ ) ^ ^ ) &.^ ^ &.^ ^ ^ ^ ) [ ^ ) ^ ^ ^  .^ ^ ` ^ [ &.^ ^ ` ^ ^ [ ^ ^ ) ^ ^ ^ ^ ` ^ ^ ) ^ ^ ^ ^ ) [ ^ ^ ` ^ ^ ` ^ [ &.^ ^ ` ^ ^ [ ^ ^ ) ^ ^ ^ [ ^ ^ ^ ^ ^ ^ ^ ` ^ ^ ^ ^ ^ ^ &.^  . .&. . .X.X.a.i.d.d.g.g.[.[.[.[.{.{.{.{.{.+X+X{.{.{.[.{.[.[.j.l.g.d.d.i.t... . . . .&. .^ ^ [ ^ ^ &.^ ^ ^ ^ ^ ) ^ ^ ^ ^ ^ &.^ ) [ ^ ^ ) ^ ^ ) ^ ^ [ ^ ^ ^ ^ ^ ^ &.^ [ ` ^ ^ ^ ^ ^ ^ ) ) ^ ^ ^ ^ ^ ^ ) ^ ^ ^ ^ ^ ^ ^ ) ^ ",
"u u p u 8 8 0 0 0 q 0 q t t t t t f f x f f f a f B K d d _ m ( E ( E ^ Q ! Q ! ^ ^ ^ ^ ^ ^ ^ ^ ^ ^ ^ ^ ^ ^ ^ ^ ^ ^ ^ Q ~ ^ ~  . .|  .X.X.i.i.p.l.l.l.j.j.[.[.[.[.[.[.[.[.[.[.j.j.j.l.l.l.l.u.u.u. .X. . .| ~ &.~ ^ ^ ^ ^ ^ ^ ^ ^ ^ ^ ^ ^ ^ ^ ^ ! ^ ^ ^ ^ ^ ^ ^ ^ ^ ^ ^ ^ ^ ^ ^ ^ ^ ^ ^ ^ ^ ^ ^ ^ ^ ^ ! ^ ^ ^ ^ ^ ^ ^ ^ ^ ^ ^ ^ ^ ^ ^ ^ ^ ^ ^ ^ ^ ^ ^ ^ ^ ^ ^ ^ ^ ^ ^ ! ^ ^ ^ ^ ^ ^ ^ ^ ^ ^ ^ ^ ^ ^ ^ ^ ^ ^ ^ ^ ^ ^ ^ ^ ^ ! ^ ^ ^ Q ^ ^ ^ { {  .&.| X.u.u.i.p.l.l.l.j.[.[.[.[.[.[.{.[.[.[.[.[.[.j.l.l.l.p.i.u.X... .|  . .~ Q ^ ^ ^ ^ ^ ^ ^ ^ ^ ^ ^ ^ ^ ^ ^ ^ ^ ^ ^ ^ ^ ^ ^ ^ ^ ^ E ^ ^ ^ ^ ^ ^ ^ ^ ^ ^ ^ ! ^ ^ ^ ^ ^ ^ ^ ^ ! E ^ ^ ^ ^ ^ ^ ^ ! ^ ^ ^ ^ ^ ^ ^ ! ",
"u u u u u 8 8 8 0 0 q q 0 q q t q f t f f 0 f a a d d d d E s E s ! ! L E / ! / R E R R R E E Q R R R R R R R R R R R Q R / ~ Q Q ~ | | | ..X.i.u.p.p.l.l.l.l.j.j.l.j.l.j.l.l.l.l.l.l.p.u.u.u.....| | ~ ~ ~ Q Q Q R R Q R R R R R R E R R R R R ! E E E R R R R E R R R R R Q Q R R R R Q R R E Q R R ! R R R R E R R R R R E E E R R Q E R Q Q R R R R R R R R Q R R ! R R R R E R R R R R E E R E R E R ! R E R Q R R R ^ Q R R Q ! R / ~ ~ ~ { | |  .X...u.i.u.l.l.l.l.l.l.j.j.l.j.j.j.l.l.l.p.p.p.u.u.u...T | { ~ ~ ~ Q Q Q R R ! Q R R E R R R R R R ! Q Q R R R R R R R R E ! L E R R E R E R R Q R Q E R R E R ! R Q R ! R ! R E R R ! / R ! R E R R ! / ",
"u s $ u u u u 8 7 8 0 8 0 0 0 0 0 0 0 0 a 0 a a d a a s s d s s L m s L n R n L R L R / R L R R R R R R R R R R R R R R R R R Y / U ~ ~ | | | ..u.u.u.u.u.p.p.p.l.p.l.l.p.p.p.p.u.u.u.u.u.u.T T ~ ~ ~ ~ Y / R I R I R n R R R R R R R R R R R R L 3 L L R R R R R R R R R R R R R R R R R n L R R R s L R R R R R R R R R L R L R I R R L R R L R R R R R R R R R R s L R R R R R R R R R L R L R R I n R R R R R R R 3 R R L L R R l R R Y R R ~ / U { { ....u.u.u.u.u.p.p.p.p.p.p.p.l.p.p.p.u.u.u.u.u.....T T { ~ ~ Y / / I n R L n L R I R L R R R R n L R L R R R R R R R R R L L L R R R R R R n R R R L R R R n L R / L L R R R R L / R L R R R L R / R L ",
"% u u $ u u u   7 7 7 7 w 8 7 w 0 0 8 8 a 8 a u 8 s s u s s s s s 3 3 3 3 3 s H 3 3 s H H 3 3 3 3 3 L 3 3 3 3 3 3 3 3 3 3 H H H I Y Y I Y U { T T T u.....u...u.u.u.u.u.u.u.u.u...u.T T T T T U U Y Y Y I 3 I 3 l L 3 3 3 3 3 3 H s H 3 3 3 3 s H 3 L L s L 3 L 3 H 3 3 L 3 3 s s H 3 H 3 3 3 s H L 3 L s H 3 H 3 3 H s H H 3 H 3 3 H s H H H s 3 H s 3 3 3 3 R H L 3 L s H 3 H 3 3 H s H H 3 H 3 3 3 3 3 L 3 3 3 3 3 3 L 3 H s 3 3 l L I 3 I I I Y U U U T T T T T ....u.u.u.u.u.u.u.u.u.u.....u.T T T T T U U U I I I I 3 I 3 H 3 3 3 3 H s H 3 s 3 H 3 3 H s s H 3 H 3 3 s H L L s H 3 H s H 3 3 3 H H 3 H 3 3 3 3 3 H L 3 H 3 3 3 n 3 3 L 3 3 3 3 n 3 3 L 3 ",
"u % % u u $ 7   u 7 u 7 7 7 7 7 9 9 9 8 8 u u u u u u s i s u < 4 s s 4 4 H 4 3 3 3 4 3 3 3 3 4 3 4 3 3 3 3 3 3 3 3 3 3 3 3 3 2 3 H l I I I Y U U U U T T T T T T T T T T T T T T T T U U U U P I I l 3 3 3 3 3 3 3 3 3 3 3 3 3 3 4 3 3 3 3 2 H 4 H < 3 4 4 4 3 3 3 4 3 3 3 4 3 3 4 3 3 3 3 3 3 3 H 4 4 4 3 3 4 3 3 4 3 4 3 3 3 3 3 3 4 3 4 4 3 3 3 3 3 3 3 3 3 3 H 4 4 4 3 3 4 3 3 4 3 4 3 3 3 3 3 3 3 4 3 3 3 3 3 3 3 4 3 4 3 3 2 3 3 2 3 3 3 3 l 3 I P P Y U T T T T T T T T T T ..T T T T T T T U U U U P H I H 3 H 3 2 3 3 4 H 3 3 4 H 4 3 2 3 3 3 4 3 3 3 3 3 4 3 3 3 3 3 < 3 4 H < H 4 H 3 3 3 3 4 3 3 4 3 3 3 3 4 H 4 3 3 4 3 3 4 3 3 3 3 4 2 3 4 3 3 3 ",
"% % % $ # $ # $         u 7 7 7 7 7 u 7 u u u $ u s u < $ s < < 4 - 4 < 4 < 4 < < 4 < < < < 4 < 4 < < < 4 < < < < < < < < 2 < 4 4 2 2 2 H l l P P P U P U U U U T T U T T U U U U U P U P P P H 2 2 2 2 2 4 < 2 < < < < < < < 4 < < < 4 < < < 4 4 4 4 4 < < < 3 < < 4 < < 4 < < < < < < 4 < < 4 < < 4 < < < < 4 < < 4 < 4 < < < < < 4 < < < 4 < < < < < < < < < < < 4 < < < < 4 < < 4 < 4 < < < < < < 4 < < 4 < 4 < < < 4 < 4 < < < < < < < 3 2 2 2 2 2 H P P P U P U U U T T T T U U T T U U U U P P P P H H H 2 2 2 4 < 2 < < < < < 4 < 4 < 4 4 < 4 < 4 < < < < 4 4 < 4 < < 4 < 4 < 4 < < 4 4 < < < 4 < 4 4 < < < < 4 4 4 4 < < < < 4 < < 4 < < < < 4 < < 4 < ",
"% # # # # # # #   #     $ $   # $ $ $ $ $ $ $ $ $ # $ - % % - % < % < < % < < < < < < < < < < < < < < < < < < < < < < < < < < < : < 2 : 2 2 2 2 H H P P P P P H j U P P P U P P P H P , H 2 2 2 2 < 2 < : < < < < < < < < < < < < < < < < < < < < ; < ; < < < < < < < < < < < < < < < < < < < : < < < < < < < < < < < < < < < < < < < < < < < < < < < < < < < < < < < < < < < < < < < < < < < < < < < < < < < < < < < < ; < < < < < < < < < < < < < 2 2 2 2 2 H P P P j P P P j P P P P P P P H P P P P H , , , 1 < 1 < < < < < < < < ; < < < < < < < < < < < < < < < < ; < < < < < < < < < < < < < < < < < < < < < < < % < < < < < < : < < < < < < < < < < < < ",
"o % o % # # # # # # # # w X # w   #     $ $ $ # % # $ % # % % % % % % % < ; ; % + < + < % < < + < < + < % ; % % < % < ; % ; < < : < : : : : < 2 2 2 2 2 2 2 H H H H H , H H 2 2 , H , 2 : H : : : < : < : + < ; < < + < % < < + < < ; % ; ; % ; ; ; ; % + ; % % ; % ; + ; ; % % ; < < % % % ; ; % % ; < % ; % ; < < % < ; < ; + ; ; ; % ; % % % < + < < + < % < % % ; < % ; % ; < < % < ; < ; + < + % % ; < % ; % < ; < % ; % ; % < < ; % < ; < > ; : : < : : 2 j H , H H , H H H H H , H 2 , H 2 2 , 2 2 < : < : < : : < < : + < + < < % ; % ; + < + < % < < + ; % ; < % ; ; % ; ; % < + ; % % % < % < + < < + % ; ; ; % ; ; % < + % % < % < ; < + < < + < < + ",
"o o o o o o o o # # # # X   # X X # # # # # o # # o o % % % % o o % % + % + + + + % + % + + O . + + + + % + + ; + + ; + % + + ; + : + ; ; > > ; ; : : : > , : , : : , , , , : , , : : > : : : ; ; : ; ; : + % + + + + % + + O . + + + + + + % + % % ; % % + + ; + % + + % + + + ; + + + ; + ; % % + ; + % + + + + + + + + + + o % % + + ; + ; % % + + % + + + + % + ; + % + + + + + + + + + + o < + % + + ; % + % + + + + + % ; + + + % + ; + + ; ; ; : : : : > ; , ; ; , : , : : > , : : , , : : : : > : : : : ; ; + ; + + < + + % + + + + + % + % + % + + O . + ; + + + + % ; % + % + + + ; + + + % + + + + + + + + % % % + + ; + + % + + + + % + + + + + % + ",
"o o o o o o X o X # X X   X X   X # # X o # # X o o o + o + o o + + + o + + + + + + + + + + . . + + + + + + + + + + + + + + + + + + + + ; + + : ; ; ; ; ; ; > = ; ; : : ; : = ; ; ; : : ; ; ; ; + + + + + + + + O + + + + + . . + + + + + + + + + + + + + + + + + + + + + + + + + + + + + + + + + + + + + + + + O + O + + + . . + + + + + + + + + + + + + + + + + + + + + + + + O + O + + + . . O + + + + + + + O + + + + + + + + + + + + + + + = + + = ; + : ; ; ; ; ; > ; ; > ; ; ; ; : ; > = ; ; ; ; + : + ; + + + + + + O + + + + + + + + + + + + + + + . . + + + + + + + + + + + + + + + + + + + + + + + + + + + + + + + + + + + + + + + + + + + + + O + + ",
"@ @ o . X X X X X X X X X X X X X X X o X o # o o o o o o o o @ X + + X X + X + O + O + O O . . + O + O + X + X O X + O + O X + + + + + + + + + = O ; ; ; + ; ; ; ; ; ; ; @ = ; @ ; ; @ ; @ ; @ + + + O O + O + + O O + O O . . + O O + + X + + + X + + @ + + + + % + + + + @ + O + X + X + + X + O O O + X + + + O o + + O . . X + + + X + X + O + O O X + O O + O O O + X + + + O o + + O . . O + O + X + O O o + + X + O + X O O + O O + O O + O O + + + + + ; @ > @ ; O ; O ; ; ; ; ; ; @ = ; ; + + + O + + + O + + O + O O X @ + + + + X O + O O + O O . . + O + O + @ + + + X + + + + X + O + O + + O + + + @ + + + + + @ + O + O X + O + + O O . + o O + ",
". o @ X X . X X X X X X . X X X X X X X X X X X X X X o @ @ @ o @ X @ @ X @ @ @ O O X O . . . . @ @ @ X @ X @ @ X + X X X X @ X O O O O O O O O @ O O = O O = O @ = @ = = O O + = O = O @ O O + @ O O O O @ O O O @ o @ . . . . X X X + @ @ X @ . + X + @ @ X X @ X @ X + . + + @ X + X + X @ + o X @ o o X X @ O o @ o . . . . + X + @ X @ X X X X X @ X @ + @ o X @ o o X X @ O o @ o . . . . @ + X X X + @ @ O O O @ o @ O O @ @ @ @ O O O O @ @ @ O . . . . @ @ @ = @ = O = @ ; O & @ ; + O @ + O O O O O O O O O O O O O O @ @ X X X @ X @ O o O X . . . . X X X X X X @ X . @ + @ @ X + @ X X X @ @ @ @ X X @ + X @ X + X + @ X X X @ + @ . . . . . . . . ",
"@ X . o . X X X X X X X X . X X X X X X X X X . X X X X X X @ X @ . @ X @ @ X @ o @ @ @ . . . . @ X @ @ @ @ @ X @ @ @ @ @ + @ @ O O O O O O O O O O O O O O O O @ @ @ @ O O O O @ @ @ O @ @ O O @ o O O o @ o O o @ @ . . . . . X @ @ X @ X @ X . . X @ . @ @ X @ @ @ @ @ X . . @ @ . X . @ @ . @ @ @ @ @ @ @ @ @ @ @ . . . . . . @ X . @ @ @ @ @ @ @ @ @ X @ @ @ @ @ @ @ @ @ @ @ @ @ . . . . . @ X X @ X @ @ @ . o @ @ @ @ o @ . o @ o O o . O @ @ . O . . . . @ @ @ @ @ @ O @ @ @ @ @ @ @ O O @ @ O O O O O O O . O @ O o @ o @ . @ @ @ X @ @ O @ @ @ . . . . @ @ @ @ @ X X @ @ @ X X . @ . . X @ @ @ @ X @ @ @ X . @ @ @ . @ @ X X @ @ X @ @ . . . . . . . . ",
". . . . . . X . X X . X . . X X . X X X . X X . @ . . . @ X @ . @ X X @ X @ X . . . . @ . . . . X @ @ . X . . @ . . @ @ @ @ . @ . O . . o . O O @ . @ @ O O O O @ @ @ @ O O O O . @ O O . O @ . O @ @ . @ . @ . . @ . @ . . . . @ @ . . . . X . @ @ . . @ X @ @ @ X @ . X @ @ @ @ . @ . X . . @ . . @ . @ X @ @ . X . @ . . . . . @ . @ . X @ . @ @ . @ X @ . @ . . @ . @ X @ @ . X . @ . . . . @ . X . . @ @ . O @ @ . . . @ . . O . O . @ o @ . . . . . . . . @ @ @ @ @ @ @ @ @ @ @ @ @ . @ @ @ @ O @ O . @ . o @ @ . @ . . . @ X X @ @ X @ @ . X . @ . . . . @ @ @ @ @ @ . X @ @ . X @ X @ + @ @ . @ . @ X @ . X @ X @ @ X . . @ @ . . @ . X . . . . . . . . ",
". . . . . X . . X . . . . X . . . . X X X . . . . . . . . X . . . . . . . X @ . @ . X @ . . . . . . X . @ X . @ . @ . . . . . @ . . . O . @ . . @ @ . @ @ . . . . @ @ @ O . . @ . . . . O . @ . . . . @ . . . . . o . . . . . . @ . . @ . @ . @ . @ @ . . . . . . . @ . . . . . X . @ . . @ . . X . @ . . . . . . @ @ . . . . . @ @ . . @ . . X . . @ . . . . @ X . @ . . . . . . @ @ . . . . . . . . @ . . @ . . . . @ . . . . o . . @ . . . . . . . . . . . . @ @ @ @ @ @ @ @ @ @ @ @ @ @ . @ . . @ @ @ . . @ . . o . . . @ . . . . . @ . . . . @ @ . . . . . . . . . @ . . . . . . . . . . . . . . . X . X . @ . . . . . . @ . . . @ . . @ . . . . . . . . . ",
". . . . . . . . . . . . . . . . . . . X . . . . . . . . . . . . . . . . . . . . . . . . . . . . . . . . . . . . . . . . . . . . . . . . . . . . . . . . . . . . . @ . . . . . @ . . @ . @ . . @ . . . . . . . . . . . . . . . . . . . . . . . . . . . . . . . . . . . . . . . . . . . . . . . . . . . . . . . . . . . . . . . . . . . @ . . . . . . . . . . . . . . . . . . . . . . . . . . . . . . X . . . . . . . . . . . . . . . . . . . . . . . . . . . . . . . . . . . . . . . . . . . . . . O . . . . @ . . . @ . . . . . . . . . . . . . . . . . . . . . . . . . . . . . . . . . . . . . . @ . @ . . . . . . . . . . . . . . . . . . . . . . . . . . . . ",
". . . . . . . . . . . . . . . . . . . . . . . . . . . . . . . . . . . . . . . . . . . . . . . . . . . . . . . . . . . . . . . . . . . . . . . . . . . . . . . . . . . . . . . . @ . . . . . . . . . . . . . . . . . . . . . . . . . . . . . . . . . . . . . . . . . . . . @ . . . . . . . . . . . . . . . . . . . . . . . . . . . . . . . . . . . . . . . . . . . . . . . . . . . . . . . . . . . . . . . . . . . . . . . . . . . . . . . . . . . . . . . . . . . . . . . . . . . . . . . . . . . . . . . . . . . . . . . . . . . . . . . . . . . . . . . . . . . . . . . . . . . . . . . . . . . . . . . . . . . . . . . . . . . . . . . . . . . . . . . . . . ",
". . . . . . . . . . . . . . . . . . . . . . . . . . . . . . . . . . . . . . . . . . . . . . . . . . . . . . . . . . . . . . . . . . . . . . . . . . . . . . . . . . . @ . . . . . . . . . . . . . . . . . . . . . . . . . . . . . . . . . . . . . . . . . . . . . . . . . . . . . . . . . . . . . . . . . . . . . . . . . . . . . . . . . . . . . . . . . . . . . . . . . . . . . . . . . . . . . . . . . . . . . . . . . . . . . . . . . . . . . . . . . . . . . . . . . . . . . . . . . . . . . . . . . . . . . . . . . . . . . . . . . . . . . . . . . . . . . . . . . . . . . . . . . . . . . . . . . . . . . . . . . . . . . . . . . . . . . . . . . . . . ",
". . . . . . . . . . . . . . . . . . . . . . . . . . . . . . . . . . . . . . . . . . . . . . . . . . . . . . . . . . . . . . . . . . . . . . . . . . . . . . . . . . . . . . . . . . . . . . . . . . . . . . . . . . . . . . . . . . . . . . . . . . . . . . . . . . . . . . . . . . . . . . . . . . . . . . . . . . . . . . . . . . . . . . . . . . . . . . . . . . . . . . . . . . . . . . . . . . . . . . . . . . . . . . . . . . . . . . . . . . . . . . . . . . . . . . . . . . . . . . . . . . . . . . . . . . . . . . . . . . . . . . . . . . . . . . . . . . . . . . . . . . . . . . . . . . . . . . . . . . . . . . . . . . . . . . . . . . . . . . . . ",
". . . . . . . . . . . . . . . . . . . . . . . . . . . . . . . . . . . . . . . . . . . . . . . . . . . . . . . . . . . . . . . . . . . . . . . . . . . . . . . . . . . . . . . . . . . . . . . . . . . . . . . . . . . . . . . . . . . . . . . . . . . . . . . . . . . . . . . . . . . . . . . . . . . . . . . . . . . . . . . . . . . . . . . . . . . . . . . . . . . . . . . . . . . . . . . . . . . . . . . . . . . . . . . . . . . . . . . . . . . . . . . . . . . . . . . . . . . . . . . . . . . . . . . . . . . . . . . . . . . . . . . . . . . . . . . . . . . . . . . . . . . . . . . . . . . . . . . . . . . . . . . . . . . . . . . . . . . . . . . . ",
". . . . . . . . . . . . . . . . . . . . . . . . . . . . . . . . . . . . . . . . . . . . . . . . . . . . . . . . . . . . . . . . . . . . . . . . . . . . . . . . . . . . . . . . . . . . . . . . . . . . . . . . . . . . . . . . . . . . . . . . . . . . . . . . . . . . . . . . . . . . . . . . . . . . . . . . . . . . . . . . . . . . . . . . . . . . . . . . . . . . . . . . . . . . . . . . . . . . . . . . . . . . . . . . . . . . . . . . . . . . . . . . . . . . . . . . . . . . . . . . . . . . . @ . . . . . . . . . . . . . . . . . . . . . . . . . . . . . . . . . . . . . . . . . . . . . . . . . . . . . . . . . . . . . . . . . . . . . . . . . . ",
". . . . . . . . . . . . . . . . . . . . . . . . . . . . . . . . . . . . . . . . . . . . . . . . . . . . . . . . . . . . . . . . . . . . . . . . . . . . . . . . . . . . . . . . . . . . . . . . . . . . . . . . . . . . . . . . . . . . . . . . . . . . . . . . . . . . . . . . . . . . . . . . . . . . . . . . . . . . . . . . . . . . . . . . . . . . . . . . . . . . . . . . . . . . . . . . . . . . . . . . . . . . . . . . . . . . . . . . . . . . . . . . . . . . . . . . . . . . . . . . . . . . . . . . . . . . . . . . . . . . . . . . . . . . . . . . . . . . . . . . . . . . . . . . . . . . . . . . . . . . . . . . . . . . . . . . . . . . . . . . ",
". . . . . . . . . . . . . . . . X . . . . . . . . . . . . . . . . . . . . . . . . . . . . . . . . . . . . . . . . . . . . . . . . . . . . . . . . . . . . . . . . . . . . . . . . . . . . . . . . . . . . . . . . . . . . . . . . . . . . . . . . . . . . . . . . . . . . . . . . . . . . . . . . . . . . . . . . . . . . . . . . . . . . . . . . . . . . . . . . . . . . . . . . . . . . . . . . . . . . . . . . . . . . . . . . . . . . . . . . . . . . . . . . . . . . . . . . . . . . . . . . . . . . . . . . . . . . . . . . . . . . . . . . . . . . . . . . . . . . . . . . . . . . . . . . . . . . . . . . . . . . . . . . . . . . . . . . . . . . . . . ",
". . . . . . . . . . . . . . . . . . . . . . . . . . . . . . . . . . . . . . . . . . . . . . . . . . . . . . . . . . . . . . . . . . . . . . . . . . . . . . . . . . . . . . . . . . . . . . . . . . . . . . . . . . . . . . . . . . . . . . . . . . . . . . . . . . . . . . . . . . . . . . . . . . . . . . . . . . . . . . . . . . . . . . . . . . . . . . . . . . . . . . . . . . . . . . . . . . . . . . . . . . . . . . . . . . . . . . . . . . . . . . . . . . . . . . . . . . . . . . . . . . . . . . . . . . . . . . . . . . . . . . . . . . . . . . . . . . . . . . . . . . . . . . . . . . . . . . . . . . . . . . . . . . . . . . . . . . . . . . . . ",
". . . . . . . . . . . . . . . . . . . . . . . . . . . . . . . . . . . . . . . . . . . . . . . . . . . . . . . . . . . . . . . . . . . . . . . . . . . . . . . . . . . . . . . . . . . . . . . . . . . . . . . . . . . . . . . . . . . . . . . . . . . . . . . . . . . . . . . . . . . . . . . . . . . . . . . . . . . . . . . . . . . . . . . . . . . . . . . . . . . . . . . . . . . . . . . . . . . . . . . . . . . . . . . . . . . . . . . . . . . . . . . . . . . . . . . . . . . . . . . . . . . . . . . . . . . . . . . . . . . . . . . . . . . . . . . . . . . . . . . . . . . . . . . . . . . . . . . . . . . . . . . . . . . . . . . . . . . . . . . . ",
". . . . . . . . . . . . . . . . . . . . . . . . . . . . . . . . . . . . . . . . . . . . . . . . . . . . . . . . . . . . . . . . . . . . . . . . . . . . . . . . . . . . . . . . . . . . . . . . . . . . . . . . . . . . . . . . . . . . . . . . . . . . . . . . . . . . . . . . . . . . . . . . . . . . . . . . . . . . . . . . . . . . . . . . . . . . . . . . . . . . . . . . . . . . . . . . . . . . . . . . . . . . . . . . . . . . . . . . . . . . . . . . . . . . . . . . . . . . . . . . . . . . . . . . . . . . . . . . . . . . . . . . . . . . . . . . . . . . . . . . . . . . . . . . . . . . . . . . . . . . . . . . . . . . . . . . . . . . . . . . ",
". . . . . . . . . . . . . . . . . . . . . . . . . . . . . . . . . . . . . . . . . . . . . . . . . . . . . . . . . . . . . . . . . . . . . . . . . . . . . . . . . . . . . . . . . . . . . . . . . . . . . . . . . . . . . . . . . . . . . . . . . . . . . . . . . . . . . . . . . . . . . . . . . . . . . . . . . . . . . . . . . . . . . . . . . . . . . . . . . . . . . . . . . . . . . . . . . . . . . . . . . . . . . . . . . . . . . . . . . . . . . . . . . . . . . . . . . . . . . . . . . . . . . . . . . . . . . . . . . . . . . . . . . . . . . . . . . . . . . . . . . . . . . . . . . . . . . . . . . . . . . . . . . . . . . . . . . . . . . . . . ",
". . . . . . . . . . . . . . . . . . . . . . . . . . . . . . . . . . . . . . . . . . . . . . . . . . . . . . . . . . . . . . . . . . . . . . . . . . . . . . . . . . . . . . . . . . . . . . . . . . . . . . . . . . . . . . . . . . . . . . . . . . . . . . . . . . . . . . . . . . . . . . . . . . . . . . . . . . . . . . . . . . . . . . . . . . . . . . . . . . . . . . . . . . . . . . . . . . . . . . . . . . . . . . . . . . . . . . . . . . . . . . . . . . . . . . . . . . . . . . . . . . . . . . . . . . . . . . . . . . . . . . . . . . . . . . . . . . . . . . . . . . . . . . . . . . . . . . . . . . . . . . . . . . . . . . . . . . . . . . . . ",
". . . . . . . . . . . . . . . . . . . . . . . . . . . . . . . . . . . . . . . . . . . . . . . . . . . . . . . . . . . . . . . . . . . . . . . . . . . . . . . . . . . . . . . . . . . . . . . . . . . . . . . . . . . . . . . . . . . . . . . . . . . . . . . . . . . . . . . . . . . . . . . . . . . . . . . . . . . . . . . . . . . . . . . . . . . . . . . . . . . . . . . . . . . . . . . . . . . . . . . . . . . . . . . . . . . . . . . . . . . . . . . . . . . . . . . . . . . . . . . . . . . . . . . . . . . . . . . . . . . . . . . . . . . . . . . . . . . . . . . . . . . . . . . . . . . . . . . . . . . . . . . . . . . . . . . . . . . . . . . . ",
". . . . . . . . . . . . . . . . . . . . . . . . . . . . . . . . . . . . . . . . . . . . . . . . . . . . . . . . . . . . . . . . . . . . . . . . . . . . . . . . . . . . . . . . . . . . . . . . . . . . . . . . . . . . . . . . . . . . . . . . . . . . . . . . . . . . . . . . . . . . . . . . . . . . . . . . . . . . . . . . . . . . . . . . . . . . . . . . . . . . . . . . . . . . . . . . . . . . . . . . . . . . . . . . . . . . . . . . . . . . . . . . . . . . . . . . . . . . . . . . . . . . . . . . . . . . . . . . . . . . . . . . . . . . . . . . . . . . . . . . . . . . . . . . . . . . . . . . . . . . . . . . . . . . . . . . . . . . . . . . ",
". . . . . . . . . . . . . . . . . . . . . . . . . . . . . . . . . . . . . . . . . . . . . . . . . . . . . . . . . . . . . . . . . . . . . . . . . . . . . . . . . . . . . . . . . . . . . . . . . . . . . . . . . . . . . . . . . . . . . . . . . . . . . . . . . . . . . . . . . . . . . . . . . . . . . . . . . . . . . . . . . . . . . . . . . . . . . . . . . . . . . . . . . . . . . . . . . . . . . . . . . . . . . . . . . . . . . . . . . . . . . . . . . . . . . . . . . . . . . . . . . . . . . . . . . . . . . . . . . . . . . . . . . . . . . . . . . . . . . . . . . . . . . . . . . . . . . . . . . . . . . . . . . . . . . . . . . . . . . . . . ",
". . . . . . . . . . . . . . . . . . . . . . . . . . . . . . . . . . . . . . . . . . . . . . . . . . . . . . . . . . . . . . . . . . . . . . . . . . . . . . . . . . . . . . . . . . . . . . . . . . . . . . . . . . . . . . . . . . . . . . . . . . . . . . . . . . . . . . . . . . . . . . . . . . . . . . . . . . . . . . . . . . . . . . . . . . . . . . . . . . . . . . . . . . . . . . . . . . . . . . . . . . . . . . . . . . . . . . . . . . . . . . . . . . . . . . . . . . . . . . . . . . . . . . . . . . . . . . . . . . . . . . . . . . . . . . . . . . . . . . . . . . . . . . . . . . . . . . . . . . . . . . . . . . . . . . . . . . . . . . . . ",
". . . . . . . . . . . . . . . . . . . . . . . . . . . . . . . . . . . . . . . . . . . . . . . . . . . . . . . . . . . . . . . . . . . . . . . . . . . . . . . . . . . . . . . . . . . . . . . . . . . . . . . . . . . . . . . . . . . . . . . . . . . . . . . . . . . . . . . . . . . . . . . . . . . . . . . . . . . . . . . . . . . . . . . . . . . . . . . . . . . . . . . . . . . . . . . . . . . . . . . . . . . . . . . . . . . . . . . . . . . . . . . . . . . . . . . . . . . . . . . . . . . . . . . . . . . . . . . . . . . . . . . . . . . . . . . . . . . . . . . . . . . . . . . . . . . . . . . . . . . . . . . . . . . . . . . . . . . . . . . . ",
". . . . . . . . . . . . . . . . . . . . . . . . . . . . . . . . . . . . . . . . . . . . . . . . . . . . . . . . . . . . . . . . . . . . . . . . . . . . . . . . . . . . . . . . . . . . . . . . . . . . . . . . . . . . . . . . . . . . . . . . . . . . . . . . . . . . . . . . . . . . . . . . . . . . . . . . . . . . . . . . . . . . . . . . . . . . . . . . . . . . . . . . . . . . . . . . . . . . . . . . . . . . . . . . . . . . . . . . . . . . . . . . . . . . . . . . . . . . . . . . . . . . . . . . . . . . . . . . . . . . . . . . . . . . . . . . . . . . . . . . . . . . . . . . . . . . . . . . . . . . . . . . . . . . . . . . . . . . . . . . ",
". . . . . . . . . . . . . . . . . . . . . . . . . . . . . . . . . . . . . . . . . . . . . . . . . . . . . . . . . . . . . . . . . . . . . . . . . . . . . . . . . . . . . . . . . . . . . . . . . . . . . . . . . . . . . . . . . . . . . . . . . . . . . . . . . . . . . . . . . . . . . . . . . . . . . . . . . . . . . . . . . . . . . . . . . . . . . . . . . . . . . . . . . . . . . . . . . . . . . . . . . . . . . . . . . . . . . . . . . . . . . . . . . . . . . . . . . . . . . . . . . . . . . . . . . . . . . . . . . . . . . . . . . . . . . . . . . . . . . . . . . . . . . . . . . . . . . . . . . . . . . . . . . . . . . . . . . . . . . . . . ",
". . . . . . . . . . . . . . . . . . . . . . . . . . . . . . . . . . . . . . . . . . . . . . . . . . . . . . . . . . . . . . . . . . . . . . . . . . . . . . . . . . . . . . . . . . . . . . . . . . . . . . . . . . . . . . . . . . . . . . . . . . . . . . . . . . . . . . . . . . . . . . . . . . . . . . . . . . . . . . . . . . . . . . . . . . . . . . . . . . . . . . . . . . . . . . . . . . . . . . . . . . . . . . . . . . . . . . . . . . . . . . . . . . . . . . . . . . . . . . . . . . . . . . . . . . . . . . . . . . . . . . . . . . . . . . . . . . . . . . . . . . . . . . . . . . . . . . . . . . . . . . . . . . . . . . . . . . . . . . . . ",
". . . . . . . . . . . . . . . . . . . . . . . . . . . . . . . . . . . . . . . . . . . . . . . . . . . . . . . . . . . . . . . . . . . . . . . . . . . . . . . . . . . . . . . . . . . . . . . . . . . . . . . . . . . . . . . . . . . . . . . . . . . . . . . . . . . . . . . . . . . . . . . . . . . . . . . . . . . . . . . . . . . . . . . . . . . . . . . . . . . . . . . . . . . . . . . . . . . . . . . . . . . . . . . . . . . . . . . . . . . . . . . . . . . . . . . . . . . . . . . . . . . . . . . . . . . . . . . . . . . . . . . . . . . . . . . . . . . . . . . . . . . . . . . . . . . . . . . . . . . . . . . . . . . . . . . . . . . . . . . . ",
". . . . . . . . . . . . . . . . . . . . . . . . . . . . . . . . . . . . . . . . . . . . . . . . . . . . . . . . . . . . . . . . . . . . . . . . . . . . . . . . . . . . . . . . . . . . . . . . . . . . . . . . . . . . . . . . . . . . . . . . . . . . . . . . . . . . . . . . . . . . . . . . . . . . . . . . . . . . . . . . . . . . . . . . . . . . . . . . . . . . . . . . . . . . . . . . . . . . . . . . . . . . . . . . . . . . . . . . . . . . . . . . . . . . . . . . . . . . . . . . . . . . . . . . . . . . . . . . . . . . . . . . . . . . . . . . . . . . . . . . . . . . . . . . . . . . . . . . . . . . . . . . . . . . . . . . . . . . . . . . ",
". . . . . . . . . . . . . . . . . . . . . . . . . . . . . . . . . . . . . . . . . . . . . . . . . . . . . . . . . . . . . . . . . . . . . . . . . . . . . . . . . . . . . . . . . . . . . . . . . . . . . . . . . . . . . . . . . . . . . . . . . . . . . . . . . . . . . . . . . . . . . . . . . . . . . . . . . . . . . . . . . . . . . . . . . . . . . . . . . . . . . . . . . . . . . . . . . . . . . . . . . . . . . . . . . . . . . . . . . . . . . . . . . . . . . . . . . . . . . . . . . . . . . . . . . . . . . . . . . . . . . . . . . . . . . . . . . . . . . . . . . . . . . . . . . . . . . . . . . . . . . . . . . . . . . . . . . . . . . . . . "
};
