/* XPM */
static char *begin_floor1_032[] = {
/* columns rows colors chars-per-pixel */
"320 200 119 2 ",
"   c #242424",
".  c #272828",
"X  c #2B2B2B",
"o  c #333333",
"O  c #363B3B",
"+  c #3D3D3D",
"@  c #434343",
"#  c #414D4D",
"$  c #4B4B4B",
"%  c #5F4D4D",
"&  c #445151",
"*  c #4E5353",
"=  c #4D5D5D",
"-  c #545454",
";  c #5B5454",
":  c #575B5B",
">  c #5D5D5D",
",  c #6E4242",
"<  c #644C4C",
"1  c #694C4C",
"2  c #744040",
"3  c #7E4646",
"4  c #734D4D",
"5  c #675252",
"6  c #6F5555",
"7  c #635C5C",
"8  c #695F5F",
"9  c #7C5757",
"0  c #755A5A",
"q  c #4A6464",
"w  c #4C6B6B",
"e  c #576767",
"r  c #5E6464",
"t  c #536E6E",
"y  c #5E6B6B",
"u  c #4D7F7F",
"i  c #547070",
"p  c #5C7474",
"a  c #537C7C",
"s  c #5E7B7B",
"d  c #646464",
"f  c #626969",
"g  c #6C6F6F",
"h  c #726C6C",
"j  c #647373",
"k  c #687878",
"l  c #9E2B2B",
"z  c #843737",
"x  c #8D3535",
"c  c #973434",
"v  c #953E3E",
"b  c #983C3C",
"n  c #A92424",
"m  c #A12E2E",
"M  c #AD2929",
"N  c #B62121",
"B  c #DF0B0B",
"V  c #CC1515",
"C  c #C41919",
"Z  c #D21212",
"A  c #EF0404",
"S  c #E60909",
"D  c #804747",
"F  c #8C4141",
"G  c #825454",
"H  c #4E8484",
"J  c #5F8080",
"K  c #558A8A",
"L  c #5B8C8C",
"P  c #4D9595",
"I  c #4F9D9D",
"U  c #5C9595",
"Y  c #509999",
"T  c #5F9898",
"R  c #638484",
"E  c #698181",
"W  c #658B8B",
"Q  c #609797",
"!  c #619B9B",
"~  c #4CA6A6",
"^  c #54A3A3",
"/  c #5CA7A7",
"(  c #55A9A9",
")  c #5CADAD",
"_  c #4FB2B2",
"`  c #51B1B1",
"'  c #54BCBC",
"]  c #5BBDBD",
"[  c #64A9A9",
"{  c #6DACAC",
"}  c #72ADAD",
"|  c #63BFBF",
" . c #5EC0C0",
".. c #5CC8C8",
"X. c #61C1C1",
"o. c #6BC0C0",
"O. c #64CCCC",
"+. c #6ACFCF",
"@. c #70C2C2",
"#. c #79C4C4",
"$. c #6BD0D0",
"%. c #73D3D3",
"&. c #7BD3D3",
"*. c #77D9D9",
"=. c #7DDBDB",
"-. c #80C6C6",
";. c #86D5D5",
":. c #8FD7D7",
">. c #83DCDC",
",. c #8CDBDB",
"<. c #92DFDF",
"1. c #85E0E0",
"2. c #8DE3E3",
"3. c #93E3E3",
"4. c #9BE6E6",
"5. c #A4E7E7",
"6. c #A6E8E8",
"7. c #A9E9E9",
"8. c #B2EBEB",
/* pixels */
"                                                                                                                                                                                                                                                                                                                                                                                                                                                                                                                                                                                                                                                                ",
"                                                                                                                                                                                                                                                                                                                                                                                                                                                                                                                                                                                                                                                                ",
"                                                                                                                                                                                                                                                                                                                                                                                                                                                                                                                                                                                                                                                                ",
"                                                                                                                                                                                                                                                                                                                                                                                                                                                                                                                                                                                                                                                                ",
"                                                                                                                                                                                                                                                                                                                                                                                                                                                                                                                                                                                                                                                                ",
"                                                                                                                                                                                                                                                                                                                                                                                                                                                                                                                                                                                                                                                                ",
"                                                                                                                                                                                                                                                                                                                                                                                                                                                                                                                                                                                                                                                                ",
"                                                                                                                                                                                                                                                                                                                                                                                                                                                                                                                                                                                                                                                                ",
"                                                                                                                                                                                                                                                                                                                                                                                                                                                                                                                                                                                                                                                                ",
"                                                                                                                                                                                                                                                                                                                                                                                                                                                                                                                                                                                                                                                                ",
"                                                                                                                                                                                                                                                                                                                                                                                                                                                                                                                                                                                                                                                                ",
"                                                                                                                                                                                                                                                                                                                                                                                                                                                                                                                                                                                                                                                                ",
"                                                                                                                                                                                                                                                                                                                                                                                                                                                                                                                                                                                                                                                                ",
"                                                                                                                                                                                                                                                                                                                                                                                                                                                                                                                                                                                                                                                                ",
"                                                                                                                                                                                                                                                                                                                                                                                                                                                                                                                                                                                                                                                                ",
"                                                                                                                                                                                                                                                                                                                                                                                                                                                                                                                                                                                                                                                                ",
"                                                                                                                                                                                                                                                                                                                                                                                                                                                                                                                                                                                                                                                                ",
"                                                                                                                                                                                                                                                                                                                                                                                                                                                                                                                                                                                                                                                                ",
"                                                                                                                                                                                                                                                                                                                                                                                                                                                                                                                                                                                                                                                                ",
"                                                                                                                                                                                                                                                                                                                                                                                                                                                                                                                                                                                                                                                                ",
"                                                                                                                                                                                                                                                                                                                                                                                                                                                                                                                                                                                                                                                                ",
"                                                                                                                                                                                                                                                                                                                                                                                                                                                                                                                                                                                                                                                                ",
"                                                                                                                                                                                                                                                                                                                                                                                                                                                                                                                                                                                                                                                                ",
"                                                                                                                                                                                                                                                                                                                                                                                                                                                                                                                                                                                                                                                                ",
"                                                                                                                                                                                                                                                                                                                                                                                                                                                                                                                                                                                                                                                                ",
"                                                                                                                                                                                                                                                                                                                                                                                                                                                                                                                                                                                                                                                                ",
"                                                                                                                                                                                                                                                                                                                                                                                                                                                                                                                                                                                                                                                                ",
"                                                                                                                                                                                                                                                                                                                                                                                                                                                                                                                                                                                                                                                                ",
"                                                                                                                                                                                                                                                                                                                                                                                                                                                                                                                                                                                                                                                                ",
"                                                                                                                                                                                                                                                                                                                                                                                                                                                                                                                                                                                                                                                                ",
"                                                                                                                                                                                                                                                                                                                                                                                                                                                                                                                                                                                                                                                                ",
"                                                                                                                                                                                                                                                                                                                                                                                                                                                                                                                                                                                                                                                                ",
"                                                                                                                                                .     .     .   .   . .     .   . .     .     .                                                                                   .                                                                                                         .                                                           .     .     . .     .   .     .   .     .     .         .                                                                                                                                               ",
".         .     .   . . . .   . .         .     .   . . . .   .                 . . .     .     .     .     X   X   .   .     . .   . . . . . . . . . . . . . . . . . . . . . . . X . . . . X . . . .   .   .   .   . . .   . .         X       .   . . .   .             . .   .   . .   .   .     X   .   .   .     . . . .   .     .   . . . .       . . .   .   .     .       .   .       . . .     .   .   .   .   .   .     .   .   .   . . . . . . . . X     . . . . . . . . . . . . . . . . . . .   . .   .     .   . . .   .     .     .     .     X   X   .   .     .   . . . .   . .         X         . . . .   .   X       .       . .   . .   . . ",
"X . . X X X X . . . . . . . . X X . . X X X X . . . . . . . X .         . . . . . . . . . . . . . . . . X X X X X X . X X X X . . . . . X X X X X o o X o X o X o X X o o X X o o X X X X X X X X X . X . . . . . . . . . . . . X X X X X   X . . . . . . . . .         . . . . . . . . . . . . X X X X X X X X X X X . X X . X X X . . . . . . . X . . . . . . . . . . . . . . . . . . X X X X . . X . X . X X . X X . . . . . X . . . . X . . . . . X X X X X   . X X X o o X X o X o X o X o o X X o X o X X X . . . . . . . . . . . . . . . . . . . X X X X X X . X X X X . . . . . . . . . X X X X X   X . . . . . . . . . X   X . X . X X . . . X . . . . ",
"X X o X X X X X X o X X o X X X X X o X X X X X X o X X o X X X         X o X X X X o X o X X o X X X o X X X X X X X X X X X X o X o o o + O O O O O O O O O + O O O O O O O O O O O O O O O O o o o X X o X o X o X X o X X X X X X o X X X X X o X X o X o X         X o X X X o X X X X o X X X X X X X X X X X X X X X X X X X X X X o X X X X X o X X o X X o X X o X X o X X X o X X X X X X o X X X X X X X X X o X o X o X X X o X X o X o o o O O O O   X O O O O O O O O O O O O O O O O O O O O O o o o X o X X o X X o X X o X X o o X X o X X X X X X X X X X X X X o X X X o X X X X X o X X X X X o X X o X o X X X X o X X X X o X X X X o X . ",
"o o o o o o o o o o o o o o o o o o o o o o o o o o o o o o o o o o o o o o o o o o o o o o o o o o o o o o o o o o o o o o o o o + o + @ # @ # # & # & & * & & & & & & & & & & & & & # # # # @ + + o o o o o o o o o o o o o o o o o o o o o o o o o o o o o o X o o o o o o o o o o o o o o o o o o o o o o o o o o o o o o o o o o o o o o o o o o o o o o o o o o o o o o o o o o o o o o o o o o o o o o o o o o o o o o o o o o o o o o o O O + + @ # # # # & & & & & & & & # & & & * & & & & & # # # @ + + o o o o o o o o o o o o o o o o o o o o o o o o o o o o o o o o o o o o o o o o o o o o o o o o o o o o o o o o o o o o o o o o o o o o o o o ",
"+ + + + + + + + + + + + + + + + + + + + + + + + + + + + + + + + + + + + + + + + + + + + + + + + + + + + + + + + + + + + + + + + + + @ $ $ * = q q w w w t t t t t w w w i i i i t t w w q = = = - $ @ @ + + + + + + + + + + + + + + + + + + + + + + + + + + + + + + + + + + + + + + + + + + + + + + + + + + + + + + + + + + + + + + + + + + + + + + + + + + + + + + + + + + + + + + + + + + + + + + + + + + + + + + + + + + + + + + + + + + + + + @ $ * = = = q w w w t i i i i t w w t t i t t w w w q q = = * $ @ @ + + + + + + + + + + + + + + + + + + + + + + + + + + + + + + + + + + + + + + + + + + + + + + + + + + + + + @ + + + + + + + + + + + + + + + ",
"@ @ @ @ @ @ @ @ @ @ @ @ @ @ @ @ @ @ @ @ @ @ @ @ @ @ @ @ @ @ @ @ @ @ @ @ @ @ @ @ @ @ @ @ @ @ @ @ @ @ @ @ @ @ @ @ @ @ @ @ @ @ @ @ @ # $ - : e i u u H H L L W Q W L K K L L L Q W L L H H H u i e : - $ $ @ @ @ @ @ @ @ @ @ @ @ @ @ @ @ @ @ @ @ @ @ @ @ @ @ + @ @ @ @ @ @ @ @ @ @ @ @ @ @ @ + @ @ @ @ @ @ @ @ @ @ @ @ @ @ @ @ @ @ @ @ @ @ @ + @ + @ @ @ @ @ @ @ @ @ @ @ @ @ @ @ @ @ @ @ @ @ @ @ @ @ @ @ @ @ @ @ @ @ @ @ @ + @ @ @ @ @ @ @ + @ @ @ # $ - : r i i u H H L W Q W U L L K L L W Q W W P K H u i t e : - $ @ @ @ @ @ @ @ @ @ @ @ @ @ @ @ @ @ @ @ @ @ @ @ @ @ @ @ @ @ @ @ @ @ @ @ @ @ @ @ @ @ @ @ @ @ @ @ @ @ @ @ + @ @ @ @ @ @ @ @ @ + @ + + @ @ @ @ @ ",
"$ @ $ $ $ @ $ @ $ $ @ $ @ $ $ $ $ @ $ $ $ @ $ @ $ $ @ $ @ $ $ $ @ $ @ $ $ @ $ $ @ $ $ @ $ $ @ $ $ $ $ @ $ @ $ @ $ @ $ @ $ $ @ $ $ $ - : y p a K P I ( ) { } } } [ ) ) [ [ { } } { [ ^ I P H J p e : - $ @ $ $ @ $ @ $ $ $ @ $ $ $ @ $ $ $ @ $ $ @ $ @ $ $ $ @ $ $ @ $ @ $ $ @ $ @ $ $ @ $ $ $ $ @ $ @ $ $ @ $ # $ @ $ $ @ $ @ $ $ $ $ @ $ $ $ $ @ $ @ $ $ @ @ % $ @ $ $ @ $ $ @ $ $ $ @ $ @ $ @ $ $ @ $ @ $ $ @ $ @ $ $ $ $ # $ @ $ $ @ $ $ $ $ $ * > e p H K P Y ^ [ { } } { [ / / / [ { } } { ) ^ P P K H p r > - $ $ $ $ # $ $ @ $ $ @ $ $ @ @ $ $ @ $ @ $ @ $ @ $ @ $ $ @ $ $ @ $ @ $ $ @ $ $ @ $ $ $ @ $ $ @ $ @ $ $ $ @ $ @ $ $ @ @ $ $ $ $ $ $ $ $ $ @ $ ",
"$ $ $ $ $ $ $ $ $ $ $ $ $ $ $ $ $ $ $ $ $ $ $ $ $ $ $ $ $ $ $ $ $ $ $ $ $ $ $ $ $ $ $ $ $ $ $ $ $ $ $ $ $ $ $ $ $ $ $ $ $ $ $ $ $ - - r y s K Y ~ ` | | #.-.-.#.@.| | | o.#.-.-.#.| | ( ~ P K s j r - - $ $ $ $ $ $ $ $ $ $ $ $ $ $ $ $ $ $ $ $ $ $ $ $ $ $ $ $ $ $ $ $ $ $ $ $ $ $ $ $ $ $ $ $ $ $ $ $ $ $ $ $ $ $ $ $ $ $ $ $ $ $ $ $ $ $ $ $ $ % $ $ $ $ $ $ $ $ $ $ $ $ $ $ $ $ $ $ $ $ $ $ $ $ $ $ $ $ $ $ $ $ $ $ $ $ $ $ $ $ $ $ $ $ $ $ $ - r y s K Y ~ ` ] X.#.-.-.-.| | | | | #.-.-.#.| ] _ ~ P K s f r - - $ $ $ $ $ $ $ $ $ $ $ $ $ $ $ $ $ $ $ $ $ $ $ $ $ $ $ $ $ $ $ $ $ $ $ $ $ $ $ $ $ $ $ $ $ $ $ $ $ $ $ $ $ $ $ $ $ $ $ $ $ $ $ $ $ $ $ $ $ ",
"- $ - $ $ - $ $ $ * * $ $ - $ $ - $ - $ $ - $ $ $ $ - $ $ - $ $ $ $ $ - $ $ - $ * $ $ - $ $ - $ - $ * $ - $ * $ $ % $ $ - $ $ $ $ $ : r j s L ~ _ ] X.%.;.:.:.;.&.%.%.%.&.;.<.:.;.%.O.' _ ~ U s y r : $ $ $ $ $ - $ $ $ $ - $ $ $ % $ * - $ $ - * $ $ - $ $ * $ - $ * $ $ $ - $ - $ - $ $ - $ $ $ * - $ - $ - $ - $ * $ - $ $ * $ $ * $ $ $ - $ $ $ $ * - $ $ - - $ $ * - $ - $ $ * $ * - $ - $ $ % $ * - $ - $ - $ $ $ $ - $ $ - $ $ $ $ $ $ - - : r y J U ~ _  .O.%.;.:.:.;.&.&.%.%.;.:.:.:.;.&.O.' _ ^ U J p r - - $ $ $ $ $ $ $ - $ - $ - $ $ $ * $ $ $ - $ % $ $ $ $ $ - $ - $ $ - * $ $ - - $ - $ $ - - $ * $ $ - $ $ * $ $ - * $ $ - - $ * $ $ - $ $ * $ ",
"- - - - - - - - - - - - - - - - - - - - - - - - - - - - - - - - - - - - - - - - - - - - - - - - - - - - - - - - - - - - $ - - $ * - : r p J U ( ' ..$.>.<.4.4.<.>.=.%.=.,.<.5.4.<.>.+. .' ~ T J p r - - - $ - $ - $ - - - - - - - - - - - - - - - - - - - - - - - - - - - - - - - - - - - - - - - - - - - - - - - - - - - - - - - - - - - - - - - - - - - - - - - - - - - - - - - - - - - - - - - - - - - - - - - - - - - - - - - - - - $ - $ - - - r j J U ( ' ..$.>.<.4.<.3.>.=.*.;.>.<.<.4.3.;.$...' ( U J j r : - $ $ - - - - * - - - - - - - - - - - - - - - - - - - - - - - - - - - - - - - - - - - - - - - - - - - - - - % - - - - - - - - - - - - - - - ",
"- ; - - : ; ; ; ; ; - - ; : - : - ; - - : ; ; ; : ; - - ; : - : : : ; ; : ; - - : ; ; - : - : ; - - : ; - - ; - - - - - - - $ - $ - : r j R U ( ' O.%.,.5.5.7.4.3.1.1.>.3.4.5.7.4.1.*.O. .( T J j r : - - $ - - - - - : ; ; : : - - - ; - : ; - : ; - - ; ; : : - - : : ; ; - - - ; - - - ; - > ; - - - - ; : - - - ; - : - ; - ; ; : : ; ; - - - ; - ; : ; ; - ; - - - - ; : - ; - ; ; - - - - - - - ; - > - - - : - : ; ; : : - - - - - $ - $ - - r p R U ( ' O.%.,.4.7.5.5.3.1.>.>.3.5.5.7.4.2.%.O.' ( U R p r : * $ $ $ - - : ; - - - ; : - ; ; : : ; ; - - - - - > : ; - - - : ; - ; - - : - ; - - - ; - - : ; - - ; ; : : - ; : - : ; - - : ; - - ; ; : : ",
"> > > > > > > > > > > > > > > > > > > > > > > > 7 > > > > > 7 d > > ; r > > > > > > > > > > > > > > > > > > > > > > > ; > - - - * - : r j R U ) ] +.=.2.5.7.7.6.3.2.1.2.3.6.7.7.5.2.=.O.] ) T J j r : - $ - - ; - > > > > > > > > > > 7 > > > > > > > > > > 7 7 7 > > > > > > > > > > 7 7 > > > > > > > > > 7 > > > > > 7 7 > > r > > > > > > > > > > 7 > > > > > > > > > > > 7 r > > > 7 > > > > > > 7 > > > > 7 > > ; > > > > > ; > ; - - - - - : r j J T ) ] $.*.2.5.7.7.5.3.1.1.2.3.6.7.7.6.2.*.+.] ( T J j r : - - - - - > ; > > > > > > 7 r > > > 7 7 r > 7 7 > > > > > > > > > > > > > > > > > 7 7 ; r > > > > > > > > > > > > 7 > ; > > 7 > > > > > 7 d ",
"d d d d d r d d d d d d d d d d d d d d d r d d d d d d d d d d d d d d d d d d r d d d d d d d d d d d d d d d d d r > 7 > ; - - - ; r j R T ) ] $.=.2.7.7.8.7.4.2.2.2.4.6.8.8.5.3.=.+.] ) T R j r : - - - : > > r d 7 d d d d d d d d d d > d d d d d d d d d d d r d d d d d d d d d d d r d d d d d d d d d d d d d d d d d d r 7 d d d d d d d d d r d r d d d d d d d d d d d 7 d d d d d d d d d d 7 d d d d d d r d d d d d r > 7 - - - - : r j J T )  .$.=.3.6.8.8.5.4.2.2.2.4.7.7.7.6.3.=.$.] ) T R j r > - - - > > 7 d d d r r d d d d r 7 d d d d d d d d d d d d d d d d d d d d d d d d d d d r d d d d d d d d d d d d d d d r d d d d d 7 d d d ",
"d d d d d d d d d d d d d d d d d d d d d d d d d d d d d d d d d d d d d d d d d d d d d d d d d d d d d d d d d d d d d > > ; : : > r j J T ) ] +.=.3.6.8.8.7.4.2.2.2.4.7.7.8.5.3.=.+. .) T R j r > - - - > r d d d d d d d d d d d d d d d d d d d d d d d d d d d d d d d d d d d d d d d d d d d d d d d d d d d d d d d d d d d d d f d d d d d d d d d d d f d d d d d d d d d d d d d d d d d d d d d d d d d d d d d d d d d > r > ; - - > y j W T ) ] +.=.2.6.8.8.7.4.2.2.2.4.7.8.8.6.2.=.+. .) T R j r : : - : > > d d d d d d d d d d d d d d d d d d d d d d d d d d d d d d d d d d d d d d d d d d d d d d d d d d d d d d d d d d d d d d d d d ",
"d d d d d d d d d d d d d d d d d d d d d d d d d f d d d d d d d d d d d d d d d d d d d d d d d d d d d d d d d d d d d d r r ; : : r j R Q ) ] +.=.3.6.8.8.7.4.2.1.2.4.7.8.8.5.3.=.+. .) T J j r > ; > > > d d d d d d d d d d d d d f d d d d d d d d d f d d d d d f d d d d d d d d d d d d f d d d d d d d d d d d d f d f d d d d d d d d d d d d d d d d d d d d d d f d d d d f d d h d d f d d d d d d f d d d d d d d d d d d 7 > > : > r j J T )  .+.=.3.6.8.8.7.4.2.2.2.4.7.8.8.6.3.=.+. .) T R j r > ; - > > d d d d d d d d d d f d d d d d d d d d d f d d d d d d d d d d d d d d d d d d d d d d d d d d d d d d d f d d d d d d f d d d d d ",
"d d d d h d d d f d d d h d d d d d d d d d d h d f d d d d d d d d f d h d d d d d d d d f d d d d d d d d d d d d d d d d d d ; > > r j J T )  .$.=.3.6.8.8.7.4.2.2.2.4.7.8.8.6.3.=.$. .) T R j r > ; > r d d d d d f d d d f d d d d d h d d d d d d h d d d d d d d d d d d d h d d d f d d d h d d d d d d d d d d d d h d d d d d d d d d d d d f d d h d d d d d d d d h h d d d f d d d d d d d d d h d d f d d d h d d d d d d d d > ; > : r j R T )  .$.=.2.6.8.8.7.4.2.2.3.4.7.8.8.6.3.=.+.] ) U R j r > > > r d d d d d d d h d f d d d d d d h d f d d d d d d h d f d d d d d d d d d d d d d d h f d d d d d d h d d d f d d d d d d h f d d f d ",
"d d d d d d d d d d d d d d d f d h d f d d d d d d d d d d d d d d d d d d d d d d d f d h d d d d f d f h d d d d d g d d d d > > r r j R U )  .$.=.3.6.8.8.7.4.2.2.3.4.7.8.8.6.2.=.$. .) T R j y r > ; r d d d d d d d d d d d d d d d d d d d d d d d d d d d d f d d d d d d d d d d d d d d d f d d d d d d d d f d d d d d d d d d d d d d d d d d d d d d d d d d d d d d d d d d d d d d d d d d d d d d d d d d d d d d d d h d d d > > r r j R T )  .$.=.3.7.8.8.7.4.2.2.2.4.7.8.8.6.3.=.$. .) T R j r r ; > > d d d d f d d d d d d d d h d d d d d d d d d d d f d d h d d d d g d d d d d d d d d d d d d d d d f d d d h d d d d d d d d d d d d ",
"d d d d d d d d d d d d d d d d d d d d d d d d d d d d d d f d d d d d d d d d d d d d d d d d d d d d d d d d d d d d d d d 7 > > > f j W T )  .+.=.3.6.8.8.7.4.2.1.2.4.7.8.8.6.3.=.$. .) T R j r > > 7 d d d d d d d d d d d g d d d d d f d h d d d d d d d d d d d d d d d d d d d d d d d d d d d h d d d h d d d d d d d d d f d d d d d d h d d d d d d d f d d d d d d d d d d d d d d d d d d d d d d d d d d d d d f d d d d d d d > > > y j R T )  .$.=.3.7.8.8.7.4.2.2.2.4.7.8.8.6.3.=.$. .) T R j d r ; > d d d d d d d d d d d d d d d d d d d d d d d d d d d d d d d d d d d d d d d d d d d d d d d d d d d d d d d d d d d d d d d d d d d d ",
"d f d d d d d d d d d d d d d d d d d d d d d d d d d d d d d d d d d d d d d d d d d d d d d d d d d d d d d d d d d d d d d d r ; r r j R T )  .+.=.3.6.8.8.7.4.2.2.2.4.7.8.8.6.3.=.$. .) T R j r r > > d d f d d d d d d d d d d d d d d d d d d d d d d d d d d d d d d d d d d d d d d d d d d d d d d d d d d d d d d d d d d d d d d d d d d d d d d d d d d d d d d d d d d d d d d d d d d d d d d d d d d d d d d d d d d d d d d d 7 > r d j R T )  .$.=.3.7.8.8.7.4.2.2.2.4.7.8.8.6.3.=.$. .) U R j y > > r d d d d d d d d d d d d d d d d d d d d d d d d d d d d d d d d d d d d d d f d d d d d d d d d d d d d d d d d d d d d d d d d d h d d ",
"d d d d d f d d d d d d d d d d d d d d d d d d d d d d d d d d d d d d d f d d d d d d d d d d d d d d d d d d d d d d d d d d 7 > r y j R U )  .+.=.3.6.7.8.7.4.2.2.2.4.7.8.8.6.3.=.$. .) T R j y > > r d d d d h d d d d d d d d d d d d d d d d d d d d d d d d d d d d d d d d d d d d d d d d d d d d d d d d d d d d d d d f d d h d f d d d d d f d d d d d d d d d d d d d d d d d d d f d d d d d d d d d d d d d d d d d d f d d d > > > r j R T )  .$.=.3.6.8.8.7.4.2.2.2.4.7.8.8.6.3.=.$. .) T R j d r > > r d d d h f d d d d d d d d f d d d d d d d d d d d d d d d d d d d d d d d d d f d d d d d d d d d d d d d d d d d d d d d d d d d d d ",
"d d d d d d d d d d d d d d d d d d d d d f d d d d d d d d d d d d d d d d d d h d d d d d d d d d d d d d d d f d d d d d d d > > > d j J T )  .+.=.3.7.8.8.7.4.2.2.2.4.7.8.8.6.3.=.$. .) T J j d > > > d d d f d d d d d d d d d d d d d d d d d d d d d d d d d d d d d d d d d d d d d d d d d d d d d d d d d d d d f d d d d d d d d d d d d d d d d d d d d d d d f d d d d d d d d d d d d d d d d d d d d d d d d d d d d d d d d d > ; r f j R T )  .$.=.3.6.8.8.7.4.2.2.2.4.7.8.8.6.3.=.$.] ) T R j r > > d 7 d d d d d d d d d d d d d d d d d d d d g d d d d d d d d d d d d d d d d d d d d d d d d d d d d d d d d d d d d d d d d d d d d d d ",
"d d d d d d d d d d d d d d d d d d d d d d d d d d d d d d d d d d d d d d d d d d d d d d d d d d d d d d d d d d d d d d d d r > > y j W T )  .+.=.3.6.8.8.7.4.2.2.2.4.7.8.8.6.3.=.+. .) T R j r > r > 7 d d d d d d d d d d d d d d d d d d f d d d d d f d d d d d d d d d d d f d d d d d d d d d d d d d d d d d d d d d d d d d d d d d d d d d d d d d d d d d d d d d d d d d d d d d d d d d d d d d d d d d d d d d f d d d d d d > r > y j R T )  .$.=.3.6.8.8.7.4.2.2.2.4.7.8.8.6.3.=.$. .) T R j f > > > d d f d d d d d d d d d d d d d d d d d d d d d d d d d d d d d d d d d d d d d d d d d d d d d d d d d d d g d d d d d f d d d d d d d ",
"d d d d d d d d h d d d d d d d d d d d d d d d d d d d d d h d d d d d d d d d d d d d d d d d d d d d d d d d d d d d d d d d > > > r j R T )  .+.=.3.6.8.8.7.4.2.2.2.4.7.8.8.6.3.=.+. .) T R j y r ; > d d d d d d d d d d d d d d d d d d d d d d d d d d d d d d d d f d h d d d d d d d d d d d d d d f d d d d d d d d d d d d d d d d d d d d d d d d d d d d d d d d d d d d f d d d d d d d d f d d d d d d d d d d d d d d d d d d > > > r j R T )  .$.=.3.6.8.7.7.4.2.2.2.4.7.8.8.6.3.=.+. .) T R k r r > > d d d d d d d d d d d d d d d d d d d d d d d d d d d d d d d d d d d d d d d d d d d d d d d d d d d f d d d d d d d d d d d d d d d d ",
"d d d d d d d d d d d d d d d d d d d d d d d d d d d d f d d d d h d h d d d d d d f d d d d d f d h d d d d f d d d h f d d d > : r r j R T ) ..$.=.3.6.8.8.7.4.2.2.2.4.7.8.8.6.3.=.+. .) T R j y > > > > d d d d d d d d d d d d d d d d d d g d d d d d d f d d d d d d d d d d d d d d d d d d d d d d d d d d d d d f d d d d d d d d d d d d f d d d f d d d h d d d d d d d d d d d d d d d d d f d d d d d d d d d d d d d f d d d > > > > r j R T )  .$.=.3.6.7.8.7.4.2.2.2.4.7.8.8.6.3.=.+. .) U R j d > > > r d d d d d f d d d d d g d d d d d d d d d d d d d d d d f d d d d d d d d d d d d d d d d d d h d d d d d d d d d d d d d d d d d f d ",
"g d d d d d d d f d h d f d d d d d f d f d d d d f h d d d d d d d d d d f d d d d d d d d d d d d d d d d d d d d d d d d d 7 > > > r j R T )  .$.=.3.6.8.8.7.4.2.2.2.4.7.8.8.6.3.=.+. .) T R j r > > > > r d d d d d h f d d d d f d d d d d d d d d d d d d d d d d d d f d d d d d d d d f d d h d f d d d d d d d d d d d d d d h d d f d d d d d d d d d d d d f d d f d d f d d d d f d d d h d d d d d d h d d h f d d d d d d d d r > : > y j R T )  .$.=.3.6.8.8.7.4.2.2.2.4.7.8.8.6.3.=.+. .) U R j y > : > > d d d d d d d d d d d d d d d d d d d d d d d d d f h d d d d d d d d g d d d d d d d d h d d d d f d d d d d d d d d f d d d d d d d ",
"d d d d f d d d d d d d f h d d d d d d d d d d d d d d d d d d f d d d h d d d f d d d d d h d d d d d f d d d d d d d d d > > ; : > y j R T )  .$.=.3.6.8.8.7.4.2.2.2.4.7.8.8.6.3.=.+. .) T R j r > : ; > r d d d d d d d d d d d d d d d d f d d d d f d d d d d g d d f d d d f d d d d d d d d f d d d d d d d d h d d d d d d d d d d d d d d d d f d d d d d d d f d d d d d d d d d d d d f d d d d d d f d d d d d d d d d d d d d ; ; : ; r j R T ) ] $.=.3.6.8.8.7.4.2.2.2.4.7.8.8.6.3.=.$. .) Q R j r > : ; > > d d d d d d d d h d d d d d f d d d d f d d d d d d d d d d d d h d d d d d f d d d d f d d h d d d f d d d d f d d d d d h f d d d ",
"d d d d d d d d d d d d d d d d d d d d d d d h d d d d d d d d d d d d d d d d d d d d d d d f d d d d d d d d d d d d d r > ; - : ; r j R T )  .$.=.3.6.8.8.7.4.3.2.2.4.7.8.8.6.3.=.+.] ) T R j r ; : - : ; r d d d d h d d d d d d d d d d h d d d d d d d d d d d d d d d d d h d d d d d d d d d d d d d d d d d f d d d d d f d d d d d d d h d d d d d d d d d d d d d d d d d h d d d d d d d d f d d d d d d d h d d d d d d d 7 > : : : > r j R T )  .+.=.3.6.8.8.7.4.2.2.2.4.7.8.8.6.3.=.$. .) T R j r > - - ; > > r d d d d d d d f d d d d d d d d h d d d d d d d f d d d d d f d d d d d d d d d d d d d d d d d d d d d d h d d d d d d d d d d ",
"d d d d d d d d d d d d d d d d d d d d d d d d d d d d d d 7 d d d d d d d d d d d d d d d d d d d d d d d d d d d r r > > ; : - - ; r j R U )  .$.=.2.6.8.8.7.4.2.2.2.4.7.8.8.6.3.=.+. .) T R j r : - - - ; r > d d d d d d d d d d d d d d d d d d d d d d d d d d d d 7 d d d d d d d d d d d d d d d d d d d d d d d d d d d d d d d d d d d d d d d d d d d d d d d 7 d d d d d d d d d d d d d d d d d d d d d d d d d d d d > > > > - - - : r j R T )  .$.=.3.6.8.8.7.4.2.2.2.4.7.8.8.6.3.=.$. .) T R p e > - - - > > > d d 7 d d d d d d d d d d d d d d d d d d d d d d d d d d d d d d d d d d d d d d d d d d d d d d d d d d d d d d d d d d d d d ",
"d d d 7 > d > d > > r 7 d 7 r 7 > d > d > > r d d d d 7 r d r > r 7 > d d d 7 > r 7 > 7 > r > d d d d 7 d 7 > > > 7 > r ; : - - * - : r j R T )  .$.=.3.6.8.8.7.4.2.2.2.4.7.8.8.6.3.=.+. .) T R j r : - - - - ; ; > > r d d > > > d > d > > r 7 d d d 7 r 7 > 7 d d r d > r 7 d d d r 7 > > d d d d 7 d r > > d d d > d d > r 7 d d 7 r > > d d d d d > > > 7 d d d d > > r 7 d d d r 7 > > d d d 7 7 d 7 d r > r 7 > d d d 7 > > r > > - - - - - : r j R T )  .$.=.3.6.8.8.7.4.2.2.2.4.7.8.8.6.3.=.+. .) T R j r ; - $ - - ; > > > r > > > r 7 d d d 7 > d > d > > r 7 d d d 7 r 7 > 7 > r > d d d d 7 > d > d > > d > d 7 d > d > > > > d > d d d d 7 r 7 > > ",
"r > > > > > > > > > > r > r > > r > > > > > > 7 > r > > 7 > r > > > > > 7 > > > > r > r > > > > > > > > r > 7 > > > > ; ; - - * - - : r j R T )  .$.=.3.6.8.8.7.4.2.2.2.4.7.8.8.6.3.=.+. .) T R j r : - - $ - - ; r > > > > > 7 > > > > > 7 > r > r > > r > > > 7 > > > > > r > > > > > > r > > 7 r > > > > 7 > 7 > d > > > 7 > 7 > > > > > > > > > > r > d > > 7 > > r > 7 r > > > > > > > > > > > > > > > r 7 > > > > > > > > > > > > - - * $ - : r j R T )  .$.=.3.6.8.8.7.4.2.2.2.4.7.8.8.6.3.=.+. .) T R j r ; - - * - : : > > > > > 7 > r > r > > > > > > > 7 r > > > > > r > > > > 7 > > r > > > > > > > > > 7 r > d > > 7 r > r > > > > > > > > d > > 7 ",
"> > 7 > r 7 > > r 7 7 > > > 7 > 7 > > r 7 > > > > 7 > > > > > 7 > > > r > > > r > 7 > > > 7 7 > r > 7 > > > > r > > > > > - - - $ - : r j R T )  .$.=.3.6.8.8.7.4.2.2.2.4.7.8.8.6.3.=.+. .) T R j r - - * - - : : ; > 7 > > > r r > 7 > r > > 7 > > > 7 > 7 > > 7 r > 7 > 7 > > 7 > 7 r > 7 > > > 7 > > > > r > > > > > > > > r 7 > 7 r > d > > > 7 > 7 > > > > 7 r > 7 > > > > 7 > 7 r > d > > > > d > > > > > > > > r 7 > > r > > > ; ; - - $ - : r j R T )  .$.=.3.7.8.8.7.4.2.2.2.4.7.8.8.6.3.=.+. .) T R j y : - $ - - : ; > > > > r > > 7 > > > 7 > r 7 > > r > 7 > r > 7 > 7 > r > > 7 > > > 7 > r 7 > > d > > > > > > > > > > 7 > > > > d > > 7 > > > > ",
"7 r d d > > d > d d 7 d 7 d d > d > > d d d 7 7 d > d 7 r > 7 r d d 7 > r 7 d > d > 7 r d d d 7 > d d > d > d > d d d > > ; - - - - : r j R T )  .$.=.3.7.8.8.7.4.3.2.2.4.7.8.8.7.2.=.$...) T R j r : - * - : : ; > > 7 d 7 d 7 r 7 d r 7 > r 7 d 7 d 7 r 7 d r r > d d 7 d 7 d > > d d r 7 7 d > d 7 d > d 7 d 7 > r d 7 r 7 d d > d d > d 7 d 7 7 d d 7 7 d d 7 r 7 d r 7 d d > 7 d d d 7 d d d > d > d d 7 > r 7 d > d > 7 r d 7 > ; ; : - - - : r j R Q )  .$.=.3.6.7.8.7.4.2.2.2.4.7.8.8.7.3.=.$. .) ! W j r : - - - - ; r 7 > d > > d d > d > r 7 d d 7 d 7 r d > d > 7 r d 7 d > r 7 d r 7 > r 7 d d 7 d > d d > d > 7 r d d > 7 r > d d > 7 r > 7 d r > ",
"d d d d d d d d d d d d d d d d d d d d d d d d d d d d d d d d d d d d d d d d d d d d d d d d d d d d d d d d d d d 7 r > : - - - : r k R T )  .$.=.3.7.8.8.7.4.2.2.2.4.7.8.8.7.3.=.$. .) T W j d > - - - ; > r d r d d d d d d d d d d d d d d d d d d d d d d d d d d d d d d d d d d d d d d d d d d d d d d d d d d d d d d d d d d d d d d d d d d d d d d d d d d d d d d d d d d d d d d d d d d d d d d d d d d d d d d d d > > : - - - > r j R Q [  .$.=.3.6.8.8.7.4.2.2.2.4.7.8.7.6.3.=.$. .) ! R k y ; - - - ; > > d d d d d d d d d d d d d d d d d d d d d d d d d d d d d d d d d d d d d d d d d d d d d d d d d d d d d d d d d d d d d d d d ",
"d d d d d d d d d d f d d d d d d d d d d d d d d d d d d d d d d d d d d d d d d d d d d d d d d d d d d d d d d d d d d 7 > > - : > d k W ! ) X.$.=.3.6.8.8.7.4.2.2.2.4.7.8.8.7.3.=.$.X.) Q W j r > : - : > > d d d d d d d d d d d d d d d d d d h d d d d d d d d d d d d f d d d d d d d d d d d f d d d d d d d d d d d h d d d d d d d f d d d d d d d d d d d d d d d d d d d d d d d d d d d d d d d d d d d d d d d d d d d d r > ; - - : y k W Q )  .$.=.3.7.8.8.7.4.2.2.2.4.7.8.8.7.3.=.$. .) ! R k r > : - ; > r > d d h d d d d d d d d d d d f d d d d d d d d d d d d d d d d d d d d d d d d f d d d d d d d d h d d d d d d d d d d d d h d d ",
"d d d d d d d d d d d d d d d d d d d d d d f d d d d f d d d d h d d d d d d f d d d d d d d f d d d d d d d d d d d d d > r ; ; : > y k W ! )  .$.=.3.6.7.8.7.4.2.2.2.4.7.8.8.6.3.=.$.X.) ! R k y > : ; r > d d d d d f d d h d d d d f d d d f d d d d d d d d d d d d d d d d d d d d d h d d d d d d d f h d d d d d d d d d d d d d d h d d d d f d d d d d d d d d d d d d d d d d d d d d d d d h d d d d d d f d d d d d d d d d > > : ; > d k R [ )  .$.=.3.7.8.8.7.4.2.2.2.4.7.8.8.7.3.=.$. .[ Q W g f > : : > > d d d d d d d d d d d d d d d d d d d d d d d d d d h d d d d d d d f d d d d d d h d d d d d d d d d d d d d d d d f d d d d d d f ",
"f h d d f d d d h d d d d d d d d d d f d d d h h d d d d f d d d f d d d d d d d d d d d d d h d h d d d d d d d d d d d d d > > ; r f k W Q [ X.$.=.3.6.8.8.7.4.2.2.2.4.7.8.8.6.3.=.$.X.) [ W k f > > > r d d d d d d d f d d d d d d d d d f d d d d d h d d d d d d d d d d d f d d d d d d d d d f d d d d d d d d d d d d d d d d d d d d d f d d d d d d d d f d d d d h d f d d d d d d d f d d d d d d d d d d d d f d d d d d d d > > > r f k W Q ) O.$.=.3.6.8.8.7.4.2.2.2.4.7.8.8.6.3.=.$.X.) [ W j d r > > r d d d d d d d d d d d d f f d d d d h d d d d d d f d d d d d d d d d d d d d d d d d d d d d d f d d d f d d d d d d d d d d d d d d ",
"d d d d d d d d d d d d d d d d d d d d d d d d d d d d d d d d d d d d d d d d d d d d d d d d d d d d f d d d d f d d d d d > r > > f k W ! )  .$.=.3.6.8.8.7.4.2.2.2.4.7.8.8.6.4.=.$. .) Q W k f d ; > 7 d d d d d f d d d d d d d d d d d d d d d d d d d d d d d d d d d h d d d d d d d d d d d d d d d d f d d d d d d d d d d d d d d d d d d d d d d d d d d d d d d d d d d d f h d f d d d d d d g d h d d d d d d d d d f d d d r > ; r f k W ! ) X.$.=.3.7.8.8.7.4.2.2.2.4.7.8.8.6.4.=.$. .) ! W k f > > > > d d d f d d d h d d d d d d d d d d d d d d d d d d d d d d d h d d d d d d f d d d d d d d d d d d d d h d d d d d d d d d d h d d d ",
"d d d d d d d d d d d d d d d d d d d d d d d d d d d d d d d d d d d d d d d d d f d d d d d d d d d d d d d f d d d d d d d d > > > f k W [ [ X.$.=.3.6.8.8.7.4.2.2.2.4.7.8.8.6.3.=.$.X.) ! W k f r > > 7 d f d d d d d d d d d d d d d d d d f d d d d d d d d d d d d d d d f d d d d d d d d d d d d d d d d d d d d d d d d d d d d d d d d f d d d d d d d d d d d d d f d d d d d d d d d d d d d d d d d d d d d d d d d d d d d d 7 > > r y k W ! {  .$.=.3.7.8.8.7.4.2.2.2.4.7.8.8.6.2.=.$.X.[ Q W k f r > > d d d d d d d d d d f d d d d d d d d d d d d d d d d d d d d d d d d d d d d d d d d d d h d d d d d d d d d d d d d d d d d f d d d d ",
"d d d d d d d d d d d d d d d d f d d d d d d d f d d d d d d d h d d d d d d d d d d d d d d d d d d d d d d d d d d d d d d d > > d d k W ! )  .$.=.3.6.8.8.7.4.2.2.2.4.7.8.8.6.3.=.$. .{ ! E k f > > > d d d d d d d d d d d d d d d d d d d d d d d d d d d d d d d d d d d d d d d d d d d d d d d d d d d d d d f d d d d d d d d d d d d d d d d d d d d d d d d d d d d d d d d d d d d d d d d d d d d d d f d d d d d d d d d d d d > r > d k W Q )  .$.=.3.7.8.8.7.4.2.2.2.4.7.8.8.6.3.=.$. .) [ W k f > > > d d d d d d d d d d d d d d d d d d d d d d d d d d d d d d d d d d d d d d d d d d d d d d d f d d d d d d d d d d d d d d d d d d d d ",
"d d d d d d d d d d d d d d d d d d d d d d d d d d d d d d d d d d d d d d d d d d d d d d d d d d d d d d d d d d d d d d d d r > 7 f k R ! )  .$.=.3.6.8.8.7.4.2.2.2.4.7.8.8.6.3.=.$...) ! W k f r > r d d d d d d d d d d d d d d d d d d d d d d d d d d d d d d d d d d d h d d d d d d d d d d d d d d d d d d d d d d d d f d d d d d d d d d d d d d d d d d d d d d d d d d d d d d d d d d d d d d d d d d d d d d d d d d h d d d > > > f k W ! )  .$.=.3.7.8.8.7.4.2.2.2.4.7.8.8.6.3.=.$. .) T W k f r > r d d d d d d d d d d d d d d d d d d d d d g d d d d d d d d h d d d d d d d d d d d d d d d d d d d f d d d d d d d d d d d d d d d d d ",
"d d d d d d d d d d d d d d d d d d d d d d d d d d d d d d d d d d d d d d d d d d d d d d d d d d d d d d d d d d d d d d d d > > r f k R T )  .$.=.3.6.8.8.7.4.2.1.2.4.7.8.8.6.3.=.$. .) Q R j f > > > > d d d d d d d d d d d d h d d d d d d d d d d d d d f d d d d d d d d d d d d d d d d d d d d d d d d d d d h d d d d d d d d d d d d d d d d d d d d d d d d d d d d d d d d d d d d d d d d d d d d d d d d d d f d d d d f d d r > r r j R ! )  .$.=.2.6.8.8.7.4.2.2.2.4.7.8.8.6.3.=.$. .) T R k f > > > d d d d d d d d d d d d d d d d d d d d d d d d d d d d d d d d d d d d d d d d d d d d d d d d d d d d h d d d d d d d d d d d d d d d ",
"d d d d d d d d d d d d d d h d d d d d d d d d d d d d d d d d d d d d d d d d d d d d d d d d d f d d d d d d d d d d d d d r > > > d j R Q )  .$.=.3.6.8.8.7.4.3.2.2.4.7.8.8.6.3.=.$. .) T W j d > r 7 > d d d d d d d d d d d d f d d d d d d d d f d d d d d d d d d d d d d d d d d d d d d d d d d d d d d d d d d d d d d d d d d d f d d d d d d d d h d d d d d d d d d d d d d d d d d d d d d d d d d d d d d d d d d d d d d d d 7 > r f k R Q )  .$.=.3.6.8.8.7.4.2.2.2.4.7.8.8.6.3.=.$. .) T R j d > > > d d d d h d d d d d d d d d d d d d d d d d d d d d d d d d d d d d h d d d d d d d h d d d d d d d d d d d d d d d d d d d d d d d d d ",
"d f d d d d d d d d d d d d d d d d d d d d d d d d d d d d d d d d h d d d d d d d d d d d d d d d d d d d d d d d d d d d d d > > > y k R T )  .$.=.3.6.8.8.7.4.2.2.2.4.7.8.8.6.3.=.$. .) T R j y > > r d d d d d d d d d d d d d d d d d d d d d d d d d d d d d d d d d d d d d d d d d d d d d d d d d d d d d d d d d d d d d d d d d d d d d d d d d d d f d d d d d d d d d d d d d d d d d d d d d h d d d d d d d d d d d d d d d d 7 > > r k R Q )  .$.=.3.6.8.8.7.4.2.2.2.4.7.8.8.7.3.=.$. .) T R j f r > > d d d d d d d d d d d d d d d d d d d d d d d d d d d d d d d d d d d d d d d d d d d d d d d d d d d d d d d d d d d d d d d d d d d d ",
"d d d d d d d d d d d d d d d d d d d d d d d d d d d h d d d d d d d d d d d d d d d d d d d d d d d d d d d d d d d d d d d 7 > > > y j R Q )  .$.=.3.6.8.8.7.4.2.2.2.4.7.8.8.6.3.=.+. .) T R j r r ; > r d d d d d d d d d d d d d d d d d d d d d d d d d d d d d d d d h d d d d d d d d d d d d d d f d d d d d d d d d d d d d d d d d d d d d d d d d 8 d d d d d d d d d d d d d d d d d d d d d d d d d d d d d d d d d d d d d d r > ; r r j R T )  .$.=.3.6.8.8.7.4.2.2.2.4.7.8.8.7.3.=.$. .) T R j f > > > 7 d d d d d d d d d h d h d d d d d d d d d d d d d d d d d d d d d d d d d d d d d d d d d d d d d d d d d d d h d d d d d d d d d d d ",
"d d d d d d d d d h d d d d d d d d h d d d h d d d d d d d f h d d d d d h d d d d h d d d h d d d h d d d d d d h d d d d d > > ; > r j R U )  .$.=.3.6.8.8.7.4.2.2.2.4.7.8.8.6.3.=.$. .) T R j d > : ; > 7 d d h f d d d d h d d d d d h d d d d d d d d d d d d h d d d f d d h d d d d d d d d d d d h d d d d d d d d d d d d h d d d d h d d h d d d d h d d h d d d f h d d d d d d d d d d d d d d d d d d h d d d d h d d d d d d > r > > r j R T )  .$.=.3.6.8.8.6.4.2.2.2.4.7.8.7.6.3.=.$. .) T R j d 7 - > > d d d d d d d d d d d d d d d d d d d d d d d d d d d d d d d d d d d d d d d d d d d d h d d d d h d d d d d d d d d d d d d d d h d ",
"h d d h d h d d d d d d d d d d h d d d d d d d d d d d d d d d d d d d d d d d h d d d d d d d d d d d d d h d d d d d d d 7 > : ; > y j R U )  .$.=.3.6.8.8.7.4.2.2.2.4.7.8.8.6.3.=.$.] ) T R j r > ; ; r r d d d d d d d d d d d d d d d d d h d d h d h d d d d d d d d d d d d d d h d d d d d h d d d d d d h d d d d d d d d d d d h d d d d d d d d d d d d d d d d d d d d d d d d d d d d h d d d d d d d d d h d d d d d d d 7 > > ; : > r j R T )  .$.=.3.6.8.8.7.4.2.2.2.4.7.8.8.7.3.=.$. .) T J j r > - > > > d d d d h d d d d d d d d d d h d d h d d h d h d d d h d d h d d d d d h d d d d d d d d d h d d d 8 d d d d d d d d d h d d d d d ",
"d d d d d d 8 d d d h d h d d d d d d d d 8 h d d d d d d h d d 8 h d d d d d d d d d d d d d d h d d d d d 8 d d d d h d 8 > ; : - > r j R T )  .$.=.3.6.8.8.7.4.2.2.2.4.7.8.8.6.3.=.$. .) T R j y : - : ; 7 7 7 8 h d d d d d d h d d d d h 8 d d d d d d d 8 d d d d d d h d d d d d d 8 h d d d d d d d h d d d d d d h d d d d d d d d d d d d d d d h d d d d d d d h d d 8 h d d d h d d h d d d 8 h d d d d d d d d d d d d d d 7 > ; - - > r j R U )  .$.=.3.6.8.8.7.4.2.2.2.4.7.8.8.7.3.=.$. .) T R j r > > - - > 7 d 8 d 8 d d d d d d d h d d d d d d d d d d d d d d d d d d d d d h d d d 8 h d d d d d d d d d d h d d d d d d d h d d d d d d d ",
"8 8 8 8 8 8 8 8 8 8 8 8 8 8 8 8 8 8 8 8 8 8 8 8 8 8 8 8 8 8 8 8 8 8 8 8 8 8 8 8 8 d 8 8 8 8 8 8 8 8 8 8 8 8 8 8 8 8 8 8 7 7 ; $ % - - d j R Q )  .+.=.3.6.8.8.7.4.2.2.2.4.7.8.8.6.3.=.$...) T J j d ; - % - 7 7 7 7 8 8 8 8 8 8 8 8 8 8 8 8 8 8 8 8 8 8 8 8 8 8 0 8 8 8 8 8 8 8 8 8 8 8 8 8 8 8 8 8 8 8 8 8 d 8 8 8 8 8 8 8 8 8 0 8 8 8 8 8 8 d 8 8 8 8 8 8 8 8 8 8 8 8 8 8 8 8 8 8 8 8 8 8 8 8 8 8 8 8 8 8 8 8 8 8 8 8 8 8 8 8 8 8 7 7 5 ; ; - - ; d j E U )  .$.=.2.6.8.8.7.4.2.2.2.4.7.8.8.6.3.=.$. .) T J j r ; - - ; ; 7 7 7 7 8 8 8 8 8 8 8 8 8 8 8 d 8 8 8 8 8 8 8 d 8 8 8 8 8 8 8 8 8 8 8 8 8 8 8 8 8 8 8 8 8 8 8 8 8 8 8 8 d 8 8 8 8 8 8 8 8 8 d 8 8 8 ",
"6 6 6 6 6 6 6 6 6 6 6 6 6 6 6 6 6 6 6 6 6 6 6 6 6 6 6 6 6 6 6 6 6 6 6 6 6 6 6 6 6 6 6 6 6 6 6 6 6 6 6 6 6 6 6 6 6 6 6 6 1 1 1 , % % 7 d j R T )  .$.=.3.6.8.8.7.4.2.2.2.4.7.8.8.6.3.=.$. .) T R j d 7 % % 1 < < 1 6 6 6 6 6 6 6 6 6 6 6 6 6 6 6 6 6 6 6 6 6 6 6 0 6 6 6 6 6 6 6 6 6 6 6 6 6 6 6 6 6 6 6 6 6 6 6 6 6 6 6 6 6 6 6 6 6 6 6 6 6 6 6 6 6 6 6 6 6 6 6 6 6 6 6 6 6 6 6 6 6 6 6 6 6 6 6 6 6 6 6 6 6 6 6 6 6 6 6 6 6 6 6 6 6 6 4 5 1 < 1 % 7 d j R U )  .$.=.3.7.8.8.7.4.2.2.3.4.7.8.7.6.3.=.$. .) T R j d > % % 1 1 1 1 6 5 6 6 6 6 6 6 6 6 6 6 6 6 6 6 6 6 6 6 6 6 6 6 6 6 6 6 6 6 6 6 6 6 6 6 6 6 6 6 6 6 6 6 6 6 6 6 6 6 6 6 6 6 6 6 6 6 6 6 6 6 6 6 ",
"D 3 3 3 D 3 D D 3 3 D 3 D 3 D D D D D D D 3 D D D 3 3 3 3 3 D 3 D D D D 3 D 3 3 3 D D D D 3 D D 3 3 D 3 3 3 3 3 3 3 3 2 3 2 2 2 , 1 5 d g R U )  .+.=.3.6.8.8.7.4.2.2.2.4.7.8.8.6.3.=.$. .) T R j 8 5 1 , 2 2 2 2 3 3 3 3 D 3 3 3 3 D 3 3 3 D D D 3 3 3 D D D D 3 D D 3 D 3 D D 3 3 3 D 3 D 3 3 D D D D D 3 3 3 D D D D 3 3 D D 3 D D D D 3 D D D D D 3 3 3 3 D D D D D D 3 3 D D 3 3 3 3 3 D D D D D D 3 D 3 3 D 3 D D 3 D 3 3 3 3 3 2 2 2 2 , 1 5 8 j R T )  .$.=.3.7.8.8.7.4.2.2.2.4.7.8.8.6.3.=.$. .) T E j 7 5 1 2 2 2 3 2 3 3 3 3 D 3 3 D D 3 3 3 3 3 D D 3 3 D D D D D D 3 3 D 3 D 3 D D D D D D D 3 3 3 D 3 D D D 3 3 3 D 3 3 3 D D D D D 3 D D D D D D ",
"c c c c c c c c c c c c c c c c c c c c c c c c c c c c c c c c c c c c c c c c c c c c c c c c c c c c c c c c c l c c c c x x z 2 4 8 g E Q )  .+.=.3.6.8.8.7.4.2.2.2.4.7.8.8.6.3.=.$. .) Q R j 0 4 2 z x x l c c l c c c c c c c c c c c c c c c c c c c c c c c c c c c c c c c c c c c c c c c c c c c c c c c c c c c c c c c c c c c c c c c c c c c c c c c c c c c c c c c c c c c c c c c c c c c c c c c c c c c c c c c c x l x x z 2 4 0 j E Q )  .$.=.2.6.8.8.7.4.2.2.3.4.7.8.8.6.3.=.$. .) T E g 0 4 2 z x c c c c c c l c c c c c c c c c c c c c c c c c c c c c c c c c c c c c c c c c c c c c c c c c c c c c c c c c c c c c c c c c c c c ",
"N N N N N N N N N N N N N N N N N N N N N N N N N N N N N N N N N N N N N N N N N N N N N N N N N N N N N N N N N N N N N N n n n x 3 0 g E Q )  .$.=.3.6.8.8.7.4.2.2.2.4.7.8.8.6.3.=.+. .) Q E g 0 D x l n n N N N N N N N N N N N N N N N N N N N N N N N N N N N N N N N N N N N N N N N N N N N N N N N N N N N N N N N N N N N N N N N N N N N N N N N N N N N N N N N N N N N N N N N N N N N N N N N N N N N N N N N N N N N N N N n n l c D 0 g E Q )  .$.=.3.6.8.8.7.4.2.2.2.4.7.8.8.6.3.=.+. .) U E g 0 D x l n n N N N N N N N N N N N N N N N N N N N N N N N N N N N N N N N N N N N N N N N N N N N N N N N N N N N N N N N N N N N N N N N N N N ",
"Z Z Z Z Z Z Z Z Z Z Z Z Z Z Z Z Z Z Z Z Z Z Z Z Z Z Z Z Z Z Z Z Z Z Z Z Z Z Z Z Z Z Z Z Z Z Z Z Z Z Z Z Z Z Z Z V Z Z Z Z V Z C N l F 9 h E Q ) ] $.=.3.6.8.8.7.4.2.2.2.4.7.8.8.6.3.=.+. .) T E g 9 v l N C Z V Z V Z Z Z Z Z Z Z Z Z Z Z Z Z Z Z Z Z Z Z Z Z Z Z Z Z Z Z Z Z Z Z Z Z Z Z Z Z Z Z Z Z Z Z Z Z Z Z Z Z Z Z Z Z Z Z Z Z Z Z Z Z Z Z Z Z Z Z Z Z Z Z Z Z Z Z Z Z Z Z Z Z Z Z Z Z Z Z Z Z Z Z Z Z Z Z Z Z Z Z Z Z Z Z Z Z Z V V V N m F 9 h E Q ) X.$.=.3.6.8.8.7.4.2.2.2.4.7.8.8.6.3.=.+. .) Q E h 9 F l N C V Z Z Z Z Z Z Z Z Z Z Z Z Z Z Z Z Z Z Z Z Z Z Z Z Z Z Z Z Z Z Z Z Z Z Z Z Z Z Z Z Z Z Z Z Z Z Z Z Z Z Z Z Z Z Z Z Z Z Z Z Z Z Z Z Z Z ",
"S S S S S S S S S S S S S S S S S S S S S S S S S S S S S S S S S S S S S S S S S S S S S S S S S S S S S S S S S S S S B S B Z C M F G h E Q )  .$.=.3.7.8.8.7.4.2.2.2.4.7.8.8.6.3.=.+.] ) T E h G b n C Z B S S S S S S S S S S S S S S S S S S S S S S S S S S S S S S S S S S S S S S S S S S S S S S S S S S S S S S S S S S S S S S S S S S S S S S S S S S S S S S S S S S S S S S S S S S S S S S S S S S S S S S S S S S S S S B B Z C M F G h E T ) ] $.=.3.6.8.8.7.4.2.2.2.4.7.8.8.6.3.=.$. .) Q E h G b n C Z B S S S S S S S S S S S S S S S S S S S S S S S S S S S S S S S S S S S S S S S S S S S S S S S S S S S S S S S S S S S S S S S S S S ",
"A A A A A A A A A A A A A A A A A A A A A A A A A A A A A A A A A A A A A A A A A A A A A A A A A A A A A A A A A A A A A A A B V N b G h E Q )  .$.=.3.7.8.8.7.4.3.2.2.4.7.8.8.6.3.=.$.X.) Q E h G b N V B S A A A A A A A A A A A A A A A A A A A A A A A A A A A A A A A A A A A A A A A A A A A A A A A A A A A A A A A A A A A A A A A A A A A A A A A A A A A A A A A A A A A A A A A A A A A A A A A A A A A A A A A A A A A A A A A B V N b G h E Q )  .$.=.3.6.8.8.7.4.2.2.2.4.7.8.8.6.3.=.$. .) Q E h G b N V B S A A A A A A A A A A A A A A A A A A A A A A A A A A A A A A A A A A A A A A A A A A A A A A A A A A A A A A A A A A A A A A A A A A ",
"A A A A A A A A A A A A A A A A A A A A A A A A A A A A A A A A A A A A A A A A A A A A A A A A A A A A A A A A A A A A A A S B V M b G h E Q [  .$.=.3.6.8.8.7.4.2.2.2.4.7.8.8.6.3.=.+. .) Q E h G b N V B S A A A A A A A A A A A A A A A A A A A A A A A A A A A A A A A A A A A A A A A A A A A A A A A A A A A A A A A A A A A A A A A A A A A A A A A A A A A A A A A A A A A A A A A A A A A A A A A A A A A A A A A A A A A A A A A B V n b G h E Q ) X.$.=.3.6.7.8.7.4.2.2.2.4.7.8.8.6.3.=.+. .) Q E h G b M V B S A A A A A A A A A A A A A A A A A A A A A A A A A A A A A A A A A A A A A A A A A A A A A A A A A A A A A A A A A A A A A A A A A A ",
"S S S S S S S S S S S S S S S S S S S S S S S S S S S S S S S S S S S S S S S S S S S S S S S S S S S S S S S S S S S S S S B B C M F G h E Q )  .$.=.3.6.8.8.7.4.2.2.2.4.7.8.8.6.3.=.+. .) Q E h G b M C Z B S S S S S S S S S S S S S S S S S S S S S S S S S S S S S S S S S S S S S S S S S S S S S S S S S S S S S S S S S S S S S S S S S S S S S S S S S S S S S S S S S S S S S S S S S S S S S S S S S S S S S S S S S S S S S S B Z C M v G h E Q ) ] $.=.3.6.8.8.7.4.2.2.2.4.7.8.8.6.3.=.+. .) Q E h G F M C Z S S S S S S S S S S S S S S S S S S S S S S S S S S S S S S S S S S S S S S S S S S S S S S S S S S S S S S S S S S S S S S S S S S S ",
"Z Z Z Z Z Z Z Z Z Z Z Z Z Z Z Z Z Z Z Z Z Z Z Z Z Z Z Z Z Z Z Z Z Z Z Z Z Z Z Z Z Z Z Z Z Z Z Z Z Z Z Z Z Z Z Z Z Z Z V V Z V C N m F 9 h E Q )  .$.=.3.6.7.8.7.4.2.2.2.4.7.8.8.6.3.=.+.] ) Q E h 9 F m N C V V Z Z Z Z Z Z Z Z Z Z Z Z Z Z Z Z Z Z Z Z Z Z Z Z Z Z Z Z Z Z Z Z Z Z Z Z Z Z Z Z Z Z Z Z Z Z Z Z Z Z Z Z Z Z Z Z Z Z Z Z Z Z Z Z Z Z Z Z Z Z Z Z Z Z Z Z Z Z Z Z Z Z Z Z Z Z Z Z Z Z Z Z Z Z Z Z Z Z Z Z Z Z Z Z Z Z Z Z Z V C N m F 9 h E T )  .$.=.3.6.8.8.7.4.2.2.2.4.7.8.8.6.3.=.+.| ) Q E h 9 F m N C V V Z Z Z Z V Z Z Z Z Z Z Z Z Z Z Z Z Z Z Z Z Z Z Z Z Z Z Z Z Z Z Z Z Z Z Z Z Z Z Z Z Z Z Z Z Z Z Z Z Z Z Z Z Z Z Z Z Z Z Z Z Z Z Z Z ",
"N N N N N N N N N N N N N N N N N N N N N N N N N N N N N N N N N N N N N N N N N N N N N N N N N N N N N N N N N N N N N N n n m c D 0 g R Q )  .$.=.3.6.8.8.7.4.2.2.2.4.7.8.8.6.3.=.$.X.) Q E g 0 D c l n N N N N N N N N N N N N N N N N N N N N N N N N N N N N N N N N N N N N N N N N N N N N N N N N N N N N N N N N N N N N N N N N N N N N N N N N N N N N N N N N N N N N N N N N N N N N N N N N N N N N N N N N N N N N N n N n n l v D 0 d E Q ) X.$.=.3.6.8.8.7.4.2.2.2.4.7.8.8.6.3.=.+.] ) Q E g 0 D c l n n N N N N N N N N N N N N N N N N N N N N N N N N N N N N N N N N N N N N N N N N N N N N N N N N N N N N N N N N N N N N N N N N N N ",
"c c c c c c c c c c c c c c c c c c c c c c c c c c c c c c c c c c c c c c c c c c c c c c c c c c c c c c c c c c c l c l x x z 2 4 8 g E T )  .$.=.3.7.8.8.7.4.3.2.2.4.7.8.8.6.3.=.+. .) U R g 8 4 2 z x x c l c c c c c c c c c c c c c c c c c c c c c c c c c c c c c c c c c c c c c c c c c c c c c c c c c c c c c c c c c c c c c c c c c c c c c c c c c c c c c c c c c c c c c c c c c c c c c c c c c c c c c c c l c c c x x x z 2 4 0 j E Q ) ] $.=.3.6.8.8.7.4.2.2.2.4.7.8.8.6.3.=.+. .) Q E g 8 4 2 z x x l x l c c c c c c c c c c c c c c c c c c c c c c c c c c c c c c c c c c c c c c c c c c c c c c c c c c c c c c c c c c c c c c c ",
"3 3 3 D D D 3 D D D D 3 D 3 3 D D D 3 3 3 3 D 3 3 D 3 D D D D D 3 3 D 3 D 3 3 3 D D 3 D D D D 3 3 D 3 3 D D D D D 3 3 3 2 2 2 2 2 , 5 7 j E T )  .$.=.3.6.8.8.7.4.2.2.2.4.7.8.8.6.3.=.+. .) T E j 7 5 1 , 2 2 2 2 3 3 3 D D D 3 3 3 D 3 D D D D 3 D 3 3 3 D D D D D 3 D D D D 3 3 3 D 3 D D D D 3 3 D 3 3 3 D 3 D D 3 D D D D 3 D D 3 D 3 D 3 3 3 3 3 D D D D D D D D 3 3 3 D 3 D D 3 D D D 3 3 D D 3 D 3 D 3 3 D D 3 D 3 3 D 3 D 2 3 3 z 2 2 , 1 6 d j R U )  .$.=.3.6.8.8.7.4.2.2.2.4.7.8.8.6.3.=.+. .) Q R j 8 5 , , 2 2 2 2 3 3 3 3 D 3 3 3 D D D 3 3 3 D 3 3 3 D 3 D D D D 3 3 D 3 3 3 D D D D 3 D 3 D 3 3 D D 3 D 3 3 3 D D D 3 D D 3 3 3 D D D 3 3 3 D 3 ",
"6 6 6 6 6 6 6 6 6 6 6 6 6 6 6 6 6 6 6 6 6 6 6 6 6 6 6 6 6 6 6 6 6 6 6 6 6 6 6 6 6 6 6 6 6 6 6 6 6 6 6 6 6 6 6 6 6 6 6 6 5 1 1 < < ; > d j R T )  .$.=.3.6.8.8.7.4.2.2.2.4.7.8.8.6.3.=.+. .) T R j d 5 % < < 1 1 6 6 6 6 6 6 6 6 6 6 6 6 6 6 6 6 6 6 6 6 6 6 6 6 6 6 6 6 6 6 6 6 6 6 6 6 6 6 6 6 6 6 6 6 6 6 6 6 6 6 6 6 6 6 6 6 6 6 6 6 6 6 6 6 6 6 6 6 6 6 6 6 6 6 6 6 6 6 6 6 6 6 6 6 6 6 6 0 6 6 6 6 6 6 6 6 6 6 6 6 6 6 6 6 6 6 6 1 1 < 1 1 % > d f R Q )  .$.=.3.6.8.8.7.4.2.2.2.4.7.8.8.6.3.=.+.] ) U R j d 7 < % < 1 4 6 6 6 6 6 6 6 6 6 6 6 6 6 6 6 6 6 6 6 6 6 6 6 6 6 6 6 6 6 6 6 6 6 6 6 6 6 6 6 6 6 6 6 6 6 6 6 6 6 6 6 6 6 6 6 6 6 6 6 6 6 6 6 6 6 ",
"8 d 8 8 8 8 8 8 8 8 d 8 8 8 8 8 8 8 8 8 8 8 8 8 8 8 8 8 8 8 8 8 8 8 8 8 8 8 8 8 8 8 8 8 8 8 d 8 8 8 8 8 8 8 8 8 8 8 7 8 7 7 7 - - - ; d j R T )  .$.=.3.6.8.7.7.4.2.2.2.4.7.8.8.6.3.=.+. .) T R j r ; - - % ; 7 7 7 8 7 8 8 8 8 8 d 8 8 8 8 8 8 8 8 8 8 8 8 8 8 8 8 8 8 8 8 8 8 8 d 8 8 8 8 8 8 8 8 8 8 8 8 8 8 8 8 8 8 8 8 8 8 8 d 8 8 8 8 8 8 8 8 8 8 8 8 8 8 8 8 d 8 8 8 8 8 8 8 8 8 8 8 8 0 8 8 8 8 8 8 8 8 8 8 8 8 8 8 8 8 8 8 7 7 7 ; - - % ; r j R Q )  .$.=.3.7.8.8.7.4.2.2.3.4.7.8.8.6.3.=.$. .) U R j d ; - - % ; 7 7 8 8 8 8 8 d 8 8 8 8 8 8 8 8 8 8 8 8 8 8 8 8 8 8 8 8 8 8 8 8 8 8 8 8 8 8 8 8 8 8 8 8 8 8 8 8 8 8 8 8 8 8 8 8 8 8 8 8 8 8 8 8 8 8 ",
"d d d d d h d d d d d d d 8 d d d d d d d d d d d d h 8 d d d h 8 d d d d d d d d d d d d d h 8 d d h d d d d d d 8 d d 7 7 > ; ; ; > y j J T )  .$.=.3.6.8.8.7.4.2.2.2.4.7.8.8.7.3.=.$. .) T R j r > : : ; > > 7 d d d d d d d d d d d d d d d d 8 d d d d d h d d h d d d d d d d h d d d d d d 8 d d d d d d d d d d d d h 8 d d h d d d d d d 8 d d d d d d d d d d d d h 8 d h d d d d d d d d h d h d d d d 8 d d d d d h d d d d 7 > ; - - > r j J T )  .$.=.3.6.8.8.6.4.2.2.2.4.7.8.8.7.3.=.$. .) T J j r : - ; ; > 7 7 d d d d d d d d d d h 8 d d d d d d d 8 d d d d d h d d d d h 8 d d h d h d d d d 8 d d d d d h d d d d d d d h d d d h d h d d ",
"d d h d d d d d d d d d d h d d d d d h d d d d d d d d d h d d d d d d d d h d d d d d d d d d d d d d h d d d h d d d d d 7 > ; ; > r j R T )  .$.=.3.6.7.8.7.4.2.2.2.4.7.8.8.6.3.=.$. .) T J j r ; : ; > d d d d f d h d d d d d d h d d d d d h d d h d d d d d d d d d h d d d d d h d d d h d d d d d d h d d d d d d d d d d d d h d d d h d d d d d d h d d d d d d d d d d d d h d d d d d d d d d d h d h d d d d d d d d d d d > r > ; > r j R T )  .$.=.3.6.8.8.7.4.2.2.2.4.7.8.7.7.3.=.$. .) T W j r > : : r r d d d d d h d d d d d d d d h d d d d h d h d d h d d d d d d h d d d d d d d d d h d h d d d d d d h d d d d d d d d d d d d d d d ",
"d d d d d d d d h d d d d d d d h d d d d h d d d d d d d d d d d d d d h d d d d h d d h d d d d d h d d d d d d d d d d d d 7 > > > r j R T )  .$.=.3.7.8.8.7.4.2.2.2.4.7.8.8.6.3.=.$. .) T R j r r : ; r d d d d d d d h d d d h d d d d h d d d d d d d d d d d d d d d d d d d h d d d d d d h d d d h d d d d h d d d d d d d h d d d d d d d d d h d d d d h d d d d d d d d h d d d d d d d d d d d d d d d d d d d d d d d d d d d > ; > r r j R T )  .$.=.3.6.8.8.7.4.2.2.2.4.7.8.8.7.3.=.$. .) T R j r > ; ; > d d d d d d d d d d d d d d d d d d d d d d d d d d d d d d h d d d d d d d d d d d d d d d d d d d d 8 d d d d d d d d d d d d d h f ",
"d d d d d d d h d d d d d d h d d d d d d d d d d d d d d d d d d d h d d d d d d d d d d d d d d d d d d d d d d d d d d d d d > ; > y j J T )  .$.=.3.7.8.8.7.4.2.2.2.4.7.8.8.6.2.=.$. .) T R j r r ; > > d d d d d d d d d d d d d d d d d d d d d d d d d d d d d d d d d d d d d d d d d d d d d d d d d d d d d d d d d d d d d d d d d d d h d d d d d d d d d d d d d d f d d d d d d d d d d d d d d d d d d d d h d d d d d d d d r > > : y j R T )  .$.=.3.6.8.8.7.4.2.2.2.4.7.8.8.7.3.=.$. .) T R j y > r > > d d d d h d d d d h d d d d d d d d d d d d d d d d d d d d d d d d d d d d d d d d d d d d d d h d d d d h d d d d d d d d d d d d d ",
"d d d d d d d d d d d d d d d d d f d d d d f h d h d d d d d d d d d d d d d d d d d d d d d d d d d d f d d d d h d d d d d d > > > d j R T )  .$.=.3.6.8.8.7.4.2.2.2.4.7.8.8.6.3.=.$. .) T R j y r ; r r d d d d d d d d d d d d d d d d d d d d d d d d d d d d h d d d d d d d d d d d d d d d d d d d d d d d d d d h d d d d d d f d d d d d d d d d d d d d d d d d d d d d d d d d d d d d d d d d d d d d d d d d d f d d d d d d d > > r r j R T )  .$.=.3.6.8.8.7.4.2.2.2.4.7.8.8.6.3.=.$. .) T R j d r > > d d d d d d d d d d d d d d d d d d d d d d h d d d d d d d d d d d f d d d d d d d d d d d d d d d d f d d d d d d d d d d d d d d d d ",
"d d d d d d d d d d d d d d d d d d d d d d d d d d d d d d d d d d d d d d d d d d d d d d d d d d d d d d d d d d d d d d d d r > r r j R T )  .$.=.3.6.8.8.7.4.2.2.2.4.7.8.8.6.3.=.$. .) T R j d > > > 7 d d d d d d d d d d d d d d d d d d d d d d d d d d d d d d d d d d d d d d d d d d d d d d d d d d d d d d d d d d d d d d d d d d d d d d d d d d d d d d h d d d d d d d d d d d d d d d d d d d d d d d d d d d d d d d d d d > > > r j R T )  .$.=.3.6.8.8.7.4.2.2.2.4.7.8.8.6.3.=.$. .) T R j d > > > d d d d d d d d d d d d d d d d d d d d d d d d d d d d d d d d d d d d d d d d d d d d d d d d d d d d d d d d d d d d d h d d d d d d ",
"d d d d d d d d d d d d d d d d d d d d d d d d d d d d d d d d d d d d d d d d d d d d d d d d d d d d d d d d d d d d d d d d > > r f j R T )  .$.=.3.6.8.8.7.4.2.2.2.4.7.8.8.6.3.=.$. .) T R j d r > r d d d d d d d d d d d d d d d d d d d d d d d d d d d d d d d d d d d d d d d d d d d d d d d d d d d d d d d d d d d d d d d d d d d d d d d d d d d d d d d d d d d d d d d d d d d d d d d d d d d d d d d d d d d d d d d d d d r > > y j R T )  .$.=.3.6.8.8.7.4.2.2.2.4.7.8.8.6.3.=.$. .) T J j y > > r d d d d f d d d d d d d d d h d d d d d d d d d d d d d d d d d d d d d d d d d d d d d d d d d d d d d d d d d d d d d d d d d d d d d ",
"d d d d d d d d d d d d d d d d d d d d d d d d d d d d d d d d d d d d d d d d d d d d d d d d d d d d d d d d d d d d d d d d > > > r j R T )  .$.=.3.6.8.8.7.4.2.2.2.4.7.8.8.6.3.=.$. .) T R j y > > > d d d h d d d d d d d d d d f d d d d h d d d d d d d d d d d d d d d d d d d d f d d d d d d d d d d d d d d d d d d d d d d d d d d d d d d d d d d d d d d d d d d d d d d d d d d d h d d d d d d d d d d d d d d d d d d d d 7 > > r d j J T )  .$.=.3.6.8.8.7.4.2.2.2.4.7.8.8.6.3.=.$. .) T R j r r > > d d d d d d d d d d h d d d d d d d d d d d d d d d d d d d d d d d d d d h d d d d d d d d d d d d d d d d d d d d d d d d d d d d d d ",
"d d d d d d d d d d d d d d d d d d d d d d d d d d d d d d d d d d d d d d f d d d d d d d d d d d d d d d d d d d d d d d d 7 > r r f j R U )  .$.=.3.6.8.8.7.4.2.2.2.4.7.8.8.6.3.=.$. .) T R j r r > > d d d d d d d d d d d d d d d d d d h d d d d d d d d d d d d d d d d d d d d d d d d d d d d d d d d d d d d d d d h d d d d d d d d d d d d d d f d d d d d d d d d f d d d d d d d d d d d d d d d d d d d d d d d d d d d d d d d > r r j R T )  .$.=.3.6.8.8.7.4.2.2.2.4.7.8.8.6.3.=.$. .) T J j d r > > d d d d d d d d d d d d d d d d d d d d d d d d d d d d f d d d d d d d d d d d d d d d d d f d d d d d d d d d d d d d d d d d d d d d ",
"d d d d d d d d d d d d d d d d d d d d d d d d d d d d d d d d d d d d d d d d d d d d h d d d d d d d d d d d d d f d d d d d > ; > r j R T )  .$.=.3.6.7.8.7.4.2.2.2.4.7.8.8.6.3.=.$. .) T R j r > > > r d d d d d d d d d d d d f d d d d d d d d d d d d d d d d d d d d f d d d d f d d d d d d d d d d d d d d d d d d d d d d d d d d d d d d d d d d d d d d d d d d d d d d d f d d d d d d d d d d d d d f d d d d d d h d d d d d 7 > > r j R T )  .$.=.3.6.8.8.7.4.2.2.2.4.7.8.8.6.3.=.$. .) T W j r > > > r d d d d d d d d d d d g d d d d d d d d d d d d d d d d d d d d d d d d d d d d d d d d d d d d d d d d d d d d d d d d d d d d d d d ",
"d d d d d d d f d d d d d d d d d d d d d d d d d d d d d d d d d d d d d d d d d d d d d d d d d f d d d d h d d d d d d d d > > > r r j R T )  .$.=.3.6.8.8.7.4.2.2.2.4.7.8.8.6.3.=.$. .) T R j y > > > d d d d d d d d d d d d d d d d d d d d d d d d d d f d d d d d d d d d d d d d d d d d d d d f d d d d d d d d d d d d d d d d d d d h d d d d d d d d d d d d d d d d d d d d d d f d d d d d d d d d d d d d d d d d d d d d d d > > r y j R T )  .$.=.3.6.8.8.7.4.2.2.2.4.7.8.8.6.3.=.+.] ) T R j r > > > 7 d d d d f d d f d d d d d d d d d d d d d d d d d d d d d d d d d d d d d d d d d d d d d f d d d d d d d d d d d d d d d d d d g d d ",
"d h d d f d d d d h d d d d d d f d d d d d d d d h d d d f f d f h d d d d d d d d d d d d d f d d d f d d d d d d d f d d r r > ; > r j R T )  .$.=.3.6.8.8.7.4.2.2.2.4.7.8.8.6.3.=.$.] ) T R j r > > ; > 7 d d d d d d f d h d d f d d d d d d h d d d f d d d d d d d d d d d d d d d d d f d d d d d d d d d d d d d f d d d d d f d d h f f d d d d d d d d d d d d d f d d d d d d d d d d d d d d h d d d d f d d d d h d d d f d 7 > > ; > r j R T )  .+.=.3.6.8.8.7.4.2.2.2.4.7.8.8.6.3.=.+. .) T R j f > : > r d d d d d d d d d d d d d d d d d d d d d d d d d d d d d d d f d d d d d d d d h d d d d d d d d d h d d d h d d d d d d d d d d d d ",
"d f d d d d d d f d d d d f d d d d d d d d d d d f d d d d d d d d d d d d d d f d d d d d h d d d d d d d d d d d d d d d > > : : > r j R T )  .$.=.3.6.8.8.7.4.2.2.2.4.7.8.8.6.3.=.+. .) T R j r > : ; r > d d d d d d d d d d d d d f d d d d f d d d d d d d d d d d d d d d h d d d d d d h d d d d d d f d d d d d d d h d d d d d d d d d d d d d d d d h d d d f d d d h d d d d d d d d d d d d f d d d d d d d f d d d d d d d > > ; : > r j R T )  .+.=.3.6.8.8.7.4.2.2.2.4.7.8.8.6.3.=.$. .) T R j r r : ; ; r r d d d d d d d d d d d h d d d d f d d d d d d d d d h d d d d d d d d d d d f d d d d d d d f d d d d d d d d h f d d d f d d d d ",
"d d d d d d d d d d d d h d d d d d d d d d d d d d d d d d d d d d d d d d d d d d d d d d d d d d d d d d d d d d d d 7 r > ; : - > r j R T )  .$.=.3.7.8.8.7.4.2.2.2.4.7.8.8.6.3.=.+. .) T R j r > - - : > r d d d d d d d d d d d d d d d d d d d d d d d d d d d d d d d d f d d d d d d d f d d d d d d d d d d d d d d d d d d d d d d d d d d d d d d f d d d d d d d d f d d d d d d d d d d d d d d d d d d d d d d d d d d d > > ; : : : r j R T )  .+.=.3.6.8.8.7.4.2.2.2.4.7.8.8.6.3.=.+. .) T R j r ; : - ; r > 7 d d d d d d d d d d f d d d d d d d d d d d d d d d d d d d d d d d d d d d d d d d d d d d d d d d d d d d d d d d d d d d d d ",
"d d d d d d d d d d d d d d d d d d d d d d d d d d d d d d d d d d d d d d d d d d d d d d d d d d d d d d d d d d d d r > ; - - - : r j R T )  .$.=.3.6.8.8.7.4.2.2.2.4.7.8.8.6.3.=.$.X.) Q R j r : - - - ; > > 7 d d d d d d d d d d d d d d d d d d d d d d d d d d d d d d d d d d d d d d d d d d d d d d d d d d d d d d d d d d d d d d d d d d d d d d d d d d d d d d d d d d d d d d d d d d d d d d d d d d d d d d d d d > > ; : - - ; r j R T )  .$.=.3.6.8.8.7.4.2.2.2.4.7.8.8.6.3.=.$. .) T R j r : - - - : > > d d d d d d d d d d d d d d d d d d d d d d d d d d d d d d d d d d d d d d d d d d d d d d d d d d d d d d d d d d d d d d d d ",
"7 7 d d r 7 > d > d 7 r 7 7 d d r 7 > r 7 d r d 7 7 d d r 7 > d 7 d d d r 7 > r 7 d > d > 7 d d > d > > d d > d > d 7 d ; : : - - - : r j R T )  .+.=.3.6.8.8.7.4.2.2.2.4.7.8.8.6.3.=.+.X.) Q R j r : - - - - : > > > d 7 d d d d > > d 7 d > d 7 7 d d r 7 > d d d d 7 d d 7 r d 7 7 r d d > 7 7 d d d 7 r 7 > r d 7 r > d 7 d > r 7 > d d > d 7 d d d > 7 r 7 d d 7 > d d 7 > d 7 7 d d r > 7 7 d r 7 d 7 d d r 7 > r 7 d 7 > r > > > : - - * - : r k R T )  .+.=.3.6.8.8.6.4.2.2.2.4.7.8.8.6.3.=.+. .) T R j r : - - - : ; > > > > r 7 d r 7 > d 7 d > d > r d d 7 d d d 7 r d d > d d 7 r > 7 d r 7 d 7 d d > d > r 7 d 7 > d d > d > d 7 d > r 7 > d d > d ",
"> r > > 7 r > > 7 r > > 7 r > > > > > d > > > 7 r > > 7 r > > > > > > 7 r > > 7 > > > r > > > > 7 r r > > > r > > 7 > ; > - - $ * - : r k R Q )  .$.=.3.7.8.8.7.4.3.2.2.4.7.8.8.6.3.=.$. .) Q R j r : - - - - - > > > r > > > > > 7 r > > > 7 r r > > 7 r > > > > r > > > > > > > > > > 7 > r 7 > > 7 r > 7 > > > 7 7 > r > 7 > > > > > > > > 7 r > > 7 > 7 > r > r > > > > > > > > > > > > r 7 > > r > > > r 7 > > r > > > > r > > > ; : - $ - - : r j W Q )  .$.=.3.6.8.8.7.4.2.2.2.4.7.8.8.6.3.=.$. .) ! W j d : - * - - - ; > > > > 7 > > > r 7 > > r > > 7 > > d > d > > 7 7 > > r > d > 7 > > r > > > r 7 > > r > > > r > > > > r > > > > 7 > > > > 7 r > ",
"7 > r > > > > 7 > > > > > > r > r 7 > > > > > r 7 > > > > > > > 7 > > > > > > r d > > 7 > > > > > > > > > 7 > > > > > > : : - - $ - : y j R ! )  .$.=.3.7.8.8.7.4.2.2.2.4.7.8.8.6.3.=.$.X.) Q W k f : - $ - - - ; ; > > > > > > > r 7 > > > > > > > > > > > > > > 7 > > > > d 7 > r 7 > > > > 7 > > > > > > > r > > > > > > > r 7 > > d 7 > > > > > > r r > > > > 7 > > > > d 7 > d > > 7 > > 7 > > > 7 > > > > > r > > > 7 > > > > > ; - - - - - : d j W ! [  .$.=.3.7.8.8.7.4.2.2.2.4.7.8.8.6.3.=.$. .) ! W k r ; - * $ - : > > > > > r > > > > > > r > > > > 7 > > > > > > > r > > > > > > 7 > > > 7 > > > > > r > > > 7 > > r > > 7 > > > > > r > 7 > > > > ",
"r > 7 > d > d > 7 > d d d > > 7 > 7 r > d > d > d 7 d d d > 7 r r > d > > > 7 r 7 > d d d > d > d > > 7 r > d 7 > r 7 7 ; : - - - - > d k R ! )  .$.=.3.6.8.8.7.4.3.2.2.4.7.8.8.6.3.=.$. .) [ W j f ; * * - - ; > > 7 d r > 7 r 7 r > > d > d > > 7 d d d > 7 r d > > r d 7 d d d > > r d r d d d > d > 7 d d d d > r > 7 > 7 r 7 d d d r > d > > > 7 r 7 7 d d d > > r d 7 d d d > 7 r r d d d d > d > 7 d 7 d 7 r > 7 d > d > > > > > : - - - - : r k W Q ) X.$.=.3.7.8.8.7.4.2.2.3.4.7.8.8.6.3.=.$. .) ! R k y : - - - - ; > 7 > d d 7 > d > r > 7 d 7 7 d d r d > > 7 r d d > d > 7 d > d d d > d > 7 d 7 d 7 r > 7 r > d 7 7 7 d d d > d > > > d r 7 d d d ",
"d d d d d d d d d d d d d d d d d d d d d d d d d d d d d d d d d d d d d d d d d d d d d d d d d d d d d d d d d d d d r > ; : - - > r k W [ [ X.$.=.3.6.7.8.7.4.2.2.2.4.7.8.8.6.3.=.$.X.) Q W k r r - - - > > > d d d d d d d d d d d d d d d d d d d d d d d d d d d d d d d d d d 7 d d d d d d d d d d d d d d d d d d d d d d d d d d d d d d d d d d d d d d d d d d d d d d > d d d d d d d d d d d d d d d d d d d d d d d d 7 > : - - - > r k R [ )  .$.=.2.7.8.8.7.4.2.2.2.4.7.8.8.6.3.=.$. .[ Q W k d > - - - : ; r d d d d d d d d d d d d d d d d d d d d d d d d d d d d d d d d d d d d d d d d d d d d d d d d d d d d d d d d d d d d d d d d ",
"d d d d d d d d d d d d d d d d h d d d d d d d d d d d d d d d d f d d d d d f d h f d d d d d d d d d d d d d d d d d d > ; : : : > f k W Q [ X.$.=.3.6.8.8.7.4.2.2.2.4.7.8.8.6.3.=.$.X.) Q W k f > - - ; > r d d d d d d f d h d d d d d d d d d d h d d d d d d d d d d d d d d d d d d d d d d d d d d d d f d d d d d d f d d d d f d f h d d d d d d d d d d d d d d d d d d d d d d d d d d d d f d f d d h d d d d d d d d d d r > ; : : > d k W ! ) O.$.=.3.6.8.8.7.4.2.2.2.4.7.8.8.6.3.=.$.X.) [ W k d > : - > > r d d d d d d d d d d d d d d d d d d d d d h d d d d d d d d f d d d d d d f d f d h d d d d d d d d f d d h d d d d d d d d d d d ",
"h d d d d d d d d d h f d d d d d d d d d d d d d d d d d d d f d d d h d d d d d d d d h d d d d g d d d d d d d d f d d d r > ; ; > f k R [ )  .$.=.3.6.8.8.7.4.2.1.2.4.7.8.8.6.3.=.$.X.[ ! W k f > : ; r > d d d d d d d d d f d d d d d d d d d d d d d d f d d d d f h d d d d d d g d d d d d d f d d d d d h d d d d d d f d d d d d d d d d d f h d d d d d d d f h d d d d f d d d d d d d d d d d d d f d d d d d d d f d d d d r > ; : > r k W ! ) X.$.=.3.6.8.8.7.4.2.2.2.4.7.8.8.6.3.=.$. .) Q R k f > : : > > 7 d d d d d d d d g d d f d d d d f d d d d d d d d d d d d d d d d d d d d d d d d f d d d d d d d h d d d f d d d d d d d d d d d ",
"d f d d d d d f d d d d h f d d d d d f d f d d d d h d d d d h d d d d d d d d d d d d f d d d d d d d d d d d f d d d d d d > > : > f k W Q ) X.$.=.3.6.8.8.7.4.2.2.2.4.7.8.8.6.3.=.$.X.) ! W k y > > > > d d d d h d d d d h d d d d d d d d d d f h d d h d d d d f d d d d d d f d d d d d d d d d d d d g d d d d d d d d d d h d d d d d d d d d d d d f d d f d d d d d d d d d h f d d d d d f d d d h d d d d d f d d d d d d d > > > ; > y k W ! [  .$.=.3.7.8.8.7.4.2.2.2.4.7.8.8.6.3.=.$.X.[ Q R k f > > > > r d d d d d f d h d d d d d d d d d h d f d d d d d d d f d d h f d d d d d f d d d h d d d d d d d d d d d d d d d d d d f d d f d d ",
"d d d f d d d d d d d d d d d f d d d d d d d d d f d d d d d d d d d d d d f d d d d d d d d d d d d d d d d f d d d d d d d 7 > > > d k W ! )  .$.=.3.6.8.8.7.4.2.2.2.4.7.8.8.6.3.=.$.O.) Q W j d > > > > d d f d d d d d d d d d d d d d f d d d d d d d d d d d d d d d d d d d d d d d d d d d d d d d d d d d d d d d f d d d d d d d d d d f d d d d d d d d d d d d d d d d d d d d d d d d d d d d d d d d d d d d d d d d d d d d > r > r f k R Q ) X.$.=.2.6.8.8.7.4.2.2.2.4.7.8.8.6.3.=.$. .) [ W k r r > ; d d d d d d d d d d d d d d d d d d d d d d d d d d f d d d d d d d d d d d d d d d d d d d d d d d f d d d d d d d d d d d d d d h d d ",
"d d d d d d d d h f d d d d h d d d d d d d d d d d d d d d d d d d d d d d d d d d d d f d d d d d d d d d d d d d d d f d d d > > > f j W T )  .$.=.3.6.8.8.7.4.2.2.2.4.7.8.8.7.2.1.$. .) T R k d r ; > d d d d d d d d d d d d d d d d d d d d d d d d d d d d d d d d d d d d d d f d d d d d d d d d d d d d d d d d d d d d d d d d d d d d d d d d d d d d f d d d d d d d d d d d d d d d d d d d d d d d d d d d d d d d d d d d d d ; > > y k W T )  .$.=.3.6.8.8.7.4.2.2.2.4.7.8.7.7.3.=.$. .) ! R j f > r > d d d d d d d d d d d d d d d d d d d d d d d d d d d d d d d d d d d d d d d d d d d d d f d d d d d d d d d h d d d d d d d d d d d d ",
"d d d d d d d d d d d d d d d d d d d f d d d h d d d d d d d d d d d d d d d d d d d d d d d d d d d d d d d d d d d d d d d d r > r d j R T )  .$.=.3.6.8.8.7.4.2.2.2.4.7.8.8.7.2.=.$. .) T W j y > r > d d d d d d d d d d d d f d d h d d d d d d d d d d d f d d d d d d d d d d h d d d d d d d d d d d d d d d d d d d d d d d d d d d d d d d d d d d d d d d d d d d d d d d d d d d d d d d d h d d d d d d d d d d d d d d d h d d > > r d j R T )  .$.=.3.6.8.8.7.4.2.2.2.4.7.8.8.6.3.=.$. .) T R k d r ; d r d d d d d d d d d d d d d d d d d d d d d d d f d d d d d d d d d d d d d d d d d d d d d d d d d d d d d d d d d d f d d d d d d d d ",
"d d d d d d d d d d d d d d d d d d d d d d d d f d d d d d d d d d d d d d d d d d d d d h d d d d d d d d d d d d d d d d d 7 r > > r j R T )  .$.=.3.6.8.8.7.4.2.2.2.4.7.8.8.7.3.=.$. .) T R k y r ; > d d d f d d d d d d d d d d d d d d d d d d f d d d d d d d d d d d d d d d d d d d d d d d d d d d d d d d d d d d d d d d d d d d d f d d d d h d d d d d d d d d d f d d d d d d d d d d d d d d d d d d d d d d d d d d d f d d d > > f j R T )  .$.=.3.6.8.8.7.4.2.2.2.4.7.8.8.6.3.=.$. .) T R j y > > > d d d d d d d d d d d d d d d d d d d d d d d d d d d d d d d f d d d d d f d d d d d d d d d d d d d d d d d d d d d d d d d d d d d d ",
"d d d d d d d d d d d d d d d d d d d d d d d d d d d d d d d d d d d d d d f d d d d d d d d d d d d d d d d d d d d d d d d d > > > y j R T )  .$.=.3.6.8.8.7.4.2.2.2.4.7.8.8.6.3.=.$. .) T R j r > r d d d d d d d d d d d d d d d d d d d d d d d d d d d d d d d d d d d d d d d d d d d d d d d d d d d d d d d d d d d d d d d f d d d d d d d d d d d d d d d d d d d d d d d d d d d d d d d d d d d d d d d d d d d d d d d d d d d 7 ; r f j R T )  .$.=.3.6.8.8.7.4.2.2.2.4.7.8.8.6.3.=.$. .) T R j r r > > d d d d f h d d d d d d d d d d d d d d d d d d d d d d d d d d d d d d d d d d d h d d d d d d d d d d d d d d d d d d d d d d d d f d ",
"d d d d d f d d d d d d d d d d d d d d d d d d d d d d d d d d h d d d d d d d d d d d d d d d d h d d d d d d d d d h d f d d 7 > > r j R T )  .$.=.3.6.8.8.7.4.2.2.2.4.7.8.8.6.3.=.$. .) T R j r > > r r d d d d d d d d d d d d d d d d d d d d d d h d d d d d d d d d d d d d d d d d d d d d d d d h d d d d d d d d d d d h d d d d f d d d d d d d d d d d d d d d d d d d d d d d d d d d d d d d d d d d d d d d d d d d d d d d d > r r r j R T )  .$.=.3.6.8.8.7.4.2.2.2.4.7.8.8.6.3.=.$. .) U R j r r > > d d d d d d d d d d d d d d d d d d d d d d d d d d d d d h d d d d d d d d d d d d d d d d d d d d d d d d d d d d d d d d d d d d d d ",
"d d d d d d d d d d d d d d d d d d d d d d d d d d d d d d d d d d d d d d d d d d d d d d d d d d d d d d d d g d d d d d d d > > r d j R T )  .$.=.3.6.8.8.7.4.2.2.2.4.7.8.8.6.3.=.$. .) T R j d > r > > d d f d d d d d d d d d d d d d d d d d d d d d d d d d d d h d d d d d d d d d d d d d d d d d d f d d d f d g d d d d d d d d d d d d d d d d d d d d d d h d d d h d d d f d d d f d d d d d d d d d d d d d h d d d d f d d d > ; r r j J T )  .$.=.3.6.8.8.7.4.2.2.2.4.7.8.8.6.3.=.$. .) T R j r > > r d d d d d d d d d d d d h d d d d d d d d d d d d d d d d d d d d d f d d d d d d d d d d d d d h d d d d d d d d d d d h d d d d d d d ",
"d d d d d d d d d d d d g d d d d d d d d d d d d d d d h f d d d d f d d d d d d d d d d d d d d d d d d d d d d d d d d d d d > > r y j R T )  .$.=.3.6.8.8.7.4.2.2.2.4.7.8.8.7.3.=.$. .) T R j y > > > d d d d d d d h d d d d h d d f d d d d d d d d d d d h d d d d d d d d d d d h d d d d d d d d d d d d d d d d d d d d d d d d d d d d d d d d d f d h d d d d d d d d d d d d d d d d d d d d d d d h d d d d f f d d d d d d d > > > > r j W T )  .$.=.3.6.8.8.7.4.2.2.2.4.7.8.8.7.3.=.$. .) T R j r r > > 7 d d d d d d d h d d d d d f d f d d h d d d d d d d d d d d d d d d d d d d d d d f d h d d d d d d d d d f d h d d d d d d d d d d d ",
"d d d h d d d d d d d d d d d d d d h d f d d d d d d d d d d d d d d d d d h d d h f d d d d d f d d d d d h f d d d d d d d 7 > ; : r j R T )  .$.=.3.6.8.8.6.4.2.2.2.4.7.8.8.6.2.=.$. .) T R j r > ; ; r > d d d d d d d f d d d d d d d d d d d d d f d d d d d d d d f d d d d d d d f d d d d d g d d d d d d d h d d d d d d d d d d d h d d d d d d d d d d d d d d f d d d d d d d d h d d d d d d f d d d d d d d d d d d d d d r r > ; > y j J T )  .$.=.3.7.8.8.7.4.2.2.3.4.7.8.7.6.3.=.$. .) T R j r > ; > > d d d d d d d d f d d d d d d d d d d d d d f d d d h d d d d d d d h d d d d d d d d d d d d d f d d d d d d d d d d d d f d d d f d ",
"d d d d d d d d d d d d d d d d d d d d d d d d d d d d d d d d f d d d d d d d d d d d f d d d d d d d f d d d d d d d d d d > : : > r j R T )  .$.=.3.6.8.8.7.4.2.2.2.4.7.8.8.6.3.=.+. .) T R j r > : : > > d d d d d d d d d f d d d d d d d d d d d f d d d d f d d d d d d d d d d d f d d d d d d d d d d d d d d d d f d d d d d f d d d f d d f d d d d d f d d d f d d d d d d f d d d f d d f d d d d d f d d d f d d d d d d r > > ; : : r j R T )  .$.=.3.6.8.8.7.4.2.2.2.4.7.8.8.7.3.=.$. .) T R j r > - ; r r d d d d d d f d d d d d d d d d d d d d d d d f d d d d d d f d d d d d d f d d d d d f d d d f d d d d d d f d d d d d d d d d d d ",
"f d d d d d d d d d d d d d d d d d d d d d d d d d d d d d d d d d d d d d d d d d d d d d d d d d d d d d d d d d d d d > > ; - - > r j R T )  .$.=.3.6.8.8.7.4.2.2.2.4.7.8.8.6.3.=.$. .) T R j r : : - ; > r d d d d d d d d d d d d d d d d d d d d d d d d d d d d d f f d d d d d d d d d d f f d d d d d f d d d d d d d d d d d d d d d d d d d d d d d d d d d d d d d d d d d d d d d d d d d d d d d d d d d d d d d d d d d 7 > ; - : > r j R T )  .$.=.3.6.8.8.7.4.2.2.2.4.7.8.7.6.3.=.$. .) T R j r : : - ; > > r d d d d d d d d d f f d d d d d d f d d d d d d d d d d d d d d f d d d d d d d d d d d d d d d d d d d d d d d d f d f d d d d ",
"d d d d d d d d d d d d d d d d d d d d d d d d d d d d d d d d d d d d d d d d d d d d d d d d d d d d d d d d d d d > > > > - - - ; r p R T )  .+.=.3.6.8.8.7.4.2.2.2.4.7.8.8.6.3.=.$. .) T R j r ; - - - : > > 7 d d d d d d d d d d d d d d d d d d d d d d d d d d d d d d d d d d d d d d d d d d d d d d d d d d d d d d d d d d d d d d d d d d d d d d d d d d d d d d d d d d d d d d d d d d d d d d d d d d d d d d d d d r > ; : - - : r j R U )  .+.=.3.6.8.8.7.4.2.2.2.4.7.8.8.7.3.=.$. .) T R j r : - - - > > > d 7 d d d d d d d d d d d d d d d d d d d d d d d d d d d d d d d d d d d d d d d d d d d d d d d d d d d d d d d d d d d d d d ",
"7 d > d > d d > d d > d > d d r d d > d > d d r 7 d r 7 > d r d 7 d > r 7 d r 7 d d > r 7 d 7 r d d > r 7 d 7 r > d r > ; : - - - - : r j R T )  .+.=.3.6.8.8.7.4.2.2.3.4.7.8.8.6.3.=.$.] ) T R j r : - - - : ; > > > d > d r 7 7 d > r 7 d r 7 d d > r 7 d 7 d d 7 d 7 7 d 7 d > d > d d d 7 7 > d 7 d r 7 > d d 7 d > > 7 d d > d > d d d 7 7 > d 7 d r 7 > d d 7 d > > 7 d d > r > d d d 7 7 > d 7 d r 7 > d d d 7 > > 7 d d 7 > > > : - - * - : r j R T )  .+.=.3.6.8.8.7.4.2.2.2.4.7.8.8.7.3.=.$. .) U R j r : - - - - - > > > r 7 d d > > 7 d 7 d r 7 > d d 7 d > > 7 d d > d > r d d 7 7 > d 7 d r 7 > d d 7 d > > 7 d d > d > d d d 7 7 > d 7 d r 7 > d ",
"> d > > > > > r > > > > d > > 7 > > > 7 > > > 7 > > > > > r > 7 > > > > > > 7 > > > 7 r > r > 7 > > 7 > > r > 7 > > > ; ; : - $ - - - r j R U ) ] $.=.3.6.8.8.7.4.2.2.2.4.7.8.8.6.3.=.$. .) T R j r : * - $ - ; : > > > > > 7 r > > > > > > 7 > > > 7 r 7 r > > > > > > > > > d > r > > > r 7 > > > > 7 > r > > r 7 > > > > > > 7 r > > > r > 7 > > > 7 r > > > r 7 > > > > > > r > > 7 > > 7 > > > > 7 r > > > r 7 > > > > > > > > > ; - - - $ - : r p R U )  .$.=.3.6.8.8.7.4.2.2.2.4.7.8.8.6.3.=.$. .) T R j r > - $ - - - > > > > > > d > 7 > > > 7 r > > > r 7 > > > > > > > r > 7 > r > > > > > 7 r > > > r 7 > > > > > > 7 r > > > d > 7 > > > 7 r > > > ",
"> > > > r > > 7 > > r 7 > > > > > > > r r > > > r > d > > > > > > d 7 > > > > r > > > > > > > > > > > r > > > > 7 r > > : : - * * - : r j R T )  .$.=.3.6.8.8.7.4.2.2.2.4.7.8.8.6.3.=.+.] ) T R j r : - - $ - - ; > > > > > > > > d 7 > > > > r > > > > > > > > > > d > > > > > 7 > > > > > > 7 > 7 > > > > > > > > > > 7 r 7 > > > > > > 7 > d 7 > > > > > > > > > > > 7 r 7 > > > > > > r > 7 r 7 > > > > > > > > > > 7 r > > > > > - - - - * - : r j R U )  .$.=.3.6.8.8.7.4.2.2.2.4.7.8.8.6.3.=.$. .) T R p r ; - - $ - - > ; > r > > > > d > > > > > > > > > > > > > d 7 > 7 > > > > > 7 7 7 > > > > > > > > > > > > d 7 > > > > > > > > d 7 > > > > > > > ",
"> r d 7 > 7 > d > > > d 7 7 d d r > r 7 > 7 r 7 > > > d 7 7 d d > > r d > d > > d > d > d 7 7 d 7 > d > r 7 r > d > r > > ; - - - - ; r j R U )  .$.=.3.6.8.8.7.4.2.2.2.4.7.8.8.6.3.=.+. .) T R j r : - - - : ; > > r > 7 d d d > > r d > d > > d > d > d 7 d d d 7 > > d > d > r > r > d 7 d d d > r > d > 7 r 7 r > d > > r d > > d > d > d d d > r > d > 7 r d > > d > > r d > 7 r > d 7 d d > 7 r > d > d > 7 r > d > > d d > > r ; ; : - - - ; r j R T )  .$.=.3.6.8.8.7.4.2.2.2.4.7.8.8.6.3.=.$. .) T J j r : - - - - - 7 > > 7 > d > d d d > d > d > 7 r 7 r > d > > r d > > r 7 d > d d r > d > d > 7 r 7 r > d > > r d > > d > d > d d r > d > d > 7 r ",
"d d d d d d d d d d d d d d d f d d d d d d d d d d d d d d d d d d d d d d d d d d d d d d d d d d d d 7 d d d d 7 r d > > : : - - : r j R Q )  .$.=.3.6.8.8.7.4.2.2.2.4.7.8.7.6.3.=.+. .) T R j r ; - - - : > > > d d d d d d d d d d d d d d d d d d d d d d d d d d d d d d 7 d d d d d d d d d d d d d d d d d d d d d d d d d d d d d d d d d d d d d d d d d d d d d d d d d d d d d d d d d d d d d d d d d d d d d d d d d r r > ; - - - : y j R Q )  .+.=.3.6.8.8.7.4.2.2.2.4.7.8.8.6.3.=.$. .) T R j r : - - - - > r r d d d d d d d d d d d d d d d d d d d d d d d d d d d d d d d d d d d d d d d d d d d d d d d d d d d d d d d d d d d d d d d ",
"d d d d d d d d d d d d d d d d d d d d d d d d d d d d g d d d d d f d d d d d d d d d d h d g d d d d d d d d f d d d d d > ; : - : r j R T )  .+.=.3.6.7.8.7.4.2.2.2.4.7.8.8.6.3.=.+. .) T R j r ; : - ; r > d d d d d d d d d d d d d d d d d d d d d d d d d d d d d d d d h d d d d f d d d d d d d d d d d d d d d d d d d d d d d h d d d d f h d d h d d d d d d d d d h d f d d d d d d d d d d d d d d d d d d d d d f d d d 7 > : - : : r j J T )  .+.=.3.6.8.8.7.4.2.2.2.4.7.8.8.6.2.=.$. .) T J j r > - - ; > r 7 d d d d d d d d d d h d d d d d d d d d d d d d d d d f f d d d d d d h d d h d d d d d d d d d d d d d d d d d d d d d d d d d ",
"d d d d d d h d f h d d d d d d d d f d d d h d d d d d d d d f d d d d d d d h d d d d d f d d d d d d d d h d h d d d d d r ; ; : > r j R T )  .+.=.3.7.8.8.7.4.2.2.2.4.7.8.8.6.3.=.$.] ) T R j r > : : > > d d d d d d d d d d d f d d d d h d f d d h d d d d d d f d f d d d d d f d h d d h d d d h d d d d d d f f d d d d d d d d f d d d d d d d d f d d d d d d d d d d d d d f h d d h d d d h d d d d d d f f d d d h d d d d d r ; : > r j R T )  .+.=.3.6.8.8.7.4.2.2.2.4.7.8.8.6.3.=.$. .) T R j r > : : > d d d d d d d f h d d d d f d d f h d d d d d d f d d h d d d d h d d f d d d d d d d d d d d d d g d d d d d f h d d d d d h d f h d ",
"d d d f f d f d d d d d d h f d d d d d d d d d d d h d d d d h d d f d d f d d d d h d d d d d f d d f d d f d d d d d d d d > > : > r j R T )  .+.=.3.6.8.8.7.4.2.2.2.4.7.8.8.6.3.=.+. .) T R j r > : > > d d d d d d d h d d d d f d d f d d h d d d f d d d d d d d d d d h d d d d d d d d d f d d d d f d d d d d d d h d d d h d d d d d d d d d d d d d d d d f d f d h h d d d d d d d d f d d d d f d d d d d d d h d d d d d d > > ; ; r r j R T )  .$.=.3.6.8.8.7.4.2.2.2.4.7.8.8.6.3.=.$. .) T R j y > ; : > r d d d d d f d d d d d d d d d d d d d d d d d d h d d d d d d d d d d d d d f d d d d d d f d d d d f d d d d d d d d d d d f d d d ",
"d d d d d d d d d d d d d d d d d d d d d f d d d d f d d d d d d d d d d d d d d f d d d d d d d d d d d d d d d d d d d d d 7 > > r r j R T )  .+.=.3.6.8.8.7.4.2.2.2.4.7.8.8.6.3.=.+. .) T R j y > > > > d d d d f d d d d f d d d d d d d d d d d d d d d d d f d d d d d d h d d d d d d d d d d f d d d d d d d d d d d d d f d d d d d d d d d d d d d d d d d d d d d d d d d d d d d d d d d f d d d d d d d d d d d d d d d d d d d > ; > y j R T )  .+.=.3.6.8.8.7.4.2.2.2.4.7.8.8.6.3.=.$. .) T R j r > r > > d d d d d d h d d d d d d d d d d d d d d f d d d d d d d d d d d d d d d d d d d d d d d d d d d d d h d d d d d d d d d d d d d d d ",
"d d d d d d d d d d d d d d d h d d d d d d d d d d d d d d d d d h d d d d d d d d d d d d d d d d d d d d d d d d d d d d d d > > r d j R T )  .+.=.3.7.8.8.7.4.2.2.2.4.7.8.8.6.3.=.$. .) T R j d r > > > d d d d d h d d d d d h d d d d d d d d d d d d f d d d d d d d d d d d d d d d d d d d d d d d d d d d d d d d d d d d d d d d d d d d d d d d d d d d d d d d d d d d d f d d d d d d d d h d d d d d d d d d d d f d d d d d d > r r r p R T )  .+.=.3.6.8.8.7.4.2.2.2.4.7.8.8.6.3.=.$. .) T R j d > > > d d d d d d d d d d d d d d d d d d d d d d d d d d d d d d d d d f d d d d d d d d d d d d h d d d d d d d d d d d d d d d d d d d d d ",
"d d d d d d d d d d d d f d d d d d d d d d d d d d d d d d d d d d d d d d d d d d d d d d d d d d d d d d d d f d d d d d d > > > > f j J T )  .$.=.3.6.8.8.7.4.2.2.2.4.7.8.8.6.3.=.$. .) T R j r > > r d d d d d d d d d d d d d d d d d d d d d d d d d d d d d d d d d d d d d d d d d d d d d d d h d d d d d d d f d d d d d d d d d d d d d d d d d d d d d d d d d d d d d d d d d d d d d d d d d d d d d d d f d d d d d d d d d d > > > d j R T )  .+.=.3.6.8.8.7.4.2.2.2.4.7.8.8.6.3.=.+. .) T R j y r > > d d d d d d d d d d d d d d d d d d d d d d d d d d d d d d d d d d d d d d d d d d d f d f d d d d d d d d d d d d d g d d d d d d d d ",
"d d d d d d d d d d d d d d d d d d d d d d d d d d d d d d d d d d d d d d d d d d d d d d d d d d d d d d d d d d d d d d d d r ; > r j R T )  .$.=.3.6.8.8.7.4.2.2.2.4.7.8.8.6.3.=.$. .) T R j y > > 7 d d d d d d d d f d d d d d d d d d d d d d d d d d d d d d f d d d d d d d d d d d d d d d d d d d d d d d d d d d d d d d d d d g d d d d d d d d d f d d d d d d d d d d d d d d d d d d d d d d d d d d d d d d d d d d d d d r > > > y j R T )  .+.=.3.6.8.8.7.4.2.2.2.4.7.8.8.6.3.=.+. .) T R j d r r > d d d d d d d d d d d g d d d d d d d d d f d d d d d d h d d d d d d d d d d d d d d d d d d d d d d d d d d d d d d d d d d d d d d d ",
"d h d d d d d d d d d d d d d d d d d d d d d d d d d d d d d d d d d d d d d d d d d d d d d g d d d d d d d d d d d d d d d d > r r y j R T ) ..$.=.3.6.8.8.7.4.2.2.2.4.7.8.8.6.3.=.$.] ) T R j d > > r d d d d d d d d d d d d d d d d d d d d d d d d d d d d d d d d d d d d d d d f d d d d d d d d d d d d d d d d d d d d d d d d d d d d d d d d d d d d d d d d d d d d d d d d d d d d d d d d d d d d d d d d d d d d d d d d d d > > r d j J T )  .+.=.3.6.8.8.7.4.2.2.2.4.7.8.8.6.3.=.+. .) T R j r > ; d d d d d d d d d d d d d d d d d d d d d d d d d d d d d d d d d d d d d d d d d d d d d d d d d d d d d d d d d d d d d d d d d d d d d ",
"d d d d d d d d d d d d d d d d d d d d d d d d d f d d d d d d d d d d d d d d d d d d d d h d d d d d d d d d d d d d d f d d > > r d j R T )  .$.=.3.6.8.8.7.4.2.2.2.4.7.8.8.7.3.=.$. .) T R j r r > > d d d d d d d d d d d d d d f d d d d d d d d d d d d d d d d d d d d d d h d d d d d d d d d d d d d d d d d d d d d d d d d d d d d d d d d d d d d d d d d d d d d d d d d d d d d d d d d f d d d d d d d d d d d h d d d d d d 7 > > y j R T )  .$.=.3.6.8.8.7.4.2.2.2.4.7.8.8.6.3.=.+. .) T R j r r > > d d d d d d d d d d d d d d d g d d d d d d d d d d d d d d d d d d d d d d d d d d d d d d d f d d d d d d d d d d d d d d d d d d d d ",
"d d d d d d d d d d d d d d d d d d d d d d d d d d d d d d d d d d d d d d d d d d d d d d d f d d d d d f d d d d d d d d d d > > r r j R T )  .$.=.3.6.8.8.7.4.2.2.2.4.7.8.8.7.2.=.$. .) T R j y r ; > > d d d d d d d d d d d d d d d d d h d d d d d d d d d d d d f d d d d d d d d f d d d d d d d d d d d d d d h d d d d d d f d d d d d d d d d d d d d d d d d d d d d d d d d d d d d d d d d d d d d d d d d d d d d d d d h d d > > > d j R T )  .$.=.3.7.8.8.7.4.2.2.2.4.7.8.8.6.3.=.+. .) T R j r > > > r d d d d f d d d d d d d d d d d f d d d d d d f d d d d d h d d f d d d d d d d d d d d d d d d d d d h d d d d d d d d d d d d d d d ",
"d d d d d d d d f d d d d d d d d d d d d d d d d d d d f d d d d d d f d d d d d d d d d d d d d d d d d d d h d d d f d d d r > > > r j R T )  .$.=.3.6.8.8.7.4.2.2.2.4.7.8.8.7.3.=.$.X.) T R j f > > r r d d d d d d d d d d d d d d d d d d d d d d d d d d d d d d d d d d d d d d d d d d d d d d d d d d f d d d d d d d d d d d d d d d d d d d d f d d d d d d f d d d d d d d d d d d d d d d d d d d d d d d f d d d d d f d d d d ; ; r r j R T )  .$.=.3.7.8.8.7.4.2.2.3.4.7.8.8.6.3.=.+. .) T R j y > > r r d d d d d d d d d d d d d d d d d d d d d d d d d d d d d d d d d d d h d d d d d d d d d d d d d d d d f d d d d d d d d f d d d d d ",
"d d d f f d d d d d d d d f d h f d d d d h d d d d d d d d d d d d d d f d d d d d d d d d d d d f d d d d d d d d d d d d 7 > : > > r j J T )  .$.=.2.6.8.8.7.4.2.2.2.4.7.8.8.6.3.=.$.] ) T R j r > : ; > d d d f d d d g d d d d f d d d d d d d d f f d d d h d d d d d d d d d d d d d d d f h d d f d d d d d d d d f d d d d f d d d d h d d d f d d d f h d d d d d d f d h d d d f f d d d d h d d d d f d d d d d d d d d d d d r r > : r r j R T )  .$.=.3.7.8.8.7.4.2.2.2.4.7.8.8.6.3.=.+. .) U R j d > : ; > d d d d d d d d d d d d d d d d d d f h d d d d d d d f d d d d d d d d d f d d h d d d d f d d d d d d d d d d h d d d d d d d d h f ",
"d d d d d d d d f d d d d d d d d d d f d d d d h d d d d d d d d d d d d d d d f d d d d d g d d d d d d d d d d h d d d d r > : - r r j J T )  .$.=.3.6.8.8.7.4.2.2.2.4.7.8.8.6.3.=.$. .) T R j r > : : ; > d d d d d d d d d d d d d d d d d d d d d d d d d f d d d d d d d f d d d d d d f d d d d d d d d d d d d d d h d d d d d d d d d d d d d d d d d d d d d d d d d d f d d d d d d f d d d d h f d d d d d d d d d d d d d 7 r > - : > r j R T )  .$.=.2.6.8.8.7.4.2.2.2.4.7.8.8.6.3.=.+. .) T R j r r : ; > > d d d d d d d f d d d h d d d d d d f d d d d d d d d d d d d d d d d d d d f d d d d d d d d d d d d d d d f d d d d d d d d d d d ",
"d d d d f d d d d d d d d d d d d d d d d d d d d d d d d d d d h d d d f d d d d d d d d d d d d d d d f d d d d d d d d > > ; : ; ; r j R T )  .$.=.3.6.8.8.7.4.2.2.2.4.7.8.8.6.3.=.$. .) T R j r > - - > > r d d d d d d d h d d d d d d d d d d d d f d d d d d d d d d d d d d d d d d d d d d d d d d d d d d d d d d d d d d d d d d d d h d d d d d d d f d d d d d d d d d d d d d d d d d d d d d d d d d d d d d d d d d d d > > > - - > r j R U )  .$.=.3.6.8.8.7.4.2.2.2.4.7.8.8.6.3.=.+. .) U R j r ; : - - 7 > d d d d d d d d d f d d d d d d d d d d d d d d d d d d d d d d f d d d d d d d d d d d d d d d d d d d d d d d d d d d d d d d d ",
"d d d d d d d d d d d d d d d d d d d d d d d d d d d d d d d d d d d d d d d d d d d d d d d d d d d d d d d d d d d d > > : - - - : r j R T )  .$.=.3.6.8.8.7.4.2.2.2.4.7.8.8.6.3.=.$. .) T L j r : - - - : > > 7 d d d d d d d d d d d d d d d d d d d d d d d d d d d d d d d d d d d d d d d d d d d d d d d d d d d d d d d d d d d d d d d d d d d d d d d d d d d d d d d d d d d d d d d d d d d d d d d d d d d d d d d d r > > ; - - - : r j R T )  .$.=.3.6.8.8.7.4.2.2.2.4.7.8.8.6.3.=.+. .) T R j r : - - - : > > d d d d d d d d d d d d d d d d d d d d d d d d d d d d d d d d d d d d d d d d d d d d d d d d d d d d d d d d d d d d d d d d ",
"d d d 7 d 7 7 d > d 7 d 7 d d d > r 7 > d d > d d d 7 r d 7 r > d 7 r 7 d 7 r > 7 d 7 r 7 7 d d d > > d 7 d > d d 7 > > ; > - - - - : r j R T )  .+.=.3.6.8.8.7.4.2.2.3.4.7.8.8.6.3.=.$. .) T J j r : - - - - ; > > > r 7 > d d d > > d > d d > d d d 7 d 7 7 d 7 d d d r 7 r 7 7 d d d > d > > d d 7 d d 7 r > d d > d > d 7 d d > > d > d d > d 7 r 7 d r > 7 d 7 d d 7 r > d 7 7 d d r 7 > d 7 d > r 7 7 d d d > > d > d d d > > r > ; - - - - : r j R T )  .$.=.3.6.8.7.7.4.2.2.2.4.7.8.8.6.3.=.+. .) T R j r : - - - : ; > > > > d > d 7 r d 7 d > d d > 7 7 d d d r 7 r 7 7 d d d > r 7 > 7 d r 7 d 7 d d d > > d > d d 7 7 d r 7 7 d d d > d > r > d d 7 ",
"r 7 > > > > > > > 7 7 r > > 7 r d > > > d > > > > > > > > > d > > d > > > > > > > > r > > 7 r > r > > 7 r > > > r > > ; ; - - - * - : r j R T )  .+.=.3.6.8.8.7.4.2.2.2.4.7.8.8.6.3.*.$. .) T R j r : - $ * - - : ; > > > > > > > > > > > > > d > > 7 > 7 > > > > > > 7 > > > > > > 7 > > > > d > > > > > > > > > > > > > > > > > > > > > > 7 r > > 7 > r 7 > > > > > > 7 > > > d > > 7 r > > > > r > > > r > > > > 7 > r > > > > > > ; - - - - - : r j R U )  .$.=.3.6.8.8.7.4.2.2.2.4.6.8.8.7.2.=.$. .) Q R p r : - - - - - ; > > > > > > > 7 r 7 > > > > > > > > > 7 > > > 7 > > 7 > > > > d > > > > 7 r > > 7 > > > > 7 > r > > > > r > > 7 r > > 7 > 7 > > ",
"> > > > > r 7 > r > > > > > > > > > > > > > > > > r 7 > 7 > > > > > > > > > d > > r 7 > > > > > 7 > > > > > > > > > > > > - - * * - ; r j J T )  .+.=.3.6.7.8.7.4.2.2.2.4.7.8.8.6.2.=.$. .) T J j r : - - - - : > > > > > d 7 > > > d > r 7 > > > > r > r > > > 7 > > > r > r 7 > > r > r 7 > > 7 > r > r 7 > > > > > > > d 7 > > > d > r 7 > > > > r > > > > > 7 > > > > r > 7 > > > > > > > > > 7 > > > > > 7 r > r > 7 > > > > > > ; : - - $ - - r j R T )  .$.=.2.6.8.8.6.4.2.2.2.4.7.8.7.6.3.=.+. .) U R j r : - $ $ - : > > ; > r > > > > > > > > > r 7 > > > > > r > r > > > r > r 7 > > > r 7 > > > > > r > r 7 r > > > r > r 7 7 > > > > > > r > > > r ",
"7 r > d d > d > 7 r > > d > d > > > d d d > 7 r d > d > r d d > d > > d d 7 d > 7 r > > d > d > > > d d d > d > 7 r > > > : : - - - : r p R T ) ] $.=.3.6.8.8.7.4.2.2.2.4.6.7.8.6.3.=.$. .) T R j r : - - - - : > > > > > r r d > d > d > 7 r > d 7 > > > d d d r > d > > > > d > d 7 d > 7 r > d r > 7 7 r d r d > > d > r r d > d 7 d > d > > d d > > 7 r d d r > 7 r > > d r > > d d d > 7 r > r d 7 > 7 r d 7 > 7 r > > d > > > r ; : - - - - : r j R T )  .+.=.3.6.8.8.6.4.2.1.2.4.6.8.8.6.3.=.+.] ) U R j r : - - - - : ; > d > d d > d > d > > d d > d > d > d > > > 7 r > d 7 d > 7 r > > r d r > > d > > > > d > > d > > > > d > > d > > > 7 r > r 7 r ",
"d d d d d d d d d d d d d d d d d d d d d d d d d d > d d d d d d d r d d d d d d d d d d d d d d d d d d d d d d d d r > > ; - - - : r j R T )  .O.*.2.5.7.7.6.3.2.1.1.3.6.7.7.5.2.*.O. .) U W p r ; - - - > ; > r d d d 7 d d d d d d d d d d d d d d d d d d d d d d d d d d d d d d d d d d d d d d d d d d d d d d d 7 d d d d d d d d d d d d d d d d d d d d d d d d d d d d d d d d d d d d d d d d d d d d d d d d d d d d r r > ; - - - : r j R U ) ] O.*.2.5.7.7.6.3.2.1.2.3.6.7.7.6.2.*.+.] ) T J j r : - - - > ; r > d d d d d d d d d d d d d d d d d d d d d d d d d d d d d d d d 7 d d d d d d d d d d d d d d d d d d d d d d d d d d d d d d ",
"d d d d d d d d d d d d d d d d d d d d d d d d d d d d d d d d d d d d d d d d d d d d d d d d d d d d d d d d d d d d r > > ; - - > r j J T ( ' O.%.,.4.5.7.4.3.1.>.1.<.5.7.7.4.,.*...' ) U J j r > : - ; > > d d d d d d d d d d d d d d d d d d d d d d d d d d d d d d d d d d d f d d d d d d d d d d d d d d d d d d d d d d d d d d d d d d d d d d d d d d d d d d d d d d d d d d d d d d d d d d d d d d d d d d d d d d d > > > : - - ; r j J U ( ' O.%.,.4.7.7.5.,.>.>.1.3.5.5.7.4.,.*.O.' ( U R j r : : - ; > r r d d d d d d d d d d d d d d d d d d d d d d d d d d d f d f d d d d d d d d d d d d d d d d d d d d d d d d d d d d d d d d d d ",
"d d d d d d d d d d d d d d d d d d d d d d d d d d d d d d d d d d d d d d d d d d d d d d d d d d d d d d d d d d d d d d > > ; : > r j J U ~ ' ..$.>.<.4.4.<.>.&.*.=.,.<.4.<.<.=.$...` ( U J f r ; : : > r d d d d d d d d d d d d d d d d d d d d f d d d d d d d d d d f d d d d d d d d d d d d d d d d d d d d d d d d d d d d f d d d d d d d d d d d d d d d d d d d d d d d d f d d d d d d d d d d d d d d d d d d d d d d d d r > : : r r j J U ( ' ..$.>.<.4.4.<.,.=.&.=.>.<.5.<.<.=.$. .' ~ U J j y > ; : r > 7 d d d d d f d d d d d d d d d d d d d d d d d f d d d d d d d d d d d d d d d d d d d d d d d d d d d d d d d d d d d d d d d d d ",
"d d d d d d d d d d d d d d d d d d d d d d d d d d d d d d d d d d d d d d d d d d d d d d d d d d d d d d d d d d d d d 7 7 > > ; > r j J U ~ _  .+.%.:.:.:.;.&.%.+.&.&.;.:.:.;.&.+.' _ ( U J p r > : ; r > d d d d d d d d d d d d d d d d d d d d d d d d d d d d d d d d d d d d d d d d d d d d d d d d d d d d d d d d d d d d d d d d d d d d d d d d d d d d d d d d d d d d d d d d d d d d d d d d d d d d d d d d d d d d d d d > > : > r j J U ~ `  ...&.;.:.:.;.&.&.+.%.;.;.:.:.;.%.O. ._ ( U s p r > : > > d d d d d d d d d d d d d d d d d d d d d d d d d d d d d d d d d d d d d d d d d d d d d d d d d d d d d d d d d d d d d d d d d d d ",
"d d d d d d d d d d d > d d d d d > d d d d d d d d d d d r 7 d d d d d d d d d d d r 7 d d d d > d d d d d d r 7 d d d r d d > : : : r f s K P ~ _ { | -.-.-.| #.| | | | #.-.-.#.| ] _ ~ P K s f r > : > > 7 r d 7 r d d d d d d d d d d d r 7 d d d d d > d d d d d 7 d d d d > d d d d d d r 7 d d d d 7 r d d d d d d d d d > d d d d d d d > d d d d > d d d d d d d d d d d 7 d d d d d d d d d r d d d 7 d d r d d d d d d d d d 7 > > ; - > r y s K P ~ _ ] | #.-.-.#.@.| | | | #.-.-.#.| ' _ ~ P L s y r > ; ; > > r d d 7 d d d d > d d d d d d d d d d d d 7 d d d d > d d d d d 7 d d d d d d d d d d d d d d d d d d d d d d d d d d d d d d d d d ",
"; r d > > > > 7 7 > > d > > r > > 7 > r 7 > > r > > r > > > 7 r 7 r > 7 > > 7 r > > > > 7 > > 7 r > d > > 7 > > 7 > > 7 r > > > : - : > y p J H P I ~ ) { } } { [ [ / / [ { } } } [ ^ Y P H J p y > - - - > > 7 r > 7 > 7 > r 7 > > 7 > > > > > d > > 7 > > 7 r > d > > 7 > > 7 r > d > > 7 > r 7 > > 7 > > > > > r > > 7 > > d > > > > > > > 7 r > d > > 7 > > 7 > > 7 > > 7 > r > 7 > 7 > > > > > > 7 > > 7 > > r > > > d > 7 > > > d 7 > > - : : : r p a H P I ^ [ { } } { [ / / ) [ { } } } [ T I P H a p e r : - ; > > r > d > > 7 > r 7 r > 7 > > 7 > > r > > r > > > 7 r 7 > > 7 > > 7 r > > > 7 > r 7 > > 7 > > > > > 7 > r > 7 > r > 7 > 7 > > > > r 7 ",
"- - - - - - - : - - - - - - ; - - - - - - - - ; - - ; - - - - - - - - - : - - - - - - - - - - - - - - - - - - : - - - - - - - - * - * - : e i u u H H K W W Q W L L K L L L Q W L L H H H a i e > - * - - - - - - - - : - - - - : - - - : - ; - - - - - - : - - - - - - - - - - - - - - - - - - - - - - - - - - - ; - - - - - - - - ; - : - - - - - - - - - - : - - - - : - - - - - : - - - - - - : - - : - - - - ; - - - - - - - - - - : - - - * * - r e t u H H K K W Q W W L U P K L W W Q L K K H u u t e > - * $ - - - - - - - - - - - - - - - : - - - - ; - - ; - - - - - - - - - : - - - - : - - - - - - : - - - - - : - - ; - - - - - - : - - - - - - - ",
"$ $ $ $ $ $ $ $ $ $ $ $ $ $ $ $ $ $ $ $ $ $ $ $ $ $ $ $ $ $ $ $ $ $ $ $ $ $ $ $ $ $ $ $ $ $ $ $ $ $ $ $ $ $ $ $ $ $ $ $ $ $ $ $ @ @ $ $ * * = q w w w w i i i i t w w w i i i i t t w w q q q * * # $ @ @ $ $ $ $ $ $ $ $ $ $ $ $ $ $ $ $ $ $ $ $ $ $ $ $ $ $ $ $ $ $ $ $ $ $ $ $ $ $ $ $ $ $ $ $ $ $ $ $ $ $ $ $ $ $ $ $ $ $ $ $ $ $ $ $ $ $ $ $ $ $ $ $ $ $ $ $ $ $ $ $ $ $ $ $ $ $ $ $ $ $ $ $ $ $ $ $ $ $ $ $ $ $ $ $ $ $ $ $ $ $ $ $ $ $ @ @ @ $ $ = = q q w w w t i i t t w w w w i i i t w w w q q = = * $ @ @ $ $ $ $ $ $ $ $ $ $ $ $ $ $ $ $ $ $ $ $ $ $ $ $ $ $ $ $ $ $ $ $ $ $ $ $ $ $ $ $ $ $ $ $ $ $ $ $ $ $ $ $ $ $ $ $ $ $ $ $ $ $ $ $ $ $ $ $ $ ",
"+ + + + + + + + + + + + + + + + + + + + + + + + + + + + + + + + + + + + + + + + + + + @ + + + + + + + + + + + + + + + + + @ + + + + + + + @ # # # # & & & & & & & & & & & & & & & & & # # # # @ @ + + + + + + + + + + + + + + + + + + + + + + + + + + + + + + + + + + + + + + + + + + + + + + + + + + + + @ + + + @ + + + + + + + + + + + + + + + + + + + + + + + + + + + + + + + + + + + + + + + + + + + + + + + + + + + + + + @ + + + + + + + + + + @ @ # # & # & & & * & & & & & & & & & * & & # & # # # @ + + + + + + + + @ + + + + + + + + + + + + + + + + + + + + + + + + + + + + + + + + + + + + + + + + + + @ + + + + + + + + + + + + + + + + @ + + + + ",
"o o o o o o o o o o o o o o o o o o o o o o o o o o o o o o o o o o o o o .     o o o o o o o o o o o o o o o o o o o o o o o o o o o o o o O O O O O O O O + O O O O O O O O O O O O O O O O O o o o o o .     o o o o o o o o o o o o o o o o o o o o o o o o o o o o o o o o o o o o o o o o o o o o o o     o o o o o o o o o o o o o o o o o o o o o o o o o o o o o o     o o o o o o o o o o o o o o o o o o o o o o o o o o o o o o o o o o o o   o o O O O O O O O O O O O O O O O O O O O O O O O O O o o o o o o o o o o o o o .     o o o o o o o o o o o o o o o o o o o o o o o o o o o o o o o o o o o o o o o o o o o o o o o o o o o o     . o ",
"X X . X . X X . X X . X X X . X X X X X X X X X X X X . . X X X X X . X .       X . X X X . X X X X . X X X X . X X X X X X X . . . . X X o X X o X X o o o X X X o o X o X o X o X X o X X X X X X X . .       X X X X X . X X X X . X X X X X X X . X . X X . X X X X X . X X . X X X X X X X X X X X . .     . . X X X . X X X X X X X . X X X X X . X X X X X X X X . .     X . X X X . X X X X X . X . X X X X X . X X . X . X X . X X . X . . X X     X X o X X o X o X o X o o X o X o X o X o X X X X X X . . X . . X X X X . X .       X X X X X X X X X X . X X X X . X X X X X X X . X X X X X . X X . X X . X X . X . X X . X X . X . X X .     . . ",
". . . . . . . . . . . . . .     . .   .   . . . .   . . . . .   . . . .   .     . . . . . . . . .   . . . . . . .   . . .     . .   . . . . . . . . . . . . . . . . . . . . . . X . . . . . . . . . . .           . . . . . . . .   . . . . .   . . . . . .   . . . . . . . . . . . . . . .   . . . . .   .     . . . . . . . . . . . . . .   .   . . .   . .   . . . . .       . . . . . . . . . . . . . .   . . . . . . .     . . . . . .   . . . . .         . . . . . . . . . . . . . . . . . . . . . . . .   . . . . . .   . . . .   .     . .   . . .   . .   . . . . . . . . . .   .   . . . . . . .   . . . . . . .     . . . . . . . . . . . .         ",
"                                                          .                                                     .                         .   .     .   .           .   .   .     .     .     .                                                                                                                                                     .     .                                             .                                                         .     .   .   .   .               .         .                                                                                         .                                                       ",
"                                                                                                                                                                                                                                                                                                                                                                                                                                                                                                                                                                                                                                                                ",
"                                                                                                                                                                                                                                                                                                                                                                                                                                                                                                                                                                                                                                                                ",
"                                                                                                                                                                                                                                                                                                                                                                                                                                                                                                                                                                                                                                                                ",
"                                                                                                                                                                                                                                                                                                                                                                                                                                                                                                                                                                                                                                                                ",
"                                                                                                                                                                                                                                                                                                                                                                                                                                                                                                                                                                                                                                                                ",
"                                                                                                                                                                                                                                                                                                                                                                                                                                                                                                                                                                                                                                                                ",
"                                                                                                                                                                                                                                                                                                                                                                                                                                                                                                                                                                                                                                                                ",
"                                                                                                                                                                                                                                                                                                                                                                                                                                                                                                                                                                                                                                                                ",
"                                                                                                                                                                                                                                                                                                                                                                                                                                                                                                                                                                                                                                                                ",
"                                                                                                                                                                                                                                                                                                                                                                                                                                                                                                                                                                                                                                                                ",
"                                                                                                                                                                                                                                                                                                                                                                                                                                                                                                                                                                                                                                                                ",
"                                                                                                                                                                                                                                                                                                                                                                                                                                                                                                                                                                                                                                                                ",
"                                                                                                                                                                                                                                                                                                                                                                                                                                                                                                                                                                                                                                                                ",
"                                                                                                                                                                                                                                                                                                                                                                                                                                                                                                                                                                                                                                                                ",
"                                                                                                                                                                                                                                                                                                                                                                                                                                                                                                                                                                                                                                                                ",
"                                                                                                                                                                                                                                                                                                                                                                                                                                                                                                                                                                                                                                                                ",
"                                                                                                                                                                                                                                                                                                                                                                                                                                                                                                                                                                                                                                                                ",
"                                                                                                                                                                                                                                                                                                                                                                                                                                                                                                                                                                                                                                                                ",
"                                                                                                                                                                                                                                                                                                                                                                                                                                                                                                                                                                                                                                                                ",
"                                                                                                                                                                                                                                                                                                                                                                                                                                                                                                                                                                                                                                                                ",
"                                                                                                                                                                                                                                                                                                                                                                                                                                                                                                                                                                                                                                                                ",
"                                                                                                                                                                                                                                                                                                                                                                                                                                                                                                                                                                                                                                                                ",
"                                                                                                                                                                                                                                                                                                                                                                                                                                                                                                                                                                                                                                                                ",
"                                                                                                                                                                                                                                                                                                                                                                                                                                                                                                                                                                                                                                                                ",
"                                                                                                                                                                                                                                                                                                                                                                                                                                                                                                                                                                                                                                                                ",
"                                                                                                                                                                                                                                                                                                                                                                                                                                                                                                                                                                                                                                                                ",
"                                                                                                                                                                                                                                                                                                                                                                                                                                                                                                                                                                                                                                                                ",
"                                                                                                                                                                                                                                                                                                                                                                                                                                                                                                                                                                                                                                                                ",
"                                                                                                                                                                                                                                                                                                                                                                                                                                                                                                                                                                                                                                                                ",
"                                                                                                                                                                                                                                                                                                                                                                                                                                                                                                                                                                                                                                                                ",
"                                                                                                                                                                                                                                                                                                                                                                                                                                                                                                                                                                                                                                                                ",
"                                                                                                                                                                                                                                                                                                                                                                                                                                                                                                                                                                                                                                                                "
};
