/* XPM */
static char *begin_floor1_001[] = {
/* columns rows colors chars-per-pixel */
"320 200 232 2 ",
"   c #0B0C0B",
".  c #140C08",
"X  c #18160B",
"o  c #141414",
"O  c #1B1C1C",
"+  c #161A17",
"@  c #0D1410",
"#  c #26190B",
"$  c #381E06",
"%  c #251D17",
"&  c #0D280C",
"*  c #0D360D",
"=  c #162717",
"-  c #173718",
";  c #14280D",
":  c #39220B",
">  c #2A241A",
",  c #3A291A",
"<  c #2C3113",
"1  c #181E23",
"2  c #1B252A",
"3  c #1C2A36",
"4  c #1E342D",
"5  c #242424",
"6  c #292623",
"7  c #272829",
"8  c #2B2B2B",
"9  c #282826",
"0  c #312921",
"q  c #352E28",
"w  c #273827",
"e  c #272D34",
"r  c #2E3134",
"t  c #28353B",
"y  c #333333",
"u  c #363B3B",
"i  c #3C3D3D",
"p  c #373737",
"a  c #36312D",
"s  c #421F00",
"d  c #4B2403",
"f  c #482607",
"g  c #572B04",
"h  c #462D17",
"j  c #4D3318",
"k  c #53351A",
"l  c #593616",
"z  c #5C330C",
"x  c #683405",
"c  c #783B05",
"v  c #673C16",
"b  c #612F03",
"n  c #493727",
"m  c #553D27",
"M  c #453D36",
"N  c #1B471C",
"B  c #1E561F",
"V  c #1F5222",
"C  c #264529",
"Z  c #374738",
"A  c #285029",
"S  c #256826",
"D  c #29792A",
"F  c #7D430E",
"G  c #6A421B",
"H  c #764518",
"J  c #48443D",
"K  c #544935",
"L  c #694625",
"P  c #744D27",
"I  c #7B532B",
"U  c #6C553B",
"Y  c #785637",
"T  c #674E32",
"R  c #56421C",
"E  c #263747",
"W  c #3B3E41",
"Q  c #343B46",
"!  c #293E51",
"~  c #343F51",
"^  c #1E3144",
"/  c #4E3D52",
"(  c #70394D",
")  c #3C4245",
"_  c #384657",
"`  c #2D4256",
"'  c #384C65",
"]  c #3D5268",
"[  c #434343",
"{  c #414C4D",
"}  c #4B4B4B",
"|  c #474946",
" . c #5F4D4D",
".. c #554D46",
"X. c #4B524B",
"o. c #58544C",
"O. c #454D56",
"+. c #445151",
"@. c #4E5353",
"#. c #4B565C",
"$. c #545454",
"%. c #5B5454",
"&. c #575A5B",
"*. c #5D5D5D",
"=. c #565858",
"-. c #58475B",
";. c #694C4C",
":. c #684949",
">. c #744040",
",. c #7E4646",
"<. c #754B4C",
"1. c #6D5B4B",
"2. c #685847",
"3. c #745A43",
"4. c #6F5555",
"5. c #635D5C",
"6. c #695F5F",
"7. c #665954",
"8. c #795858",
"9. c #694951",
"0. c #5D625C",
"q. c #5D604F",
"w. c #7B624B",
"e. c #64615D",
"r. c #6D645C",
"t. c #746557",
"y. c #60604F",
"u. c #485767",
"i. c #5B5E62",
"p. c #535B65",
"a. c #4A4965",
"s. c #635E60",
"d. c #4C6B6B",
"f. c #4A6464",
"g. c #5E6464",
"h. c #5C6269",
"j. c #536E6E",
"k. c #5A6769",
"l. c #4D7F7F",
"z. c #537C7C",
"x. c #5A7575",
"c. c #646464",
"v. c #6A6662",
"b. c #626969",
"n. c #6B6D6D",
"m. c #606468",
"M. c #726C6C",
"N. c #647373",
"B. c #687878",
"V. c #B61C25",
"C. c #9E2B2B",
"Z. c #8A3636",
"A. c #973434",
"S. c #973D3D",
"D. c #922C39",
"F. c #A82929",
"G. c #B62121",
"H. c #A02531",
"J. c #BB1B1F",
"K. c #DF0B0C",
"L. c #C41919",
"P. c #CC1515",
"I. c #D21212",
"U. c #D60E12",
"Y. c #EF0404",
"T. c #E60909",
"R. c #894508",
"E. c #954B0A",
"W. c #994D09",
"Q. c #924907",
"!. c #9E510B",
"~. c #894C16",
"^. c #8B511E",
"/. c #955115",
"(. c #924E12",
"). c #A2530B",
"_. c #845429",
"`. c #805B38",
"'. c #823441",
"]. c #864444",
"[. c #825454",
"{. c #806144",
"}. c #2C862D",
"|. c #4E8484",
" X c #558A8A",
".X c #5C8888",
"XX c #4E9999",
"oX c #5C9595",
"OX c #5F9898",
"+X c #509999",
"@X c #638484",
"#X c #698181",
"$X c #658B8B",
"%X c #609797",
"&X c #619B9B",
"*X c #55A9A9",
"=X c #5CADAD",
"-X c #55A4A4",
";X c #4FB2B2",
":X c #54BCBC",
">X c #5BBDBD",
",X c #51B1B1",
"<X c #4CA6A6",
"1X c #64A9A9",
"2X c #6DACAC",
"3X c #72ADAD",
"4X c #63BFBF",
"5X c #5EC0C0",
"6X c #5CC8C8",
"7X c #61C1C1",
"8X c #64CCCC",
"9X c #6ACFCF",
"0X c #6BC0C0",
"qX c #76C3C3",
"wX c #6BD0D0",
"eX c #73D3D3",
"rX c #7DDBDB",
"tX c #7AD5D5",
"yX c #80C6C6",
"uX c #86D5D5",
"iX c #83DCDC",
"pX c #8CDBDB",
"aX c #8FD7D7",
"sX c #92DFDF",
"dX c #8DE3E3",
"fX c #85E0E0",
"gX c #93E3E3",
"hX c #9BE6E6",
"jX c #A4E7E7",
"kX c #A6E8E8",
"lX c #A9E9E9",
"zX c #B2EBEB",
/* pixels */
"5 5 5 5 5 5 5 5 5 5 5 5 5 5 5 5 5 5 5 5 5 5 5 5 5 5 5 1 5 5 5 5 5 5 5 5 5 5 5 5 5 5 5 5 5 5 5 5 5 5 5 5 % 5 5 5 5 5 5 5 5 5 5 5 5 5 5 5 5 5 5 5 5 5 5 5 5 5 5 5 5 5 5 5 5 5 5 5 5 5 5 5 5 5 5 5 5 5 5 5 5 5 5 5 5 5 5 5 5 2 5 5 5 5 5 5 5 5 5 5 5 5 5 5 5 5 5 5 5 5 5 5 5 5 5 5 5 5 5 % 5 5 5 5 5 5 5 5 5 5 5 5 5 5 5 5 5 5 5 5 5 5 5 5 5 5 5 5 5 5 5 5 5 5 5 5 5 5 5 5 5 5 5 5 5 5 5 5 5 5 5 5 5 5 5 5 5 5 5 5 5 5 5 5 5 5 5 5 5 5 5 5 5 5 5 5 5 5 5 5 5 5 5 5 5 5 5 5 5 5 5 5 5 5 5 5 5 5 5 5 5 5 5 5 5 5 5 5 5 5 5 5 5 5 5 5 5 5 5 5 5 5 5 5 5 5 5 5 5 5 5 5 5 5 5 5 5 5 5 5 5 5 5 5 5 % 5 5 5 5 5 5 5 5 5 5 5 5 5 % 5 5 5 5 5 5 5 5 5 5 5 5 5 5 5 5 5 5 5 5 ",
"5 5 5 5 5 5 5 5 5 5 5 5 5 5 5 5 5 5 5 5 5 5 5 5 5 5 5 5 5 5 5 5 5 5 5 5 5 5 5 5 5 5 5 5 5 5 5 5 5 5 5 5 5 5 5 5 5 5 5 5 5 5 5 5 5 5 5 5 5 5 5 5 5 5 5 5 5 5 5 5 5 5 5 5 5 5 5 5 5 5 5 5 5 5 5 5 5 5 5 5 5 5 5 5 5 5 % 5 5 5 5 5 5 5 5 5 5 5 5 5 5 5 5 5 5 5 5 5 5 5 5 5 5 5 5 5 5 5 5 5 5 5 5 5 5 5 5 5 5 5 5 5 5 5 % 5 5 5 5 5 5 5 5 5 5 5 5 5 5 5 5 5 5 5 5 5 5 5 5 5 5 5 5 5 5 5 5 5 5 5 5 5 5 5 5 5 5 5 5 5 5 5 5 5 5 5 5 5 5 5 5 5 5 5 5 5 5 5 5 5 5 5 5 5 5 5 5 5 5 5 5 5 5 5 5 5 5 5 5 5 5 5 5 5 5 5 5 5 5 5 5 5 5 5 5 5 5 5 5 5 5 5 5 5 5 5 5 5 5 5 5 5 5 5 5 5 5 5 5 5 5 5 5 5 5 5 5 5 5 5 5 5 5 5 5 5 5 5 5 5 5 5 5 5 5 5 5 5 5 5 5 5 5 5 5 5 5 5 5 5 ",
"5 5 5 5 5 5 5 5 5 5 5 5 5 5 5 5 5 5 5 5 5 5 5 5 5 5 5 5 5 5 5 5 5 5 5 5 5 5 5 5 5 5 5 5 5 5 5 5 5 5 5 5 5 5 5 5 5 5 5 5 5 5 5 5 5 5 5 5 5 5 5 1 5 5 5 5 5 5 5 5 5 5 5 5 5 5 5 5 5 5 5 5 5 5 5 5 5 5 5 5 5 5 5 5 5 5 5 5 5 5 5 5 5 5 5 5 5 5 5 5 5 5 5 5 5 5 5 5 5 5 5 5 5 5 5 5 5 5 5 5 5 2 5 5 5 5 5 5 5 5 5 5 5 5 5 5 5 5 5 5 5 5 5 5 5 5 5 5 5 5 5 5 5 5 5 5 5 5 5 5 5 5 5 5 5 5 5 5 5 5 5 5 5 5 5 5 5 5 5 5 5 5 5 5 5 5 5 5 5 5 5 5 % 5 5 5 5 5 5 5 5 5 5 1 5 5 5 5 5 5 5 5 5 5 5 5 1 5 5 5 5 5 5 5 5 5 5 5 5 5 5 5 5 5 5 5 5 5 5 5 5 5 5 5 5 5 5 5 5 5 5 5 5 5 5 5 5 5 5 5 5 5 5 5 5 5 2 5 5 5 5 5 5 5 5 5 5 5 5 5 5 5 5 5 5 5 5 5 5 5 5 5 5 5 5 5 5 5 5 5 ",
"5 5 5 5 5 5 5 5 5 5 5 5 5 5 5 5 5 5 5 5 5 5 % 5 5 5 5 5 5 5 5 5 5 5 5 5 5 5 5 5 5 5 5 5 5 5 5 1 5 5 5 5 5 5 5 5 5 5 5 5 5 5 5 5 5 5 5 5 5 5 5 5 5 5 5 5 5 5 5 5 5 5 5 5 5 5 5 5 5 5 5 5 5 5 5 5 5 5 5 5 5 5 5 5 5 5 5 5 5 5 5 5 5 5 5 5 5 5 5 5 5 5 5 5 2 5 5 5 5 5 5 5 5 5 5 5 5 5 5 5 5 5 5 5 5 5 5 5 5 5 5 5 5 5 5 5 5 5 5 5 % 5 5 5 5 5 5 5 5 5 5 5 5 5 5 5 5 5 5 5 5 5 5 5 5 5 5 5 5 5 5 5 5 5 5 5 5 5 5 5 5 5 5 5 5 5 5 5 5 5 5 5 5 5 5 5 5 5 5 5 5 5 5 5 5 5 5 5 5 5 5 5 5 5 5 5 5 5 5 5 5 5 5 5 5 5 5 5 5 5 5 5 5 5 5 5 5 5 5 5 5 5 5 5 5 5 5 5 5 5 5 5 5 5 5 5 5 5 5 5 5 5 5 5 5 5 5 5 5 5 5 5 5 5 5 5 5 5 5 5 5 5 5 5 5 5 5 5 5 5 5 5 5 5 5 5 5 5 5 5 ",
"5 5 5 5 5 5 5 5 5 5 5 5 5 5 5 5 5 5 5 5 5 5 5 5 5 5 5 5 5 5 5 5 5 5 5 5 5 5 5 5 5 5 5 5 5 5 5 5 5 5 5 5 5 5 5 5 5 5 5 5 5 5 5 5 5 5 5 5 5 5 5 5 5 5 5 5 5 5 5 5 5 5 5 5 5 5 5 5 5 5 5 5 5 5 5 5 5 5 5 5 5 5 5 5 5 5 5 5 5 5 5 5 5 5 5 5 5 5 5 5 5 5 5 5 5 5 5 5 5 5 5 5 5 5 5 5 5 5 5 5 5 5 5 5 5 5 5 5 5 5 5 5 5 5 5 5 5 5 1 5 5 5 5 5 5 5 5 5 1 5 5 5 5 5 5 5 5 5 5 5 5 5 5 5 5 5 5 5 5 5 5 5 5 5 5 5 5 5 5 5 5 5 5 5 5 5 5 5 5 5 5 5 5 5 5 5 5 5 5 5 5 5 5 5 5 5 5 5 5 5 5 5 5 5 5 5 % 5 5 5 5 5 5 5 5 5 5 5 5 5 5 5 5 5 5 5 5 5 5 5 5 5 5 5 5 5 5 5 5 5 1 5 5 5 5 5 5 5 5 5 5 5 5 5 5 5 5 5 5 5 5 5 5 5 5 5 5 5 5 5 5 5 1 5 5 5 5 5 5 5 5 5 5 5 % 5 5 5 5 5 ",
"5 5 5 5 5 5 5 5 5 5 5 5 5 5 5 5 5 5 5 5 5 5 5 5 5 5 5 5 5 5 5 5 5 5 5 5 5 5 5 5 5 5 5 5 5 5 5 5 5 5 5 5 5 5 5 5 5 5 5 5 5 5 5 5 5 5 5 5 5 5 5 5 5 5 5 5 5 5 5 5 5 % 5 5 5 5 5 5 5 5 5 5 5 5 5 5 5 5 5 5 5 5 5 5 5 5 5 5 5 5 5 5 5 5 5 5 5 5 5 5 5 5 5 5 5 5 5 5 5 5 % 5 5 5 5 5 5 5 5 5 5 5 5 5 5 5 5 5 5 5 5 5 5 5 5 5 5 5 5 5 5 5 5 5 5 5 5 5 5 5 5 5 5 5 5 5 5 5 5 5 5 5 5 5 5 5 5 5 5 5 5 5 5 5 5 5 5 5 5 5 5 5 5 5 5 5 5 5 5 5 5 5 5 5 5 5 5 5 5 5 5 5 5 5 5 5 5 5 5 5 5 5 5 5 5 5 5 5 5 5 5 5 5 5 5 5 5 5 5 5 5 5 5 5 5 5 5 5 5 5 5 5 5 5 5 5 5 5 5 5 5 5 5 5 5 5 5 5 5 5 5 5 5 5 5 5 5 5 5 5 5 5 5 5 5 5 5 5 5 5 5 5 5 5 5 5 5 5 5 5 5 5 5 5 5 5 5 5 5 5 ",
"5 5 5 5 5 5 5 5 5 5 5 5 5 5 5 5 5 5 5 5 5 5 5 5 5 5 5 5 5 5 5 5 5 5 5 5 5 5 5 5 5 5 5 5 5 5 5 5 5 5 5 5 5 5 5 5 5 5 5 5 5 5 5 5 5 5 5 5 5 5 5 5 5 5 5 5 5 5 5 5 5 5 5 5 5 5 5 5 5 5 5 5 5 5 5 5 5 5 5 5 5 5 5 5 5 5 5 5 5 5 5 5 5 5 5 5 5 5 5 5 5 5 5 5 5 5 5 5 5 5 5 5 5 5 5 5 5 5 5 5 5 5 5 5 5 5 5 5 5 5 5 5 5 5 5 5 5 5 5 5 5 5 5 5 5 5 5 5 5 5 5 5 5 5 5 5 5 5 5 5 5 5 5 5 5 5 5 5 5 5 5 5 5 5 5 5 5 5 5 5 5 5 O 5 5 5 5 5 5 5 5 5 5 5 5 5 5 5 5 5 5 5 5 5 5 5 5 5 5 5 5 5 5 5 5 5 5 5 5 5 5 5 5 5 5 5 5 5 5 5 5 5 5 5 5 5 5 5 5 5 5 5 2 5 5 5 5 5 5 5 5 5 5 5 5 5 5 5 5 5 5 5 5 5 5 5 5 5 5 5 5 5 5 5 5 5 5 5 5 5 5 5 5 5 5 5 5 5 5 5 5 5 5 5 5 5 5 5 5 5 ",
"5 5 5 5 5 5 5 5 5 5 5 5 O 5 5 5 5 5 5 5 5 5 5 5 5 5 5 5 5 5 5 5 5 5 5 5 5 5 5 5 5 5 5 5 5 5 5 5 5 5 5 5 5 5 5 5 5 5 5 5 5 5 5 5 5 5 5 5 5 5 5 % 5 5 5 5 5 5 5 5 5 5 5 5 5 5 5 5 5 5 5 5 5 5 5 5 5 5 5 5 5 5 5 5 5 5 5 5 5 5 5 5 5 5 5 5 5 5 5 5 5 5 % 5 5 5 5 5 5 5 5 5 5 5 5 5 5 5 5 5 5 5 5 5 5 5 5 5 5 5 5 5 5 5 5 5 5 5 5 5 5 5 5 5 5 5 5 5 5 5 5 5 5 5 5 5 5 5 5 5 5 5 5 5 5 5 1 5 5 5 5 5 5 5 5 5 5 5 5 5 5 5 5 5 5 5 5 5 5 5 5 5 5 5 5 5 5 5 5 5 5 5 5 5 5 5 5 5 5 5 5 5 5 5 5 5 5 5 5 5 5 5 5 5 5 5 5 5 5 5 5 5 5 5 5 5 5 5 5 5 5 5 5 5 5 % 5 5 5 5 5 5 5 5 5 5 5 5 5 5 5 5 5 5 5 5 5 5 5 5 5 5 5 5 5 5 5 5 5 5 5 5 5 5 5 5 5 5 5 5 5 5 5 5 5 5 5 5 5 5 ",
"5 5 5 5 5 5 5 5 5 5 5 5 5 5 5 5 5 5 5 5 5 5 5 5 5 5 5 5 5 5 5 5 5 5 5 5 5 5 5 5 5 5 5 5 5 5 5 5 5 5 5 5 5 5 5 5 5 5 5 5 1 5 5 5 5 5 5 5 5 5 5 5 5 5 5 5 5 5 5 5 5 5 5 5 5 5 5 5 5 5 5 5 5 5 5 5 5 5 5 5 5 5 5 5 5 5 5 5 5 5 5 5 5 5 5 5 5 5 5 5 5 5 5 5 5 5 5 5 5 5 5 5 5 5 5 5 5 5 5 5 5 5 5 5 5 5 5 5 5 5 5 5 5 5 5 5 5 5 5 5 5 5 5 5 5 5 5 5 5 5 5 5 5 5 5 5 5 5 5 5 5 5 5 5 5 5 5 5 5 % 5 5 5 5 5 5 5 5 % 5 5 5 5 5 5 5 5 5 5 5 5 5 5 5 5 5 5 5 5 5 5 5 5 5 5 5 5 5 5 5 5 5 5 5 5 5 5 5 5 5 5 5 5 5 5 5 5 5 5 % 5 5 5 5 5 5 5 5 5 5 5 5 5 5 5 5 5 5 5 5 5 5 5 5 5 5 5 5 5 5 5 5 5 5 5 5 5 5 5 5 5 5 5 5 5 5 5 5 5 5 5 5 5 5 5 5 5 5 5 5 5 5 5 5 % 5 5 5 5 5 ",
"5 5 5 5 5 5 5 2 5 5 5 5 5 5 5 5 5 5 5 5 5 5 5 5 5 5 5 5 5 5 5 5 5 5 5 5 5 5 5 5 5 % 5 5 5 5 5 5 5 5 5 5 5 5 5 5 5 5 5 5 5 5 5 5 5 5 5 5 5 5 5 5 5 5 5 5 5 5 5 5 5 5 5 5 5 5 5 5 5 5 5 5 5 5 1 5 5 5 5 5 5 5 5 5 5 5 5 5 5 5 5 5 5 5 5 5 5 5 5 5 5 5 5 5 5 5 5 5 5 5 5 5 5 5 5 5 5 5 5 5 5 5 5 5 5 5 5 5 5 5 5 5 5 5 5 5 5 5 5 5 5 5 5 5 5 5 5 5 5 5 5 5 5 5 5 5 5 5 5 5 5 5 5 5 5 5 5 5 5 5 5 5 5 5 5 5 5 5 5 5 5 5 5 5 5 5 5 5 5 5 5 5 5 5 5 5 5 5 5 5 5 5 5 5 5 5 5 5 5 5 5 5 5 5 2 5 5 5 5 5 5 5 5 5 5 5 5 5 5 5 5 5 5 5 5 5 5 5 5 5 5 5 5 5 5 5 5 5 5 5 5 5 5 5 5 5 5 5 5 5 5 5 5 5 5 5 5 5 5 5 5 5 5 5 5 5 5 5 5 5 5 5 5 5 5 5 5 5 5 5 5 5 5 5 5 5 5 5 5 5 ",
"5 5 5 5 5 5 5 > 5 5 5 5 5 5 5 5 5 5 5 5 5 5 5 5 5 5 5 5 5 5 5 5 5 5 5 5 5 5 5 5 5 5 5 5 5 5 5 5 5 5 5 5 5 5 5 5 5 5 5 5 5 5 5 5 5 5 5 5 5 5 5 5 5 5 % 5 5 5 5 5 5 5 5 5 5 5 5 5 5 5 5 5 5 5 5 5 5 5 5 5 5 5 5 5 5 5 5 5 5 5 5 5 5 5 5 5 5 5 5 5 5 5 % 5 5 5 5 5 5 5 5 5 5 5 5 5 5 5 5 5 5 5 5 5 5 5 5 5 5 5 5 5 5 5 5 5 5 5 5 5 5 5 5 5 5 5 5 5 5 5 5 5 5 5 5 5 5 5 5 5 5 5 5 5 5 5 5 5 5 5 5 5 5 5 5 5 2 5 5 5 5 5 5 5 5 5 5 5 5 5 5 5 5 5 5 5 5 5 5 5 5 5 5 5 5 5 5 5 5 5 5 5 5 5 5 5 5 5 5 5 5 5 5 5 5 5 5 5 5 5 5 5 5 5 5 5 5 5 5 5 5 5 % 5 5 5 5 5 5 5 5 5 5 5 5 5 5 5 5 5 5 O 5 5 5 5 5 5 5 5 5 5 5 5 5 5 5 5 5 5 5 5 5 5 5 5 5 5 1 5 5 5 5 5 5 5 5 5 5 5 ",
"5 5 5 5 5 5 5 5 5 5 5 5 5 5 5 5 5 5 5 5 5 5 5 5 5 5 5 5 5 5 5 5 5 5 5 5 5 5 5 5 5 5 5 5 5 5 5 5 5 5 5 5 5 5 5 5 5 5 5 5 5 5 5 5 5 5 5 5 5 5 5 5 5 5 5 5 5 5 5 5 5 5 5 5 5 5 5 5 5 5 5 5 5 5 5 5 5 5 5 5 5 5 5 5 5 5 5 5 5 5 5 5 5 5 5 5 5 5 5 5 5 5 5 5 5 5 5 5 5 5 5 5 5 5 5 5 5 5 5 5 5 5 5 5 5 5 5 5 5 5 5 5 5 5 5 5 5 5 5 5 5 5 5 5 5 5 5 5 5 5 5 5 5 5 5 5 5 5 5 5 5 5 5 5 5 5 5 5 5 5 5 5 5 5 5 5 5 5 5 5 5 5 5 5 5 5 5 5 5 5 5 5 5 5 5 5 5 5 5 5 5 5 5 5 5 5 5 5 5 5 5 5 5 5 5 5 5 5 5 5 5 5 5 5 % 5 5 5 5 5 5 2 5 5 5 5 5 5 5 5 5 5 5 5 5 5 5 5 5 5 5 5 5 5 5 5 5 5 5 5 5 5 5 5 5 5 5 5 5 5 5 5 5 5 5 5 5 5 5 5 5 5 5 5 5 5 5 5 5 5 5 5 5 5 5 5 5 5 5 5 ",
"5 5 5 5 5 5 5 5 5 5 5 5 5 5 5 5 5 % 2 5 5 5 5 5 5 5 5 5 5 5 5 5 5 5 5 5 5 5 5 5 5 5 5 5 5 5 5 5 5 5 5 5 5 5 5 5 5 5 5 5 5 5 5 5 5 5 5 5 5 5 5 5 5 5 5 5 5 5 5 5 5 2 5 5 5 5 5 5 5 5 5 5 5 5 5 5 5 5 5 5 5 5 5 5 5 5 5 5 5 5 5 5 5 5 5 1 5 5 5 5 5 5 5 5 5 5 5 5 5 5 5 5 5 5 5 5 5 5 5 5 5 5 5 5 5 5 5 5 5 5 5 5 5 5 5 5 5 5 5 5 5 5 5 5 5 5 5 5 5 5 5 5 5 5 5 5 5 5 5 5 5 5 5 5 5 5 5 5 5 5 5 5 5 5 5 5 5 5 5 5 5 5 5 5 5 5 5 5 5 5 1 5 5 5 5 5 5 5 5 5 5 5 5 5 5 5 5 5 5 5 5 5 5 5 5 5 5 5 5 5 5 5 5 5 5 5 5 5 5 5 5 5 5 5 5 5 5 5 5 5 5 5 5 5 5 5 5 5 5 5 5 5 5 5 5 5 5 5 5 5 5 5 5 5 5 5 5 5 5 5 5 5 5 5 5 5 5 5 5 5 5 5 5 5 5 5 5 5 5 5 5 5 5 5 5 5 5 5 5 5 ",
"5 5 5 5 5 5 5 5 5 5 5 5 5 5 5 5 5 5 5 5 5 5 5 5 5 5 5 5 5 5 5 5 5 5 5 5 5 5 5 5 5 5 5 5 5 5 5 5 % 5 5 5 5 5 5 5 5 5 5 5 5 5 5 5 5 5 5 5 5 5 5 5 5 5 5 5 5 5 5 5 5 5 5 5 5 5 5 5 5 5 5 5 5 5 5 5 5 5 5 5 5 5 5 5 5 5 5 5 5 5 5 5 5 5 5 5 5 5 5 5 5 5 5 5 5 5 5 5 5 5 5 5 5 1 5 5 5 5 5 5 5 5 5 5 5 5 5 5 5 5 5 5 5 5 5 5 5 5 5 5 5 5 5 5 5 5 5 5 5 5 5 5 5 5 5 5 5 5 5 % 5 5 5 5 5 5 5 5 5 5 5 5 5 5 5 5 5 5 5 5 5 5 5 5 5 5 5 5 5 5 5 5 5 5 5 5 5 5 5 5 5 5 5 5 5 5 5 5 5 5 5 % 5 5 5 5 5 5 5 5 5 5 5 1 5 5 5 5 5 5 5 5 5 5 5 5 5 5 5 5 5 5 5 5 5 5 5 5 5 5 5 5 5 5 5 5 5 5 5 5 5 5 5 5 5 5 5 5 5 5 5 5 5 5 5 5 5 5 5 5 5 5 5 5 5 5 5 5 5 5 5 5 5 5 5 5 5 5 5 5 ",
"5 5 5 5 5 5 5 5 5 5 5 5 5 5 5 5 5 5 5 5 5 5 5 5 5 5 5 5 5 5 5 5 5 5 5 5 1 5 5 5 5 5 5 5 5 5 5 5 5 5 5 5 5 5 5 5 5 5 5 5 5 5 5 5 5 5 5 5 5 5 5 5 5 5 5 5 5 5 5 5 5 5 5 5 5 5 5 5 5 5 5 5 5 5 5 5 5 5 5 5 5 5 5 5 5 5 5 5 5 5 5 5 5 5 5 5 5 5 5 5 5 5 5 5 5 5 5 5 5 5 5 5 5 5 5 5 5 5 5 5 5 5 5 5 5 5 5 5 5 5 5 5 5 5 5 5 5 5 5 5 5 5 5 5 5 5 5 5 5 5 5 5 5 5 5 5 5 5 5 5 5 5 5 5 5 5 5 5 5 5 5 5 5 5 5 5 5 5 5 5 5 5 5 5 5 5 5 5 5 5 5 5 5 5 5 5 5 5 5 5 5 5 5 5 5 5 5 5 5 5 5 5 5 5 5 5 5 5 5 5 5 5 5 5 5 5 5 5 5 5 5 5 5 5 5 5 5 5 5 5 5 5 5 5 5 5 5 5 5 5 5 5 5 5 5 5 5 5 5 5 5 5 5 5 5 5 5 5 5 5 5 5 5 5 5 5 5 5 5 5 5 5 5 5 5 5 5 5 5 5 5 5 5 5 5 5 5 5 5 5 ",
"5 5 5 5 5 5 5 5 5 5 5 5 5 5 5 5 5 5 5 5 5 5 5 5 5 5 5 5 5 5 5 5 5 5 5 5 5 5 5 5 5 5 5 5 5 5 5 5 5 5 5 5 5 5 5 5 5 5 5 5 5 5 5 5 5 5 5 5 5 2 5 5 5 5 5 5 5 5 5 5 5 5 5 5 5 5 5 5 5 % 5 5 5 5 5 5 5 5 5 5 5 5 5 1 5 5 5 5 5 5 % 5 5 5 5 5 5 5 5 5 5 5 5 5 5 5 5 5 5 5 5 5 5 5 5 5 5 5 5 5 5 5 5 5 5 5 5 5 5 5 5 5 5 5 5 5 5 5 5 5 5 5 5 5 5 5 5 5 5 5 5 1 5 5 5 5 5 5 5 5 5 2 5 5 5 5 5 5 5 5 5 5 5 5 5 5 5 5 5 5 5 5 5 5 5 5 5 5 5 5 5 5 5 5 5 5 5 5 5 5 5 5 5 5 5 5 5 5 5 5 5 5 5 5 5 5 5 5 5 5 5 5 5 5 5 5 5 5 5 5 5 5 5 5 5 5 5 5 5 5 5 5 5 5 5 5 5 5 5 5 5 5 5 5 5 5 5 5 5 5 5 5 5 5 5 5 5 5 5 5 5 5 5 5 5 5 5 5 5 5 5 5 5 5 5 5 5 5 5 5 5 5 5 5 5 5 5 5 5 5 ",
"5 5 5 5 5 5 5 5 5 5 5 5 5 5 5 5 5 5 5 1 5 5 5 5 5 5 5 5 5 5 5 5 5 5 5 5 5 5 5 5 5 5 5 5 5 5 5 1 5 5 5 5 5 5 5 5 5 5 5 5 5 5 5 5 5 5 5 5 5 5 5 5 5 5 5 5 5 5 5 5 5 5 5 5 2 5 5 5 5 5 5 5 5 5 5 5 5 5 5 5 5 5 5 5 5 5 5 5 5 5 5 5 5 5 5 5 5 5 5 5 5 5 5 5 5 5 5 5 5 5 5 5 5 5 5 5 5 5 5 5 5 5 5 5 5 1 5 5 5 5 5 5 5 5 5 5 5 5 5 5 5 5 5 5 5 5 5 5 5 5 5 5 5 5 5 5 5 5 5 5 5 5 5 5 5 5 5 5 5 5 5 5 5 5 5 5 5 5 5 5 5 5 5 5 5 5 5 5 5 5 5 5 5 5 5 5 5 5 5 5 5 5 5 5 5 5 5 5 5 5 5 5 5 5 5 5 5 5 5 5 5 5 5 5 5 5 5 5 5 5 5 5 5 5 5 5 5 5 5 5 5 5 5 5 % 5 5 5 5 5 5 5 5 5 5 5 5 5 5 5 5 5 5 5 5 5 5 5 5 5 5 5 5 5 5 5 5 5 5 5 5 5 5 5 5 5 5 5 5 5 5 5 5 5 5 5 5 5 5 5 ",
"5 5 5 5 5 5 5 5 5 5 5 5 5 5 5 5 5 5 5 5 5 5 5 5 5 5 5 5 5 5 5 5 5 5 5 5 5 5 5 5 5 5 5 5 5 5 5 5 5 5 5 5 5 5 5 5 5 5 5 5 5 5 5 5 5 5 5 5 5 5 5 5 5 5 5 5 5 5 5 5 5 5 5 5 > 5 5 5 5 5 5 5 5 5 5 5 5 5 5 5 5 5 5 5 5 5 5 5 5 5 5 5 5 5 5 5 5 5 5 1 5 5 5 5 5 5 5 5 5 5 5 5 5 5 5 5 5 5 5 5 1 5 5 5 5 5 5 5 5 5 5 5 5 5 5 5 5 5 5 5 5 5 5 5 5 5 5 5 5 5 5 5 5 5 5 5 5 5 5 5 5 5 5 5 5 5 5 5 5 5 5 5 5 5 5 5 5 5 5 5 5 5 5 5 5 5 5 5 5 5 5 5 5 5 5 5 5 5 5 5 5 5 % 5 5 5 5 5 5 5 5 5 5 5 5 5 5 5 5 5 5 5 5 5 5 5 5 5 5 5 5 5 5 5 5 5 5 5 5 5 5 5 5 5 5 5 5 5 5 5 5 5 5 5 5 5 5 5 5 5 1 5 5 5 5 5 5 5 5 O 5 5 5 5 5 5 5 5 5 5 5 5 5 5 5 5 5 5 5 5 5 5 5 5 5 5 5 5 5 5 ",
"5 5 5 5 > 5 5 5 5 5 5 5 5 5 5 5 5 5 5 5 5 5 5 5 5 5 5 5 5 5 5 5 5 5 5 5 5 5 5 5 5 5 5 5 5 5 5 5 5 5 5 5 5 5 5 5 5 5 5 5 5 5 5 5 5 5 5 5 5 5 1 5 5 5 5 5 5 5 5 5 5 5 5 5 5 5 5 5 5 5 5 5 5 5 5 5 5 5 5 5 5 5 5 5 5 5 5 5 5 5 5 5 5 5 5 5 5 5 5 5 5 5 5 5 5 5 5 5 5 5 5 5 5 5 5 5 5 5 5 5 5 5 5 5 5 5 5 5 5 5 5 5 5 5 5 5 5 5 5 5 5 5 5 5 5 5 5 5 5 5 5 5 5 5 5 5 5 5 5 5 5 5 5 5 5 5 5 5 5 5 % 5 5 5 5 5 5 5 5 5 5 5 5 5 5 5 5 5 5 5 5 5 5 5 5 5 5 5 5 5 5 5 5 5 5 5 5 5 5 5 5 5 5 5 5 5 5 5 5 5 5 5 5 5 5 5 5 5 5 5 5 5 5 5 5 5 5 5 5 5 5 5 5 5 5 5 5 5 5 5 5 5 5 5 > 5 5 5 5 5 5 5 5 5 5 5 5 5 5 5 5 5 5 5 5 5 5 5 5 5 5 5 5 5 5 5 5 5 5 5 5 5 5 5 5 5 5 5 5 5 ",
"5 5 5 1 5 5 5 5 5 5 5 5 5 5 5 5 5 5 5 5 5 5 5 5 5 5 5 5 5 5 5 5 5 5 5 5 5 5 5 5 5 5 5 5 5 5 5 5 5 5 5 5 5 5 5 5 5 5 5 5 5 5 5 5 5 5 5 5 5 5 5 5 5 5 5 5 5 5 5 5 5 5 5 5 5 5 5 5 5 5 5 5 5 5 5 5 5 5 5 5 5 5 5 5 5 5 5 5 5 5 5 5 5 5 5 5 5 5 5 5 5 5 5 5 5 5 5 5 5 5 5 5 5 5 5 5 5 5 5 5 5 5 5 5 5 5 5 5 5 5 5 5 5 5 5 5 5 5 5 5 5 1 5 5 5 5 5 5 5 5 5 5 5 5 5 5 5 5 5 5 5 5 5 5 5 5 5 5 5 5 5 5 5 5 5 5 5 5 5 5 5 5 5 5 5 5 5 5 1 5 5 5 5 5 % 5 5 5 5 5 5 5 5 5 5 5 5 5 5 5 5 5 5 5 5 5 5 5 5 5 5 5 5 5 5 5 5 5 5 5 5 5 5 5 5 5 5 5 5 5 5 5 5 5 5 5 5 5 5 5 5 5 5 5 5 5 5 5 5 5 5 5 5 5 5 5 5 5 5 5 5 5 5 5 5 5 5 5 5 5 5 5 5 5 5 5 5 5 5 5 5 5 5 5 5 5 5 5 5 5 ",
"5 5 5 5 5 5 5 5 5 5 5 5 5 5 5 5 5 5 5 5 5 5 5 5 5 5 5 5 5 5 5 5 5 5 5 5 5 5 5 5 5 5 5 5 5 5 5 5 5 5 5 5 5 5 5 5 5 5 5 5 5 5 5 5 5 5 5 5 5 5 5 5 5 5 5 5 5 5 5 5 5 5 5 5 5 5 5 5 5 > 5 5 5 5 5 5 5 5 5 5 5 5 5 5 5 5 5 5 5 5 5 5 5 5 5 5 5 5 5 5 5 5 5 5 5 1 5 5 5 5 5 5 5 5 5 5 5 5 5 5 5 5 5 5 5 5 5 5 5 5 5 5 5 5 5 5 5 5 5 5 5 5 5 5 5 5 5 5 5 5 5 5 5 5 % 5 5 5 5 5 5 5 5 5 5 5 5 5 5 5 5 5 5 5 5 5 5 5 5 5 5 5 5 5 5 5 5 5 5 5 5 5 5 5 5 5 5 5 5 5 5 5 1 5 5 5 5 5 5 5 5 5 5 5 5 5 5 5 5 5 5 5 5 5 5 5 5 5 5 5 5 5 5 5 5 5 5 5 5 5 5 5 5 5 5 5 5 5 5 5 5 5 5 5 5 5 5 5 5 5 5 5 5 5 5 5 5 5 5 5 5 5 5 5 5 5 5 5 5 5 5 5 5 5 5 5 5 5 5 5 5 5 5 5 5 5 5 5 5 5 ",
"5 5 5 5 5 5 5 5 5 5 5 5 5 5 5 5 5 5 5 5 5 5 5 5 5 5 5 5 5 5 5 5 5 5 5 5 5 5 5 5 5 5 5 5 5 5 5 5 5 5 5 5 5 5 5 5 5 5 5 5 5 5 5 5 5 5 5 5 5 5 5 5 5 5 5 5 5 5 5 5 5 5 5 5 5 5 5 5 5 2 5 5 5 5 5 5 5 5 5 5 5 5 5 5 5 5 5 5 5 5 5 5 5 5 5 5 5 5 5 5 5 5 5 5 5 5 5 5 % 5 5 5 5 5 5 5 5 5 5 5 5 5 5 5 5 5 5 5 5 5 5 5 5 5 5 5 5 5 5 5 5 5 5 5 5 5 5 5 5 5 5 5 5 5 5 5 5 5 5 5 5 5 5 5 5 5 5 5 5 5 5 5 5 5 5 % 5 5 5 5 5 5 5 5 5 5 5 5 5 5 5 5 5 5 5 5 5 5 5 5 5 5 5 5 5 5 % 5 5 5 5 5 5 5 5 5 5 5 5 5 5 5 5 5 5 5 5 5 5 5 5 5 5 5 5 5 5 5 5 5 5 5 5 5 5 5 5 5 5 5 5 1 5 5 5 5 5 5 5 5 5 5 5 5 5 5 5 5 5 5 5 5 5 5 5 5 5 5 5 5 5 5 5 5 5 5 5 5 5 5 5 5 5 5 5 1 5 5 5 5 ",
"5 5 5 5 5 5 5 5 5 5 5 5 5 5 5 5 5 5 5 5 5 5 5 5 5 5 5 5 5 5 1 5 5 5 5 5 5 5 5 5 5 5 5 5 5 5 5 5 5 5 5 5 5 5 5 5 5 5 5 5 5 5 5 5 5 5 5 5 5 5 5 5 5 5 5 5 5 5 5 5 5 5 5 5 5 5 5 5 5 5 5 5 5 5 5 5 5 5 5 5 5 5 5 5 5 5 5 5 5 5 5 5 5 5 5 5 5 5 5 5 5 5 5 5 5 5 5 5 5 5 5 5 5 5 5 5 5 5 5 5 5 5 5 5 5 5 5 5 5 5 5 5 5 5 5 5 5 5 5 5 5 5 5 5 5 5 5 5 5 5 5 5 5 5 5 5 5 5 5 5 5 5 5 5 5 5 5 5 5 5 5 5 5 5 5 5 5 5 5 5 5 5 5 5 5 5 5 5 5 5 5 5 5 5 5 5 5 5 5 5 5 5 5 5 5 5 5 5 5 5 5 1 5 5 5 5 5 5 5 5 5 5 5 5 5 5 5 5 5 5 5 5 5 5 5 5 5 5 5 5 5 5 5 5 5 5 5 5 5 5 5 5 5 5 5 5 5 5 5 5 5 5 5 5 5 5 5 5 5 5 5 5 5 5 5 5 5 5 5 5 5 5 5 5 5 5 5 5 5 5 5 5 5 5 5 5 5 5 5 5 ",
"5 5 5 5 5 5 5 5 5 5 5 5 % 5 5 5 5 5 5 5 5 5 5 5 5 5 5 5 5 5 5 5 5 5 5 5 5 5 5 5 5 5 5 5 5 5 5 5 5 5 5 5 5 1 5 5 5 5 5 5 5 5 5 5 5 5 5 5 5 5 5 5 5 5 5 5 5 5 5 5 5 5 5 5 5 5 5 5 5 5 5 5 5 5 5 5 5 5 5 5 5 5 5 5 5 5 5 5 5 5 5 5 5 5 5 5 5 5 5 5 5 5 5 5 5 5 5 5 5 5 5 5 5 5 5 5 5 5 5 5 5 5 5 5 5 % 5 5 5 5 5 5 5 5 5 5 5 5 5 5 5 5 5 5 5 5 5 5 5 5 5 5 5 5 5 5 5 5 5 5 5 5 5 5 5 5 5 5 5 5 5 5 5 5 5 5 5 5 5 5 5 5 5 5 5 5 5 5 5 5 5 5 5 5 5 5 5 5 5 5 5 5 5 5 5 5 5 5 5 5 5 5 5 5 5 5 5 5 5 5 5 5 5 5 5 5 5 5 5 5 5 5 5 5 5 5 5 5 5 5 5 5 5 5 5 5 5 5 5 5 5 5 5 1 5 5 5 5 5 5 5 5 5 5 5 5 5 5 5 5 5 5 5 5 5 5 5 5 5 5 5 5 5 5 5 5 5 5 5 5 5 1 5 5 5 5 5 5 5 5 ",
"5 5 5 5 5 5 5 5 5 5 5 5 5 5 5 5 5 5 5 5 5 5 5 5 5 5 5 5 5 5 5 5 5 5 5 5 5 5 5 5 5 5 5 5 5 5 5 5 5 5 5 5 5 5 5 5 5 5 5 5 5 5 5 5 5 % 5 5 5 5 5 5 5 5 5 5 5 5 5 5 5 5 5 5 5 5 5 5 5 5 5 5 5 5 5 5 5 5 5 5 5 5 5 5 5 5 5 5 5 5 5 5 5 5 5 5 5 5 5 5 5 5 5 5 5 5 5 5 5 5 5 5 5 5 5 5 5 5 5 5 5 5 5 5 5 5 5 5 5 5 5 5 5 5 5 5 5 5 5 5 5 5 5 5 5 5 5 5 5 5 5 5 5 5 5 5 5 5 5 5 5 5 5 5 5 5 5 5 5 5 5 5 5 5 5 5 5 5 5 5 5 5 5 5 5 5 5 5 5 5 5 5 5 5 5 5 5 5 5 5 5 5 5 5 5 5 5 5 5 5 5 5 5 5 5 5 5 5 5 5 5 5 5 5 5 5 5 5 5 5 5 5 5 5 5 1 5 5 5 5 5 5 5 2 5 5 5 5 5 5 5 5 5 5 5 5 5 5 5 5 5 5 5 5 5 5 5 5 5 5 5 5 % 5 1 5 5 5 5 5 5 5 5 5 5 5 5 5 5 5 5 5 5 5 5 5 5 5 5 5 ",
"5 5 5 5 5 5 5 5 5 5 5 5 5 5 5 5 5 5 5 5 5 5 5 5 5 5 5 5 5 5 5 5 5 5 5 5 5 5 5 5 5 5 5 5 % 5 5 5 5 5 5 5 5 5 5 5 5 5 5 5 5 5 5 5 5 5 5 5 5 5 5 5 5 5 5 5 5 5 5 5 5 1 5 5 5 5 5 5 5 5 5 5 5 5 5 5 5 5 5 5 5 5 5 5 5 5 5 % 5 5 5 5 5 5 5 5 5 5 5 5 5 5 5 5 5 5 5 5 5 5 5 5 5 5 5 5 5 5 5 5 5 5 5 5 5 5 5 % 5 5 5 5 5 5 5 5 5 5 5 5 5 5 5 5 5 5 5 5 5 5 5 5 5 5 5 5 5 5 5 5 5 5 5 5 5 5 5 5 5 5 5 5 5 5 5 5 5 5 5 5 5 5 5 5 5 5 5 5 5 5 5 5 5 5 5 5 5 5 5 5 5 5 5 5 5 5 5 5 5 5 5 5 5 5 5 5 5 5 5 5 5 5 5 5 5 5 5 5 5 5 5 5 5 5 5 5 5 5 5 5 5 5 5 5 5 5 5 5 5 5 5 5 5 5 5 5 5 5 5 5 5 5 5 5 5 5 5 5 5 5 5 5 5 5 5 5 5 5 5 5 5 5 5 5 5 5 5 5 5 5 5 5 5 5 5 5 5 5 5 5 ",
"5 5 5 5 5 5 5 5 5 5 5 5 5 5 5 5 5 5 5 5 5 5 5 5 5 5 5 5 5 5 5 5 5 5 5 5 5 5 5 5 5 5 5 5 5 5 5 5 5 5 5 5 5 5 2 5 5 5 5 5 5 5 5 5 5 5 5 5 5 5 5 5 5 5 5 5 5 5 5 5 5 5 5 5 5 5 5 5 5 5 5 5 5 5 5 5 5 5 5 5 5 5 5 1 5 5 5 5 5 5 5 5 5 % 5 5 5 5 5 5 5 5 5 5 5 5 5 5 5 5 5 5 5 5 5 5 5 5 5 5 5 5 5 5 5 5 5 5 5 5 5 5 5 5 5 5 5 5 5 1 5 5 5 5 5 5 5 5 5 5 5 5 5 5 5 5 5 5 5 5 5 5 5 5 5 5 5 5 5 5 5 5 5 5 5 1 5 5 5 5 5 5 5 5 5 5 5 5 5 5 5 5 5 5 5 5 5 5 5 5 5 5 5 5 5 5 5 5 5 5 5 5 5 5 5 5 5 5 5 5 5 5 5 5 5 5 5 5 5 5 5 5 5 5 5 5 5 5 % 5 5 5 5 5 5 5 5 5 5 5 5 5 5 5 5 5 5 5 5 5 5 5 5 5 5 5 5 5 5 5 5 5 5 5 5 5 5 5 5 5 5 5 5 5 5 5 5 5 5 5 5 5 5 5 5 5 5 5 5 5 ",
"5 5 5 5 5 5 5 5 5 5 5 5 5 5 5 5 5 5 5 5 5 5 5 5 5 5 5 5 5 5 5 5 5 5 5 5 5 5 5 5 5 5 5 5 5 5 5 5 5 5 5 5 5 5 5 5 5 5 5 5 5 5 5 5 5 5 5 5 5 5 5 5 5 5 5 5 5 5 5 5 5 5 5 5 5 5 5 5 5 5 5 5 5 5 5 5 5 5 5 5 5 5 5 5 5 5 5 5 5 5 5 5 5 5 5 5 5 5 5 5 5 5 5 5 5 5 5 5 5 5 5 5 5 5 5 5 5 5 5 5 5 5 5 5 5 5 5 5 5 5 5 5 5 5 5 5 5 5 5 5 5 5 5 5 5 5 5 5 5 5 5 % 5 5 5 5 5 5 5 5 5 5 5 5 5 5 5 5 5 5 5 5 5 5 5 5 5 5 5 5 5 5 5 5 5 5 5 5 5 5 5 5 5 5 5 5 5 5 5 5 5 5 5 5 5 5 5 5 5 5 5 5 5 5 5 5 5 5 5 5 5 5 5 5 5 5 5 5 5 5 5 5 5 5 5 5 5 5 5 5 5 5 5 5 5 5 5 5 5 5 5 5 5 5 5 5 5 5 5 5 5 5 5 5 5 5 5 5 5 5 5 5 5 5 5 5 5 5 5 5 5 5 5 5 5 5 5 5 5 5 5 5 5 5 5 5 5 5 5 5 ",
"5 5 5 5 5 5 5 5 5 5 5 5 5 5 5 5 5 5 5 5 5 5 5 5 5 5 5 5 5 5 5 5 5 5 % 5 5 5 5 5 5 5 5 5 5 5 5 5 5 5 5 5 5 5 5 5 5 5 5 5 5 5 5 5 5 5 5 5 5 5 5 5 5 5 5 5 5 5 5 5 5 5 5 5 5 5 5 5 5 5 5 5 5 5 5 5 5 5 5 5 5 5 5 5 5 5 5 5 5 5 5 5 5 5 5 5 5 5 5 5 5 5 5 5 5 5 5 5 5 5 5 5 5 5 5 5 5 5 5 5 5 5 5 5 5 5 5 5 5 5 5 5 5 5 5 5 5 5 5 5 5 5 5 5 5 5 5 5 5 5 5 5 5 5 5 5 5 5 5 5 5 5 5 5 5 5 5 5 5 5 5 5 5 5 5 5 5 5 5 5 5 5 5 5 5 5 5 5 5 5 5 5 5 5 5 5 5 5 5 5 5 5 5 5 5 5 5 5 5 5 5 5 5 5 5 5 5 5 5 5 5 5 5 5 5 5 5 5 5 5 5 5 5 5 5 5 5 5 5 5 5 5 5 5 5 5 5 5 5 5 5 5 5 5 5 5 5 5 5 5 5 5 5 5 5 5 5 5 5 5 5 5 5 5 5 5 5 5 5 5 5 5 5 5 5 % 5 5 5 5 5 5 5 5 5 5 5 5 5 5 ",
"5 5 5 5 1 5 5 5 5 5 5 5 5 5 5 5 5 5 5 5 5 5 5 5 5 5 5 % 5 5 5 5 5 5 2 5 5 5 5 5 5 5 5 5 5 5 5 5 5 5 5 5 5 5 5 5 5 5 5 % 5 5 5 5 5 5 5 5 5 5 5 5 5 5 5 5 5 5 5 5 5 5 5 5 5 5 5 5 5 5 5 5 5 5 5 5 5 5 5 5 5 5 5 5 5 5 5 5 5 5 5 5 5 5 5 5 5 5 5 5 5 5 5 5 5 5 5 5 5 5 5 5 5 5 5 5 5 5 5 5 5 5 5 5 5 5 5 5 5 5 5 5 5 5 5 5 5 5 5 5 5 5 5 5 5 5 5 5 5 5 5 5 5 5 5 5 5 5 5 5 5 1 5 5 5 5 5 5 5 5 5 5 5 5 5 5 5 5 5 5 5 5 5 5 5 5 5 5 5 5 5 5 5 5 5 5 5 5 5 5 5 5 5 5 5 5 5 5 5 5 5 5 5 5 5 5 5 5 5 5 5 5 5 5 5 5 5 5 5 5 5 5 5 5 5 5 5 5 5 5 5 5 5 5 5 5 5 5 5 5 5 5 5 5 5 5 5 5 5 5 5 5 5 5 5 5 5 5 5 5 5 5 5 5 5 5 5 5 5 5 5 5 5 5 5 5 5 5 5 5 5 5 5 5 5 5 5 5 5 5 ",
"5 5 5 5 5 5 5 5 5 5 5 5 5 5 5 5 5 5 5 5 5 5 5 5 5 5 5 5 5 5 5 5 5 5 5 5 5 5 5 5 5 5 5 5 5 5 5 5 5 5 5 5 5 5 5 5 5 5 5 5 5 5 5 5 5 5 5 5 5 5 5 5 5 5 5 5 5 5 5 5 5 5 5 5 5 5 5 5 5 5 5 5 5 5 5 5 5 5 5 5 5 5 5 5 5 5 5 5 5 5 5 5 5 5 5 5 5 5 5 5 5 5 5 5 5 5 5 5 5 1 5 5 5 5 5 5 5 5 5 5 5 5 5 5 5 5 5 5 5 5 5 5 5 5 5 5 5 5 5 5 5 5 5 5 5 5 5 5 5 5 5 5 5 5 5 5 5 5 5 5 5 5 5 5 5 5 5 5 5 5 5 5 5 5 5 5 5 5 5 5 5 5 5 5 5 5 5 5 5 5 5 5 5 5 5 5 5 5 5 5 5 5 5 5 5 5 5 5 5 5 5 5 5 5 5 5 5 5 5 5 5 5 5 5 5 5 5 5 5 5 5 5 5 5 5 % 5 5 5 5 5 5 5 5 5 5 5 5 5 5 5 5 5 5 5 5 5 5 5 5 5 5 5 5 5 5 5 5 5 5 5 5 5 5 5 5 5 5 5 5 5 5 5 5 5 5 5 5 5 5 5 5 5 5 5 5 5 5 5 5 ",
"5 5 5 5 5 5 5 5 5 5 5 5 5 5 5 5 5 5 5 5 5 5 5 5 5 5 5 5 5 5 5 5 5 5 5 5 5 5 5 5 5 5 5 5 5 5 5 5 5 5 5 5 5 5 5 5 5 5 5 5 5 5 5 5 5 5 5 5 5 5 5 5 5 5 5 5 5 5 5 5 5 5 5 5 5 5 5 5 5 5 5 5 5 5 5 5 5 5 5 5 5 5 5 5 5 5 5 5 5 5 5 5 5 5 5 5 5 5 5 5 5 5 5 5 5 5 5 5 5 5 5 5 5 5 5 5 5 5 5 5 5 5 5 5 5 5 5 5 5 5 5 5 5 5 5 5 5 5 5 5 5 5 5 5 5 5 5 5 5 5 5 5 5 5 5 5 5 5 5 5 5 5 5 5 5 5 5 5 5 5 5 5 5 5 5 5 5 5 5 5 5 5 5 5 5 5 5 5 5 5 5 5 5 5 5 5 5 5 5 5 5 5 5 5 5 5 5 5 5 5 5 5 5 5 5 5 5 5 5 5 5 5 5 5 5 5 5 5 5 5 5 5 5 5 5 5 5 5 5 5 5 5 5 5 5 5 5 5 5 5 5 5 5 5 5 5 5 5 5 5 5 5 5 5 5 5 5 5 5 5 5 5 5 5 5 5 5 5 5 5 5 5 5 5 5 5 5 5 5 5 5 5 5 5 5 5 5 5 5 5 ",
"5 5 5 5 5 5 5 5 5 5 5 5 5 5 5 5 5 5 5 5 5 5 5 5 5 5 5 5 5 5 5 5 5 5 5 5 5 5 5 5 5 5 5 5 5 5 5 5 5 5 5 5 5 5 5 7 5 5 5 5 5 5 5 5 5 5 5 5 5 6 5 7 5 5 5 5 9 5 5 9 5 5 5 5 5 5 5 5 9 5 5 5 9 5 5 9 5 5 5 5 5 5 5 5 5 5 5 5 5 5 5 5 5 5 5 5 5 5 5 5 5 5 5 5 5 5 5 5 5 5 5 5 5 5 5 5 5 6 5 5 5 5 5 5 5 5 5 5 5 5 5 5 5 5 5 5 5 5 5 5 5 5 5 5 5 5 5 5 5 5 5 5 5 5 5 5 6 5 5 5 5 5 6 5 5 5 5 6 5 5 5 5 5 5 5 5 5 5 5 5 5 5 5 5 5 5 5 5 5 5 5 5 5 5 5 5 5 5 5 5 9 5 5 5 5 5 5 5 5 5 5 5 5 5 5 5 5 5 5 5 7 5 5 7 5 5 9 5 5 5 5 5 5 5 5 9 5 5 6 5 5 5 6 5 5 5 5 5 5 5 5 5 5 5 5 5 5 5 5 5 5 5 5 5 5 5 5 7 5 5 5 5 5 5 5 5 5 5 5 5 5 5 5 5 5 5 5 5 5 5 5 5 5 5 5 7 5 5 5 5 ",
"5 7 7 7 5 7 5 7 7 5 7 6 5 7 5 7 5 7 5 5 7 5 5 7 7 5 7 6 5 7 5 7 5 5 5 7 6 7 7 5 5 5 5 7 7 6 5 5 6 7 7 5 7 5 5 6 7 5 6 5 7 5 5 7 5 5 7 7 7 7 6 8 7 8 7 8 9 8 7 7 8 7 7 7 8 9 8 8 9 9 7 7 7 7 7 9 7 7 6 5 5 5 5 5 7 5 7 7 7 5 7 5 7 5 5 7 8 5 5 5 5 5 7 6 6 5 7 5 6 7 5 5 7 6 5 5 5 7 7 5 6 7 7 5 5 5 7 5 6 7 7 5 5 5 5 7 7 6 5 7 5 7 7 6 5 5 7 5 6 7 7 5 5 5 5 7 7 7 5 7 7 5 7 7 7 5 5 5 5 7 7 5 5 6 7 7 7 5 7 7 7 5 7 5 5 5 6 7 7 5 7 6 7 5 5 7 5 9 7 5 9 9 7 9 7 7 9 7 8 7 8 8 7 7 8 9 8 8 6 8 8 5 5 8 7 9 9 5 7 7 9 7 5 5 7 5 7 7 5 5 7 7 7 7 5 7 5 6 5 5 6 7 7 5 5 5 6 7 5 7 5 5 6 7 7 5 6 5 5 7 7 7 7 5 7 6 5 7 7 7 7 5 5 7 7 5 7 7 7 5 7 5 5 5 6 7 5 6 7 7 ",
"6 7 7 7 7 8 8 7 7 7 7 7 6 8 7 7 8 7 8 7 8 7 8 6 7 7 8 7 6 7 8 8 7 7 7 8 7 7 7 7 8 7 8 9 8 8 8 8 8 8 8 7 8 6 6 8 8 8 7 8 8 8 8 8 7 7 8 8 8 8 8 8 8 8 8 r r 8 8 r 8 r 8 r r 8 8 r 8 r 8 w 8 8 8 8 8 8 9 8 8 8 9 8 7 6 7 8 7 7 7 7 8 7 8 6 8 5 8 8 8 8 8 9 8 7 8 5 7 7 8 7 8 7 7 7 8 8 7 6 7 7 7 7 7 7 8 9 8 8 7 7 7 8 8 7 8 6 6 8 7 7 7 7 7 7 7 7 8 8 7 7 8 7 8 7 8 8 7 8 7 6 8 8 8 8 7 7 7 7 7 8 7 7 8 7 7 7 7 8 6 8 8 7 7 7 8 8 7 7 8 7 7 7 7 7 8 8 8 8 8 8 8 r r 8 8 r r 8 8 r r 8 r r 8 r 8 8 r 8 r 8 8 r 8 w 8 8 8 8 6 8 8 6 8 8 7 8 7 6 8 8 8 8 7 7 8 8 9 9 8 8 8 8 8 8 8 8 9 8 7 8 7 7 7 8 6 7 8 7 7 7 6 7 7 6 7 7 6 8 8 7 6 7 7 7 6 8 8 7 7 7 7 7 7 7 8 7 ",
"a 8 8 a 8 8 8 8 a 8 8 a 8 8 r 8 a 8 8 8 a 8 8 8 a 8 8 8 a 8 8 8 8 a 8 8 8 a 8 8 8 a 8 8 8 8 8 8 8 8 8 8 8 r 8 8 8 8 8 8 8 8 8 8 a 8 r y p p u u Z u u u u u i Z u Z u u u u i u i i u Z u u i u p y r y 8 8 a 8 8 8 8 a 8 8 a 8 8 8 8 y 8 8 8 8 8 8 8 r 8 8 8 r 8 8 a 8 8 8 8 a 8 8 8 r 8 8 a 8 a 8 8 8 8 8 8 a 8 8 a 8 8 r 8 8 8 8 a 8 a 8 8 a 8 8 8 a 8 8 a 8 8 8 8 8 8 8 8 8 8 8 8 8 r 8 8 8 8 8 q 8 8 8 8 8 8 8 y 8 8 8 8 8 a 8 8 8 a 8 8 a 8 r y y u u p Z u u i u Z i u u u u u Z i u Z Q u i u u u p p p y 8 8 8 8 8 r 8 8 8 8 8 8 8 8 8 8 8 8 8 8 8 a 8 8 8 8 8 8 8 8 8 r 8 8 8 8 a 8 8 8 8 8 8 a 8 r 8 8 8 a 8 8 8 r 8 8 8 a 8 8 8 r 8 8 8 a 8 8 8 8 8 ",
"y y y y y y y y y y y y y y y y y y y y y y p y y y y y y y p y y y y y p y y y y y y y y y p y p y y y y p y y y y y y p y y y y p u i | [ | { O._ +.+.+.+.@.+.+.+.+.+.+.+.+.+.+.+.+._ +.) | | ) i u p y y y y p y y y y y p y p y y p y y y y p y y y y y y y p y y y y y y y y y y y p y y y y p y y y y y p y p y y y y y y y p y y y y y y y y y y y y y p y y y y y y y p p a y y y y y y p y y y y y y y p y y y y y p y y y y y y y y y p p i ) | ) ) +._ +.+.+.+.+.+.+.+.+.+.+.+.+.X.+.+.+._ { { { ) J i p p y p y y p y y y y y y y p p y y y p y y y y y y p p y y y y y y y y y y p p y y y y y y y p y y y y y y y p y y y y y y y p y y y y y y y ",
"i i i i i i M W i i i i M W W i i i i i u u i i i i i i i i i i i i i i i i i i i u i i i i i i i i i i i i i i i i i i i i i i i [ [ | X.#.#.f.f.d.d.d.j.j.j.j.j.d.d.d.j.j.j.j.j.j.d.d.f.f.#.#.} | [ M i u i i M i i W i i i i i i i i i u i i i i i i i i i i i i u p i i i i i i i u i i i i u u i i i i i W i i u u i i i i i i i u i i i i i i i i i i i i i i i i i i i i W M i i i i i i M u M W i i i i M u M W i i i i i i i i i i i i J [ | @.#.&.d.f.d.d.j.j.j.j.j.j.d.d.d.j.j.j.j.j.d.d.d.f.f.f.#.+.| Z / W i i i i i i i i i i i i u M i i i i u u i u i u u i i i u u M i i i i i M W i i i i i i M W i i i i i i M i i W i i i i M W i i i i i i ",
"Z / [ [ [ [ [ [ ) / [ [ [ [ [ [ [ [ [ [ / J Z / [ [ / Z [ [ [ [ [ [ [ [ J / [ [ / i [ [ [ [ [ [ [ [ [ [ / [ [ [ / J / Z [ [ [ [ [ | X.$.&.k.j.z.l.|. X.X$X$X$XoXoX X.X.X.X$X$X%X$X X|.|.l.l.x.k.p.$.@.| / [ [ [ Z / / Z [ [ [ [ / [ [ [ / J Z / [ [ [ [ [ [ J / [ [ [ / [ [ [ [ [ [ / [ [ [ [ [ / J [ [ [ [ [ [ [ [ [ / [ [ [ [ [ [ / [ [ [ [ [ / Z / Z Z / [ [ / Z [ [ [ [ [ [ / [ [ [ [ [ [ [ [ [ / ) / Z [ [ Z / / Z [ [ [ [ Z / [ [ / Z [ [ | } $.&.k.j.j.l.|. X X$X$X$X$XoX.X X X.X$X%X$X$X.X X|.l.j.x.k.0.$.} } [ [ [ [ [ / Z [ [ [ [ [ [ / [ [ [ [ [ [ / [ [ [ [ J / [ [ / [ [ [ [ [ [ [ [ [ / Z [ [ [ [ J / / Z [ [ [ [ J / / Z [ [ [ [ J / / Z / Z Z / ",
"| } | | | | | | | | | | | | } | } | | | | | | } | | | | | | } | | | | | [ } | | } | } | | | | | | | | | [ | | | | [ } | | | | | | } $.&.k.x.|. X+XXX-X1X2X3X3X2X2X*X*X=X2X3X3X3X2X1X-XXXXX X|.N.g.&.$.} } | | | | | | | | | | } [ | | | | | | } | | | | | | [ | | | | } | | | } | | | | } | | | | | } | | | | | | | | | | | } | | | [ | | } | | | | } | | | | | } | | | | | } | [ | | | | | | } | | | [ } | } | [ } | | | | } | | | | | } | | | @.@.*.k.x.|.|.XX+X-X1X2X3X3X2X1X1X-X=X2X3X3X3X2X1X-XXXXX Xz.x.0.*.$.} | } | | [ } | | } | | | | [ | | | | | | | } | | | [ | } | | | } | | | | | | | | | { | | | [ | | | | } | | [ | | | | { | | [ | | | } | | | ",
"} } } } } } } } } } } } } } } } } } } } } } } } } } } } } } } } } } } } } } } } } } } } } } } } } } } } } } } } } } } } } } | } } $.=.*.x.x. X+X<X;X>X4XqXyXyXqX0X4X4X0XqXqXyXyXqX0X>X,X<XXX Xx.N.0.=.@.} } } } } } } } } } } } } } } } } | } } } } } } } } } } } } } } } | } } } } } } } } } } } } } } } } } } } } } } } | } } } } } } } } } } } } } } } } } } } } } } } } } } } } } | } } } } } } } } } } } } } } } } } } } } } } } } } } } } } =.g.b.x..XXX<X,X>X0XqXyXyXqX4X4X4X0XqXqXyXyXqX4X>X;X<XXX XB.k.i.$.$.| } } } } } } } } } } } } } } } } } } } } } } } } } } } } } } } } } } } } } } } } } } } } } } } } } } } } } } } } } } } } } } } } } } ..} ",
"@.} } } @.} } $.} | $.} } $.} } @.} } @.@.} } @.} } $.} } $.} } @.} } @.} } @.} @.} } $.} } $.} $.} @.} } @.} } @.} } } } $.} } } $.=.g.b.@X X<X;X5X0XeXuXaXaXuXtXeX9XeXtXuXaXaXuXeX8X>X;X-XoXx.x.h.=.X.} } } } } } $.} } $.} } } X.@.} } $.} @.} } o.@.@.} @.} @.} @.} @.$.} } @.} $.} } $.$.} } } $.} } $.} } } $.} } @.$.} } } $.} } } @.} } $.} @.} } $.} } $.} } } } $.} } $.} @.} $.} @.} } @.} } $.} } $.$.} } $.$.} $.} $.} } } } } } @.$.=.g.x.z.oX-X;X>X8XeXuXaXaXuXuXeXqXwXtXuXaXaXuXeX8X:X;X<X X@XN.g.=.$.} } } } $.$.} } } } $.} } @.} @.} @.} @.} } } } $.} } @.} $.} } $.} } $.} $.} @.} } $.@.} @.| } @.$.} } } @.X.@.} } @.$.} } } $.} @.o.@.} ",
"$.$.$.$.$.$.$.$.$.$.$.$.$.$.$.$.$.$.$.$.$.$.%.$.$.$.$.$.$.$.$.$.$.$.$.$.$.$.$.$.$.$.%.$.$.$.$.$.$.$.$.$.=.$.$.$.$.$.@.$.} $.$.} } $.=.g.N.B.oX*X:X6XwXiXsXjXjXsXiXrXtXrXpXsXjXhXsXiXwX6X:X<X X@Xb.g.=.$.$.} @.o.} $.} $.$.$.$.$.$.$.o.$.$.$.$.$.@.$.$.$.$.$.$.$.$.$.$.$.$.$.$.$.%.$.$.} } $.$.$.$.$.$.$.$.$.$.$.%.$.$.@.$.$.$.$.=.$.$.$.%.$.$.$.$.$.$.@.$.$.%.$.} $.$.$.%.$.$.$.$.$.$.$.$.$.$.$.$.$.$.$.$.$.$.$.$.} $.$.$.$.$.} $.$.$.$.$.} } $.$.=.0.N.@XoX<X:X6XwXiXsXhXhXgXiXrXrXrXiXsXhXhXgXuXwX6X:X-XOXz.N.g.=.$.} } } @.} } $.$.$.=.$.$.$.$.$.$.$.$.$.$.$.$.$.%.$.$.$.$.$.$.$.$.$.$.$.$.$.$.$.$.$.$.$.$.$.$.$.$.$.$.$.$.$.$.$.@.$.@.$.$.$.$.@.@.$.@.$.$.@.",
"%.%.=.=.=.&.%.%.%.=.=.=.%.=.=.=.%.=.$.%.$.=.=.%.=.=.=.%.%.=.=.=.=.&.%.%.%.=.=.=.=.=.=.%.%.=.=.=.=.=.%.=.=.%.%.=.=.%.=.$.%.$.} $.X.$.&.g.N..XoX*X:X8XeXpXhXjXkXhXgXfXrXfXsXhXjXlXhXfXeX8X>X*XOX@XN.g.=.$.@.} @.$.=.=.%.=.%.=.=.=.=.=.=.%.=.%.&.%.=.=.=.%.%.%.$.=.=.%.=.%.=.%.=.=.%.=.=.=.&.=.=.%.%.$.=.=.=.=.=.%.=.%.=.=.%.=.%.=.=.%.=.=.=.%.=.=.%.%.=.=.=.%.=.%.=.=.=.=.&.%.=.=.=.%.=.%.=.=.=.%.%.&.=.%.=.=.%.=.=.=.=.=.%.=.=.=.%.$.$.$.$.@.$.} @.=.g.N.@XOX=X:X8XeXpXhXjXjXjXdXrXiXfXgXjXkXjXhXfXtX8X:X*XOX@XN.g.=.@.@.$.$.$.%.$.=.=.=.%.&.=.%.=.%.=.%.=.%.=.%.=.=.=.%.%.=.=.=.=.=.=.%.=.%.=.&.%.&.$.%.$.&.$.%.%.=.=.=.%.%.=.=.=.%.=.%.=.%.=.%.=.=.%.=.%.%.=.=.",
"*.*.*.*.*.*.*.*.*.*.*.*.*.*.*.*.*.*.i.s.i.*.*.*.*.*.*.&.*.*.*.*.*.*.*.*.*.*.*.*.*.*.*.*.*.*.*.*.*.*.*.*.*.*.*.*.*.*.*.*.&.%.=.$.$.$.=.g.N.@XOX*X>X8XrXdXkXlXlXkXgXdXfXdXgXjXlXlXjXsXtX8X>X,XOX.Xx.g.&.$.$.@.$.=.&.*.*.*.*.*.*.*.*.*.i.5.*.*.*.*.*.*.*.*.*.*.*.s.*.*.*.*.*.*.*.*.*.*.5.*.5.*.*.*.*.i.*.*.*.*.*.i.*.*.*.*.5.*.*.*.*.&.*.*.*.*.*.*.*.*.*.5.*.*.*.*.*.5.*.*.*.*.*.*.*.*.*.*.*.*.*.*.*.*.*.*.*.*.*.*.*.*.*.*.*.*.*.*.*.&.&.&.%.$.$.@.$.=.g.N..XOX=X>X9XrXdXjXlXlXkXhXdXfXdXdXlXlXlXjXgXtX9X:X=XoX@XN.c.&.$.$.$.$.=.%.&.*.*.*.*.*.*.*.*.*.*.*.s.*.*.*.*.*.*.*.*.*.*.*.*.*.*.*.*.*.*.*.*.*.i.5.i.*.*.i.*.*.*.*.*.*.*.*.*.*.*.5.*.*.*.*.5.i.5.*.*.*.s.s.",
"s.c.c.c.s.c.i.c.c.c.c.c.c.c.c.c.c.c.c.c.s.c.c.s.c.c.s.c.s.c.c.c.c.s.c.c.c.c.c.c.c.s.c.c.c.c.c.c.5.c.0.c.c.c.c.c.c.g.e.*.*.*.=.$.$.$.=.c.N.@XOX=X5X9XrXgXkXlXzXlXhXdXdXdXgXlXzXlXjXgXrX9X5X=XOX@XN.g.*.$.$. .%.*.*.0.s.c.c.c.c.c.c.c.c.c.c.c.g.s.c.c.c.c.c.s.c.c.s.c.s.c.c.c.c.c.c.c.c.c.c.c.5.c.c.c.c.c.c.c.c.c.c.c.i.c.c.c.c.c.c.c.e.c.c.c.c.c.c.c.c.c.c.g.s.c.c.c.c.c.c.c.c.c.s.c.s.c.c.c.c.5.c.5.c.c.c.g.c.5.c.c.c.5.5.c.c.c.c.c.s.*.*.%.$.$.=.=.g.N.@XOX=X5X8XrXdXjXzXzXkXhXdXdXdXhXlXzXlXkXgXrX9X5X=XOX@XN.g.=.$.$.=.=.*.*.c.c.c.5.c.c.c.c.c.s.c.c.c.c.c.s.e.c.c.c.c.c.c.c.5.c.c.c.c.c.c.c.c.c.c.c.s.s.c.c.c.c.c.c.c.c.c.c.c.c.c.c.s.c.s.c.c.c.c.c.c.s.g.m.",
"c.c.c.c.c.c.c.c.c.c.c.c.c.c.c.c.c.c.c.c.c.c.c.c.c.c.c.c.c.c.c.c.c.c.c.c.c.c.c.c.c.c.c.c.c.c.c.c.c.c.c.c.c.c.c.c.c.c.c.c.c.*.*.&.=.=.&.g.N..XOX=X5X9XrXdXkXzXzXlXhXdXdXdXhXlXzXzXkXgXrX9X5X=XOX@XN.g.*.$.=.%.i.i.c.c.c.c.c.c.c.c.c.c.c.c.c.c.c.c.c.c.c.c.c.c.c.c.c.c.c.c.c.c.c.c.c.c.c.c.c.c.c.c.c.c.c.c.c.c.c.c.c.c.c.c.c.c.c.c.c.c.c.c.c.c.c.c.c.c.c.b.c.c.c.c.c.c.c.c.c.c.c.c.c.c.c.c.c.c.c.c.c.c.c.c.c.c.c.c.c.c.c.c.c.c.c.c.c.c.c.c.i.*.%.=.$.*.g.N.@XOX=X>X9XrXdXkXzXzXlXhXdXfXdXhXlXzXzXjXgXrX9X>X=XoX.XN.g.*.=.=.&.*.5.c.c.c.c.c.c.c.c.c.c.c.c.c.c.b.c.c.c.c.c.c.c.c.c.c.c.c.c.c.c.c.c.c.c.c.c.c.c.c.c.c.c.c.c.c.c.c.c.c.c.c.c.c.c.c.c.c.c.c.c.c.c.c.c.c.",
"g.c.c.c.c.c.c.c.c.c.c.c.c.c.c.c.c.c.c.c.c.c.c.c.n.c.c.c.c.c.c.n.c.c.c.c.c.c.c.c.c.c.c.c.c.c.c.c.c.c.c.c.c.c.c.c.c.c.c.c.c.c.5.*.=.%.*.g.N.@XOX=X5X9XrXgXkXzXzXlXhXdXdXdXhXlXzXzXkXgXrX9X5X=XOX@XN.c.*.%.&.*.*.c.c.c.c.c.c.c.c.c.c.c.c.c.c.c.c.c.b.c.c.c.c.c.c.c.c.c.c.c.c.c.c.c.c.c.c.b.c.c.c.c.v.c.c.c.c.c.v.c.c.c.c.c.c.c.c.n.c.c.c.c.c.c.c.c.c.c.c.c.c.c.c.c.c.c.c.c.c.c.b.c.c.c.c.c.c.n.c.c.c.c.n.c.c.c.c.c.c.c.n.c.c.c.c.c.c.c.c.c.s.s.*.&.=.*.g.N.@XOX=X5X9XrXgXlXzXzXlXhXdXdXdXhXlXzXzXlXgXrXwX5X=XOX@XN.g.*.%.&.*.*.g.c.c.c.c.c.c.c.c.c.c.c.c.c.c.c.v.c.c.c.c.c.c.c.c.c.c.c.c.c.c.c.c.c.c.c.c.c.c.c.c.c.c.c.c.c.c.c.c.c.c.c.b.c.c.c.c.c.c.c.c.m.c.c.c.v.",
"&.*.c.i.c.c.c.c.c.c.c.c.c.c.c.c.c.c.c.c.c.c.c.c.c.c.c.c.c.c.c.c.c.c.c.c.n.c.c.c.c.c.c.c.c.c.c.n.c.c.n.c.c.c.c.c.c.c.c.c.c.c.c.s.*.&.*.g.N.@XOX=X5XwXrXgXkXzXzXlXhXdXdXdXhXlXzXzXkXgXrX9X>X=XOX@XN.g.g.&.*.*.c.c.c.c.c.b.c.c.c.n.c.c.c.c.c.v.c.c.c.c.c.c.c.c.c.n.c.c.v.b.c.c.c.n.c.c.c.c.c.c.c.c.c.c.c.c.c.c.c.c.c.c.c.n.c.c.c.c.c.c.c.c.c.c.n.c.c.c.c.c.c.c.c.n.c.c.v.c.c.n.c.c.c.c.c.c.c.c.c.c.c.c.c.b.n.c.c.c.c.c.c.c.c.c.c.c.c.n.c.c.c.c.*.*.&.*.c.N.@XOX=X5XwXrXgXlXzXzXlXhXdXdXdXhXlXzXzXkXgXrXwX5X=XOX@XN.g.0.&.*.*.5.c.c.c.v.c.n.c.c.c.c.n.c.c.c.n.c.c.c.c.c.c.c.c.c.c.c.c.c.c.c.c.c.n.c.c.c.c.c.c.c.c.c.n.c.c.c.c.c.c.c.c.c.c.c.c.c.v.b.c.c.n.c.c.c.c.c.",
"} %.=.*.*.c.c.c.c.c.c.c.c.c.c.c.c.n.c.c.c.c.c.n.c.c.c.c.c.c.c.c.c.c.c.c.c.c.c.c.c.c.n.c.c.c.c.c.c.c.c.c.c.c.c.n.c.c.n.c.c.c.c.s.*.*.*.c.N.@XOX=X5XwXrXgXkXzXzXlXhXdXdXdXhXlXzXzXkXgXrX9X5X=XOX@XN.g.*.*.*.i.c.c.c.c.v.c.c.c.c.c.c.c.c.c.c.c.c.c.c.c.c.n.c.c.c.c.b.c.c.c.c.c.c.c.c.n.c.c.c.c.c.c.c.c.c.c.c.c.n.c.c.c.c.c.c.c.c.c.c.c.c.c.c.c.c.c.c.c.c.n.c.c.c.c.c.c.c.c.c.c.c.c.c.n.c.c.c.c.c.c.c.c.c.c.c.c.c.c.c.c.c.c.c.c.n.c.c.c.c.c.c.c.s.*.*.*.g.N.@XOX=X5XwXrXgXlXzXzXlXhXdXdXgXhXlXzXzXkXgXrX9X5X=XOX@XN.g.*.*.*.c.c.c.c.c.c.c.c.c.c.c.c.c.c.c.c.c.c.c.c.c.c.c.c.c.c.c.c.c.n.c.c.c.c.c.c.c.c.c.c.c.c.c.c.c.c.c.c.c.n.c.c.c.c.c.c.c.v.c.c.c.c.c.c.c.c.c.c.",
"/ | } } %.i.i.s.c.c.c.c.c.n.c.c.c.c.c.c.c.c.c.c.c.c.c.n.c.c.c.n.c.v.c.c.c.c.c.c.c.c.c.c.c.c.c.c.c.c.c.c.c.c.c.c.c.c.c.c.c.c.c.c.*.*.0.b.N.@XOX=X5XwXrXgXkXzXzXlXhXdXdXdXhXlXzXzXkXgXrX9X5X=XOX@XN.b.*.*.5.c.c.c.c.c.c.c.c.c.c.c.n.c.c.c.c.c.c.c.c.c.c.c.c.c.c.c.c.c.c.c.c.c.c.c.c.c.c.c.c.c.c.c.c.c.c.c.c.c.c.c.c.c.c.c.c.c.c.c.c.c.c.c.c.c.c.c.c.c.c.c.c.c.c.c.c.c.c.c.c.c.c.c.c.c.c.c.c.c.c.c.c.c.c.c.c.c.c.c.c.c.c.n.c.c.c.c.c.c.c.c.c.c.c.*.*.i.k.N.@XOX=X5XwXrXgXlXzXzXlXhXdXdXdXhXlXzXzXkXgXrX9X5X=XOX.XN.b.i.*.*.c.c.c.c.c.c.c.c.c.c.c.c.c.c.c.c.c.c.c.c.c.c.c.c.c.n.c.c.c.c.c.c.c.c.c.c.c.c.c.c.c.c.c.c.c.c.c.c.c.c.c.c.c.n.c.c.c.c.c.c.c.c.c.c.c.c.c.c.",
"9 p i [ } $.*.i.g.c.c.c.c.c.c.c.c.c.c.c.c.v.c.c.c.c.c.c.c.c.c.c.c.c.c.c.c.c.c.c.c.c.c.c.c.c.c.c.c.c.c.c.c.c.c.c.c.c.c.c.c.c.c.g.*.*.i.m.N.@XOX=X5XwXrXgXkXzXzXlXhXdXdXdXhXlXzXzXkXgXrX9X5X=XOX@XN.m.0.*.i.c.c.c.c.c.c.c.c.c.c.c.c.c.c.c.c.c.c.n.c.c.c.c.c.c.c.c.c.c.c.c.c.c.c.c.c.c.c.c.c.n.c.c.c.c.c.n.c.c.c.c.c.c.c.c.c.c.c.c.n.c.c.c.c.c.c.c.c.c.c.c.c.c.c.c.c.c.c.c.c.c.c.c.c.c.c.c.n.c.c.c.c.c.c.c.c.c.c.c.c.c.c.c.c.c.c.c.c.c.c.c.c.c.c.*.*.0.b.N.@XOX=X5XwXrXdXlXzXzXlXhXdXdXdXhXlXzXzXkXgXrX9X5X=XOX@XN.b.0.*.*.c.c.c.c.c.c.c.c.c.c.c.c.c.c.c.c.c.c.c.c.v.c.c.c.c.c.c.c.c.c.c.c.c.c.c.c.c.c.c.c.c.c.c.c.c.c.c.c.c.c.c.c.c.c.c.c.c.c.b.c.c.c.c.c.n.c.c.c.",
"O > 8 y / | $.*.s.c.c.c.c.c.c.c.c.c.c.c.c.c.c.c.c.c.c.c.c.c.c.c.c.c.c.c.c.c.c.c.c.c.c.c.c.c.c.c.c.c.c.c.c.c.c.c.c.c.c.c.c.c.c.c.*.*.0.b.N.@XOX=X5XwXrXgXkXlXzXlXhXdXdXdXhXlXzXzXkXgXrXwX5X=XOX@XN.g.i.*.*.c.c.c.c.c.c.c.c.c.c.c.c.c.c.c.c.c.c.c.c.c.c.c.c.c.c.c.c.c.c.c.c.c.c.c.c.c.c.c.c.c.c.c.c.c.c.c.c.c.c.c.c.c.c.c.c.c.c.c.c.c.c.c.c.c.c.c.c.c.c.c.c.c.c.c.c.c.c.c.c.c.c.c.c.c.c.c.c.c.c.c.c.c.c.c.c.c.c.c.c.c.c.c.c.c.c.c.c.c.c.c.c.c.c.c.*.0.k.N.@X&X=X5XwXrXgXjXzXzXlXhXdXdXdXhXlXzXzXkXgXrX9X5X=XOX@XN.m.0.*.g.c.c.c.c.n.c.c.c.c.c.c.c.c.c.c.c.c.c.c.c.c.c.c.c.c.c.c.c.c.c.c.c.c.c.c.c.c.v.c.c.c.c.c.n.c.c.c.c.c.c.c.c.c.c.c.c.c.c.c.c.c.c.c.c.v.b.c.c.",
". + O 5 r i } $.*.i.c.c.c.c.c.c.c.c.c.c.c.c.c.c.c.c.c.c.c.c.c.c.c.c.c.c.c.c.c.c.c.c.c.c.c.c.c.c.c.c.c.c.c.c.c.c.c.c.c.c.c.c.c.c.g.*.i.c.N.@XOX=X5X9XrXgXlXzXzXlXhXdXdXdXhXlXzXzXkXgXrX9X5X=XOX@XN.b.0.*.*.c.c.c.c.c.n.c.c.c.c.c.c.c.c.c.c.c.c.c.c.c.c.c.c.c.n.c.c.c.c.c.c.c.c.c.c.c.c.c.c.c.c.c.c.c.c.c.c.c.c.c.n.c.c.c.c.c.c.c.c.n.c.c.c.c.c.c.c.c.c.c.c.c.c.c.c.c.c.c.c.c.c.c.c.c.c.c.c.c.c.c.c.c.c.c.c.c.c.c.c.c.c.c.c.c.c.c.c.c.c.n.c.c.5.*.*.i.b.N.@XOX=X5XwXrXgXkXzXzXlXhXdXdXdXhXlXzXzXkXgXrX9X5X=XOX@XN.b.*.*.*.g.c.c.c.c.c.c.c.c.c.c.c.c.c.c.c.c.c.c.c.c.c.c.c.c.c.c.c.c.c.c.c.c.c.c.c.c.c.c.c.c.c.c.c.c.c.c.n.c.c.c.c.c.c.c.c.c.c.c.c.c.c.c.c.c.c.c.c.",
".   o % 5 p [ @.=.i.c.c.c.c.c.c.c.c.c.c.c.c.n.c.c.c.c.c.c.c.c.c.c.c.c.n.c.c.c.c.c.c.c.c.c.c.c.c.c.c.c.c.c.c.c.c.c.c.c.c.c.c.c.c.*.*.0.g.N..XOX=X5X9XrXgXkXzXzXlXhXdXdXdXhXlXzXzXkXgXrX9X>X=XOX@XN.b.g.*.*.c.c.c.c.c.c.c.c.c.c.c.c.c.c.c.c.c.c.c.c.c.c.c.c.c.c.c.n.c.c.c.c.c.c.c.c.c.c.c.c.c.n.c.c.v.c.c.c.c.c.c.c.c.c.c.c.c.c.c.c.c.c.c.c.c.c.c.c.c.c.c.c.c.c.c.c.c.c.c.c.c.c.c.c.c.c.c.c.c.c.c.c.c.c.c.c.c.c.c.c.c.c.c.c.c.c.c.c.c.c.b.c.c.g.*.*.c.c.N.@XOX=X>XwXrXgXkXzXzXlXhXdXdXdXhXlXzXzXkXgXrX9X5X=XOX@XN.c.g.*.i.c.c.c.c.c.c.c.c.c.c.c.c.c.c.c.c.c.c.c.c.c.c.c.c.c.n.c.c.c.c.c.c.c.c.c.c.c.c.c.c.c.c.c.c.c.c.c.c.c.c.c.c.c.c.c.c.c.c.c.c.c.c.c.c.c.c.c.c.",
". . . o O 8 u | =.*.c.c.c.c.c.c.c.c.c.c.c.c.c.c.c.c.c.c.c.c.c.c.c.c.c.c.n.c.c.c.c.c.c.c.c.c.c.c.c.c.c.c.c.n.c.c.c.c.c.c.c.c.c.c.5.&.g.c.N.@XOX=X5X9XrXgXkXzXzXlXhXdXdXdXhXlXzXzXkXgXrX9X5X=XOX@XN.g.*.*.0.c.c.c.c.c.c.c.c.c.c.c.c.c.c.c.c.c.c.c.c.c.c.c.c.c.c.c.c.c.c.c.c.c.c.c.c.c.c.c.c.c.c.c.c.c.c.c.c.c.c.c.c.c.c.c.c.c.c.c.c.c.c.c.c.c.c.c.n.c.c.c.c.c.b.c.c.c.n.c.c.c.c.c.c.c.c.c.c.c.n.c.c.c.n.c.c.c.c.c.c.n.c.c.c.c.c.c.c.c.c.c.c.c.e.*.*.*.g.N.@XOX=X5XwXrXgXkXzXlXlXhXdXdXdXhXlXzXzXkXgXrX9X5X=XOX@XN.c.*.*.*.c.c.v.c.c.c.c.c.c.c.c.c.c.c.n.c.c.c.c.c.c.c.c.n.c.c.c.c.c.c.c.c.c.c.c.c.c.c.b.c.c.c.c.c.c.c.c.c.c.c.c.v.c.c.c.c.c.c.c.c.c.c.c.c.c.c.c.c.",
". . . o o 5 y [ $.*.*.c.c.c.c.c.n.c.c.c.c.c.c.c.c.c.c.c.v.c.c.c.c.c.c.c.c.c.c.c.c.c.c.c.c.c.c.c.c.c.c.c.c.c.c.c.c.c.c.n.c.c.c.5.*.*.*.g.N.@XOX=X5XwXrXgXkXzXzXlXhXdXdXdXhXlXzXzXkXgXrX9X5X=XOX@XN.g.*.*.&.c.c.c.c.c.c.c.c.c.c.c.c.c.c.c.c.c.c.n.c.c.c.c.c.c.c.c.c.c.c.c.c.v.c.c.c.c.n.c.c.c.c.c.c.c.c.c.c.c.c.c.c.v.c.c.c.n.c.c.c.c.c.c.c.c.c.c.c.c.c.c.c.c.c.c.c.c.c.c.c.c.c.c.c.c.c.c.c.c.c.c.c.c.v.c.c.c.c.c.c.c.c.c.c.c.c.c.c.c.c.b.c.c.c.*.*.i.g.N.@XOX=X5XwXrXgXkXlXzXlXhXdXdXdXhXlXzXzXkXgXrX9X5X=XOX@XN.k.0.*.*.5.c.c.c.c.c.c.c.c.c.c.c.c.c.c.c.n.c.c.c.c.c.c.c.c.c.c.c.c.v.c.c.c.c.c.c.c.c.c.c.c.c.c.c.c.c.c.c.c.c.c.c.c.c.c.c.c.c.c.n.c.c.c.c.c.c.c.c.",
". # . . X 5 8 [ $.&.c.c.c.c.c.c.c.c.c.c.c.c.c.c.c.c.c.c.c.c.c.c.c.c.c.c.c.n.c.c.c.c.c.c.c.n.c.c.c.n.c.c.c.b.c.c.c.n.c.c.c.c.c.i.*.&.*.c.N.@XOX=X5XwXrXgXkXzXzXlXhXdXdXdXhXlXzXzXkXgXrX9X5X=XOX@XN.c.*.*.*.*.*.c.c.n.c.c.c.c.c.n.n.c.c.c.c.c.c.c.c.c.n.c.c.c.c.c.c.c.c.c.c.c.b.c.c.c.c.c.b.c.c.c.n.c.c.c.c.c.c.c.c.c.c.b.c.c.c.c.c.c.c.c.c.c.n.c.c.c.c.c.c.c.v.c.c.c.n.c.n.c.c.c.c.c.c.n.b.c.c.c.c.b.c.c.c.c.c.c.c.c.c.c.c.v.c.n.c.c.c.c.c.c.5.&.&.0.g.N.@XOX=X5XwXrXgXkXzXzXlXhXdXdXdXhXlXzXzXkXgXrX9X5X=XOX@XN.m.*.&.*.*.c.c.c.c.c.c.b.c.c.n.c.c.c.c.c.c.c.c.c.c.c.c.c.c.n.c.c.c.c.b.c.n.c.c.n.c.c.n.c.c.c.c.c.c.c.c.c.n.c.c.c.n.c.c.c.c.c.c.c.n.c.v.c.c.b.c.c.",
"# # # . % % a [ } *.c.c.c.c.n.c.c.c.c.c.c.c.c.c.n.c.c.c.b.c.c.c.c.n.c.c.c.n.c.c.n.c.c.c.c.c.c.n.c.c.c.c.c.n.c.c.c.c.c.c.c.c.5.*.&.&.*.c.N.@XOX=X5XwXrXgXkXzXzXlXhXdXdXdXhXlXzXzXkXgXrX9X5X=XOX@XN.g.*.=.=.*.c.c.c.c.c.c.c.v.c.c.c.c.c.c.n.c.c.c.c.c.c.c.n.c.c.c.c.c.c.n.c.c.c.c.c.n.c.c.c.c.c.c.c.c.c.c.c.n.c.c.c.c.c.c.c.c.c.c.c.c.n.c.b.c.c.c.c.c.n.c.c.c.c.c.c.c.c.c.c.c.c.c.c.c.c.c.c.c.c.c.c.n.c.c.n.c.c.c.c.c.n.c.c.c.c.c.c.c.c.c.c.i.*.&.=.*.c.N.@XOX=X5XwXrXgXkXzXzXlXhXdXdXdXhXlXzXzXkXgXrXwX5X=XOX@XN.g.*.=.&.&.g.c.c.c.c.c.c.n.c.c.c.c.n.c.n.c.c.c.c.c.n.c.c.c.n.c.c.c.c.c.c.c.c.c.c.c.c.c.c.c.n.c.c.c.n.c.c.c.c.c.c.c.c.c.c.n.c.c.c.c.c.c.c.c.n.c.c.",
"$ $ $ % % 6 y [ $.*.s.c.c.c.c.c.c.c.c.c.c.n.c.c.c.c.n.c.c.c.c.c.c.c.c.c.c.c.c.c.c.c.c.c.c.c.c.c.c.c.c.c.c.c.c.c.c.c.c.c.c.*.*.&.=.=.&.g.N.@XOX=X5XwXrXdXkXzXzXlXhXdXdXdXhXlXzXzXkXgXrX9X5X=XOX@XN.g.&.=.%.=.*.*.c.c.c.c.c.c.c.c.c.c.c.c.c.c.c.c.c.c.c.c.c.c.c.c.c.c.c.c.c.c.c.c.c.c.c.c.c.c.c.c.c.c.n.c.c.c.c.c.c.c.n.c.c.c.c.c.c.c.c.c.c.c.c.c.c.c.c.c.c.c.c.c.v.c.c.c.c.c.c.c.c.c.c.c.c.c.c.c.c.c.c.c.c.c.c.c.c.c.c.c.c.c.c.c.c.c.c.c.5.*.&.%.=.&.g.N..XOX=X5X9XrXgXjXzXzXlXhXdXdXdXhXlXzXzXkXgXrXwX>X=XOX@XN.g.*.=.=.&.*.*.e.c.c.c.c.c.c.c.c.c.c.c.c.c.c.c.c.c.c.c.c.c.c.c.c.c.c.c.c.c.c.c.c.c.c.c.c.c.c.c.c.c.c.c.c.c.n.c.c.c.c.c.c.c.c.c.c.c.c.c.c.c.c.c.c.",
"f f , % > q M [ $.*.*.c.c.c.c.c.c.c.c.c.c.c.c.c.c.c.c.c.c.c.c.c.c.c.c.c.c.c.c.c.c.c.c.c.c.c.c.c.c.c.c.c.c.c.c.c.c.c.c.c.*.*.=.%.o.$.=.g.N.@XOX=X5XwXrXgXkXzXzXlXhXdXdXdXhXlXzXzXkXgXrX9X5X=XOX@XN.g.&.=.$.$.%.*.*.c.e.c.c.c.c.c.c.c.c.c.c.c.c.c.c.c.c.c.c.c.c.c.c.c.c.c.c.c.c.c.c.c.c.c.c.g.c.c.c.c.c.c.c.c.c.c.c.c.c.c.c.c.c.c.c.c.c.c.c.5.c.c.c.c.c.c.c.g.c.c.c.c.c.c.c.c.c.c.c.c.c.c.c.c.c.c.c.c.c.c.c.c.c.c.c.c.c.c.c.c.c.c.c.c.e.*.*.%.=.$.$.&.c.N.@XOX=X5XwXrXgXkXzXzXlXhXdXdXdXhXlXzXzXkXgXrX9X5X=XOX@XN.c.&.$.$.%.%.*.*.c.c.e.c.c.c.c.c.c.c.c.c.c.c.c.c.c.c.c.c.c.c.c.c.c.c.c.c.c.c.c.c.c.c.c.c.c.c.c.c.c.c.c.c.c.c.c.c.c.c.c.c.c.c.c.c.c.c.c.c.c.c.c.c.",
"h h h h q a / [ $.*.*.c.c.s.g.*.s.e.*.g.*.g.*.c.c.5.5.i.5.g.*.g.g.5.*.c.c.s.s.*.0.c.i.5.*.g.*.c.c.c.5.*.i.c.*.e.5.*.*.0.*.=.=.$.$.$.&.g.x.@XOX=X5XwXrXgXkXzXzXlXhXdXdXdXhXlXzXzXkXgXrX9X5X=XOX@XN.g.&.$.$.$.=.=.*.*.*.c.c.c.s.*.5.g.i.0.*.g.*.e.c.c.*.5.5.c.*.g.s.c.g.5.5.*.g.5.s.s.e.c.s.*.e.c.s.c.i.c.5.*.i.e.s.c.*.c.c.*.i.c.s.c.g.c.*.g.5.c.s.c.e.c.s.*.g.c.g.c.*.c.g.*.i.c.c.c.g.5.5.*.e.c.s.c.*.*.*.c.5.g.*.*.g.5.c.c.i.5.*.5.*.*.&.$.$.$.$.&.g.N.@XOX=X5XwXrXgXkXzXzXlXhXdXdXdXhXlXzXzXkXgXrX9X5X=XOX.Xb.g.&.$.X.$.=.=.*.*.i.*.c.i.*.5.c.s.c.*.*.5.g.i.0.*.c.*.g.c.s.s.*.i.c.*.c.*.e.i.e.c.c.5.*.e.c.*.g.0.5.*.c.c.s.i.s.5.c.i.0.i.e.*.c.c.s.g.*.g.c.*.5.",
"l k k n M M | $.=.*.*.i.i.0.*.*.g.*.*.*.*.5.5.*.*.*.*.g.*.s.g.5.*.*.*.*.*.*.*.*.i.*.0.5.*.*.e.*.5.i.*.*.e.*.*.g.*.*.*.%.=.$.$.$.X.$.&.g.N.@XOX=X5XwXrXgXkXzXzXlXhXdXdXdXhXlXzXzXkXgXrX9X>X=XOX@XN.g.&.$.} $.$.%.&.*.*.*.*.g.*.*.*.e.g.5.*.*.g.*.5.i.*.i.0.i.*.i.5.*.e.g.*.*.e.g.*.i.5.*.*.c.*.*.*.5.*.0.*.e.*.*.*.5.i.5.*.*.*.0.*.*.*.5.*.5.g.*.*.c.*.*.*.g.*.*.s.5.*.5.*.*.*.0.*.*.i.g.*.i.*.*.5.i.*.*.*.i.i.5.*.5.*.g.*.s.*.5.*.*.*.=.%.$.$.} $.=.g.N.@XOX=X5XwXrXgXkXzXzXlXhXdXdXdXhXlXzXzXkXgXrX9X5X=XOX@XN.g.&.$.$.$.$.=.=.*.*.*.5.5.*.0.i.*.*.*.*.*.e.*.i.*.*.*.e.i.0.*.*.e.*.*.i.*.i.g.*.*.*.*.i.*.*.5.*.i.*.*.*.*.*.*.*.i.*.*.*.*.*.5.i.5.*.*.*.*.*.g.*.",
"v m m m K ....=.%.*.*.*.5.*.5.*.*.*.5.g.*.*.*.*.g.5.*.*.*.*.*.*.*.*.g.5.*.*.c.*.5.*.i.i.*.5.*.i.*.0.5.i.*.*.*.5.*.i.*.*.*.=.$.} $.$.&.g.N.@XOX=X5XwXrXgXlXzXzXlXhXdXdXdXhXlXzXzXkXgXrX9X5X=XOX@XN.g.=.$.@.$.$.=.%.&.*.*.*.*.5.i.*.*.*.*.i.5.5.*.i.0.*.5.*.s.*.s.*.i.*.*.*.i.*.*.*.0.i.*.*.*.*.*.*.i.i.5.i.*.*.g.*.*.0.i.*.*.i.5.*.c.*.*.*.*.*.*.*.*.*.*.*.*.5.*.*.i.*.i.*.5.i.5.5.*.5.*.*.0.5.i.i.0.*.s.s.0.*.*.i.0.5.i.*.0.*.i.*.*.*.&.=.$.X.$.$.=.g.N.@XOX=X5XwXrXgXlXzXzXlXhXdXdXdXhXlXzXzXkXgXrX9X5X=XOX@XN.c.&.$.} $.$.%.&.*.*.*.*.i.0.*.i.5.*.g.5.i.*.e.5.*.*.i.5.*.*.s.*.*.i.5.0.*.5.*.*.5.g.*.5.*.*.g.i.5.*.g.*.5.g.*.5.0.5.i.s.0.*.*.i.0.i.*.5.*.5.*.*.",
"L L T T ..o.%.*.s.g.s.s.s.i.c.c.s.*.g.5.5.c.*.*.c.*.c.c.*.5.g.5.s.s.s.s.s.i.c.s.c.*.*.c.c.s.g.*.5.g.c.5.g.*.s.g.c.5.i.*.*.=.=.$.} =.=.g.N.@XOX=X5XwXrXgXlXzXzXlXhXdXdXdXhXlXzXzXlXdXrXwX5X=XOX@XN.g.*.$.@.$.=.=.*.*.0.g.c.5.c.*.s.g.c.5.g.*.5.g.s.s.g.g.s.g.c.s.e.*.c.c.i.5.c.c.i.s.s.c.s.s.s.s.c.*.g.c.e.i.5.c.c.s.s.c.s.s.g.s.g.*.s.c.c.*.5.c.s.i.c.c.s.s.s.s.5.*.g.c.c.*.5.c.c.i.s.c.s.s.s.s.c.*.5.g.c.s.c.*.*.c.c.*.c.*.i.e.c.5.*.*.=.=.$.$.$.=.c.N.@X%X=X7X9XrXgXkXzXzXlXhXdXdXdXhXlXzXzXlXgXrXwX5X=X&X$XN.c.&.$.$.$.$.%.*.s.i.s.s.s.i.c.s.g.*.5.c.c.e.s.i.e.g.c.5.g.*.5.g.s.s.s.g.s.s.c.i.s.*.c.*.c.5.g.*.c.*.c.c.*.5.g.5.m.s.s.s.s.c.c.i.s.i.e.g.c.s.s.*.",
"P P T U ;.7.5.e.c.c.s.m.c.c.c.c.c.c.c.c.c.c.c.c.c.c.c.c.c.c.c.c.m.s.c.g.c.c.c.c.c.c.c.c.c.c.c.c.c.c.c.c.c.c.c.c.c.c.c.e.*.*.&.%.$.=.*.c.N.@X&X=X5XwXrXgXkXzXzXlXhXdXdXdXhXlXzXzXlXgXrXwX5X=X&X$XN.g.*.$.$.=.=.*.5.e.s.c.c.c.c.c.c.c.c.c.c.c.c.c.c.c.s.s.c.s.c.c.c.c.c.c.c.c.c.c.c.c.c.c.g.m.m.s.c.c.c.c.c.c.c.c.c.c.c.c.c.m.s.c.c.c.c.c.c.c.c.c.c.c.c.c.c.m.s.m.c.c.c.c.c.c.c.c.c.c.c.c.c.m.s.c.c.c.c.c.c.c.c.c.c.c.c.c.c.c.c.c.c.c.c.*.*.%.=.$.$.&.g.N.@X&X=X7X9XrXgXkXzXzXlXhXdXdXdXhXlXzXzXjXgXrXwX5X=X&X@XB.c.&.=.$.$.=.*.*.s.s.c.g.c.c.c.c.c.c.c.c.c.c.c.c.c.c.c.c.c.c.c.c.c.m.m.s.c.c.c.c.c.c.c.c.c.c.c.c.c.c.c.c.c.c.c.c.c.c.s.m.c.c.c.c.c.c.c.c.c.c.c.c.",
"P P Y 3.2.7.e.c.c.c.v.c.c.c.c.c.c.c.c.c.c.n.c.c.c.c.c.c.c.c.c.c.c.c.c.c.c.c.c.c.c.c.c.c.c.c.c.v.c.c.c.c.c.c.c.c.c.c.c.c.c.*.*.&.%.=.*.b.N.$X&X=X5XwXrXgXkXzXzXlXhXdXdXdXhXlXzXzXlXgXrXwX7X=X&X@XN.c.*.=.=.=.*.*.c.c.c.c.c.c.n.c.c.c.c.c.c.c.c.c.c.c.c.c.c.c.c.c.c.c.c.c.c.c.c.c.c.c.c.c.c.c.c.n.c.c.c.c.c.c.c.c.c.c.c.c.c.c.c.c.c.c.c.c.c.c.c.c.c.c.c.c.c.c.c.c.c.c.c.c.c.c.c.c.c.c.c.b.c.c.c.c.c.c.c.c.c.c.c.n.c.c.c.c.c.c.c.c.c.c.c.c.i.*.&.%.=.*.b.N.$X&X=X7X9XrXgXkXzXzXlXhXdXdXdXhXlXzXzXlXgXrXwX5X=X&X@XN.c.*.=.%.&.*.g.c.c.c.c.c.c.c.c.c.c.c.c.c.c.c.c.c.c.c.c.c.c.c.c.c.c.v.c.c.c.c.c.c.c.c.c.c.c.c.c.c.c.c.c.c.c.c.c.c.c.c.c.c.c.c.c.c.c.c.c.c.c.c.c.c.",
"_.Y Y <.1.r.e.c.c.c.c.c.c.c.c.c.c.c.c.c.c.c.c.c.c.c.c.c.b.c.c.c.n.c.c.c.c.c.c.c.c.c.c.c.c.c.c.n.c.c.c.c.c.c.c.c.c.c.c.c.c.c.*.*.%.=.*.k.B.$X&X=X7XwXrXgXkXzXzXlXhXdXdXdXhXlXzXzXlXdXrXwX7X=X&X$XB.k.*.%.=.*.5.c.c.c.c.c.c.c.c.c.c.c.c.c.c.c.c.c.c.c.c.n.c.c.c.c.c.c.c.c.c.c.c.c.c.c.c.c.c.c.c.c.c.c.c.c.c.c.c.n.c.c.c.c.c.m.c.n.c.c.c.c.c.c.c.n.c.c.c.c.c.c.n.c.c.c.c.c.c.c.c.n.c.c.c.c.c.c.c.n.c.c.c.c.c.c.c.c.c.c.c.c.c.c.c.c.c.c.c.c.c.*.*.&.=.*.b.B.$X&X=X6XwXrXgXkXzXzXlXhXdXdXdXhXlXzXzXlXgXrX9X6X=X&X#XB.k.0.&.&.*.*.5.c.c.c.c.n.c.c.c.c.c.c.c.c.c.c.c.n.c.c.c.c.c.c.c.c.c.c.c.n.c.c.c.c.n.c.c.c.c.c.c.n.c.c.c.c.b.c.c.c.c.c.c.n.c.c.c.c.c.c.c.c.c.c.n.c.",
"I I U 3.1.r.e.c.n.c.c.c.v.b.b.v.b.c.c.c.c.c.n.c.c.n.c.c.c.c.c.n.c.c.c.n.c.c.c.c.c.c.c.n.c.c.c.c.c.c.c.n.c.c.v.c.c.c.c.n.c.c.c.s.*.&.*.b.B.$X&X1X5XwXrXgXkXzXzXlXhXdXdXdXhXlXzXzXlXgXrXwX7X=X&X$XB.b.e.*.*.*.c.c.c.c.c.c.c.n.c.c.c.c.c.n.c.v.c.b.c.c.c.c.c.c.c.n.c.c.c.b.c.c.n.c.c.c.c.n.n.c.c.c.c.c.c.c.c.c.c.c.c.c.c.c.c.c.c.c.c.c.c.c.c.c.c.c.c.c.b.c.c.c.c.c.c.c.b.c.c.c.c.c.c.c.c.c.c.c.c.c.c.c.c.c.n.c.c.c.n.c.c.c.b.c.c.c.v.b.c.c.c.i.5.&.&.0.b.B.$X&X=X7XwXrXgXkXzXzXlXhXdXdXdXhXlXzXzXkXgXrXwX7X=X&X$XB.b.*.&.*.*.e.c.c.c.c.c.c.c.c.n.c.c.c.c.n.c.c.c.c.c.b.v.c.c.n.c.c.c.c.c.c.c.c.c.c.c.c.c.c.n.c.c.c.n.c.c.c.c.c.c.n.c.c.c.c.c.c.c.v.c.c.c.c.c.c.c.c.",
"I Y Y 1.y.e.c.c.c.c.c.c.c.c.c.c.c.c.n.c.c.c.c.c.c.c.c.c.c.c.c.c.c.c.c.c.c.c.c.c.c.c.c.c.c.c.c.c.c.c.c.c.c.c.b.c.b.c.c.c.c.c.c.s.*.*.g.b.B.$X&X=X7XwXrXgXkXzXzXlXhXdXdXdXhXlXzXzXlXgXrXwX5X=X&X$XB.b.g.&.*.g.c.c.c.c.c.b.c.c.c.c.c.c.c.c.c.c.c.c.c.c.c.c.c.c.c.c.c.c.c.c.c.c.c.c.c.c.c.c.c.c.c.c.c.c.c.c.c.c.c.c.c.c.c.c.c.c.c.c.c.c.c.v.c.c.c.c.c.c.c.c.c.m.c.c.c.c.c.c.c.c.c.c.c.c.c.c.c.c.c.c.c.v.c.c.c.c.c.c.c.c.c.c.c.c.n.c.c.c.c.c.c.c.c.*.*.*.b.B.$X&X1X7XwXrXgXkXzXzXlXhXdXdXdXhXlXzXzXkXgXrXwX5X=X1X$XB.b.e.*.*.c.c.c.c.c.c.c.c.c.c.c.c.c.c.c.c.c.c.c.c.c.c.c.c.c.c.c.c.c.c.c.c.c.c.c.n.c.c.c.c.c.c.c.c.c.c.c.c.c.c.c.c.c.c.c.c.c.c.c.c.c.c.b.c.n.c.c.c.",
"I Y Y 1.7.r.e.c.c.c.c.c.c.c.c.c.c.c.c.c.c.c.c.c.c.c.c.c.c.c.c.c.c.c.s.n.c.c.n.c.c.c.c.c.c.c.c.c.c.c.c.c.c.c.c.c.c.c.c.c.c.c.c.s.5.*.e.b.B.#X&X=X5XwXrXgXkXzXzXlXhXdXdXdXhXlXzXzXlXgXrXwX7X=X&X$XB.b.g.*.*.c.c.c.c.c.c.c.c.c.c.c.c.c.c.c.c.c.c.c.n.c.c.c.c.c.c.c.c.c.c.c.c.c.c.c.c.c.c.c.c.c.c.c.c.c.c.c.c.c.c.c.c.c.c.c.c.c.c.c.c.b.c.c.c.c.n.c.c.c.c.c.n.6.c.c.c.c.c.c.c.c.c.n.c.c.c.c.n.s.c.c.c.c.b.c.c.c.c.c.c.c.c.c.c.c.c.c.c.c.c.c.c.c.c.*.*.*.b.B.$X&X=X7XwXrXgXkXzXzXlXhXdXdXdXhXlXzXzXkXgXrXwX7X1X&X$XB.b.g.*.i.c.c.c.c.n.c.c.c.c.c.c.c.c.c.c.c.c.c.c.c.c.c.c.c.c.c.c.c.c.c.c.c.c.c.c.c.c.c.c.c.c.c.c.c.c.c.c.c.c.c.c.c.c.c.c.c.c.c.c.c.c.c.c.c.c.c.c.c.",
"Y Y 1.1.y.e.c.c.c.c.c.c.c.c.c.c.c.c.c.c.c.c.c.c.c.c.c.c.c.c.c.c.c.c.c.c.c.c.c.c.c.b.c.c.c.c.c.c.c.c.c.c.c.c.c.c.c.c.c.c.c.c.c.c.*.*.c.b.B.$X1X=X7XwXrXgXkXzXzXlXhXdXdXdXhXlXzXzXkXgXrXwX7X2X&X$XB.b.*.*.*.s.c.c.c.c.c.c.c.c.c.c.c.c.c.c.c.c.c.c.c.c.c.c.c.c.c.c.c.c.c.c.c.c.c.c.c.c.c.c.c.c.c.c.n.c.c.c.c.c.c.c.n.c.c.c.n.c.c.c.c.c.c.c.c.c.c.c.c.c.c.c.c.c.c.c.c.c.c.c.c.c.c.c.c.c.c.c.c.c.c.c.c.c.c.c.c.c.c.c.c.c.c.c.c.c.c.c.c.c.c.c.c.c.c.*.*.c.b.B.#X&X=X8XwXrXgXkXzXzXlXhXdXdXdXhXlXzXzXkXgXrXwX5X=X&X$XB.c.g.*.*.c.c.c.c.c.c.c.c.c.c.c.c.c.b.c.c.c.c.c.c.c.c.c.c.c.c.c.c.c.n.c.c.c.c.c.c.c.c.c.c.c.c.c.c.c.c.c.c.c.c.c.c.c.c.n.c.c.c.c.c.c.c.v.c.c.c.c.c.",
"Y U 2.y.5.e.c.c.c.c.c.c.c.c.c.c.c.c.c.m.c.c.c.c.c.c.c.c.c.c.c.c.c.c.c.c.c.c.c.c.c.c.c.c.c.c.c.c.c.c.c.c.c.c.c.c.c.c.c.c.c.c.c.c.0.*.g.m.N.$X&X=X7X9XrXgXkXzXzXlXhXdXdXdXhXlXzXzXkXgXrXwX5X=XOX$XN.b.g.*.i.c.c.c.c.c.c.v.c.c.c.c.c.c.c.c.c.c.c.c.c.c.c.c.c.c.c.c.c.c.c.c.c.c.c.c.c.c.c.c.c.c.c.c.c.c.c.c.c.c.c.c.c.c.c.c.c.c.c.c.c.c.c.c.c.n.c.c.c.c.c.c.c.c.c.c.c.c.c.c.c.c.c.c.c.c.c.c.c.c.c.c.c.c.c.c.c.c.c.c.c.v.c.c.c.c.c.c.c.c.c.c.c.c.c.*.*.*.b.B.$X&X=X5XwXrXgXlXzXzXlXhXdXdXdXhXlXzXzXkXgXrXwX5X=X&X$XN.b.g.*.s.c.c.c.c.n.c.c.c.c.c.c.c.c.c.c.c.v.c.c.b.c.c.c.c.c.c.c.c.c.c.c.c.c.c.c.c.n.c.c.c.c.c.c.c.c.c.c.c.c.c.c.c.c.c.c.c.c.c.c.c.c.c.c.c.c.c.c.c.",
"T 2.1.7.5.c.c.c.c.c.c.c.c.c.c.c.c.c.c.n.c.c.c.c.c.c.c.c.c.c.c.c.c.c.c.c.c.c.c.c.c.c.c.c.c.c.b.c.c.c.c.c.c.c.c.c.c.c.c.c.c.c.c.c.s.*.0.b.N.$X&X=X5X9XrXgXkXzXzXlXhXdXdXdXhXlXzXzXkXgXrXwX5X=XOX$XN.b.0.*.*.c.c.c.c.c.c.c.c.c.c.v.c.c.c.c.c.c.c.c.c.c.c.c.c.c.c.c.c.c.c.c.c.c.c.c.c.c.c.c.c.c.c.c.c.c.c.c.c.c.c.c.c.c.c.c.c.c.c.c.c.c.c.c.c.c.c.c.c.c.c.c.c.c.c.c.n.c.c.c.c.c.c.c.c.n.c.c.c.c.c.c.c.c.n.c.c.c.c.c.c.c.c.c.c.c.c.c.c.c.c.v.n.c.c.i.*.g.b.N.@X&X=X5XwXrXgXkXzXzXlXhXdXdXdXhXlXzXzXkXgXrXwX5X=XOX@XB.b.*.*.0.c.c.c.c.c.c.c.c.c.c.c.c.c.c.c.c.c.c.c.c.c.c.c.c.c.c.c.c.c.c.c.c.c.c.c.c.m.c.c.c.c.c.c.c.c.c.c.c.c.c.c.c.c.c.c.c.c.c.c.c.c.c.c.c.c.c.c.c.",
"K K %.*.5.c.g.c.c.c.c.c.c.b.c.c.c.c.c.c.c.c.c.c.c.c.c.c.c.c.c.c.c.c.c.c.c.c.c.c.c.c.c.c.c.c.c.c.c.c.c.c.c.c.c.c.c.c.c.n.m.c.c.s.5.*.i.c.N.@XOX=X7X9XrXgXkXzXzXlXhXdXdXdXhXlXzXzXkXgXrXwX5X=XOX$XN.b.*.*.5.c.c.c.c.c.b.c.c.c.c.b.c.n.c.c.c.c.c.c.c.c.c.c.c.c.c.c.c.c.n.c.c.c.c.c.c.c.c.c.c.c.c.c.c.c.c.c.c.c.c.c.c.v.c.c.c.c.c.c.c.c.c.c.c.c.c.c.c.c.c.c.c.c.c.c.c.c.c.c.c.c.c.c.c.b.c.c.c.c.c.c.c.c.c.c.c.c.c.c.c.c.c.c.c.c.c.c.c.c.c.c.c.c.c.5.*.g.b.N.@X&X=X5XwXrXgXkXzXzXlXhXdXdXdXhXlXzXzXkXgXrXwX5X=X&X@XN.c.g.*.*.c.c.c.c.c.c.c.c.c.c.c.c.c.c.c.c.c.c.c.c.c.c.c.c.c.c.c.c.c.c.c.c.c.c.c.c.c.c.c.c.c.c.c.c.c.c.c.c.c.c.c.c.c.n.c.c.c.c.c.c.c.c.c.c.c.c.c.c.",
"K | ..=.i.s.s.c.c.c.c.c.c.v.c.c.c.c.c.c.c.c.c.c.c.c.c.c.n.c.c.c.c.c.c.c.c.c.c.c.c.c.c.c.c.v.c.c.n.c.c.c.c.c.c.c.c.c.c.c.c.c.c.g.*.&.g.b.N.@XOX=X5X9XrXgXkXzXzXlXhXdXdXdXhXlXzXzXkXgXrXwX5X=XOX@XN.g.g.*.*.c.c.c.c.n.c.c.c.c.c.c.c.c.c.c.c.c.c.c.c.c.c.c.c.c.c.c.c.c.c.c.c.c.c.c.c.c.c.c.c.v.c.c.c.c.c.c.c.c.c.c.c.c.c.c.c.c.c.c.c.c.c.c.c.c.c.c.c.c.n.c.c.c.c.c.c.c.c.c.c.c.c.c.c.c.c.c.c.c.c.c.c.c.c.c.c.c.c.c.c.c.c.c.c.c.c.c.c.c.c.c.c.c.c.*.*.*.c.N.@X%X=X5XwXrXgXkXzXzXlXhXdXdXdXhXlXzXzXkXgXrXwX5X=XOX@XN.b.*.*.*.c.c.c.c.c.c.c.c.c.c.c.c.c.c.c.c.c.c.c.c.c.c.n.c.c.c.c.c.n.c.c.c.c.c.c.c.c.c.c.c.c.c.c.c.c.c.c.c.c.c.c.c.c.c.c.c.c.c.c.c.c.c.c.c.v.b.c.c.",
"a / | $.p.i.g.c.c.c.c.b.c.c.c.c.c.c.c.c.c.c.n.6.c.c.c.c.c.c.c.c.c.c.c.c.c.c.c.c.c.c.c.c.c.c.b.c.c.c.c.c.c.b.c.v.c.c.c.c.c.c.g.s.*.*.i.g.N.@XOX=X5X9XrXgXkXzXzXlXhXdXdXdXhXlXzXzXkXgXrX9X5X=XOX@XN.c.g.*.*.s.c.m.c.c.c.c.c.c.c.c.c.c.b.c.c.c.c.c.n.c.c.c.c.c.c.c.c.v.c.c.c.c.n.c.c.c.c.m.c.c.c.c.c.c.n.c.c.c.c.c.c.c.c.c.c.c.c.c.c.c.c.c.c.c.c.c.c.c.c.c.c.c.c.c.c.c.c.c.c.c.c.c.c.c.c.c.c.c.c.c.c.c.c.c.6.m.c.c.c.c.c.c.c.c.c.c.c.c.c.n.c.c.5.*.*.*.c.N.@XOX=X5XwXrXgXkXzXzXlXhXdXdXdXhXlXzXzXkXgXrXwX5X=XOX@XN.b.*.*.*.g.c.c.c.n.6.m.c.c.c.n.c.c.c.c.c.c.c.v.c.c.c.b.c.c.c.c.c.c.c.c.c.c.c.c.c.c.c.c.c.c.M.m.c.c.c.c.c.n.c.c.c.m.c.c.c.c.m.c.c.c.c.c.c.c.c.c.c.",
"q a ) } $.*.i.c.c.c.c.c.c.c.c.c.c.v.c.c.c.c.v.m.c.c.n.c.c.c.c.c.c.c.c.n.c.c.c.c.b.n.c.c.c.c.v.c.c.c.v.c.v.c.c.c.c.c.c.c.c.c.s.5.*.&.0.g.N.@XOX=X5X9XrXgXkXzXzXlXhXdXdXdXhXlXzXzXkXgXrX9X5X=XOX@XN.g.*.=.*.s.s.s.c.c.n.c.v.c.c.c.c.c.v.c.c.c.n.c.c.c.c.c.n.c.c.m.c.b.c.c.c.c.c.c.c.c.c.n.v.c.c.c.c.c.c.c.n.c.c.c.c.c.c.c.n.c.c.c.b.v.c.c.c.c.n.c.c.c.c.c.c.c.c.c.c.v.b.c.c.n.c.c.v.c.c.c.c.v.c.c.c.c.c.n.n.c.c.c.c.c.c.n.c.n.c.c.c.c.c.c.c.c.*.*.&.*.g.N.@XOX=X5XwXrXgXkXzXzXlXhXdXdXdXhXlXzXzXkXgXrXwX5X=XOX@XN.g.*.%.*.*.c.c.c.c.c.c.c.c.c.c.c.n.c.c.c.c.c.c.c.c.c.v.c.n.c.n.c.c.c.c.c.m.n.c.m.c.c.c.n.c.c.s.c.c.c.v.c.c.c.c.c.6.n.c.c.c.6.n.c.n.c.c.c.c.c.b.v.",
"q y ) _ O.p.i.g.c.c.c.c.c.n.c.c.c.c.c.n.c.c.c.c.c.v.c.b.c.c.c.c.6.m.c.c.n.c.6.c.c.c.v.c.c.v.c.c.c.c.c.c.c.c.c.c.n.c.c.v.c.m.s.i.&.%.*.g.N.@XOX=X5X9XrXgXkXzXzXlXhXdXdXdXhXlXzXzXkXgXrX9X5X=XOX@XN.g.*.=.%.*.s.g.c.c.c.c.c.c.c.c.c.c.c.c.n.c.c.c.c.c.v.c.m.c.c.6.c.n.c.v.c.c.c.c.c.c.c.c.c.c.n.c.c.v.c.c.v.c.c.c.c.n.c.v.c.c.c.c.v.c.c.c.c.c.c.c.c.c.c.c.n.6.c.v.c.n.v.c.c.c.c.c.c.c.n.c.b.v.c.c.c.v.c.c.c.c.n.c.v.c.c.c.v.c.c.c.c.c.c.c.c.*.*.&.=.0.g.N.@XOX=X5X9XrXgXkXzXzXlXhXdXdXdXhXlXzXzXkXgXrXwX5X=XOX@XN.c.*.&.&.*.i.c.c.c.c.m.6.c.c.c.c.c.c.n.c.c.c.c.c.c.c.c.c.c.c.c.c.c.c.v.c.c.c.c.6.c.c.c.c.c.c.c.c.n.c.c.b.c.c.c.c.c.c.c.c.c.c.c.c.v.c.n.c.v.c.c.c.",
"8 y u ) O.u.p.p.k.m.m.c.c.c.c.c.c.c.c.6.c.c.v.c.v.c.v.c.v.v.c.v.M.c.c.c.c.6.M.c.c.c.v.c.c.v.c.c.c.v.v.c.c.v.n.c.6.c.c.c.6.s.5.=.%.=.*.g.N.@XOX=X5X9XrXgXkXzXzXlXhXdXdXdXhXlXzXzXkXgXrX9X>X=XOX@XN.g.*.%.=.&.5.s.s.s.v.c.v.c.c.c.c.v.v.c.c.6.v.c.v.c.c.v.6.c.c.M.c.c.c.c.v.v.c.v.6.M.c.c.v.c.c.c.v.c.c.v.c.c.v.c.c.v.c.c.c.v.c.c.n.c.v.c.v.v.c.c.6.M.c.c.c.c.c.v.c.c.c.c.v.v.c.v.6.c.c.c.v.c.c.c.c.c.c.v.c.c.6.c.v.c.c.v.c.c.v.c.c.5.c.c.5.*.%.=.=.*.g.N.@XOX=X5X9XrXgXkXzXzXlXhXdXdXdXhXlXzXzXkXgXrX9X5X=XOX@XN.g.&.=.%.%.*.5.5.c.6.c.M.c.c.c.6.v.v.c.c.v.c.v.c.c.v.v.c.c.6.v.c.v.c.c.v.6.c.c.M.c.c.6.v.v.c.v.c.v.c.v.c.v.v.c.v.c.c.6.M.c.c.c.v.c.c.6.c.c.c.v.c.",
"8 e Q Q _ u.u.p.h.h.h.h.h.s.s.s.6.s.6.6.c.6.6.6.6.6.c.6.6.6.6.6.c.r.6.6.6.6.s.c.6.6.6.6.c.6.6.6.6.6.6.s.6.6.6.6.6.5.5.5.5.7.%...%.$.&.g.N.@XOX=X5XwXrXgXkXzXzXlXhXdXdXdXhXlXzXzXlXdXrXwX5X=XOX.XN.c.%.%.%.%.7.7.5.5.s.6.5.r.s.6.6.6.6.c.6.6.6.c.6.6.6.c.6.6.6.c.6.6.6.6.c.6.6.6.6.6.c.6.6.6.6.6.c.6.6.6.6.6.c.6.6.6.6.6.6.6.6.6.6.6.6.6.s.6.6.c.6.6.c.6.6.6.6.6.6.6.6.6.6.6.c.6.6.6.6.6.6.6.6.6.6.6.6.6.6.6.6.6.c.6.6.6.6.6.c.6.6.6.5.7.5.%.%.%.=.&.c.N.@XOX=X>XwXrXgXkXzXzXlXhXdXdXdXhXlXzXzXkXgXrXwX5X=XOX@XN.c.%.$. .%.%.*.5.5.6.6.6.6.6.5.6.6.6.6.6.c.v.6.6.c.6.6.6.6.6.c.s.6.6.6.c.6.6.6.c.6.6.s.c.6.6.6.6.c.6.6.6.6.6.c.6.6.6.c.6.6.6.6.6.c.6.6.6.6.6.c.6.",
"e e t E ` _ ] u.u.p.p.h.s.s.s.4.8.4.4.4.4.4.4.4.4.4.4.4.4.4.4.4.4.4.4.4.4.4.4.4.4.4.4.4.4.4.4.4.4.4.4.4.4.4.4.4.4.4.4.4.9.;.9... . .7.c.N.@XOX=X5XwXrXgXkXzXzXlXhXdXdXdXhXlXzXzXlXgXrXwX5X=XOX@XN.c.%. . .:.;.:.9.4.4.4.4.4.4.4.4.4.4.4.4.4.4.4.4.4.4.4.4.4.4.4.4.4.4.4.4.4.4.4.4.4.4.4.4.4.4.4.4.4.4.4.4.4.4.4.4.4.4.4.4.4.4.4.4.4.4.4.4.4.4.4.4.4.4.4.4.4.4.4.4.6.4.4.4.4.4.4.4.4.4.4.4.6.4.4.4.8.4.4.4.4.4.4.4.4.4.4.4.4.4.4.4.4.4.<.;.;.:. .;.%.c.N.@XOX=X5XwXrXgXkXzXzXlXhXdXdXdXhXlXzXzXkXgXrX9X5X=X%X@XN.c.%. .9.9.:.4.9.4.4.4.4.4.4.4.4.4.4.4.4.4.4.4.4.4.4.4.4.4.4.4.4.4.4.4.4.4.4.4.4.4.8.4.4.4.4.4.4.4.4.4.4.4.4.4.4.4.4.4.4.4.4.4.4.4.4.4.4.4.4.4.4.",
"e t t E ! _ ' ] u.u.u.p.a.s.-.8.<.<.,.,.,.,.,.,.].,.,.,.,.,.].,.,.,.,.].,.,.,.].,.,.].,.,.,.,.].,.,.,.].,.,.,.,.].,.,.,.,.>.>.>.( :.4.5.n.@XOX=X5XwXrXgXkXzXzXlXhXdXdXdXhXlXzXzXlXgXrXwX>X=XOX@XN.6.4.:.>.>.>.>.>.,.,.,.,.].,.,.,.,.].,.,.,.].,.].,.,.,.].,.].,.,.].'.].,.,.,.,.].,.,.,.,.,.].,.,.,.,.].].,.,.,.,.,.].,.,.,.,.].,.,.'.].,.,.,.].].,.,.].,.,.,.,.].,.,.].].,.,.,.,.,.,.].].,.,.,.'.,.,.,.,.,.].,.,.,.,.].].,.,.,.,.,.,.( '.T T ( :.;.c.B.@XOX=X>XwXrXgXlXzXzXlXhXdXdXdXhXlXzXzXkXgXrX9X5X=X%X#XN.c.4.:.T >.>.Y ( >.,.,.].,.,.,.].,.].,.,.,.,.,.,.].,.,.,.].,.].,.].,.,.,.].,.].,.'.].,.,.,.,.].,.,.,.,.].].,.,.,.].,.,.,.,.,.].,.,.,.,.].].,.,.,.",
"y E t Q ` ` _ ] ] u.u.u.-.-.( ( '.D.S.D.A.A.A.A.A.A.A.A.A.A.A.A.A.A.A.A.A.A.A.A.A.A.A.A.A.A.A.A.A.A.A.A.A.A.A.A.A.A.A.A.A.A.C.Z.Z.P <.6.n.@XOX=X5XwXrXgXkXzXzXlXhXdXdXdXhXlXzXzXlXgXrXwX4X=X%X@Xn.6.<.>.>.Z.C.Z.A.A.A.A.A.A.A.A.A.A.A.A.A.A.A.A.A.A.A.A.A.A.A.A.A.A.A.S.A.A.A.A.A.A.A.A.A.A.A.A.A.A.A.A.A.A.A.A.A.A.A.A.A.A.S.A.A.A.A.S.A.A.A.A.A.A.A.A.A.A.A.A.A.A.A.A.A.A.A.A.A.A.A.A.A.A.A.A.S.A.A.A.A.A.A.A.A.A.A.A.A.A.A.A.A.A.A.A.A.D.Z.Z.,.<.r.n.#XOX=X>XwXrXdXlXzXzXlXhXdXdXdXhXlXzXzXkXgXrX9X5X=X%X@Xn.6.<.>.Z.Z.D.A.C.A.A.A.A.A.A.A.A.A.A.A.A.A.A.A.A.A.A.A.A.A.A.A.A.A.A.A.A.A.A.A.A.S.A.A.A.A.A.A.A.A.A.A.A.A.A.A.A.A.A.A.A.A.A.A.A.A.A.A.A.A.A.A.A.",
"W W W ~ ` _ _ ' ] ] ] ] a.-.( '.A.F.V.F.V.G.G.G.G.G.G.G.G.G.G.G.G.G.G.G.G.G.G.G.G.G.G.G.G.G.G.G.G.G.G.G.G.G.G.G.G.G.G.G.G.G.G.C.H.Z.].8.n.#X%X=X5X9XrXgXkXzXzXlXhXdXdXdXhXlXzXzXkXgXrX9X>X=X%X#XM.8.,.D.C.F.G.G.G.G.G.G.G.G.G.G.G.G.G.G.G.G.G.G.G.G.G.G.G.G.G.G.G.G.G.G.G.G.G.G.G.G.G.G.G.G.G.G.G.G.G.G.G.G.G.G.G.G.G.G.G.G.G.G.G.G.G.G.G.G.G.G.G.G.G.G.G.G.G.G.G.G.G.G.G.G.G.G.G.G.G.G.G.G.G.G.G.G.G.G.G.G.G.G.G.G.G.G.G.G.G.G.G.G.G.G.G.G.F.C.S.].8.n.#XoX=X5XwXrXgXkXzXzXlXhXdXdXdXhXlXzXzXkXgXrX9X5X=XOX@Xn.8.'.Z.C.G.G.G.G.G.G.G.G.G.G.G.G.G.G.G.G.G.G.G.G.G.G.G.G.G.G.G.G.G.G.G.G.G.G.G.G.G.G.G.G.G.G.G.G.G.G.G.G.G.G.G.G.G.G.G.G.G.G.G.G.G.G.G.G.G.G.G.G.",
"$.O.O.} / { _ _ ' ' ] ] a.-.( D.F.J.P.P.I.I.I.I.I.I.I.I.I.I.I.I.I.I.I.I.I.I.I.I.I.I.I.I.I.I.I.I.I.I.I.I.I.I.I.I.I.I.I.I.I.I.P.L.G.C.].8.M.#X%X=X5X9XrXgXkXzXzXlXhXdXdXdXhXlXzXzXkXgXrX9X5X=X%X#XM.8.`.F.G.L.L.I.I.I.I.I.I.I.I.U.I.I.I.I.I.I.I.I.I.I.I.I.I.I.I.I.I.I.I.I.I.I.I.I.I.I.I.I.I.I.I.I.I.I.I.I.I.I.I.I.I.I.I.I.I.I.I.I.I.I.I.I.I.I.I.I.I.I.I.I.I.I.I.I.I.I.I.I.I.I.I.I.I.I.I.I.I.I.I.I.I.I.I.I.I.I.I.I.I.I.I.I.I.I.I.I.I.I.I.I.I.P.L.G.F.].[.M.#X%X=X4XwXrXgXkXzXzXlXhXdXdXdXhXlXzXzXkXgXrX9X5X=X%X#XM.[.`.C.G.L.P.P.P.I.I.I.I.I.I.I.U.I.I.I.I.I.I.I.I.I.I.I.I.I.I.I.I.I.I.I.I.I.I.I.I.I.I.I.I.I.I.I.I.I.I.I.I.I.I.I.I.I.I.I.I.I.I.I.I.I.I.I.I.I.I.I.I.",
"s.%.$.@.O.O.a._ ' ' ' ' a.a.( D.V.P.U.T.T.T.T.T.T.T.T.T.T.T.T.T.T.T.T.T.T.T.T.T.T.T.T.T.T.T.T.T.T.T.T.T.T.T.T.T.T.T.T.T.T.T.K.U.P.F.'.[.M.#X%X=X5X9XrXgXkXzXzXlXhXdXdXdXhXlXzXzXkXgXrX9X5X=X%X#XM.[.S.F.L.U.K.T.T.T.T.T.T.T.T.T.T.T.T.T.T.T.T.T.T.T.T.T.T.T.T.T.T.T.T.T.T.T.T.T.T.T.T.T.T.T.T.T.T.T.T.T.T.T.T.T.T.T.T.T.T.T.T.T.T.T.T.T.T.T.T.T.T.T.T.T.T.T.T.T.T.T.T.T.T.T.T.T.T.T.T.T.T.T.T.T.T.T.T.T.T.T.T.T.T.T.T.T.T.T.T.T.T.T.T.K.T.K.U.L.F.'.[.M.#X%X=X5XwXrXgXkXzXzXlXhXdXdXdXhXlXzXzXkXgXrX9X5X=X%X#XM.[.'.F.L.U.K.K.T.T.T.T.T.T.T.T.T.T.T.T.T.T.T.T.T.T.T.T.T.T.T.T.T.T.T.T.T.T.T.T.T.T.T.T.T.T.T.T.T.T.T.T.T.T.T.T.T.T.T.T.T.T.T.T.T.T.T.T.T.T.T.T.T.",
"b.g.i.%.O.{ / ~ ` ' ' ' a.-.( H.V.P.T.T.Y.Y.Y.Y.Y.Y.Y.Y.Y.Y.Y.Y.Y.Y.Y.Y.Y.Y.Y.Y.Y.Y.Y.Y.Y.Y.Y.Y.Y.Y.Y.Y.Y.Y.Y.Y.Y.Y.Y.Y.Y.Y.T.K.P.G.S.[.M.#X%X=X5X9XrXgXkXzXzXlXhXdXdXdXhXlXzXzXkXgXrX9X5X=X%X#XM.8.A.G.P.K.T.Y.Y.Y.Y.Y.Y.Y.Y.Y.Y.Y.Y.Y.Y.Y.Y.Y.Y.Y.Y.Y.Y.Y.Y.Y.Y.Y.Y.Y.Y.Y.Y.Y.Y.Y.Y.Y.Y.Y.Y.Y.Y.Y.Y.Y.Y.Y.Y.Y.Y.Y.Y.Y.Y.Y.Y.Y.Y.Y.Y.Y.Y.Y.Y.Y.Y.Y.Y.Y.Y.Y.Y.Y.Y.Y.Y.Y.Y.Y.Y.Y.Y.Y.Y.Y.Y.Y.Y.Y.Y.Y.Y.Y.Y.Y.Y.Y.Y.Y.Y.Y.Y.Y.Y.Y.Y.Y.Y.Y.Y.T.K.P.G.S.[.M.#X%X=X5XwXrXgXkXzXzXlXhXdXdXdXhXlXzXzXkXgXrX9X5X=X%X#XM.[.S.G.P.K.T.Y.Y.Y.Y.Y.Y.Y.Y.Y.Y.Y.Y.Y.Y.Y.Y.Y.Y.Y.Y.Y.Y.Y.Y.Y.Y.Y.Y.Y.Y.Y.Y.Y.Y.Y.Y.Y.Y.Y.Y.Y.Y.Y.Y.Y.Y.Y.Y.Y.Y.Y.Y.Y.Y.Y.Y.Y.Y.Y.Y.Y.Y.Y.Y.Y.Y.",
"n.c.c.&.@.} ) ~ Q ~ ~ ' a.( ( H.V.U.K.Y.Y.Y.Y.Y.Y.Y.Y.Y.Y.Y.Y.Y.Y.Y.Y.Y.Y.Y.Y.Y.Y.Y.Y.Y.Y.Y.Y.Y.Y.Y.Y.Y.Y.Y.Y.Y.Y.Y.Y.Y.Y.Y.T.K.P.G.S.[.M.#X&X2X5XwXrXgXjXlXzXlXhXdXdXdXhXlXzXzXkXgXrXwX5X=X%X#XM.[.S.G.P.T.T.Y.Y.Y.Y.Y.Y.Y.Y.Y.Y.Y.Y.Y.Y.Y.Y.Y.Y.Y.Y.Y.Y.Y.Y.Y.Y.Y.Y.Y.Y.Y.Y.Y.Y.Y.Y.Y.Y.Y.Y.Y.Y.Y.Y.Y.Y.Y.Y.Y.Y.Y.Y.Y.Y.Y.Y.Y.Y.Y.Y.Y.Y.Y.Y.Y.Y.Y.Y.Y.Y.Y.Y.Y.Y.Y.Y.Y.Y.Y.Y.Y.Y.Y.Y.Y.Y.Y.Y.Y.Y.Y.Y.Y.Y.Y.Y.Y.Y.Y.Y.Y.Y.Y.Y.Y.Y.Y.Y.Y.Y.T.K.P.G.A.[.M.#X%X=X5XwXrXgXkXlXzXlXhXdXdXdXhXlXzXzXkXgXrX9X5X=X%X#XM.[.S.G.P.K.T.Y.Y.Y.Y.Y.Y.Y.Y.Y.Y.Y.Y.Y.Y.Y.Y.Y.Y.Y.Y.Y.Y.Y.Y.Y.Y.Y.Y.Y.Y.Y.Y.Y.Y.Y.Y.Y.Y.Y.Y.Y.Y.Y.Y.Y.Y.Y.Y.Y.Y.Y.Y.Y.Y.Y.Y.Y.Y.Y.Y.Y.Y.Y.Y.Y.Y.",
"M.b.c.%.$.} [ W Q Q / _ / ( ( H.V.I.U.T.T.T.T.T.T.T.T.T.T.T.T.T.T.T.T.T.T.T.T.T.T.T.T.T.T.T.T.T.T.T.T.T.T.T.T.T.T.T.T.T.T.T.K.U.L.F.S.[.M.#X&X=X5XwXrXgXlXzXzXlXhXdXdXdXhXlXzXzXkXgXrX9X5X=X%X#XM.[.S.F.L.I.K.T.T.T.T.T.T.T.T.T.T.T.T.T.T.T.T.T.T.T.T.T.T.T.T.T.T.T.T.T.T.T.T.T.T.T.T.T.T.T.T.T.T.T.T.T.T.T.T.T.T.T.T.T.T.T.T.T.T.T.T.T.T.T.T.T.T.T.T.T.T.T.T.T.T.T.T.T.T.T.T.T.T.T.T.T.T.T.T.T.T.T.T.T.T.T.T.T.T.T.T.T.T.T.T.T.T.T.T.T.K.K.U.L.F.S.8.M.#X%X=X>XwXrXgXkXzXzXlXhXdXdXdXhXlXzXzXkXgXrX9X5X=X%X#XM.[.S.F.L.I.T.T.T.T.T.T.T.T.T.T.T.T.T.T.T.T.T.T.T.T.T.T.T.T.T.T.T.T.T.T.T.T.T.T.T.T.T.T.T.T.T.T.T.T.T.T.T.T.T.T.T.T.T.T.T.T.T.T.T.T.T.T.T.T.T.T.T.",
"c.c.m.*.$.} [ W Q Q E / / ( ( H.V.L.P.I.I.I.I.I.I.I.I.I.I.I.I.I.I.I.I.I.I.I.I.I.I.I.I.I.I.I.I.I.I.I.I.I.I.I.I.I.I.I.I.I.I.P.P.L.G.F.'.[.M.#X&X=X5XwXrXgXkXzXzXlXhXdXdXdXhXlXzXzXkXgXrX9X5X=X%X#Xn.8.].C.G.L.P.I.I.I.I.I.I.I.I.I.I.I.I.I.I.I.I.I.I.I.I.I.I.I.I.I.I.I.I.I.I.I.I.I.I.I.I.I.I.I.I.I.I.I.I.I.I.I.I.I.I.I.I.I.I.I.I.I.I.I.I.I.I.I.I.I.I.I.I.I.I.U.I.I.I.I.I.I.I.I.I.I.I.I.I.I.I.I.I.I.I.I.I.I.I.I.I.I.I.I.I.I.I.I.I.I.I.I.I.I.I.P.L.J.C.].8.M.#XOX=X5X9XrXgXkXzXzXlXhXdXdXdXhXlXzXzXkXgXrX9X5X=X%X#XM.[.].F.G.L.P.I.I.I.I.I.I.I.I.I.I.I.I.I.I.I.I.I.I.I.I.I.I.I.I.I.I.I.I.I.I.I.I.I.I.I.I.I.I.I.I.I.I.I.I.I.I.I.I.I.I.I.I.I.I.I.I.I.I.I.I.I.I.I.I.I.I.",
"c.c.c.5.$.| W W y E Q / / ( '.H.H.F.F.G.G.G.G.G.G.G.G.G.G.G.G.G.G.G.G.G.G.G.G.G.G.G.G.G.G.G.G.G.G.G.G.G.G.G.G.G.G.G.G.G.G.G.G.F.A._.[.[.n.#X%X=X5XwXrXgXkXzXzXlXhXdXdXgXhXlXzXzXkXgXrX9X>X=X%X#Xn.8.].A.H.F.G.G.G.G.G.G.G.G.G.G.G.G.G.G.G.G.G.G.G.G.G.G.G.G.G.G.G.G.G.G.G.G.G.G.G.G.G.G.G.G.G.G.G.G.G.G.G.G.G.G.G.G.G.G.G.G.G.G.G.G.G.G.G.G.G.G.G.G.G.G.G.G.G.G.G.G.G.G.G.G.G.G.G.G.G.G.G.G.G.G.G.G.G.G.G.G.G.G.G.G.G.G.G.G.G.G.G.G.G.G.G.G.F.C.Z.].8.M.#XOX=X5X9XrXgXkXzXzXlXhXdXdXdXhXlXzXzXkXgXrXwX>X=X%X@Xn.8.[.A.C.F.F.G.G.G.G.G.G.G.G.G.G.G.G.G.G.G.G.G.G.G.G.G.G.G.G.G.G.G.G.G.G.G.G.G.G.G.G.G.G.G.G.G.G.G.G.G.G.G.G.G.G.G.G.G.G.G.G.G.G.G.G.G.G.G.G.G.G.",
"c.c.c.%.$.} W u y E Q Q / ( ( '.'.S.A.A.A.A.A.A.A.A.A.A.A.A.A.A.A.A.A.A.A.A.A.A.A.A.A.A.A.A.A.A.A.A.A.A.A.A.A.A.A.A.A.D.A.C.A.Z.Z.( <.6.n.#X&X=X5XwXrXgXlXzXzXlXhXdXdXdXhXlXzXzXkXgXrX9X5X=X%X#Xn.6.<.>.Z.Z.Z.A.A.D.A.A.A.A.A.A.A.A.A.A.A.A.A.A.A.A.A.A.A.A.A.A.A.A.A.A.A.A.A.A.A.A.A.A.A.A.S.A.A.A.A.A.A.A.A.A.A.A.A.A.A.A.A.A.A.A.A.A.A.A.A.A.A.A.A.A.A.A.A.A.A.A.A.A.A.A.A.A.A.A.A.A.A.A.A.D.A.A.A.A.A.A.A.A.A.A.A.A.A.A.A.A.A.A.A.A.A.Z.Z.>.Y <.6.n.#X%X=X5XwXrXgXkXzXzXlXhXgXdXdXhXlXzXzXkXgXrXwX5X=XOX@Xn.6.:.>.>.Z.C.Z.C.A.A.A.A.A.A.A.A.A.A.A.A.A.A.A.A.A.A.A.A.A.A.A.A.A.A.A.A.A.S.A.D.A.A.A.A.A.A.A.A.A.A.A.A.A.A.A.A.A.A.A.A.A.A.A.A.A.A.A.A.A.A.A.A.",
"*.*.*.=.} | W p y E Q Q _ / 9.9.].].,.,.,.].,.,.,.,.,.].].,.,.,.,.,.].,.,.,.].].].,.,.,.,.].,.,.,.,.,.].].,.,.,.,.].,.,.( >.T ( U ;.9.s.N.@XOX=X5XwXrXgXlXzXzXlXhXdXdXdXhXlXzXzXkXgXrX9X5X=XOX#XN.s.4.:.>.>.>.>.,.,.,.,.,.].,.,.,.,.,.].].,.,.].,.].,.,.,.].].( ,.,.,.].,.].,.,.,.,.,.].].].,.,.,.].,.,.,.,.,.].].,.,.,.,.].,.,.,.,.,.,.,.,.,.].,.,.,.].].,.,.,.,.].,.,.,.,.,.].].,.,.,.].].,.,.,.].,.].,.,.,.].,.].,.].,.,.,.].,.>.,.,.>.>.>.>.9.9.s.N.@X%X=X5XwXrXgXkXzXzXlXhXdXfXdXhXlXzXzXkXgXrX9X5X=XOX@Xn.6.4.>.>.>.>.,.>.,.,.,.,.,.,.,.].].,.,.,.,.].,.,.,.,.,.].].,.,.,.,.,.,.,.,.,.].].,.].,.].,.,.,.].,.].,.,.,.].,.].,.].,.].,.,.,.].,.,.,.].,.,.,.].",
"=.$.$.@.| i u y e e ^ Q ~ O.-.5.4.4.4.4.4.4.4.4.4.4.4.4.4.4.4.4.4.4.4.4.4.4.4.4.4.4.4.4.4.4.4.4.4.4.4.4.4.4.4.4.4.4.4.4.<.1. .9.:. .5.s.N.@XOX=X5XwXrXgXkXlXzXlXhXdXdXdXhXlXzXzXkXgXrX9X5X=XOX@XN.s.%. ...:.:.9.;.4.4.4.4.4.4.4.4.4.4.4.4.4.4.4.4.4.4.4.4.4.8.4.4.4.4.6.4.4.4.4.4.4.4.4.4.4.4.4.4.4.4.4.4.4.4.4.4.4.4.4.4.4.4.4.4.4.4.4.4.4.4.4.4.4.4.4.4.4.4.4.4.4.4.4.4.4.4.4.4.4.4.4.4.4.4.4.4.4.4.4.4.4.4.4.4.4.4.4.4.4.4.4.4.4.;.;.:.9.:.:. .7.m.N.@XOX=X5XwXrXgXkXzXzXlXhXdXdXgXhXlXzXzXkXgXrX9X5X=XOX@XN.c.7. . .;.;.;.4.4.4.4.4.4.4.4.4.4.4.4.4.4.4.4.4.4.4.4.4.4.4.4.4.4.4.4.4.4.4.4.4.4.4.4.4.4.4.4.4.4.4.4.4.4.4.4.4.4.4.4.4.4.4.4.4.4.4.4.4.4.4.4.4.",
"} | } } | / y r 7 e e E ~ O.p.p.s.6.c.s.6.6.6.6.6.c.6.6.6.6.6.c.6.6.6.6.6.c.6.6.6.6.c.c.6.6.6.6.6.c.6.6.6.6.6.c.6.6.5.5.5.7.7.%. .%.%.g.N.@XOX=X5XwXrXgXlXzXzXlXhXdXdXdXhXlXzXlXkXgXrX9X5X=XOX@XN.c.*.%.$.%.7.7.5.6.5.5.6.6.c.6.6.6.6.6.6.c.6.c.6.6.6.6.6.c.6.6.6.6.6.6.6.6.6.6.6.c.6.6.6.6.6.s.6.6.6.6.6.c.6.6.6.6.6.c.6.6.6.6.6.6.v.c.6.6.6.6.6.6.6.6.6.6.v.c.6.6.6.6.6.c.6.6.6.6.6.c.6.6.6.6.s.c.6.6.c.6.6.6.s.c.6.6.c.6.6.6.6.6.6.5.7.7.$.$.%.%.c.N.@X%X=X5XwXrXgXlXzXzXlXhXdXdXdXhXlXzXzXkXgXrX9X5X=XOX@XN.c.%.%.$.%.%.%.5.5.6.6.6.6.c.6.6.6.6.6.c.6.6.6.6.6.c.6.6.6.6.6.c.6.6.6.6.6.6.6.6.c.6.6.6.c.6.6.6.c.6.6.6.s.c.6.6.c.6.6.6.c.6.6.6.c.6.6.6.c.6.6.6.",
"i i W / W p y 8 7 2 e ^ ~ a.u.i.c.c.c.c.M.6.c.c.c.M.6.c.M.6.c.c.c.M.6.c.6.c.c.v.c.c.c.c.M.c.v.6.c.c.v.v.c.v.6.c.v.c.v.6.s.s.5.%.$.=.*.h.N.@XOX=X>XwXrXgXkXzXzXlXhXdXdXdXhXlXzXzXlXdXiXwX5X=XOX@XN.g.*.=.=.%.*.*.s.c.v.c.v.c.v.c.v.c.v.v.c.v.c.v.c.c.M.6.6.c.c.v.c.c.c.c.v.v.c.c.c.v.c.c.v.c.6.c.v.v.c.c.c.v.6.c.c.c.6.c.c.v.c.6.c.c.v.v.c.v.v.c.v.v.c.c.v.c.v.c.c.c.c.6.c.v.c.c.v.c.c.c.v.c.c.c.c.c.c.6.c.v.v.c.v.c.c.v.v.c.c.c.c.c.c.c.5.*.%.%.=.*.g.N.@XOX=X5XwXrXgXkXzXzXlXhXdXdXdXhXlXzXzXkXgXrXwX5X=XOX@XN.g.&.%.%.&.*.5.c.c.c.c.c.v.6.c.v.c.n.c.6.n.s.v.v.c.c.c.c.c.M.6.c.c.c.c.v.c.c.c.v.6.m.v.c.6.c.c.n.v.c.c.v.v.c.c.c.c.6.c.c.c.v.c.v.c.v.c.v.c.c.c.v.",
"y y y y p y e 7 2 2 e ^ ~ _ p.i.m.m.c.c.c.c.c.6.c.c.c.c.c.c.c.c.c.c.c.c.c.n.c.c.c.c.c.c.6.m.c.c.v.c.c.c.c.b.c.n.c.c.c.m.c.c.*.*.&.%.*.g.N.@XOX=X5XwXrXgXkXzXzXlXhXdXdXdXhXlXzXzXlXdXrXwX5X=XOX@XN.g.*.=.%.*.c.c.c.c.c.c.c.c.v.c.c.c.b.c.c.c.c.c.c.c.c.c.n.c.c.c.c.c.n.c.c.c.c.v.c.c.c.v.c.c.c.c.c.c.c.c.v.c.c.m.M.c.n.c.c.c.m.M.c.c.c.c.c.c.c.c.c.c.c.c.c.c.c.c.M.c.c.n.c.c.c.c.c.c.v.c.v.c.n.c.c.c.c.c.c.c.c.c.c.c.v.b.c.c.v.c.c.c.c.c.c.c.*.&.=.0.g.N.@XOX=X5X9XrXgXkXzXzXlXhXdXdXdXhXlXzXzXkXgXrXwX5X=XOX@XN.c.&.=.&.*.5.c.c.c.n.v.c.c.c.v.c.c.c.c.c.c.c.c.c.c.c.6.m.c.c.c.c.n.c.c.c.c.v.v.b.c.c.c.v.c.v.c.c.c.v.c.b.c.v.c.c.c.c.n.c.c.c.c.c.c.c.c.c.v.v.c.c.",
"y 8 y y y r e 7 2 1 e ^ ` O.p.i.m.c.c.c.c.m.c.n.c.n.c.c.c.c.c.c.n.c.c.c.c.c.c.n.c.M.c.c.c.c.c.c.c.c.c.c.c.c.c.b.c.c.c.c.c.c.g.s.*.&.*.k.N.@XOX=X5XwXrXgXkXzXzXlXhXdXdXdXhXlXzXzXkXgXrXwX5X=XOX@XB.g.*.&.*.*.c.c.c.c.c.c.c.n.c.c.c.v.c.c.c.c.n.c.n.c.c.c.c.c.c.n.c.c.v.c.c.n.c.c.n.c.c.c.v.c.c.n.c.c.n.6.c.c.n.c.c.c.c.c.c.c.m.c.c.n.c.c.c.c.n.c.c.c.c.c.c.c.c.c.6.c.c.c.c.c.c.n.c.c.c.c.c.c.b.c.n.c.M.m.c.c.n.c.c.c.v.c.c.c.n.c.c.c.c.c.c.5.*.&.&.*.g.N.@XOX=X5X9XrXgXkXzXzXlXhXdXdXdXhXlXzXzXlXdXrXwX5X=XOX@XN.c.*.*.&.*.e.c.c.c.c.c.c.c.c.c.b.c.c.c.c.c.c.c.c.c.c.c.v.6.n.c.c.c.v.c.c.c.c.c.v.c.n.c.c.c.c.c.c.c.c.c.v.c.c.n.c.c.c.c.c.c.c.c.c.c.n.n.c.b.c.c.c.",
"8 y y y p y 8 7 7 3 e E _ u.p.h.c.c.c.c.c.c.c.c.c.c.c.c.c.c.c.n.6.c.c.c.c.c.c.c.c.c.c.c.c.c.m.n.c.c.c.c.c.v.c.c.c.n.c.c.c.c.s.g.*.*.i.c.N.@XOX=X>XwXrXgXkXzXzXlXhXdXdXdXhXlXzXzXkXgXrXwX>X=XOX@XN.g.*.*.*.0.c.c.c.c.c.c.c.c.b.c.c.c.c.c.c.c.c.c.c.c.c.c.c.c.c.c.c.c.c.c.c.c.c.c.c.c.c.c.c.c.c.b.c.c.c.m.c.c.c.c.c.c.c.c.c.c.c.c.c.c.c.c.c.c.c.c.c.6.n.c.m.6.n.c.m.c.c.c.c.c.c.6.c.n.c.c.c.c.v.c.v.c.c.c.c.c.c.c.c.c.c.c.c.c.c.c.c.c.c.c.c.c.c.*.*.*.g.N.@XOX=X5X9XrXgXkXzXzXlXhXdXdXdXhXlXzXzXlXgXrXwX5X=XOX@XN.k.*.*.*.s.c.c.c.c.c.c.c.c.c.c.v.c.c.n.c.c.n.c.c.c.c.c.n.m.c.c.c.c.c.c.c.c.c.c.c.m.6.c.m.n.c.c.c.c.c.c.c.c.c.c.c.n.c.c.6.n.c.c.c.c.s.c.c.c.c.c.c.",
"y y p u i p r e e e E ~ O.u.i.i.m.c.c.c.c.n.c.c.c.c.c.c.c.c.c.c.m.c.c.c.c.c.c.c.c.c.m.6.c.c.c.c.c.c.n.c.c.c.c.c.c.c.n.c.c.c.s.s.*.*.*.c.N.@XOX=X5XwXrXgXkXzXzXlXhXdXdXdXhXlXzXzXkXgXrX9X5X=XOX@XN.g.*.*.*.c.c.c.c.c.v.c.c.c.c.c.n.c.c.c.c.c.c.c.c.c.c.c.c.c.c.c.c.c.c.c.c.c.c.c.c.c.c.c.c.c.c.c.c.c.c.c.c.c.c.c.c.c.c.c.c.v.c.c.c.c.c.c.c.c.c.c.c.c.c.c.n.m.c.c.c.c.c.c.c.c.c.c.c.c.c.c.c.c.n.c.m.c.c.c.c.c.c.c.c.c.c.n.c.c.c.c.c.c.c.c.c.c.c.*.*.0.m.N.@XOX=X5XwXrXgXkXzXzXlXhXdXdXdXhXlXzXzXkXgXrXwX5X=XOX@XN.c.i.*.*.c.c.c.c.c.c.c.c.c.c.c.c.c.c.c.c.c.c.c.c.c.c.c.c.c.c.c.c.c.c.c.c.c.c.c.c.c.c.c.c.c.c.c.v.c.c.c.c.c.c.c.c.6.c.c.c.c.c.n.c.c.c.c.c.c.c.c.c.",
"8 r p u ) J i y e e Q ) #.p.i.m.c.c.c.c.c.c.c.c.c.c.c.c.c.c.c.c.c.c.c.c.c.c.c.c.c.c.c.n.c.c.c.c.c.c.c.c.c.c.c.c.c.c.c.c.c.c.c.s.*.*.g.k.N.@XOX=X5XwXrXgXkXzXzXlXhXdXdXdXhXlXzXzXkXgXrXwX5X=XOX@XN.b.0.*.*.g.c.c.c.c.c.c.c.c.c.c.c.c.c.c.c.c.c.c.c.c.c.c.c.c.c.c.c.c.c.c.c.c.c.c.c.c.c.b.c.c.c.c.c.c.c.c.c.c.c.c.c.c.c.c.c.c.c.c.c.c.c.c.c.c.c.c.c.c.c.c.c.c.c.c.c.c.c.c.c.c.n.c.c.c.c.c.c.c.c.c.6.c.c.c.c.c.c.c.c.c.c.c.c.c.c.c.c.c.c.v.c.c.c.*.*.*.b.N.@XOX=X>XwXrXgXkXzXzXlXhXdXdXdXhXlXzXzXkXgXrXwX5X=XOX.XN.b.0.*.*.g.c.c.c.n.c.c.c.c.c.c.c.c.c.c.c.v.c.c.c.c.n.c.c.c.c.c.c.c.c.c.c.c.c.c.c.c.c.c.c.c.c.c.c.c.c.n.c.c.c.c.c.m.c.c.c.c.c.c.c.c.c.c.c.c.c.c.c.",
"8 y u / [ [ W Q u Q Q _ #.p.i.m.c.c.c.c.c.c.c.c.c.c.c.c.c.c.c.c.c.c.c.c.c.c.c.c.c.c.c.c.c.c.c.c.c.c.c.c.c.c.c.c.c.c.c.c.c.c.c.m.5.*.i.c.N.@XOX=X5X9XrXgXkXzXzXlXhXdXdXdXhXlXzXzXkXgXrXwX5X=XOX@XN.b.0.*.*.c.c.c.c.c.c.c.c.c.c.c.c.c.c.c.c.c.c.c.c.c.c.c.c.c.c.c.c.c.c.c.c.c.c.c.c.v.c.c.c.c.c.c.c.c.c.c.c.c.c.c.c.c.c.c.c.c.c.c.c.c.c.c.c.c.c.c.c.c.c.c.c.c.c.c.c.c.c.c.c.c.c.c.c.c.c.c.c.c.c.c.c.c.c.c.c.c.c.c.c.c.c.c.c.c.c.c.c.c.c.c.c.c.c.g.*.*.g.N.@XOX=X5XwXrXgXkXzXzXlXhXdXdXdXhXlXzXzXkXgXrXwX5X=XOX@XN.m.0.*.g.c.c.c.c.c.c.c.c.c.c.c.c.c.c.c.c.c.c.c.c.c.c.c.c.c.c.c.c.c.c.c.c.c.c.c.c.c.c.c.c.c.c.c.c.c.c.m.c.c.c.c.c.c.c.c.c.c.c.c.c.c.c.c.c.c.c.c.c.",
"2 8 y Z [ | [ W i t Q O.#.p.i.m.m.c.c.c.c.c.c.c.c.c.c.c.c.c.c.c.c.c.c.c.c.c.c.c.c.c.c.c.c.c.c.c.c.c.c.c.c.c.c.c.c.c.c.c.c.n.c.s.0.*.g.c.N.@XOX=X5X9XrXgXkXzXzXlXhXdXdXdXhXlXzXzXkXgXrXwX5X=XOX@XN.g.g.*.s.c.c.c.n.c.c.c.c.c.c.c.c.c.c.c.c.c.c.c.c.c.c.c.c.c.c.c.c.n.c.c.c.c.c.c.c.c.c.c.c.c.c.c.c.c.c.n.c.c.c.c.c.c.c.c.c.c.c.c.c.c.n.c.c.c.c.c.c.c.c.c.c.c.c.c.c.c.c.c.c.c.c.c.c.c.c.c.c.c.c.c.c.c.c.c.c.c.c.c.c.c.c.c.c.c.c.c.c.c.c.c.c.c.e.*.*.g.b.N.@XOX=X5XwXrXgXkXzXzXlXhXdXdXdXhXlXzXzXkXgXrXwX5X=XOX@XN.c.g.*.5.c.c.c.c.c.c.c.c.c.c.c.c.c.c.c.c.c.c.c.c.c.c.c.c.c.c.c.c.c.n.c.c.c.c.c.c.c.c.c.c.c.c.c.c.c.c.c.c.c.c.c.c.c.c.c.c.c.c.c.c.c.c.c.c.c.c.c.n.",
"O 5 8 p [ [ [ Z Q Q ~ O.O.p.i.c.m.m.6.v.6.c.c.c.c.c.c.c.c.c.c.c.c.c.c.c.c.c.c.c.c.c.c.c.c.c.c.c.c.c.c.c.c.c.c.c.b.c.c.c.c.c.c.c.i.*.0.b.N.@XOX=X5X9XrXgXkXzXzXkXhXdXdXdXhXlXzXzXkXgXrX9X5X=XOX@XN.c.*.*.*.c.c.c.c.c.c.c.c.c.c.c.c.c.c.c.c.c.c.c.c.c.c.c.c.c.c.c.c.c.c.c.c.c.c.c.c.c.n.c.c.c.c.c.c.c.c.c.c.c.c.c.c.n.c.c.n.c.c.c.c.c.c.c.c.c.c.c.c.c.c.c.b.c.c.c.c.c.c.c.c.c.c.c.c.c.c.c.c.c.c.c.c.c.c.c.c.c.c.c.c.c.c.c.c.c.c.c.c.c.c.c.c.c.c.s.*.i.g.N.@X&X=X5X9XrXgXkXzXzXlXhXdXdXdXhXlXzXzXkXgXrX9X5X=XOX@XN.k.*.*.i.c.c.c.c.c.c.c.c.c.c.c.c.c.c.c.c.b.c.c.c.c.c.c.c.c.c.c.c.c.c.c.c.c.c.c.c.c.c.c.c.c.c.c.c.c.c.c.c.c.c.c.c.c.c.c.c.c.c.c.c.c.c.c.c.c.c.c.c.",
"o 1 7 y i [ ) / W u Q ) O.=.i.i.m.m.m.m.m.c.c.c.c.c.c.c.c.c.c.c.c.c.c.c.c.c.c.c.c.c.c.c.c.c.c.c.c.c.c.c.c.c.c.c.c.c.c.c.c.c.c.c.5.*.*.k.N.@XOX=X5X9XrXgXkXzXzXlXhXdXdXdXhXlXzXzXkXgXrX9X5X=XOX@XN.b.*.*.*.c.c.c.c.c.c.c.c.c.c.c.c.c.c.b.c.c.c.c.c.c.c.c.c.c.c.c.c.c.c.c.c.c.c.c.c.c.c.c.c.c.c.c.c.b.c.c.c.c.c.c.c.c.c.c.c.c.c.c.c.c.c.c.c.c.c.c.c.c.c.c.c.c.c.c.c.c.c.c.c.c.c.c.c.c.n.c.c.c.c.c.c.c.c.c.c.c.c.c.c.c.c.c.c.c.c.c.c.n.b.v.c.c.c.s.*.0.k.N.@XOX=X5X9XrXgXkXzXzXlXhXdXdXdXhXlXzXzXkXgXrX9X5X=XOX@XN.c.g.*.*.e.c.c.c.c.n.c.c.c.c.c.c.c.c.c.c.c.c.c.c.c.c.c.c.c.c.c.c.c.c.c.c.c.c.c.c.c.c.c.c.c.c.c.n.c.c.c.c.c.c.c.c.c.c.c.c.c.c.c.c.c.c.n.c.c.c.c.c.",
"o o 1 8 p W Z W u u Q Q { u.p.i.h.h.h.n.c.c.c.c.c.c.c.c.c.c.c.c.c.c.c.c.c.c.c.c.c.c.c.c.c.c.c.c.c.c.c.c.c.c.c.c.c.c.c.c.c.c.c.*.*.*.i.g.N.@XOX=X5X9XrXgXkXzXzXlXhXdXdXdXhXlXzXzXkXgXrX9X5X=XOX@XN.k.*.*.*.c.c.c.c.c.c.c.c.c.c.c.c.v.c.c.c.c.n.c.c.n.c.c.n.c.c.c.c.c.c.c.c.c.c.c.c.c.c.c.c.c.c.c.c.c.v.c.c.c.c.c.c.c.c.c.c.c.c.c.c.c.n.c.c.c.c.c.c.c.c.c.c.c.c.v.c.c.c.n.c.c.c.c.c.c.c.c.c.c.c.c.c.c.c.c.c.c.c.c.c.c.c.c.c.n.c.c.c.c.c.c.c.c.i.*.*.*.g.N.@XOX=X5XwXrXgXkXzXzXlXhXdXdXdXhXlXzXzXkXgXrX9X5X=XOX@XN.g.i.*.*.g.c.c.c.c.c.c.c.c.c.c.c.c.c.c.c.c.c.c.v.c.c.c.c.c.c.c.c.c.c.c.c.c.c.c.c.c.c.c.c.c.c.c.c.c.c.c.c.c.c.n.c.c.c.c.c.c.c.c.n.c.c.b.c.c.c.c.c.",
"@ o + 5 r i / W Q u t Q ) O.p.p.h.h.h.h.m.c.c.m.n.c.c.c.c.n.b.c.c.c.c.n.c.c.c.c.c.c.n.c.c.n.c.c.c.n.c.c.c.c.n.c.v.c.c.c.c.c.c.i.*.&.0.g.N.@XOX=X5X9XrXgXkXzXzXlXhXdXdXdXhXlXzXzXkXgXrX9X5X=XOX@XN.b.*.&.&.*.*.c.c.c.n.c.c.c.c.n.c.c.c.b.c.c.c.c.c.c.c.c.c.c.c.c.n.c.c.c.c.b.c.c.c.c.c.c.c.n.c.c.c.c.c.c.c.c.n.c.c.c.c.c.n.c.c.c.c.c.c.c.c.n.c.c.c.c.c.n.c.c.c.c.c.c.c.c.b.c.c.c.c.c.c.c.b.c.c.c.n.c.c.c.c.c.c.n.c.c.n.c.c.c.c.c.c.c.c.c.c.c.*.*.*.0.g.N.@XOX=X5X9XrXgXkXzXzXlXhXdXdXdXhXlXzXzXkXgXrX9X>X=XOX@XN.c.0.=.*.*.c.c.c.c.c.c.c.c.c.c.n.c.c.c.n.c.c.c.c.c.n.c.c.n.c.c.c.c.n.c.c.c.c.n.c.n.c.c.c.c.c.c.c.c.n.c.c.c.c.c.c.c.n.c.c.c.c.c.c.c.c.c.c.c.c.c.c.",
"@   o 1 8 p W W u Q r E ~ O.u.u.j.j.u.h.h.k.m.c.c.c.c.c.c.c.c.c.c.c.c.c.c.c.c.n.c.c.c.c.c.c.n.c.c.c.c.b.c.c.c.c.n.c.c.c.c.c.*.*.=.=.*.g.N.@XOX=X5XwXrXgXkXzXzXlXhXdXdXdXhXlXzXzXkXgXrX9X5X=X%X@XN.c.*.=.=.*.*.c.c.c.c.c.c.n.c.c.c.c.c.c.c.c.c.c.c.c.c.n.c.c.c.c.c.c.c.c.c.c.c.c.c.n.c.c.c.b.c.c.n.c.c.c.c.c.c.c.c.c.c.c.c.c.c.c.c.c.c.c.c.c.c.c.c.c.c.c.c.c.c.c.c.n.c.c.c.c.c.c.c.n.c.c.c.c.c.c.c.c.m.c.c.n.c.c.c.c.c.c.c.c.c.c.c.c.c.c.c.5.*.=.=.*.g.N.@XOX=X5X9XrXgXkXzXzXlXhXdXdXdXhXlXzXzXkXgXrX9X5X=XOX@XN.g.*.=.=.*.5.c.c.c.c.c.c.c.c.c.c.c.c.c.c.c.c.c.c.c.c.c.c.c.v.c.c.c.c.c.c.c.c.c.c.c.c.c.c.n.c.c.c.c.c.c.c.c.c.c.c.c.c.m.c.c.c.c.c.c.c.c.v.v.c.c.c.",
"o o o O 5 y i i u u e E E ` _ ] ] u.j.u.h.h.h.g.c.c.c.c.c.c.c.c.n.c.c.c.c.c.c.c.c.c.c.c.c.c.c.c.c.c.c.c.c.c.c.c.c.c.c.c.c.0.*.%.%.=.*.g.N.@XOX=X5XwXrXgXkXzXzXlXhXdXdXdXhXlXzXzXkXgXrX9X5X=X%X@XN.g.*.=.=.%.*.c.c.c.c.c.c.c.c.c.c.c.c.c.c.c.c.c.c.c.c.c.c.c.c.c.c.c.c.c.c.c.c.c.c.c.c.c.c.c.c.c.c.c.c.c.c.c.c.c.c.c.c.c.c.c.n.c.c.c.c.c.c.c.c.c.c.n.c.c.c.c.c.c.m.6.c.c.c.c.c.c.c.c.c.c.c.c.c.c.c.c.c.c.c.c.c.c.c.c.c.c.c.c.c.c.c.c.c.c.*.*.&.=.=.*.g.N.@XOX=X5X9XrXgXkXzXzXlXhXdXdXdXhXlXzXzXkXgXrX9X5X=XOX@XN.g.*.%.$.&.*.*.c.c.c.c.c.c.c.c.c.c.n.c.c.c.c.c.c.c.c.c.m.c.c.c.c.c.c.c.c.c.c.c.c.c.c.c.c.6.m.c.c.c.c.c.c.c.c.c.c.c.c.c.c.c.n.c.c.c.c.c.c.c.c.c.c.",
"o . o 1 5 8 p i u e e e E E ` _ ' ] ] u.u.p.p.h.i.c.m.c.c.c.s.c.c.c.c.c.c.c.c.c.c.c.c.c.c.s.c.s.c.c.c.c.c.c.c.c.c.c.c.c.*.*.=.$.$.$.&.g.N.@XOX=X5X9XrXgXkXzXzXlXhXdXdXdXhXlXzXzXkXgXrX9X5X=X%X@XN.g.=.$.$.$.=.*.s.g.s.c.s.s.c.c.c.c.c.c.c.c.c.c.c.c.c.c.c.c.c.c.c.s.m.c.c.c.c.c.c.c.c.c.c.c.c.c.c.c.c.c.c.c.c.c.c.c.c.c.s.g.s.m.c.c.c.c.c.c.c.c.c.c.c.c.c.c.c.c.m.s.c.g.c.c.c.c.c.c.c.c.c.c.c.c.c.c.s.c.s.m.c.c.c.c.c.c.c.c.c.c.c.c.c.*.*.%.=.$.$.&.g.N.@XOX=X5X9XrXgXkXzXzXlXhXdXdXdXhXlXzXzXkXgXrX9X5X=XOX@XN.g.*.$.$.=.&.*.*.c.c.c.c.c.c.c.c.c.c.c.c.c.c.c.c.c.m.s.c.c.c.c.c.c.c.c.c.c.c.c.c.c.c.c.c.m.s.c.c.c.c.c.c.c.c.c.c.c.c.c.c.s.g.c.c.c.c.c.c.c.c.c.c.",
"o o o O 5 8 y p Q r e 3 3 3 E ! ` ' ] ] u.u.u.p.p.p.p.i.i.*.i.i.*.c.5.c.*.g.5.i.c.c.s.i.s.s.g.s.5.g.5.*.g.c.5.g.*.s.*.*.*.%.=.$.$.$.*.g.N.@XOX=X5XwXrXgXkXzXzXlXhXdXdXdXhXlXzXzXkXgXrX9X5X=X&X@XN.g.&.$.$.$.=.%.*.*.i.s.g.g.s.s.5.g.5.i.g.c.s.0.s.*.c.5.g.s.*.c.s.s.s.s.c.c.i.s.s.c.*.5.c.5.g.*.i.5.c.c.*.g.s.i.s.c.s.s.g.s.s.s.0.s.*.c.*.c.g.5.*.c.s.c.g.5.*.c.s.s.g.s.c.s.s.s.s.c.*.s.c.g.*.e.s.c.s.g.g.s.s.s.g.5.*.g.5.c.g.e.i.*.5.&.=.%.$.@.$.*.g.N.@XOX=X5X9XrXgXkXzXzXlXhXdXdXdXhXlXzXzXkXgXrX9X5X=XOX@XN.g.&.$.$.$.%.&.&.*.*.*.c.*.c.g.5.*.c.s.c.g.5.*.c.s.s.s.g.s.c.s.i.c.s.s.g.c.c.*.*.i.c.c.s.s.g.s.s.g.5.*.g.5.c.g.s.s.c.s.s.g.s.s.s.*.g.s.*.g.c.*.c.",
"o o o O O 7 y p p t 7 2 2 3 3 3 ! ` ` ` ' ' ' ] u.#.@.p.=.&.*.*.*.*.*.0.s.*.5.i.*.*.5.5.0.i.*.5.g.*.i.5.*.0.i.*.i.5.*.&.&.%.$.$.X.$.*.g.N.@X&X=X5XwXrXgXkXzXzXlXhXgXdXdXhXlXzXzXkXgXrXwX5X=X%X@XN.g.&.$.$.} $.%.&.*.*.*.5.*.*.*.*.5.*.0.i.*.c.*.*.*.*.*.*.e.*.0.5.*.5.*.*.e.*.5.i.0.*.*.i.5.5.i.*.i.*.e.*.*.5.*.*.5.g.*.*.5.g.*.5.i.*.i.*.5.*.5.g.*.5.*.*.5.*.*.0.*.*.*.*.g.s.*.*.*.0.i.i.*.i.5.5.*.5.i.*.5.*.*.5.*.g.*.*.i.*.e.*.*.*.&.%.$.$.} $.&.c.N.#X&X=X7XwXrXgXlXzXzXlXhXdXdXdXhXlXzXzXkXgXrX9X5X=X&X$XN.b.&.$.} $.$.=.%.*.*.*.*.i.5.5.0.i.i.*.0.*.5.*.*.*.i.*.i.i.*.*.i.*.c.5.i.*.i.*.i.*.*.5.g.g.*.*.i.5.0.i.5.*.0.i.*.*.i.5.*.*.5.*.e.*.e.*.i.5.0.i.i.",
"o O o O 5 5 y p p r 7 2 1 1 2 3 3 ^ ! ! ` ` ` _ ' _ O.O.$.#.&.*.*.*.*.*.*.i.e.*.*.*.*.i.5.*.*.*.*.*.0.*.i.5.i.5.*.*.*.*.&.=.%.} $.$.=.b.N.$X&X=X6XwXrXgXkXzXzXlXhXdXdXdXhXlXzXlXkXgXrXwX5X=X&X$XN.b.&.$.X.$.$.=.&.*.*.*.*.*.*.*.*.g.i.*.5.*.*.*.*.*.e.i.i.*.i.*.g.i.*.*.*.*.i.*.5.5.i.*.*.*.i.s.5.*.*.*.*.*.g.*.g.*.5.*.*.*.*.*.i.5.*.5.*.i.*.*.*.*.*.g.*.*.g.*.i.5.*.*.*.*.*.*.i.s.*.*.*.e.*.i.i.*.e.*.*.*.g.*.*.g.*.*.*.5.*.*.*.*.*.=.=.$.$.} $.&.b.N.$X&X=X7XwXrXgXlXzXzXlXhXdXdXdXhXlXzXzXkXgXrXwX5X=X&X@XN.b.=.$.$.$.$.=.=.*.*.*.*.*.*.*.*.*.5.5.i.*.*.g.*.5.0.5.*.0.*.e.5.*.*.*.*.*.5.*.*.5.i.*.*.*.*.5.*.*.i.0.*.i.5.i.5.*.5.*.g.0.*.*.*.i.*.e.*.i.*.*.5.",
"1 O O O 5 7 y y y r 5 2 1 1 2 2 4 t ^ E ! ! ` ` ! _ _ _ O.#.#.&.i.i.e.*.s.0.g.5.*.c.s.c.g.*.c.*.c.*.s.*.c.*.c.*.i.0.5.*.*.&.%.$.@.$.&.g.B.$X&X=X7XwXrXgXkXzXzXlXhXdXdXdXhXlXzXzXkXgXrXwX6X=X&X$XB.b.*.$.$.$.=.=.*.*.s.c.c.*.5.g.5.g.*.5.g.5.c.*.*.c.s.s.c.*.e.*.5.g.*.g.c.g.c.s.c.*.*.s.s.s.s.g.5.*.c.g.5.g.c.c.5.g.*.*.g.*.c.5.s.g.s.m.c.*.e.i.c.*.c.*.*.g.c.s.c.5.*.g.c.5.c.5.c.e.*.5.c.e.c.s.0.i.g.5.*.g.c.s.5.g.*.5.5.i.c.g.*.i.*.*.=.%.$.$.$.&.c.B.$X&X=X5XwXrXgXlXzXzXlXhXdXdXgXhXlXzXzXkXgXrXwX5X=X&X$XB.c.*.$.X.$.%.&.*.*.s.c.s.c.*.s.i.e.i.c.*.5.g.c.c.c.i.*.5.c.s.c.5.c.*.i.0.c.c.s.c.c.*.c.*.*.5.c.c.c.*.s.*.c.*.c.*.s.i.c.c.c.i.5.i.g.*.g.5.5.*.c.c.",
"5 % O 5 6 r y p y 8 5 + + + = 4 4 C C t C ^ ^ E ! ! ! ! _ a.#.p.i.i.c.c.c.c.c.c.c.c.c.c.c.c.c.c.c.c.c.c.c.c.c.c.c.c.c.c.5.&.&.=.$.$.*.c.B.$X&X=X7XwXrXgXkXzXzXlXhXdXdXdXhXlXzXzXlXgXrXwX7X=X&X$XB.g.&.=.$.%.=.*.5.i.c.c.c.c.c.c.c.c.c.c.c.c.c.c.c.c.c.c.c.c.c.c.c.c.e.c.c.c.c.c.c.c.g.c.c.c.c.c.c.c.c.c.s.c.c.c.c.c.c.c.c.c.c.c.c.s.c.c.c.c.c.c.c.c.c.c.s.c.c.c.c.c.c.c.c.c.c.c.c.c.c.g.c.c.c.c.c.c.c.c.s.c.c.c.c.c.c.c.c.e.c.c.c.s.c.g.*.=.=.$.$.*.g.B.$X&X=X8XwXrXdXlXzXzXlXhXdXdXdXhXlXzXzXkXgXrXwX5X1X&X$XB.b.*.$.$.=.=.*.*.s.g.c.c.c.c.c.c.c.c.c.c.s.c.c.c.c.c.g.c.c.c.c.c.c.c.c.5.c.c.c.c.c.c.c.c.c.c.c.c.c.c.c.c.c.c.c.c.c.c.c.c.c.c.c.c.c.c.c.c.c.c.c.c.",
"7 5 7 8 y y y y y 7 O + + = - C V E V ^ 4 ^ 3 ^ ^ ^ ! ! _ _ O.#.i.c.c.v.v.v.v.c.c.c.n.c.c.c.n.c.c.c.c.c.c.c.c.c.c.c.c.c.c.*.*.&.=.=.*.c.B.$X&X1X5XwXrXgXkXzXzXlXhXdXdXdXhXlXzXzXlXgXrXwX7X=X&X$XN.b.*.=.$.=.*.e.c.c.c.c.c.c.c.c.c.c.c.c.c.c.c.c.c.c.c.c.n.c.c.c.c.c.c.c.c.c.c.c.c.c.c.c.c.c.n.c.c.c.c.c.c.c.c.c.c.c.c.c.c.c.c.c.c.v.c.b.c.c.c.c.c.c.b.c.c.c.n.c.c.c.c.c.c.n.c.c.c.c.c.c.c.c.c.c.c.c.c.c.c.c.n.c.c.c.c.c.c.c.c.c.c.c.c.c.c.*.%.=.=.0.b.B.$X&X=X7XwXrXgXlXzXzXlXhXdXdXdXhXlXzXzXkXgXrXwX6X=X&X$Xn.b.*.=.%.%.*.i.c.c.c.c.c.n.c.c.c.c.c.c.c.c.c.c.c.c.c.c.c.c.c.c.c.c.c.c.c.c.v.c.c.c.c.c.c.c.c.c.c.c.c.c.c.c.c.c.c.c.c.c.c.c.c.c.c.c.c.c.c.c.c.c.c.",
"8 8 a y y p p p 8 5 O + + - C A S S S C 4 4 3 3 ^ ^ ^ ! ! ` a.p.&.c.v.t.r.v.v.v.v.c.c.c.c.c.c.c.n.c.c.c.c.c.c.c.c.c.c.c.c.c.5.*.&.=.0.b.B.@X1X=X7XwXrXgXkXzXzXlXhXdXdXdXhXlXzXzXlXgXrXwX7X1X&X$XB.m.*.&.=.*.*.c.c.c.c.c.v.c.c.n.c.c.c.n.c.c.c.c.c.c.c.n.c.c.c.c.c.c.c.c.n.c.c.c.c.c.b.c.c.c.c.c.c.c.n.c.c.c.c.c.n.c.b.v.c.c.c.c.c.b.c.c.c.b.v.c.c.c.c.v.n.c.c.c.c.c.c.c.c.c.c.c.c.c.c.c.c.c.v.c.c.c.c.c.n.c.c.c.c.c.n.c.c.c.c.b.c.v.c.c.c.*.*.&.=.*.k.B.$X&X=X7XwXrXgXlXzXzXlXhXdXdXdXhXlXzXzXkXgXrXwX7X=X&X$XB.b.*.&.=.*.0.c.c.c.c.v.b.c.c.c.c.c.c.n.c.c.c.c.c.c.c.v.c.n.c.c.c.c.c.b.c.c.c.n.c.c.c.c.n.c.c.c.c.n.c.c.c.c.c.c.c.c.c.c.c.n.c.v.c.c.c.c.n.c.c.c.c.",
"8 r y p i W / y 8 5 + o = - B D D D S V - 2 2 2 3 3 ^ ^ E ` _ #.*.r.M.t.t.t.t.v.v.v.c.c.c.c.c.c.c.c.n.c.c.c.c.v.c.n.c.c.c.c.*.*.*.&.*.b.B.@X&X1X5XwXrXgXkXzXzXlXhXdXdXdXhXlXzXzXlXgXrXwX7X=X&X$XB.b.0.*.*.*.c.c.c.c.c.n.c.c.c.c.c.c.c.c.c.c.c.n.n.c.c.c.c.c.c.c.b.c.c.c.c.c.c.c.n.c.c.c.b.v.c.c.c.c.b.c.c.c.n.c.c.c.c.c.c.c.c.n.c.v.c.c.n.c.c.c.c.c.c.c.c.c.c.c.c.c.c.b.c.c.c.n.c.c.c.b.n.c.c.c.c.c.c.n.c.c.c.c.c.c.c.c.c.c.c.c.c.c.c.c.c.*.*.*.*.i.b.B.$X&X1X7XwXrXgXjXzXzXlXhXdXdXdXhXlXzXzXkXgXrXwX5X=X1X#XB.c.0.*.*.*.5.c.c.b.c.c.c.c.c.c.c.c.c.b.c.c.c.n.c.c.c.b.c.c.c.c.c.n.c.c.c.c.c.c.n.c.c.c.c.c.n.c.c.c.c.n.c.c.c.c.v.c.n.c.c.c.c.c.c.c.c.c.c.c.c.c.c.",
"y y p u [ [ M p 8 = o = = V S D }.}.S V - = = 1 1 2 3 e r Q [ o.7.1.w.w.w.t.t.t.r.v.c.n.c.c.c.b.c.c.c.c.c.b.c.c.c.c.c.c.c.c.c.c.*.*.g.c.B.$X&X=X5XwXrXgXkXzXzXlXhXdXdXdXhXlXzXzXlXdXrXwX7X=XOX$XN.b.*.*.*.*.c.c.c.c.c.c.c.c.c.c.n.c.c.c.c.c.c.c.c.c.c.c.c.c.c.n.c.v.c.c.c.c.c.c.c.c.c.c.c.c.c.c.c.c.c.c.c.c.c.c.c.c.c.c.c.c.c.c.c.c.c.c.c.c.c.n.c.c.c.c.c.c.c.c.c.c.c.c.c.c.c.c.c.c.c.c.c.c.c.c.c.c.c.c.c.c.c.c.c.c.c.c.c.n.c.c.c.c.c.c.c.c.c.*.*.0.c.N.@X&X=X7XwXrXgXlXzXlXlXhXdXdXdXhXlXzXzXkXgXrXwX7X=X&X$XB.b.i.&.*.g.c.c.c.c.v.c.c.c.c.c.n.c.c.c.c.c.c.c.c.c.c.c.c.c.c.c.c.c.c.c.c.c.c.c.c.c.c.c.c.c.c.c.c.c.c.c.c.c.b.c.c.c.c.c.c.c.c.c.n.c.c.c.c.c.n.c.c.",
"i i M [ | | [ p w = + ; - N S }.}.}.S V - + @ 1 1 1 2 3 a p / ..1.w.w.{.3.3.w.t.t.c.c.c.c.v.c.c.c.c.c.c.c.c.c.c.c.n.c.c.c.c.c.c.*.*.i.b.B.@XOX=X5XwXrXgXkXzXzXlXhXdXdXdXhXlXzXzXkXgXrXwX5X=XOX@XN.b.c.*.*.c.c.c.c.c.c.c.c.c.c.c.c.c.c.c.c.c.c.c.c.c.c.c.c.c.c.c.c.c.c.c.c.c.c.c.c.c.c.c.b.v.b.v.c.c.c.c.c.c.c.c.c.c.c.c.c.c.c.c.c.v.b.c.c.c.c.c.c.c.c.c.c.c.c.c.c.n.c.c.c.c.c.c.c.c.c.c.n.c.c.c.c.c.c.c.c.c.c.c.c.c.c.n.c.c.c.c.c.c.c.c.c.c.*.*.*.i.b.B.$XOX=X5XwXrXgXkXzXzXlXhXdXdXdXhXlXzXzXkXgXrXwX5X=XOX@XB.b.*.*.*.c.c.c.c.c.c.c.c.c.c.c.c.c.c.c.c.c.c.c.c.c.n.c.c.c.c.c.c.c.c.c.c.c.c.c.c.c.c.c.c.c.n.c.c.c.c.c.c.c.c.c.c.c.c.c.c.c.c.c.c.c.c.c.c.c.c.c.c.",
"} | } | | | [ p 9 = @ & - N S }.}.}.S N - @ @ @ @ 1 O 5 0 n L T Y `.`.`.Y Y 3.t.t.r.v.v.c.c.c.c.c.c.c.c.c.c.c.c.c.c.c.c.c.c.c.c.5.*.g.c.N.@XOX=X5XwXrXgXkXzXzXlXhXdXdXdXhXlXzXzXkXdXrXwX5X=XOX$XN.b.*.*.*.c.c.c.c.c.c.c.c.c.c.c.c.c.c.c.c.c.c.c.c.c.c.c.c.c.c.c.c.c.c.c.c.n.c.c.c.c.c.c.c.c.c.c.c.c.c.c.c.c.c.v.c.c.c.c.c.c.c.c.c.c.c.c.c.c.c.c.c.c.c.c.c.c.c.c.c.c.c.c.c.c.c.c.c.c.c.c.c.c.c.c.c.c.c.c.c.c.c.c.c.c.c.c.c.c.c.c.c.c.c.n.c.c.c.g.*.0.b.N.@XOX=X5XwXrXgXkXzXzXlXhXdXdXdXhXlXzXzXkXgXrX9X5X=XOX@XN.c.g.*.5.c.c.c.c.c.c.c.c.c.c.c.c.c.c.n.c.c.c.c.c.c.c.c.c.c.c.c.c.c.c.c.c.c.c.c.c.c.c.c.c.c.c.c.c.c.c.c.c.c.c.c.c.c.c.c.c.c.c.c.c.c.c.c.c.c.c.c.c.",
"%.$.@.@.X.| Z y 4 = & & * N S S D S V - = @     o o % : h k L P I `._.I P Y U 3.1.t.r.c.v.c.c.c.c.c.c.c.c.c.c.c.c.c.c.c.c.c.c.c.*.*.*.b.N.@XOX=X5XwXrXgXkXzXzXlXhXdXdXdXhXlXzXzXlXgXrXwX5X=XOX@XN.b.0.*.i.c.c.c.c.c.c.c.c.c.c.c.c.c.c.c.c.c.c.c.c.c.c.c.c.c.c.c.c.c.c.c.c.c.c.c.c.c.c.c.c.c.c.c.c.c.n.c.c.c.c.c.c.c.c.c.c.c.c.c.c.c.c.c.c.c.c.c.c.c.v.c.c.c.c.c.c.c.c.c.c.c.c.c.c.c.c.c.c.c.c.c.c.c.c.c.c.c.c.c.c.v.c.c.c.c.c.c.c.c.b.c.c.c.c.5.*.*.g.N.@XOX=X5XwXrXdXkXzXzXlXhXdXdXdXhXlXzXzXkXgXrXwX5X=XOX@XN.g.*.*.i.c.c.c.c.c.c.c.c.c.c.c.c.c.c.c.c.c.c.c.c.c.c.c.c.c.c.c.c.c.c.c.c.c.c.c.c.c.c.c.c.c.c.c.c.c.c.c.c.c.c.c.c.c.c.c.c.c.c.c.c.c.c.c.c.n.c.c.c.",
"c.s.*.$.X.J Z w - * & = * N V S S V N - @       . o % : h v v P _.I P L L L Y U 1.t.r.r.c.v.c.c.c.c.c.c.c.c.c.c.c.c.c.c.c.c.c.g.*.*.g.c.N.@XOX=X5XwXrXgXkXzXzXlXhXdXdXdXhXlXzXzXkXgXrXwX5X=XOX@XN.m.i.*.0.c.c.c.n.c.c.c.c.c.c.c.c.c.c.c.c.c.c.c.c.c.c.c.c.c.c.c.c.c.c.c.c.c.c.c.c.c.c.c.c.c.c.c.c.c.c.c.c.c.c.c.c.c.c.c.c.n.c.c.c.c.c.c.c.c.c.c.c.c.c.c.c.c.c.c.c.c.c.c.c.c.c.c.c.c.c.c.c.c.c.c.c.c.c.c.c.c.c.c.c.c.c.c.c.c.c.c.c.c.c.v.c.c.c.s.*.g.b.N.@XOX=X5XwXrXgXkXzXzXlXhXdXdXdXhXlXzXzXkXgXrXwX6X=XOX@XN.b.g.*.0.c.c.c.c.c.n.c.c.c.c.c.c.c.c.c.c.c.c.c.c.c.c.c.c.c.c.c.c.c.c.c.c.c.c.c.c.c.c.c.c.c.c.c.c.c.c.c.c.c.n.c.c.c.c.c.c.c.c.c.c.c.c.c.c.c.c.c.c.",
"n.n.e.&.X.| Z - - & * * - N V V V N - = @       . . # : h z v H H H G v v L T Y 3.t.t.r.v.c.c.b.c.c.c.c.c.c.c.c.c.c.c.c.c.v.c.s.0.*.i.m.N.@XOX=X5XwXrXgXkXzXzXlXhXgXdXdXhXlXzXzXkXdXrXwX5X=XOX@XN.b.i.*.*.c.c.c.c.c.c.c.c.c.c.c.c.c.c.c.c.c.c.c.c.v.c.c.c.c.c.c.c.c.c.c.c.c.c.c.c.c.c.c.c.c.c.c.c.c.c.c.c.c.c.c.c.c.c.c.c.c.c.c.c.c.c.c.c.c.c.c.n.c.c.c.c.c.c.c.c.c.c.n.c.c.c.c.c.c.c.c.c.c.c.c.c.c.c.c.c.c.n.c.c.c.c.c.c.c.c.c.c.c.c.c.c.c.c.*.*.*.b.N.@XOX=X5XwXrXgXkXzXzXlXhXdXdXdXhXlXzXzXkXgXrXwX5X=XOX@XN.b.*.*.*.c.c.c.c.c.c.c.c.c.c.c.c.c.c.c.c.c.c.c.c.c.c.c.c.c.c.c.c.c.c.c.c.c.c.c.c.c.c.c.c.c.c.c.c.c.c.c.c.c.c.c.c.n.c.c.c.c.c.c.c.c.c.c.c.c.c.c.c.",
"n.n.c.*.$.Z A w * * * * - C C A C N = = @       . . # : f z v H H H v v l L P U w.{.t.M.v.v.c.c.c.c.c.c.c.c.c.c.c.c.c.c.c.c.c.c.*.*.0.m.N.@XOX=X5XwXrXgXkXzXzXlXhXdXdXdXhXlXzXzXlXdXrXwX5X=XOX@XN.c.*.*.*.c.c.c.c.c.c.c.c.c.c.c.c.c.c.c.c.c.c.c.c.c.c.c.c.c.c.c.c.c.c.c.c.c.c.c.c.c.v.b.c.c.c.c.c.c.c.c.c.c.c.c.c.c.c.c.c.c.c.c.c.c.c.c.c.c.c.c.c.c.c.c.c.c.c.c.c.c.c.c.c.c.c.c.c.c.c.c.c.c.c.c.c.n.c.c.c.c.c.c.c.c.c.c.c.c.c.c.c.c.c.c.c.c.c.*.*.*.g.N.@XOX=X5XwXrXgXkXzXzXlXhXdXdXdXhXlXzXzXkXgXrX9X5X=XOX@XN.c.*.*.*.g.c.c.c.v.c.c.c.c.c.c.c.c.c.c.c.c.c.c.c.c.c.c.n.c.c.c.c.c.c.c.n.c.c.c.c.c.c.c.c.c.c.c.c.c.c.c.c.c.c.c.c.c.c.c.c.c.c.c.c.c.c.c.c.c.c.c.c.",
"n.n.c.*.X.| A - - * N * C C Z Z C w 7 = + @     . . # $ f z v c G H v l v v P Y {.w.t.t.v.c.b.c.c.c.c.c.c.c.c.c.c.n.c.c.c.c.c.s.*.*.*.b.N.@XOX=X5XwXrXgXkXzXzXlXhXgXdXdXhXlXzXzXlXgXrXwX5X=XOX@XN.k.0.*.*.e.c.c.c.c.c.c.c.c.c.n.c.c.c.c.c.c.c.c.c.c.c.c.c.c.c.c.c.c.c.c.c.c.c.c.c.c.c.c.c.c.c.c.c.c.c.c.c.c.c.c.c.c.c.c.c.c.c.c.c.c.n.c.c.c.c.c.c.c.c.c.c.c.c.c.c.c.c.c.c.c.n.c.c.c.c.c.c.c.c.c.c.c.c.c.c.c.c.c.c.n.c.c.c.c.c.c.c.c.c.c.c.c.c.*.*.i.b.N.@XOX=X5XwXrXgXkXzXzXlXhXdXdXdXhXlXzXzXkXgXrX9X5X=XOX@XN.b.*.*.*.c.c.c.c.c.c.c.c.c.c.c.c.n.c.c.c.c.c.c.c.c.c.c.c.c.c.n.c.c.c.c.c.c.c.c.v.c.c.c.c.c.c.c.c.c.c.c.c.c.c.c.c.c.c.c.c.n.c.c.c.c.c.c.c.c.b.c.c.",
"n.n.c.&.X.Z C w * * * N C C Z ) _ u u e 2 = + o o o # : h l v v G G v v v L P Y {.w.M.t.v.v.v.c.n.c.c.c.c.n.c.c.c.c.c.c.n.c.c.*.*.&.*.g.N.@XOX=X5XwXrXgXkXzXzXlXhXdXdXdXhXlXzXzXlXgXrXwX5X=XOX@XN.g.*.*.&.*.c.c.c.c.c.n.c.c.c.c.c.c.n.c.c.c.c.n.n.c.c.c.n.c.c.c.c.n.c.c.c.n.c.c.c.c.c.c.c.n.c.c.c.n.c.c.c.c.c.n.c.c.c.c.n.c.c.c.c.c.c.c.c.c.c.n.c.c.c.c.c.n.c.c.c.c.c.c.c.c.c.c.c.c.n.c.c.c.n.c.c.c.c.c.c.c.c.c.c.c.c.c.c.c.n.c.c.c.c.c.c.g.5.&.&.0.g.N.@XOX=X5XwXrXgXkXzXzXlXhXdXdXdXhXlXzXzXkXgXrX9X5X=XOX@XN.g.*.*.&.*.c.c.c.c.c.c.c.n.c.c.c.c.c.c.c.c.n.c.c.c.c.c.c.c.c.c.c.c.c.c.c.c.n.c.c.c.c.c.n.c.c.c.n.c.c.c.c.n.c.c.c.c.c.c.c.c.c.c.c.c.c.n.c.c.v.c.c.",
"n.b.e.&.X.J C - * * * - V Z Z +.X.} ) u r 7 2 1 O o % : : j v v L v v v v L Y Y {.t.t.v.v.c.c.c.c.c.c.c.c.c.c.c.c.c.c.c.c.c.*.*.=.=.0.b.N.@XOX=X5X9XrXgXkXzXzXlXhXdXdXdXhXlXzXzXkXgXrX9X5X=XOX@XN.g.&.=.&.*.5.s.c.c.c.c.c.c.c.c.c.c.c.c.b.c.c.c.c.c.c.c.c.c.c.c.c.c.c.c.c.c.n.c.c.c.c.b.c.c.c.c.c.n.c.c.c.c.c.c.c.n.c.c.c.b.c.c.c.c.c.c.c.v.c.c.c.c.c.c.c.c.c.c.n.c.c.c.c.c.c.n.c.c.c.c.c.c.c.c.c.c.c.v.c.c.c.c.c.c.c.c.c.c.c.c.c.c.c.c.c.*.*.=.=.*.c.N.@XOX=X5XwXrXgXkXzXzXlXhXdXdXdXhXlXzXzXlXgXrXwX5X=XOX@XN.g.0.=.=.*.e.e.c.c.c.c.c.c.c.c.c.c.c.c.c.c.c.c.c.c.c.c.c.c.c.b.c.c.c.c.c.c.c.c.c.c.b.c.c.c.c.c.c.c.b.c.c.c.b.c.c.c.c.c.c.c.c.c.c.c.b.c.c.c.c.c.b.",
"v.c.0.=.X.Z w - ; * * - C S X.X.$.$.@.} [ u y 8 5 5 5 > , h m l v v l v v P Y Y {.t.t.v.v.c.c.c.c.c.c.c.c.c.c.c.c.c.c.c.g.e.*.=.=.=.&.g.N.@XOX=X5X9XrXgXkXzXzXlXhXdXdXdXhXlXzXzXkXgXrX9X5X=XOX@XN.c.*.=.=.&.*.i.c.c.c.c.c.c.c.c.c.c.c.c.c.c.c.c.c.c.c.c.c.c.c.c.c.c.c.c.c.c.c.c.c.c.c.c.v.c.c.c.c.c.c.c.c.c.c.c.c.c.c.c.c.c.v.c.c.c.c.c.c.c.c.c.c.c.n.c.c.c.c.c.c.c.c.c.c.c.c.c.c.c.c.c.b.c.c.c.c.c.b.c.c.c.c.c.c.c.c.c.c.c.c.c.c.c.c.c.*.*.=.$.=.*.g.N.@XOX=X>X9XrXgXkXzXzXlXhXdXdXdXhXlXzXlXkXgXrXwX5X=X%X@XN.g.*.=.$.=.*.0.c.c.c.c.c.c.c.c.c.c.c.c.v.c.c.c.c.c.c.c.c.c.c.c.c.c.c.c.c.v.c.c.c.c.c.n.c.c.c.c.c.c.c.c.c.c.c.c.c.c.c.c.c.c.c.c.c.c.v.c.c.c.c.c.c.",
"c.c.*.X.{ Z w - ; * * * N Z X.q.&.&.$.-.@.| W Q r y 8 q q n j k m k l l L L Y 3.w.M.r.r.c.c.c.c.c.c.c.c.c.c.c.c.c.c.c.g.*.*.%.=.$.$.&.0.N.@X%X=X5X9XrXgXkXzXzXlXhXdXdXdXhXlXzXzXkXgXrX9X5X=XOX@XN.g.=.=.$.$.*.*.*.c.c.c.c.c.c.c.c.c.c.c.c.c.c.c.c.c.c.c.c.c.c.c.c.c.c.c.c.c.c.c.c.c.c.c.c.c.c.c.c.c.c.c.c.c.c.c.c.c.c.c.c.c.c.c.c.c.c.c.c.c.c.c.c.c.c.c.c.c.c.c.c.c.c.c.c.c.c.c.c.c.c.c.c.c.c.c.c.c.c.c.c.c.c.c.c.c.c.c.c.c.c.c.c.c.5.*.*.&.%.$.$.*.g.N.@XOX=X>X9XrXgXkXzXzXlXhXdXdXdXhXlXzXzXlXgXrXwX5X=XoX@XN.g.&.$.$.=.%.*.*.c.c.c.c.c.c.c.c.c.c.c.c.c.c.c.c.c.c.c.c.c.c.c.c.c.c.c.c.c.c.c.c.c.c.c.c.c.c.c.c.c.c.c.c.c.c.c.c.c.c.c.c.c.c.c.c.c.c.c.c.c.c.c.c.",
"c.*.$.X.J C w = & & & = - C Z X.&.*.i.=.=.@.} } W W M p p n n n n j m l m T T 3.1.t.e.e.e.c.0.c.*.c.c.*.c.c.i.c.g.e.*.*.*.%.$.$.$.$.&.g.N.@X%X=X5X9XrXhXkXzXzXlXhXdXdXdXhXlXzXzXkXgXrX9X5X=XOX@XN.g.%.$.$.$.$.%.*.*.5.i.0.c.s.c.g.c.5.g.5.c.*.c.c.c.*.c.*.c.g.c.c.s.5.g.i.5.g.5.*.c.*.c.c.c.*.i.*.g.5.c.g.5.*.c.5.g.*.s.i.*.c.c.g.e.*.c.c.g.*.c.*.c.i.5.*.c.*.g.c.5.*.g.i.5.g.5.c.5.*.c.c.5.i.c.*.g.5.c.c.i.*.c.c.c.*.c.*.5.c.c.i.e.*.*.&.$.$.$.$.=.g.N.@XOX=X5X9XrXgXkXzXzXlXhXdXdXdXhXlXzXzXlXgXrXwX5X*XoX@XN.g.&.$.$.$.=.&.*.*.*.*.c.c.s.i.c.s.*.g.c.c.*.g.5.c.c.*.e.i.5.c.c.g.e.i.5.c.g.*.s.i.e.i.5.c.5.*.c.c.5.g.5.i.5.c.c.g.s.*.c.c.c.5.i.5.*.c.c.5.g.*.c.",
"*.&.$.} J w - * & & & ; < C J X.$.&.0.&.=.=.$.@.@.} | | J J M M M M m m K T 2.2.7.y.5.e.g.*.*.i.*.*.i.*.*.5.0.5.*.*.*.*.%.=.$.$.$.$.=.c.N.@XoX=X5X9XrXgXkXzXzXlXhXdXdXdXhXlXzXzXkXgXrX9X5X*X%X@XN.g.=.$.@.@.$.$.=.&.*.5.i.*.5.*.*.5.*.i.5.*.g.5.*.*.5.*.g.*.*.*.i.5.*.*.*.i.5.*.i.*.*.*.*.5.5.i.*.*.*.*.i.5.*.*.*.*.*.g.*.*.g.*.i.*.e.*.i.*.i.*.*.*.*.5.g.*.*.5.s.0.*.e.*.0.i.*.*.*.i.i.*.*.*.5.*.*.5.*.*.*.5.0.s.0.5.*.*.e.*.*.*.*.*.*.=.$.} $.$.=.g.N.@XoX=X5XwXrXgXkXzXzXlXhXdXdXdXhXlXzXzXkXgXrX9X5X=XOX@XN.c.=.$.$.$.$.=.&.&.*.5.0.e.*.5.*.*.*.i.*.e.*.g.*.*.*.g.*.*.5.g.*.g.*.*.g.i.*.*.i.*.*.*.5.*.g.*.*.i.0.i.*.*.*.g.*.*.e.*.0.*.i.i.*.*.i.5.*.g.*.5.*.",
"&.=.X.J p w > = & & X ; < Z J X.q.&.*.*.*.*.*.=.=.-.$.$.$.} } ..J K K ..K 2.2.7.7.e.*.*.5.*.*.5.*.e.s.0.i.*.i.*.*.*.*.*.=.=.$.$.} $.&.g.N.@XoX*X5X9XrXgXkXzXzXlXhXdXdXdXhXlXzXzXkXgXrX9X5X=X%X@XN.g.=.@.@.o.$.%.&.*.*.*.*.*.0.i.*.*.0.5.i.*.*.*.*.*.*.g.*.*.*.5.*.0.i.*.*.0.5.i.0.*.s.*.i.i.0.*.*.5.5.*.i.0.*.*.g.5.*.*.5.*.5.*.*.*.*.i.5.5.*.s.5.*.*.*.*.*.*.*.*.*.i.*.*.5.i.5.*.*.5.0.g.5.i.i.s.*.*.*.*.g.i.*.*.*.i.*.i.*.*.g.*.*.*.=.=.$.$.} $.=.g.N.@XOX=X5XwXrXgXkXzXzXlXhXdXdXdXhXlXzXzXkXgXrX9X5X=XOX@XN.g.=.$.} } $.%.=.*.*.*.*.i.*.i.*.g.*.5.*.g.*.5.*.g.5.*.*.*.*.*.*.*.*.*.5.*.s.0.5.*.e.*.*.*.*.*.*.*.5.*.*.*.5.*.*.i.*.i.*.e.*.5.5.0.*.*.*.5.*.*.*.",
"%.@.} Z C w ; ; ; ; # < N A K q.&.0.0.0.*.5.i.*.*.*.*.=.&.%.%.%.$.o.%. .o.7.7.5.5.0.e.c.5.i.5.c.g.*.g.5.*.5.c.*.5.*.5.*.*.&.$.$.$.$.&.g.N.@XOX=X5X9XrXgXkXzXzXlXhXdXdXdXhXlXzXzXkXgXrX9X5X=XoX@XN.g.*.$.} =.=.%.*.*.*.c.*.s.s.c.s.*.c.i.i.5.0.*.c.*.e.g.*.s.5.c.c.*.i.e.5.i.c.0.*.5.g.5.c.*.c.s.c.*.g.*.c.*.5.g.5.c.*.*.c.*.c.*.*.5.g.*.g.e.s.s.g.*.c.*.c.*.c.*.c.*.*.*.c.*.c.*.*.c.*.*.5.c.s.c.c.*.*.g.5.c.*.*.c.*.g.*.5.*.5.g.*.*.*.&.%.=.$.$.$.&.g.N.@XOX=X5XwXrXgXkXzXzXlXhXdXdXdXhXlXzXzXkXgXrXwX5X=XOX.XN.g.=.$.$.$.=.&.*.*.i.e.*.c.*.s.c.5.g.*.*.5.g.*.*.5.c.i.5.0.i.c.5.*.5.g.*.c.5.c.s.g.*.c.*.c.*.5.g.c.5.*.e.g.*.c.5.*.5.g.*.g.5.c.c.c.*.s.i.g.*.e.i.",
"$.@.| Z y > = X X # : < R K q.D 0.0.g.g.g.c.c.c.s.c.g.s.c.s.i.s.5.*.*.*.*.e.e.e.c.e.c.c.c.c.c.c.c.c.c.c.g.c.c.c.c.c.g.c.*.*.%.=.$.$.&.g.N..XOX=X5X9XrXgXkXzXzXlXhXdXdXdXhXlXzXzXkXgXrX9X5X=X%X.XN.g.=.$.$.=.&.*.i.0.s.c.c.c.c.c.c.c.c.c.c.c.c.c.c.s.c.c.c.c.c.c.c.c.c.c.c.c.c.c.c.c.c.c.c.c.c.c.c.c.c.c.c.c.c.c.c.c.c.c.c.c.c.c.c.c.c.c.c.c.m.s.c.c.c.c.c.c.c.c.c.c.c.c.c.c.c.c.c.c.c.c.c.c.c.c.c.c.c.c.c.c.c.c.c.c.c.c.c.c.c.c.c.c.c.5.*.=.=.$.$.&.g.N.@XOX=X5X9XrXgXkXzXzXlXhXdXdXdXhXlXzXzXkXgXrXwX5X=XOX@XN.g.*.$.$.$.=.*.5.5.g.c.c.c.c.c.c.c.c.c.c.c.c.c.c.c.c.c.c.c.c.c.c.c.c.c.c.c.c.c.c.c.c.c.c.c.c.c.c.c.c.c.c.c.c.c.c.c.c.c.c.c.c.c.c.c.c.c.c.c.c.c.c.",
"} } J p w > = X # $ : f R T U q.0.0.g.c.m.c.c.c.c.c.c.c.c.c.m.c.s.c.c.c.c.c.v.c.c.c.c.c.c.c.c.c.c.c.c.c.c.c.c.c.c.c.c.c.c.5.*.&.$.=.*.g.N..XOX=X5X9XrXgXkXlXzXlXhXdXdXdXhXlXlXzXkXgXrX9X5X=XOX@XN.g.*.=.$.=.*.e.c.c.c.c.c.c.c.c.c.c.c.b.c.c.n.c.c.c.c.c.c.c.c.c.c.c.c.c.c.c.c.c.c.c.c.c.c.c.c.c.c.c.c.c.c.c.c.c.c.c.c.c.c.c.c.c.c.c.c.c.c.b.c.c.c.c.c.c.c.c.c.c.c.c.c.c.c.v.c.c.c.c.c.c.c.c.c.c.c.c.c.c.c.c.c.c.c.c.c.c.c.c.c.c.c.c.c.c.c.*.%.=.=.&.g.N.@XOX=X5X9XrXgXkXzXzXlXhXdXdXdXhXlXzXzXkXgXrX9X5X=XOX@XN.g.&.=.=.%.*.*.c.c.c.c.c.c.n.c.c.c.c.c.c.c.c.c.c.c.c.c.c.c.c.c.c.c.c.c.c.c.c.c.c.c.c.c.c.c.c.c.c.c.c.c.c.c.c.c.c.c.n.c.c.c.c.c.c.c.c.n.c.c.c.c.c.",
"} [ p y 9 > # # : : g R R T U q.0.g.g.g.c.m.c.b.c.c.n.c.c.c.v.c.c.c.c.c.c.c.c.c.c.c.v.c.c.n.c.n.c.c.c.n.c.c.c.n.c.c.n.c.c.c.s.*.*.=.0.g.N.@XOX=X5XwXrXgXlXzXzXlXhXdXdXdXhXlXzXzXkXgXrX9X5X=XOX@XN.g.*.&.=.*.*.c.c.c.c.c.c.n.c.n.c.c.c.v.c.c.c.c.c.n.c.c.c.n.c.n.c.c.c.n.c.c.c.n.c.c.n.c.c.n.c.c.n.c.c.c.c.c.n.c.c.c.c.b.n.c.c.c.c.c.c.v.v.c.n.c.c.c.c.c.c.c.n.c.c.c.b.c.c.c.n.c.c.c.c.n.c.c.v.b.c.c.n.c.c.c.c.c.c.c.n.c.c.c.n.c.c.c.c.c.c.5.*.&.=.0.g.N.@XOX=X5X9XrXgXkXzXzXlXhXdXdXdXhXlXzXzXkXgXrX9X5X=XOX@XN.g.0.=.=.*.g.c.c.c.c.c.c.c.c.c.n.n.c.c.c.c.c.n.c.c.c.c.c.c.c.c.n.c.c.n.c.c.n.c.c.c.c.n.v.n.c.c.c.c.c.n.c.c.c.n.c.c.c.c.c.c.c.c.c.c.c.c.c.n.c.c.c.",
"[ / y q > % $ : : g b G H T U q.0.g.g.h.m.m.c.c.b.c.c.b.c.v.b.c.c.c.c.c.c.c.c.c.n.c.c.c.c.c.c.c.c.c.c.c.c.c.c.c.c.c.c.n.c.c.c.*.*.%.0.g.N.@XOX=X5XwXrXgXkXzXzXlXhXgXdXdXhXlXzXzXkXgXrX9X5X=XOX@XN.g.0.=.*.*.c.c.c.c.c.c.c.c.c.c.c.c.c.c.n.c.c.c.c.c.c.c.c.c.c.c.c.c.c.c.n.c.c.c.c.c.c.c.v.c.c.c.c.c.n.c.c.c.c.c.c.c.c.c.c.c.c.c.n.c.c.c.b.c.v.c.n.c.c.n.c.c.c.c.n.c.c.c.c.c.c.n.c.c.c.c.c.c.c.c.c.c.c.c.n.c.c.n.c.c.b.c.c.c.c.c.c.c.n.c.c.c.*.*.*.*.c.N.@XOX=X5XwXrXgXkXzXzXlXhXdXdXdXhXlXzXzXkXgXrXwX5X=XOX@XN.g.*.&.*.*.5.c.c.c.c.c.c.c.c.c.c.c.c.n.c.c.c.c.c.c.c.c.c.n.c.c.c.c.c.c.c.c.c.c.c.c.c.c.c.c.c.n.c.c.c.b.c.c.c.c.c.c.c.c.n.n.c.c.c.c.c.c.c.c.c.n.c.",
"M p q > > : : : g b x x H P U q.y.g.k.k.h.m.c.c.c.c.c.c.c.c.c.c.c.c.c.c.c.c.c.c.c.c.c.c.c.c.c.c.c.c.c.c.c.c.c.c.c.c.c.c.c.c.c.*.*.&.0.c.N.@XOX=X5XwXrXgXkXzXzXlXhXdXdXdXhXlXzXzXkXgXrX9X5X=XOX@XN.g.g.*.*.0.c.c.c.c.c.n.c.c.c.c.c.c.b.c.c.c.c.c.c.c.c.c.c.c.c.c.c.c.c.c.c.c.c.c.c.c.c.c.c.c.c.c.c.c.c.c.c.c.c.c.c.c.c.c.c.n.c.c.c.c.c.c.c.c.b.c.c.c.c.v.c.c.c.c.c.c.c.c.c.c.c.c.c.c.c.c.n.c.c.c.c.c.c.c.c.c.c.c.c.c.c.c.c.c.c.c.c.c.c.c.c.c.*.*.*.*.g.N.@XOX=X5X9XrXgXkXzXzXlXhXdXdXdXhXlXzXzXlXgXrXwX>X=XOX@XN.b.0.*.*.g.c.c.c.c.n.c.c.c.c.c.c.c.c.c.c.c.c.c.c.c.b.c.c.c.c.c.c.c.c.c.c.c.c.c.c.c.c.c.c.c.c.c.c.c.c.c.c.c.c.c.c.c.c.c.c.c.c.c.c.c.c.c.c.c.c.c.c.",
"y a , > : : f g b x c F F P T U %.*.k.h.k.h.h.m.c.c.c.c.c.c.c.c.c.c.c.c.c.v.c.c.c.c.c.c.c.c.c.c.c.c.c.c.c.c.c.n.c.c.c.c.c.c.c.c.*.*.g.c.N.@XOX=X5XwXrXgXlXzXzXlXhXdXdXdXhXlXzXzXkXgXrX9X5X=XOX@XN.c.*.*.*.c.c.c.c.c.c.c.c.c.c.c.c.c.c.c.c.c.c.c.n.c.c.c.c.c.c.c.c.c.c.c.c.c.c.c.c.c.c.c.n.c.c.c.c.c.c.c.c.c.c.c.c.c.c.c.c.c.c.c.c.c.c.c.c.c.c.c.c.c.c.c.c.c.c.c.c.c.c.c.c.c.c.c.c.c.c.c.c.c.c.c.c.c.c.c.c.c.c.c.c.c.n.c.c.c.c.c.c.c.b.c.c.c.c.*.*.0.k.N.@XOX=X5X9XrXgXkXzXzXlXhXdXdXdXhXlXzXzXlXgXrXwX5X=XOX@XN.c.g.*.*.c.c.c.c.c.c.c.c.v.c.c.c.c.c.c.c.c.c.c.c.c.c.c.c.c.c.c.c.c.c.c.c.c.c.c.c.c.c.c.c.c.c.c.c.c.c.c.c.c.c.c.c.c.c.c.c.c.c.c.c.c.c.n.c.c.c.c.c.",
"0 , > : : d g b x x c F R.F I I 2.7.i.i.h.h.h.m.m.c.c.c.c.c.c.c.c.c.c.c.c.c.c.c.c.c.c.c.c.c.c.c.c.c.c.c.c.c.c.c.c.c.c.c.c.c.c.*.*.*.*.b.N.@XOX=X5XwXrXgXlXzXzXlXhXdXdXdXhXlXzXzXkXgXrX9X5X=XOX@XN.c.g.*.*.c.c.c.v.c.c.c.c.c.n.c.c.c.c.c.c.c.c.c.c.c.c.c.c.c.c.c.c.c.c.n.c.c.c.c.c.c.c.c.c.c.c.c.c.c.c.c.c.c.c.c.v.c.c.c.c.c.c.c.c.c.c.c.c.c.c.c.c.c.c.c.c.c.c.c.c.c.c.c.c.c.c.c.c.c.c.c.c.c.c.c.c.c.v.c.c.c.c.c.c.c.c.c.c.c.c.c.c.c.c.c.c.c.c.*.*.i.c.N.@XOX=X>X9XrXgXkXzXzXkXhXdXdXdXhXlXzXlXkXgXrX9X5X=XOX@XN.c.*.*.*.5.c.c.c.c.c.c.c.c.c.c.c.c.c.c.c.n.c.c.c.c.c.c.n.c.c.c.c.c.c.c.c.c.c.c.c.c.c.c.c.c.c.c.c.c.c.c.c.c.c.c.c.c.c.c.v.c.c.c.c.c.c.c.c.c.c.c.c.",
"> > : : f g b x c c F F F ~.H I Y 3.7.s.h.h.h.m.c.c.c.c.c.c.c.c.c.c.c.c.c.c.c.c.c.c.c.c.c.c.c.c.c.c.c.c.c.c.c.c.c.b.c.c.c.c.c.c.g.*.0.m.N.@XOX=X5XwXrXgXlXzXzXlXhXdXdXdXhXlXzXzXkXgXrX9X5X=XOX@XN.k.*.*.*.c.c.c.c.c.c.c.c.c.c.c.c.c.c.c.c.c.c.c.c.c.c.c.c.c.c.c.c.c.c.c.c.c.c.c.c.c.c.c.c.c.c.c.c.c.c.c.c.c.c.c.c.c.c.c.c.c.c.c.c.c.c.c.c.c.c.c.c.c.c.c.c.c.c.c.c.c.c.c.c.c.c.c.c.c.c.n.c.c.c.c.c.c.c.c.c.c.c.c.c.c.c.c.v.c.c.c.c.c.c.c.c.c.c.*.*.g.k.N.@XOX=X5X9XrXgXkXzXzXlXhXdXdXdXhXlXzXzXlXgXrX9X>X=XOX@XN.k.g.*.g.c.c.c.c.c.c.c.c.c.c.c.c.c.c.c.c.c.c.c.c.c.c.c.c.c.c.c.c.c.c.v.c.c.c.c.c.c.c.c.c.c.c.c.c.c.c.c.c.c.c.c.c.c.c.c.c.c.c.c.c.c.c.c.c.c.c.c.c.",
"$ $ : f g b x c c R.R.R.R.R.~.~.I Y 1.5.i.i.h.h.m.c.c.c.c.c.c.c.c.c.c.c.c.c.c.n.c.c.c.c.n.c.c.c.c.c.c.c.c.c.c.c.c.c.c.c.c.c.c.c.*.*.i.g.N.@XOX=X5XwXrXdXkXzXzXlXhXdXdXdXhXlXzXzXkXgXrX9X5X=XOX@XN.b.g.*.*.c.c.c.c.c.c.c.c.c.c.c.c.c.c.c.c.c.c.c.c.c.c.c.c.c.c.c.c.c.c.c.c.c.c.c.c.c.c.c.c.c.c.c.c.c.c.c.n.c.c.c.c.c.c.c.c.c.c.c.c.c.c.n.c.c.c.c.c.c.c.c.c.n.c.c.c.c.c.c.c.c.c.c.c.c.c.c.c.c.c.c.c.c.c.c.c.c.c.c.c.c.c.c.c.c.c.c.c.c.c.c.c.c.c.5.*.*.b.N..XOX=X5X9XrXgXkXzXzXlXhXdXdXdXhXlXzXzXlXgXrXwX5X=XOX@XN.c.*.*.5.c.c.c.b.c.n.c.c.c.c.c.c.c.c.c.c.c.c.c.c.c.c.c.c.c.c.c.c.c.c.c.c.c.c.n.c.c.c.n.c.c.c.c.c.c.c.c.c.n.c.c.c.c.c.c.c.c.c.c.c.c.c.c.c.c.c.c.c.",
"$ $ f d b b R.c R.R.Q.Q.Q.Q.Q.E.^._.Y 1.6.5.h.h.c.c.c.c.c.c.m.c.c.c.c.c.c.c.c.c.c.c.c.c.c.c.c.c.c.c.c.c.c.n.c.c.c.n.c.c.c.c.c.c.*.*.g.c.N.@XOX=X>X9XrXgXkXzXzXlXhXdXdXdXhXlXzXzXlXgXrXwX5X=XoX@XN.k.e.*.*.c.c.c.c.c.c.c.c.c.c.c.c.c.c.c.c.c.c.c.c.c.c.c.c.c.c.c.c.c.c.c.c.c.c.c.c.c.c.c.c.c.c.c.c.c.c.c.c.c.c.c.c.c.n.c.c.c.c.c.c.c.c.c.c.c.c.c.c.c.c.c.c.c.c.c.c.c.c.c.c.c.c.c.c.c.c.c.c.c.c.c.c.b.b.c.c.c.c.c.c.c.c.c.c.c.c.c.c.c.c.c.c.c.c.s.*.*.k.N.@XOX=X5XwXrXgXlXzXzXlXhXdXdXdXhXlXzXzXkXgXrXwX5X=XOX@XN.g.*.*.i.c.c.c.c.b.c.c.c.c.c.c.c.c.c.c.c.c.c.c.c.c.n.c.c.c.c.n.c.c.c.c.c.c.c.c.c.c.c.c.c.n.c.c.c.c.c.c.c.c.c.c.c.c.c.c.c.c.c.c.c.c.c.c.c.c.c.c.c.",
"$ $ d g b x c R.R.R.W.W.W.W.W.E./.^._.Y 1.5.i.h.h.h.m.c.c.c.c.c.c.c.c.c.c.c.c.c.c.c.c.c.c.c.c.c.c.c.c.c.c.c.c.c.c.c.c.c.c.c.c.c.*.*.g.c.N.@XOX=X5X9XrXgXkXzXzXlXhXdXdXdXhXlXzXzXkXgXrXwX5X=XOX@XN.c.g.*.*.c.c.c.c.c.c.c.c.b.c.c.c.c.c.c.c.c.c.c.c.c.c.c.c.c.c.c.c.c.c.c.c.c.v.c.c.c.c.c.c.c.c.c.c.c.n.c.c.c.c.c.v.c.c.c.c.c.c.c.c.c.c.c.c.c.c.c.c.c.c.c.c.c.c.c.c.c.c.c.c.c.v.c.c.c.c.c.c.c.c.c.c.c.v.c.c.c.c.c.c.c.c.c.c.c.c.c.c.c.c.c.c.c.c.*.*.0.c.N.@XOX=X5XwXrXgXlXzXzXlXhXdXdXgXhXlXzXzXkXgXrXwX5X=XOX@XN.m.0.*.*.c.c.c.c.c.c.c.c.c.c.c.c.c.c.c.c.c.c.c.c.c.c.c.c.c.c.c.c.c.c.c.c.c.c.c.c.c.c.c.c.c.c.c.c.c.c.c.c.c.v.c.n.c.c.c.c.n.c.c.c.c.c.c.c.c.c.c.c.",
"$ s d g b c c c R.Q.W.W.).).!.!././.^._.Y 1.5.s.h.m.m.c.c.n.c.c.c.c.c.c.c.c.c.c.c.c.c.c.c.c.n.c.c.c.c.c.c.c.c.c.c.c.c.c.c.c.c.s.*.*.*.g.N.@XoX=X5X9XrXgXkXzXzXlXhXdXdXdXhXlXzXzXlXgXrXwX5X=XOX@XN.g.*.&.*.5.c.c.c.c.c.v.c.c.c.c.c.c.c.c.c.c.n.c.c.c.c.c.c.c.c.c.c.c.c.c.b.c.c.c.c.c.c.c.c.n.c.c.c.c.c.c.c.c.c.c.c.c.c.c.c.c.c.c.c.c.c.c.c.c.c.c.c.n.c.c.c.c.c.c.c.c.n.c.b.c.c.c.c.n.c.c.n.c.c.c.c.c.c.c.c.c.c.c.c.c.c.c.c.c.c.c.c.c.c.c.c.c.c.*.*.*.g.N.@XOX=X5XwXrXdXlXzXzXlXhXdXdXdXhXlXzXzXkXgXrX9X5X=XoX@XN.b.0.*.*.*.c.c.c.v.c.c.c.c.c.c.c.c.c.c.c.c.c.c.c.c.c.c.c.c.c.c.c.c.c.c.c.c.c.c.c.c.c.c.c.c.c.c.c.c.c.c.c.c.c.c.c.c.c.c.c.c.c.c.c.c.c.c.c.c.c.n.c.",
"s s d g b b c R.R.Q.W.).).).).).)././.^.`.3.5.c.h.m.m.m.c.c.c.c.c.c.c.n.b.c.c.c.n.c.c.c.c.c.c.c.c.c.b.v.c.c.c.c.n.c.c.c.c.c.c.*.*.&.0.g.N.@XOX=X5X9XrXgXkXzXzXlXhXdXdXdXhXlXzXzXlXdXrXwX5X=XOX@XN.c.*.&.&.*.c.c.c.b.c.c.c.c.n.c.c.c.n.c.c.c.c.c.c.c.n.c.n.c.c.c.c.c.n.c.c.c.c.c.c.n.c.c.c.c.c.b.c.c.c.c.c.b.c.c.b.c.c.c.c.c.c.c.n.c.c.c.c.c.n.c.c.c.c.c.c.b.c.c.c.c.c.c.c.c.c.c.c.c.c.c.c.c.c.c.v.b.c.c.c.c.c.n.n.c.c.c.c.c.n.c.c.c.n.c.c.c.5.&.*.0.g.N.@XOX=X5XwXrXdXkXzXzXlXhXdXdXdXhXlXzXzXkXgXrX9X5X=XOX@XN.g.*.=.*.*.c.c.c.c.c.c.c.c.n.c.c.c.c.c.n.b.c.v.c.c.c.c.c.c.c.c.c.n.c.c.c.c.n.b.c.c.c.c.c.v.c.c.c.c.c.c.c.b.c.c.c.c.c.c.c.c.c.c.c.c.n.c.c.c.c.c.c.",
"s s d g b x c R.R.Q.W.W.).).).).).)././._.Y 1.5.c.h.m.c.b.m.c.c.c.c.c.c.c.c.c.c.c.c.c.c.c.n.c.c.c.c.c.c.c.c.c.c.c.c.c.c.c.c.*.*.=.=.*.g.N.@XOX=X5X9XrXgXkXzXzXlXhXdXdXdXhXlXzXzXkXdXrX9X5X=XOX@XN.g.&.&.=.*.0.c.c.c.c.c.c.c.c.n.c.c.c.c.b.c.c.c.c.c.c.c.c.b.c.c.c.n.c.c.c.c.c.c.c.c.c.c.c.c.c.c.v.c.c.c.c.c.c.c.c.c.c.c.n.c.c.c.c.c.c.c.c.c.c.c.c.c.c.c.c.c.c.c.c.n.c.c.c.c.c.c.c.c.c.n.c.c.c.c.n.c.c.c.c.n.c.c.c.c.c.b.c.c.c.c.c.c.c.c.0.5.*.&.=.*.g.N.@XOX=X5XwXrXdXkXzXzXlXhXdXdXdXhXlXzXzXkXgXrX9X5X=XOX@XN.g.*.%.=.*.e.c.c.c.c.c.c.c.c.c.c.c.c.c.c.c.n.c.c.c.c.n.c.c.c.c.c.c.c.c.c.c.c.c.v.c.c.c.c.b.v.b.c.c.c.c.n.c.c.c.c.c.c.c.c.n.c.c.c.c.c.c.c.c.c.c.c.",
"$ s s g b b x R.R.R.W.W.!.).).).).!././.^._.3.4.s.h.m.m.m.c.c.c.c.c.c.c.c.b.c.c.c.c.c.c.c.c.c.c.c.c.c.c.c.c.c.c.c.c.c.c.c.*.*.=.=.=.&.g.N.@XOX=X5X9XrXgXkXzXzXlXhXdXdXdXhXlXzXzXlXgXrX9X5X=XOX@XN.g.*.=.=.=.*.e.g.c.c.c.c.c.c.c.c.c.c.c.c.c.c.c.c.c.c.c.c.c.c.c.c.c.c.c.c.c.c.c.c.c.c.v.c.c.c.c.c.c.c.c.n.c.c.c.c.c.c.c.c.c.c.c.c.c.c.c.c.c.c.c.c.c.c.c.b.c.c.c.c.c.c.c.c.c.c.c.c.c.c.c.c.c.c.c.c.c.c.c.c.c.c.c.c.c.c.c.c.c.c.c.c.c.c.c.i.*.%.=.=.*.g.N.@XOX=X5XwXrXgXkXzXzXlXhXdXdXdXhXlXzXzXkXgXrX9X5X=XOX@XN.g.&.=.=.&.*.*.c.c.c.c.c.c.c.c.c.c.c.c.c.c.c.c.c.c.c.c.c.c.c.c.c.c.c.c.c.c.c.c.c.c.c.c.c.c.c.c.c.c.c.c.c.c.c.c.c.c.c.c.c.c.c.c.c.c.c.c.c.c.c.c.c.",
"s s s d g b x c R.R.Q.W.W.!.).).).).)././._.Y 1.5.i.h.m.m.c.c.c.c.c.c.c.c.c.c.c.c.c.c.c.c.c.c.c.c.c.c.c.c.c.c.c.c.c.c.c.*.*.=.=.$.$.&.g.N.@XOX=X5X9XrXgXkXzXzXlXhXdXdXdXhXlXzXzXlXgXrXwX5X=XOX@XN.g.*.$.$.$.=.*.*.c.c.c.c.c.c.c.c.c.c.c.c.c.c.c.c.c.c.c.c.c.c.c.c.c.c.c.c.c.c.c.c.c.c.c.c.c.c.c.c.c.c.c.c.c.c.c.c.c.c.c.c.c.c.c.c.c.c.c.c.c.c.c.c.c.c.c.c.c.c.c.c.c.c.c.c.c.c.c.c.c.c.c.c.c.c.c.c.c.c.c.c.s.c.c.c.c.c.c.c.c.c.c.c.c.g.*.*.%.=.$.$.&.g.N.@XOX=X>X9XrXgXkXzXzXlXhXdXdXdXhXlXzXzXkXgXrX9X5X=XOX.XN.g.*.$.$.=.=.*.*.c.c.c.c.c.c.c.c.c.c.c.c.c.c.c.c.c.c.c.c.c.c.c.c.c.c.c.c.c.c.c.c.c.c.c.c.c.s.c.c.c.c.c.c.c.c.c.c.c.c.c.c.c.c.c.c.c.c.c.c.c.c.c.c.",
"s s s s d b x c R.R.Q.W.W.!.).).).).!.)./.^._.3.1.c.h.i.g.s.s.i.c.c.*.s.c.5.g.5.5.c.g.s.*.c.5.c.*.g.e.*.g.c.5.c.c.5.*.*.*.%.=.$.$.$.&.c.N.@XOX=X5X9XrXgXkXzXzXlXhXdXdXgXhXlXzXzXjXgXrXwX5X=XOX.XN.g.&.$.$.$.%.=.&.*.e.i.5.*.c.s.g.5.*.g.5.c.5.g.c.c.5.*.c.5.c.*.5.i.s.c.g.e.i.5.i.s.c.c.*.c.*.c.c.c.s.i.5.g.*.s.*.c.c.i.5.s.c.c.g.e.i.e.i.c.s.c.c.5.c.*.c.5.i.e.*.c.5.c.g.s.*.c.*.*.c.5.g.e.i.e.c.*.i.s.s.s.g.s.5.g.5.*.g.c.e.c.5.*.*.*.=.$.$.$.$.=.g.N.@XOX=X5X9XrXgXkXzXzXlXhXdXdXdXhXlXzXzXkXgXrX9X5X=XOX@XN.g.=.$.$.$.=.%.*.*.i.*.e.*.c.g.c.c.c.5.i.5.c.*.i.5.i.c.5.c.*.*.c.*.s.c.c.i.e.*.g.s.c.g.s.s.g.c.s.*.g.5.*.g.c.e.c.*.c.c.s.i.5.c.c.c.i.5.0.g.c.5.c.",
"s d s d g g b c c R.Q.Q.Q.W.W.W.W.W.W.W.W./._.Y 1.5.i.p.i.i.i.5.*.*.5.*.*.e.*.5.*.*.g.*.5.g.*.*.*.5.*.0.i.*.*.i.*.*.*.*.=.$.=.} $.$.&.g.N.@XoX=X5X9XrXgXkXzXzXkXhXdXdXdXhXlXzXzXkXgXrX9X5X=XoX@XN.g.=.$.$.} $.=.&.*.*.5.*.*.c.*.*.*.5.*.s.*.*.e.*.*.0.i.i.*.i.*.*.0.g.*.5.0.i.5.*.*.*.i.*.*.*.*.5.*.5.i.0.i.e.*.*.*.5.i.*.i.*.*.*.5.*.e.*.*.*.0.*.i.*.*.*.i.*.*.*.*.*.5.*.*.*.5.5.0.i.i.*.0.g.*.*.*.5.i.g.*.*.e.*.e.*.i.*.*.5.*.*.*.*.&.%.$.$.@.$.&.c.N.@XOX=X5X9XrXgXkXzXzXlXhXdXdXdXhXlXzXzXkXgXrX9X5X=X%X.XN.g.&.$.$.} $.=.%.&.*.*.g.*.*.5.*.*.*.*.*.*.*.5.*.*.*.*.*.5.*.e.*.*.0.i.*.*.e.*.e.*.*.5.g.5.0.i.i.*.i.*.0.i.*.e.*.*.s.*.*.*.i.*.*.*.*.g.*.*.0.s.i.",
"s s d s d g x x c R.R.Q.Q.W.W.W.W.W.W.!.E.(.^._.Y 7.5.i.i.i.i.i.*.*.g.*.*.*.i.*.i.*.*.*.*.*.*.5.*.*.i.5.i.5.*.*.5.*.*.&.%.=.$.$.} $.&.g.N..XOX=X5X9XrXgXjXzXzXlXhXdXdXdXhXjXzXzXjXdXrX9X5X=XOX@XN.c.=.$.} $.$.=.%.*.*.*.*.*.*.*.*.*.i.0.i.*.i.*.c.i.5.*.*.e.*.*.5.i.*.*.*.*.5.i.*.*.*.e.i.e.*.*.i.i.0.*.5.*.*.*.*.e.*.*.5.0.*.s.*.*.i.*.*.g.*.*.e.5.*.*.e.*.5.*.i.*.*.*.*.g.i.*.i.*.*.5.*.s.*.*.*.*.*.*.5.*.*.*.i.*.e.*.*.*.i.*.*.*.*.&.$.$.X.@.$.%.g.N.@XOX=X>X9XrXgXkXlXzXlXhXdXdXdXgXlXzXzXkXgXrX9X5X=XoX@XN.g.&.$.X.$.$.=.=.*.*.5.*.5.*.*.*.*.g.5.*.5.*.g.*.i.0.*.*.i.*.*.i.*.*.5.i.i.*.i.*.*.i.*.*.i.*.*.5.e.*.*.s.*.*.*.i.*.0.5.i.e.*.0.s.i.5.*.*.i.*.*.*.",
"g d d s d b b c c R.R.R.Q.Q.W.W.W.W.W.W.W.(./._.Y 1.7.g.i.h.i.i.c.s.g.*.c.g.c.*.c.*.e.*.e.*.c.i.*.g.e.c.c.*.0.s.c.*.*.*.*.&.=.$.$.$.%.g.N.@XOX=X>X9XrXdXkXzXzXkXhXdXdXdXhXlXlXzXjXgXrX9X>X=XOX@XN.g.=.$.$.$.=.%.*.*.*.*.g.5.c.*.*.c.*.c.c.*.e.*.*.c.*.5.c.e.c.s.g.*.s.*.g.*.g.5.*.c.s.c.c.*.0.s.c.0.*.*.g.s.c.i.c.*.g.*.c.*.c.g.*.g.e.c.s.*.c.*.g.5.*.g.g.5.c.g.c.*.5.g.g.*.c.e.i.5.0.c.c.*.i.5.*.*.c.c.*.*.c.*.g.*.g.5.*.c.*.g.5.*.*.*.&.=.$.$.$.=.g.N.@XOX=X>X9XrXdXkXzXzXlXhXdXfXdXhXlXzXlXlXgXrX9X>X=XOX@XN.g.&.$.$.$.%.&.*.*.*.*.g.c.*.g.*.c.*.5.g.g.c.c.*.c.*.5.g.g.*.c.e.*.s.g.c.c.*.e.*.c.*.c.*.i.5.0.s.e.i.c.*.*.5.g.5.g.*.g.e.i.*.s.0.g.*.c.5.*.5.g.5.",
"d d d d d g b c c R.R.R.Q.W.W.W.W.Q.W.W.W.(.(.^.Y Y 7.*.i.h.g.c.c.c.5.c.c.c.c.c.c.c.c.c.c.c.c.c.c.c.c.c.c.c.c.c.c.c.c.c.5.*.%.=.$.$.&.0.x.@XOX=X>X9XrXdXjXlXlXjXgXdXfXfXgXkXlXlXjXdXrX8X>X=XoX@XN.g.&.$.$.=.&.*.*.c.c.c.c.c.c.c.c.c.c.c.c.c.c.c.c.c.g.c.c.c.c.c.c.c.c.c.c.c.c.c.c.c.c.c.c.c.c.c.c.c.c.c.c.c.c.c.c.c.c.c.c.e.c.c.c.c.c.c.c.c.c.c.c.c.c.c.c.c.c.c.c.c.c.c.c.c.c.c.c.c.c.c.c.c.c.c.c.c.c.c.c.c.c.c.c.c.c.c.c.c.c.c.c.g.c.5.*.=.$.$.$.=.g.N..XOX=X>X8XrXdXjXlXlXkXgXdXdXdXgXkXlXlXkXdXtX8X>X=XoX@XN.g.*.$.$.=.=.*.*.5.c.c.c.c.c.c.c.c.c.*.c.c.c.c.c.c.c.c.c.c.c.c.c.c.c.c.c.c.c.c.c.c.c.c.c.c.c.c.c.c.c.c.c.c.c.c.c.c.c.c.c.c.c.c.c.c.c.c.c.c.c.c.c.",
"k h f d g g b x R.R.Q.Q.W.Q.W.W.E.W.W.W.W.E.(.~._.Y 1.7.s.h.m.c.c.c.c.c.c.c.c.c.c.c.c.c.c.c.c.c.c.c.c.c.c.c.c.c.c.c.c.c.c.*.*.&.=.%.*.g.N.@XoX*X5X8XeXpXhXkXkXjXgXiXrXfXsXjXkXkXhXfXtX8X:X*XoX@XN.g.&.$.%.&.*.*.c.c.c.c.c.c.c.c.c.c.c.c.c.c.c.c.c.c.c.c.c.c.c.c.c.c.c.c.c.c.c.c.c.c.c.c.c.c.c.c.c.c.c.c.c.c.c.c.c.c.c.c.c.c.c.c.c.c.c.c.c.c.c.c.c.c.c.c.c.c.c.c.c.c.c.c.c.c.c.c.c.c.c.c.c.c.c.c.c.c.c.c.c.c.c.c.c.c.c.c.c.c.c.c.c.c.e.c.*.*.%.%.=.&.g.N..XoX=X:X8XeXpXhXkXkXjXsXfXrXfXdXjXjXkXhXdXtX6X5X*XoX@XN.g.*.=.%.=.*.*.c.c.c.c.c.c.c.c.c.c.c.c.c.c.c.c.c.c.c.c.c.c.c.c.c.c.c.c.c.c.c.c.c.c.c.c.c.c.c.c.c.c.c.c.c.c.c.c.c.c.c.c.c.c.c.c.c.c.c.c.c.c.c.c.c.",
"m k k h f g b c R.R.Q.Q.Q.W.W.Q.W.W.Q.W.E.W.W.(.^._.3.t.c.h.m.m.c.c.c.m.c.c.c.c.c.c.c.c.c.c.b.c.c.c.c.c.c.c.c.c.c.c.c.c.c.*.*.*.=.=.*.g.N.@XoX-X:X6XwXuXsXhXhXsXpXrXrXrXpXaXhXhXsXrXwX6X:X*XoX@XN.g.*.=.&.*.5.c.c.c.c.c.c.c.c.c.c.c.c.c.c.c.c.c.c.c.c.c.c.c.c.c.b.c.c.c.c.c.c.c.c.c.c.b.c.c.c.c.c.c.c.c.c.c.c.c.c.c.c.c.c.c.c.c.c.c.c.c.c.c.c.c.c.c.c.c.c.c.c.c.c.c.c.c.c.c.c.c.c.c.c.c.n.c.c.c.c.c.c.c.c.c.c.c.c.c.c.c.n.c.c.c.c.c.c.c.c.*.*.&.=.*.g.N.@XoX-X:X6XwXuXsXhXhXsXpXrXtXrXfXaXhXhXsXrXwX6X:X<XoX.Xb.c.&.=.&.*.5.c.c.c.c.c.c.b.c.c.c.c.c.n.c.c.c.c.c.c.c.c.c.c.c.c.c.c.c.c.c.c.c.c.c.c.c.c.c.c.c.c.c.c.c.c.c.c.c.c.c.c.c.c.c.c.c.c.c.c.c.c.c.c.b.c.c.",
"M n k k d g b x x R.Q.Q.W.Q.W.Q.E.E.E.E.W.E.E.(.~._.Y 1.e.c.h.c.c.c.c.c.c.c.c.c.c.c.c.c.c.c.c.c.c.c.c.c.c.c.c.c.c.c.c.c.c.c.s.i.*.=.*.g.N.z.oX<X;X:X0XeXuXaXaXuXtXeX9XeXtXuXaXaXuXeX8X:X;XXXoX.XN.g.*.&.*.*.*.c.c.c.c.c.c.c.c.c.c.c.c.c.c.c.c.c.c.c.c.c.c.c.c.c.c.c.c.c.c.c.c.c.c.c.c.c.c.c.c.c.c.c.c.c.c.c.c.c.c.c.c.c.c.c.c.c.c.c.c.c.c.c.c.c.c.c.c.c.c.c.c.c.c.c.c.c.c.c.c.c.c.c.c.c.c.c.c.c.c.c.c.c.c.c.c.c.c.c.c.c.c.c.c.c.c.c.c.c.c.*.*.&.&.*.g.N.x.oX-X;X6X6XuXuXaXaXuXtXeX9XqXuXaXaXaXuXeX8X:X;X-XoX.Xb.g.*.&.*.*.c.c.c.c.c.c.c.c.c.c.c.c.c.c.c.c.c.c.c.c.c.c.c.c.c.c.c.c.c.c.c.c.c.c.c.c.c.c.c.c.c.c.c.c.c.c.c.c.c.c.c.c.c.c.c.c.c.c.c.c.c.c.c.c.c.c.c.",
":.( m n k g b b x R.Q.Q.Q.W.W.Q.Q.E.E.E.Q.E.E.E.~.^.I 3.7.s.i.g.g.g.c.c.c.g.c.c.c.c.c.5.c.c.c.c.c.i.c.c.c.c.c.e.g.c.c.c.c.c.s.*.*.=.*.g.N.x. XXX<X;X4X4XqXyXyXqX0X4X4X0X0XyXyXyXqX0X>X;X<X+X XB.k.g.*.=.&.*.*.c.c.c.*.c.c.c.c.c.c.c.c.c.c.c.c.*.c.c.c.c.g.s.c.c.c.c.5.c.c.c.c.c.5.g.c.c.c.c.c.s.c.c.c.c.c.e.c.c.c.c.c.i.c.c.c.c.g.s.c.c.c.c.c.g.c.c.c.c.e.g.c.c.c.c.c.5.c.c.c.c.c.s.g.c.s.c.s.c.c.c.c.c.c.c.c.c.c.c.c.*.c.c.5.c.c.c.c.g.s.g.*.*.&.*.g.b.z..XXX<X,X>X4XqXyXyXqX0X0X7X0X4XqXyXyXqX4X>X;X<XXX.Xx.x.g.*.%.&.*.*.c.0.c.s.c.c.c.c.s.c.0.c.s.c.c.g.c.c.c.c.c.5.c.c.c.c.s.c.c.c.c.c.c.s.c.c.e.g.c.c.c.c.c.c.c.g.c.c.c.c.c.c.s.c.c.c.c.c.c.c.c.5.c.c.c.c.",
" ...M m m k z z x R.R.R.(.(.(.R.R.~.(.R.R.Q.~.~.~.~.P U ;.*.*.*.i.i.*.*.*.*.*.*.*.*.*.*.i.5.*.*.*.*.*.*.*.*.5.*.i.*.*.5.*.i.*.*.=.$.&.i.k.x.|. XXXXX-X1X2X3X3X2X=X=X=X=X1X3X3X3X2X1X-XXX+X Xl.x.k.g.$.=.=.*.*.*.*.*.*.*.*.5.*.*.*.*.*.*.*.*.5.i.i.*.i.*.*.i.5.*.*.*.*.*.0.*.0.*.*.*.*.*.*.*.*.*.i.*.*.*.*.*.i.5.*.*.*.*.i.*.*.*.*.*.*.*.i.*.*.*.*.*.*.*.*.*.*.s.i.*.*.*.*.*.*.*.*.*.*.*.*.*.*.*.*.*.5.*.*.*.i.i.*.*.5.i.*.*.*.5.*.*.*.*.i.5.&.=.=.=.&.k.x.z. XXXXX-X1X2X3X3X2X2X1X=X=X1X2X3X3X2X1X-X+XXX Xz.x.k.0.&.%.&.*.*.*.5.i.i.*.5.*.*.i.5.*.*.*.*.i.*.i.*.*.5.5.*.*.*.*.*.i.*.i.*.*.5.i.*.5.*.*.i.*.*.*.*.*.*.*.*.*.*.*.*.*.*.*.i.*.*.*.5.*.5.*.*.*.*.5.*.",
"} } K M n h h z x v v R.~.R.R.R.R.c c ~.c R.R.c v H P :.:.$.$.$.$.$.%.=.=.$.=.%.%.=.$.=.$.=.=.$.=.%.=.$.=.$.$.=.=.%.=.$.=.=.$.$.$.X.@.=.&.k.j.z.l.|. X.X$X$X$X$X$X X X X.X$X%X$X$X X X|.l.z.j.k.&.$.@.@.$.$.=.=.=.=.$.=.=.$.$.=.$.=.=.$.=.$.=.$.$.$.$.%.$.=.$.=.=.=.%.$.$.$.$.=.$.=.$.=.=.=.=.=.=.$.$.=.$.=.$.$.=.$.=.%.$.=.=.$.%.=.=.=.%.$.=.=.=.%.=.$.=.$.=.$.$.$.%.=.$.=.=.%.=.=.%.$.$.=.=.$.=.$.=.$.$.=.$.$.$.=.$.=.$.=.$.$.=.=.%.=.$.$.$.$.$.@.$.0.k.j.z.l.|. X X$X$X$X.XoX X X.X X$X$X%X$X.X X|.l.z.j.k.0.$.X.} $.$.$.=.=.%.$.=.$.=.=.$.$.=.$.=.%.=.$.=.$.$.=.$.=.=.=.%.$.=.$.$.=.=.$.=.%.=.$.=.%.$.=.$.$.=.=.$.=.=.%.$.=.%.$.=.%.$.=.$.$.=.$.=.=.%.$.$.$.",
"[ [ M M M h h h k z v v v v v v v v v v v v v v v G L m K } } { } } } } | } } } | } | } } | } } | } } } } | } | | } } } } } } | [ [ | } X.#.#.f.f.d.d.j.j.j.j.x.j.d.d.d.j.j.j.j.j.j.d.d.f.f.#.=.X.| | | [ | } } } } } } } } } } } } } } } } } | } } } } } } | } | | | } } } } | } } } } } } | } } } } } } } } } } [ | } } } } | } } | } | } } } | } } } } } | } } } } } | } } | } } | } } } } } | } } } } } } } } } } | } } } } | } } } } } | | [ | } @.@.#.f.f.d.d.d.j.j.j.j.j.d.d.d.j.x.j.j.j.j.d.d.f.f.#.#.@.X.| | [ } } | } | } } } | } } } } } | } } } } } | | } } } } | } } } } | | } } | | } } | } } } } } } } } | } } } } } | } } } } } | } } } } } } } ",
"M i i a q 0 , h h h h k k k l l l k k k k k k l k k n n M i M W i i i i / p u Z / W W M i i W M W M W W i Z p / i W i M i M W i i i i M [ [ | { { _ +.+.+.+.+.+.+.+.+.X.+.+.+.+.+.+._ +.{ { { ) / W i p i i i M i W M i W i i i M W i i i W W M M i i i M W W i Z / i i p / i i i M i i i W M i M i i i M W W i Z / i W W M i i W W M i W i W M W M W i i W M W W M i i / p Z i W W M W W M i i W M W W W M M i M i W W M i i i M W W W M i i u u i i ) | { { { _ X.+.+.+.+.+.+.+.+.+.+.+.+.+.+.+.{ +._ { ) | ) ) u i i i W M W W M i i i M W W W M i W M i i i / p Z i W W M W M i W i W M W W i W W W M W i M i i W W M i i i W i W W M i i i i i i i i W i i ",
"y y a a 6 0 0 0 , 0 h h n h h h h h h q h q h 0 h q n q a a r y y y y y a y r y w r y y r y y y y y y y y y y y y y r y r y y y y 8 y p p p u u u u u u Q Z u u Z u u u u Z u i u u u i Z u u p p y r a r y y y y y y y y y y y y y y y y y r y y y y y y y y y y y y y y y y y y y y y y y r y y y y r y r y y y a y y y y y y r y y y r y y y y y y y y y y r y y r y r y y y y y y y y y y y y y y y y y y y y y y y y y y y y y y y p y y a y a y y p u u u u Z u u Z u u u u u u Z i u i u u u u u u p p p y r r y y y r y y y y y y y r y y y y y y y y y y y y y y y y y y y y y y y y y y y y y y r y y y y y y y y y y y y y y y y y y y y y y y y y y ",
"7 7 7 7 7 6 6 6 6 6 6 0 6 0 8 0 0 6 0 0 0 0 0 0 0 0 6 0 8 8 8 8 8 8 8 8 8 8 8 8 8 8 8 8 8 8 8 8 8 8 8 8 8 8 8 8 8 8 8 8 8 8 8 8 8 8 8 8 8 8 8 8 r 8 8 r 8 8 a r r 8 r 8 8 r y 8 r 8 r 8 8 w a 8 8 8 8 8 8 8 7 8 8 8 8 8 8 8 8 8 8 8 8 8 8 8 8 8 8 8 8 8 8 8 7 8 8 8 8 8 8 8 8 8 8 8 8 8 8 8 8 8 8 8 8 8 8 8 8 7 8 8 8 8 8 8 8 8 8 8 8 8 8 8 8 8 7 8 8 8 8 8 8 8 8 8 8 8 7 8 8 8 8 8 8 8 8 8 8 8 8 8 8 8 8 8 8 7 8 8 8 7 8 7 8 8 8 8 8 8 8 8 8 8 8 8 8 8 8 8 r 8 r 8 r 8 y r r 8 r 8 8 r 8 r 8 r y 8 r 8 r 8 8 8 8 8 7 8 8 8 8 8 8 6 8 8 8 8 8 8 8 8 8 8 8 7 8 8 8 8 8 8 8 8 8 7 8 8 8 8 8 8 8 8 8 8 8 8 8 8 8 8 8 8 8 6 8 8 8 8 8 8 8 8 8 6 8 8 8 8 8 8 8 8 8 8 ",
"6 7 6 7 5 5 6 6 6 6 6 6 6 6 6 6 5 6 6 6 6 6 6 6 5 5 6 6 7 6 7 5 5 6 5 7 7 7 7 7 6 6 7 7 7 7 5 6 7 5 7 7 5 7 5 6 7 7 6 7 6 7 7 5 5 5 7 5 9 7 8 9 8 7 7 8 8 7 8 5 9 8 7 8 7 8 7 8 9 9 8 7 7 8 5 7 7 5 6 6 5 6 5 5 5 7 7 6 5 7 7 6 7 5 6 6 5 7 7 7 7 7 6 6 7 5 5 7 5 6 7 7 5 6 7 7 5 7 7 6 7 5 5 6 7 6 7 7 6 5 5 7 5 7 5 8 5 5 6 7 6 7 6 7 6 7 5 7 6 6 7 7 5 7 5 6 7 6 7 7 6 7 5 7 5 7 5 7 6 7 5 7 5 7 5 5 7 6 7 7 5 7 7 7 7 7 5 5 7 7 5 7 8 5 5 8 5 7 5 7 7 7 7 7 7 7 8 8 9 8 8 9 8 7 9 8 7 7 6 7 9 9 9 7 9 9 9 9 6 6 7 6 7 5 5 6 7 7 6 5 7 7 6 7 7 7 5 7 5 7 6 7 5 7 7 6 5 7 5 6 7 6 7 7 5 5 5 5 5 7 5 6 7 7 7 6 7 7 6 7 8 5 5 5 5 8 5 5 7 7 6 5 7 7 5 7 7 7 5 5 ",
"5 5 5 5 5 5 5 5 5 5 5 5 5 5 5 5 7 5 5 5 5 5 5 6 5 5 5 5 5 5 5 5 7 5 5 5 5 5 5 5 5 5 5 5 5 5 5 5 5 5 5 5 5 7 5 5 5 5 5 5 5 5 5 5 5 5 5 5 5 9 5 5 5 5 5 5 6 5 5 5 5 5 5 5 5 5 5 5 5 5 5 5 5 5 5 5 7 5 5 5 5 7 5 5 5 5 5 5 5 5 5 5 5 5 5 5 5 5 5 5 5 5 5 5 5 5 5 5 5 5 5 5 5 5 5 5 5 5 5 5 5 7 5 5 5 6 5 5 5 5 5 5 5 5 5 5 5 5 7 5 5 5 5 5 5 5 5 5 5 5 5 5 5 5 7 5 5 5 5 5 5 5 5 5 5 5 5 5 5 5 5 5 5 7 5 5 5 5 5 5 5 5 5 5 5 5 5 5 5 5 5 5 5 5 5 5 5 5 5 5 5 5 5 5 5 5 5 5 5 5 5 5 5 5 5 5 5 9 5 5 5 5 9 5 5 9 5 5 5 5 5 5 5 7 5 5 5 7 5 5 5 5 5 5 5 5 5 5 5 5 5 5 5 5 5 5 5 5 7 5 5 5 5 6 5 5 5 5 5 7 5 5 5 5 5 5 5 5 5 5 5 5 5 5 5 5 5 5 7 5 5 5 5 7 5 5 5 5 5 5 ",
"5 5 5 5 5 5 5 5 5 6 5 5 5 5 5 5 5 5 5 5 5 5 5 5 5 5 5 5 5 5 5 5 5 5 5 5 5 5 5 5 5 5 5 5 5 5 5 5 5 5 5 5 5 5 5 5 5 5 5 5 5 5 5 5 5 5 5 5 5 5 5 5 5 5 5 5 5 5 5 5 5 5 5 5 5 5 5 5 5 5 5 5 5 5 5 5 5 5 5 5 5 5 5 5 5 5 5 5 5 5 5 5 5 5 5 5 5 5 5 5 5 5 5 5 5 5 5 5 5 5 5 5 5 5 5 5 5 5 5 5 5 5 5 5 5 5 5 5 5 5 5 5 5 5 5 5 5 5 5 5 5 5 5 5 5 5 5 5 5 5 5 5 5 5 5 5 5 5 5 5 5 5 5 5 5 5 5 5 5 5 5 5 5 5 5 5 5 5 5 5 5 5 5 5 5 5 5 5 5 5 5 5 5 5 5 5 5 5 5 5 5 5 5 5 5 5 5 5 5 5 5 5 5 5 5 5 5 5 5 5 5 5 5 5 5 5 5 5 5 5 5 5 5 5 5 5 5 5 5 5 5 5 5 5 5 5 5 5 5 5 5 5 5 5 5 5 5 5 5 5 5 5 5 5 5 5 5 5 5 5 5 5 5 5 5 5 5 5 5 5 5 5 5 5 5 5 5 5 5 5 5 5 5 5 5 5 5 5 5 5 ",
"5 5 5 5 5 5 5 5 5 5 5 5 5 5 5 5 5 5 5 5 5 5 5 5 5 5 5 5 5 5 5 5 5 5 5 5 5 5 5 5 5 5 5 5 5 5 5 5 5 5 5 5 5 5 5 5 5 5 5 5 5 5 5 5 5 5 5 5 5 5 5 5 5 5 5 5 5 5 5 5 5 5 5 5 5 5 5 5 5 5 5 5 5 5 5 5 5 5 5 5 5 5 5 5 5 5 5 5 5 5 5 5 5 5 5 5 5 5 5 5 5 5 5 5 5 5 5 5 5 5 5 5 5 5 5 5 5 5 5 5 5 5 5 5 5 5 5 5 5 5 5 5 5 5 5 5 5 5 5 5 5 5 5 5 5 5 5 5 5 5 5 5 5 5 5 5 5 5 5 5 5 5 5 5 5 5 5 5 5 5 5 5 5 5 5 5 5 5 5 5 5 5 5 5 5 5 5 5 5 5 5 5 5 5 5 5 5 5 5 5 5 5 5 5 5 5 5 5 5 5 5 5 5 5 5 5 5 5 5 5 5 5 5 5 5 5 5 5 5 5 5 5 5 5 5 5 5 5 5 5 5 5 5 5 5 5 5 5 5 5 5 5 5 5 5 5 5 5 5 5 5 5 5 5 5 5 5 5 5 5 5 5 5 5 5 5 5 5 5 5 5 5 5 5 5 5 5 5 5 5 5 5 5 5 5 5 5 5 5 5 ",
"5 5 5 5 5 5 5 5 5 5 5 5 5 5 5 5 5 5 5 5 5 5 5 5 5 5 5 5 5 5 5 5 5 5 5 5 5 5 5 5 5 5 5 5 5 5 5 5 5 5 5 5 5 5 5 5 5 5 5 5 5 5 5 5 5 5 5 5 5 5 5 5 5 5 5 5 5 5 5 5 5 5 5 5 5 5 5 5 5 5 5 5 5 5 5 5 5 5 5 5 5 5 5 5 5 5 5 5 5 5 5 5 5 5 5 5 5 5 5 5 5 5 5 5 5 5 5 5 5 5 5 5 5 5 5 5 5 5 5 5 5 5 5 5 5 5 5 5 5 5 5 5 5 5 5 5 5 5 5 5 5 5 5 5 5 5 5 5 5 5 5 5 5 5 5 5 5 5 5 % 5 5 5 5 5 5 5 5 5 5 5 5 5 5 5 5 5 5 5 5 5 5 5 5 5 5 5 5 5 5 5 5 5 5 5 5 5 5 5 5 5 5 5 5 5 5 5 5 5 5 5 5 5 5 5 5 5 5 5 5 5 5 5 5 5 5 5 5 5 5 5 5 5 5 5 5 5 5 5 5 5 5 5 5 5 5 5 5 5 5 5 5 5 5 5 5 5 5 5 5 5 5 5 5 5 5 5 5 5 5 5 5 5 5 5 5 5 5 5 5 5 5 5 5 5 5 5 5 5 5 5 5 5 5 5 5 5 5 5 5 ",
"5 5 5 5 5 5 5 5 5 5 5 5 5 5 5 5 5 5 5 5 5 % 5 5 5 5 5 5 5 5 5 5 5 5 5 5 5 5 5 5 5 5 5 5 5 5 5 5 5 5 5 5 5 5 5 5 5 5 5 5 5 5 5 5 5 5 5 5 5 5 5 5 5 5 5 5 5 5 5 5 5 5 5 5 5 5 5 5 5 5 5 5 5 5 5 5 5 5 5 5 5 5 5 5 5 5 5 5 5 5 5 5 5 5 5 5 5 5 5 5 5 5 5 5 5 5 5 5 5 5 5 5 5 5 5 5 5 5 5 5 5 5 5 5 5 5 5 5 5 5 5 5 5 5 5 5 5 5 % 5 5 5 5 5 5 5 5 5 5 5 5 5 5 5 5 5 5 5 5 5 5 5 5 5 5 5 5 5 5 5 5 5 5 5 5 5 5 5 5 5 5 5 5 5 5 5 5 5 5 5 5 5 5 5 5 5 5 % 5 5 5 5 5 5 5 5 5 5 5 5 5 5 5 5 5 5 5 5 5 5 5 5 5 5 5 5 5 5 5 5 5 5 5 5 5 5 5 5 5 5 5 5 5 5 5 5 5 5 5 5 5 5 5 5 5 5 5 5 5 5 5 5 5 5 5 5 5 5 5 5 5 5 5 5 5 5 5 5 5 5 5 5 5 5 5 5 5 5 5 5 5 5 5 5 5 5 5 5 5 5 ",
"5 5 5 5 5 5 5 5 5 5 5 5 5 5 5 5 5 5 5 5 5 5 5 5 5 5 5 5 5 5 5 5 5 5 5 5 5 5 5 5 5 % 5 5 5 5 5 5 5 5 5 5 5 5 5 5 5 5 5 5 5 5 5 5 5 5 5 5 5 5 5 5 5 5 5 5 5 5 5 5 5 5 5 5 5 5 5 5 5 5 5 5 5 5 5 5 5 5 5 5 5 5 5 5 5 5 5 5 5 5 5 5 5 5 5 5 5 5 5 5 5 5 5 5 5 5 5 5 5 5 5 5 5 5 5 5 5 5 5 5 5 5 5 5 5 5 5 5 5 5 5 5 5 5 5 5 5 5 5 5 5 5 5 5 5 5 5 5 5 5 5 5 5 5 5 5 5 5 5 5 5 5 5 5 5 5 5 5 5 5 5 5 5 5 5 5 5 5 5 5 5 5 5 5 5 5 5 5 5 5 5 5 5 5 5 5 5 5 5 5 5 5 5 5 5 5 5 5 5 5 5 5 5 5 5 5 5 5 5 5 5 5 5 5 5 5 5 5 5 5 5 5 5 5 5 5 5 5 5 5 5 5 5 5 5 5 5 5 5 5 5 5 5 5 5 5 5 5 5 5 5 5 5 5 5 5 5 5 5 5 5 5 5 5 5 5 5 5 5 5 5 5 5 5 5 5 5 5 5 5 5 5 5 5 5 5 5 5 5 5 ",
"5 5 5 5 5 5 5 5 5 5 5 5 5 5 O 5 5 5 5 5 5 5 5 5 5 6 5 5 5 5 5 5 5 5 5 5 5 5 5 5 5 5 5 5 5 5 5 5 5 5 5 5 5 5 5 5 5 5 5 5 % 5 5 5 5 5 5 5 5 5 5 5 5 5 5 5 5 5 5 5 5 5 5 5 5 5 5 5 5 5 5 5 5 5 5 5 5 5 5 5 5 5 5 5 5 5 5 5 5 5 5 5 5 5 5 5 5 5 5 5 5 5 5 5 5 5 5 5 5 5 5 5 5 5 5 5 5 5 5 5 5 5 5 5 5 5 5 5 5 5 5 5 5 5 5 5 5 5 5 5 5 5 5 5 5 5 5 5 5 5 5 5 5 5 5 5 5 5 5 5 5 5 5 5 5 5 5 5 5 5 5 5 5 5 5 5 5 5 5 5 5 5 5 5 5 5 5 5 5 5 5 5 5 5 5 5 5 5 5 5 5 5 5 5 5 5 5 5 5 5 5 5 5 5 5 5 5 5 5 5 5 5 5 5 5 5 5 5 5 5 5 5 5 5 5 5 5 5 5 5 5 5 5 5 5 5 5 5 5 5 5 5 5 5 5 5 5 5 5 5 5 5 5 5 5 5 5 5 5 5 5 5 5 5 5 5 5 5 5 5 5 5 5 5 5 5 5 5 5 5 5 5 5 5 5 5 5 5 5 5 ",
"5 5 5 5 5 5 5 5 5 5 5 5 5 5 5 5 5 5 5 5 5 5 5 5 5 5 5 5 5 5 5 5 5 5 5 5 5 1 5 5 5 5 5 5 5 5 5 5 5 5 5 5 5 5 5 5 5 5 5 5 5 5 5 5 5 5 5 5 5 5 5 5 5 5 5 5 5 5 5 5 5 5 5 5 5 5 5 5 5 5 5 5 5 5 5 5 5 5 5 5 5 5 5 5 5 5 5 5 5 5 5 5 5 5 5 5 5 5 5 5 5 5 5 5 5 5 5 5 5 5 5 5 5 5 5 5 5 5 5 5 5 5 5 5 5 5 5 5 5 5 5 5 5 5 5 5 5 5 5 5 5 5 5 5 5 5 5 5 5 5 5 5 5 5 5 5 5 5 5 5 5 5 5 5 5 5 5 5 5 5 5 5 5 5 5 5 5 5 5 5 5 5 5 5 5 5 5 5 5 5 5 5 5 5 5 5 5 5 5 5 5 5 5 5 5 5 5 5 5 5 5 5 5 5 5 5 5 5 5 5 5 5 5 5 5 5 5 5 5 5 5 5 5 5 5 5 5 5 5 5 5 5 5 5 5 5 5 5 5 5 5 5 5 5 5 5 5 5 5 5 5 5 5 5 5 5 5 5 5 5 5 5 5 5 5 5 5 5 5 5 5 5 5 5 5 5 5 5 5 5 5 5 5 5 5 5 5 5 5 5 ",
"5 5 5 5 5 5 5 5 5 5 5 5 5 5 5 5 5 5 5 5 5 5 5 5 5 5 5 5 5 5 5 5 5 5 5 5 5 5 5 5 5 5 5 5 5 5 5 5 5 5 5 5 5 5 5 5 5 5 5 5 5 5 5 5 5 5 5 5 5 5 5 5 5 5 5 5 5 5 5 5 5 5 5 5 5 5 5 5 5 5 5 5 5 5 5 5 5 5 5 5 5 5 5 5 5 5 5 5 5 5 5 5 5 5 5 5 5 5 5 5 5 5 5 5 5 5 5 5 5 5 5 5 5 5 5 5 5 5 5 5 5 5 5 5 5 5 5 5 5 5 5 5 5 5 5 5 5 5 5 5 5 5 5 5 5 5 5 5 5 5 5 5 5 5 5 5 5 5 5 5 5 5 5 5 5 5 5 5 5 5 5 5 5 5 5 5 5 5 5 5 5 5 5 5 5 5 5 5 5 5 5 5 5 5 5 5 5 5 5 5 5 5 5 5 5 5 5 5 5 5 5 5 5 5 5 5 5 5 5 5 5 5 5 5 5 5 5 5 5 5 5 5 5 5 5 5 1 5 5 5 5 5 5 5 5 5 5 5 5 5 5 5 5 5 5 5 5 5 5 5 5 5 5 5 5 5 5 5 5 5 5 5 5 5 5 5 5 5 5 5 5 5 5 5 5 5 5 5 5 5 5 5 5 5 5 5 5 5 5 5 ",
"5 5 5 5 5 5 5 5 5 5 5 5 5 5 5 5 5 5 5 5 5 5 5 5 5 5 5 5 5 5 5 5 5 5 5 5 5 5 % 5 5 5 5 5 5 5 5 5 5 5 5 5 5 5 5 5 5 5 5 5 5 5 5 5 5 5 5 5 5 5 5 5 5 5 5 5 5 5 5 5 5 5 5 5 5 5 5 5 5 5 5 5 5 5 5 5 5 5 5 5 % 5 5 5 5 5 5 5 5 5 5 5 5 5 5 5 5 5 5 5 5 5 5 5 5 5 5 5 5 5 5 5 5 5 5 5 5 5 5 5 5 5 5 5 5 5 5 5 5 5 5 5 5 5 5 5 5 5 5 5 5 5 5 5 5 5 5 5 5 5 5 5 5 5 5 5 5 5 5 5 5 5 5 5 5 % 5 5 5 5 5 5 5 5 5 5 5 5 5 5 5 5 5 5 5 5 5 5 5 5 5 5 5 5 5 5 5 5 5 5 5 5 5 5 5 5 5 5 5 5 5 5 5 5 5 5 5 5 5 5 5 5 5 5 5 5 5 5 5 5 5 5 5 5 5 5 5 5 5 5 5 5 5 5 5 5 5 5 5 5 5 % 5 5 5 5 5 5 5 5 5 5 5 5 5 5 5 5 5 5 5 5 5 5 5 5 5 5 5 5 5 5 5 5 5 5 5 5 5 5 5 5 5 5 5 % 5 5 5 5 ",
"5 5 5 5 5 5 5 5 5 5 5 5 5 5 5 5 5 5 5 5 5 5 5 5 5 5 5 5 5 5 5 5 5 5 5 5 5 5 5 5 5 5 5 5 5 5 5 5 5 % 5 5 5 5 5 5 5 5 5 5 5 5 5 5 5 5 5 5 5 5 5 5 5 5 5 5 5 2 5 5 5 5 5 5 5 5 5 5 5 5 5 5 5 5 5 5 5 5 5 5 5 5 5 5 5 5 5 5 5 5 5 5 5 5 5 5 5 5 5 5 5 5 5 5 5 5 5 5 5 5 5 5 5 5 5 5 5 5 5 5 5 5 5 5 5 5 5 5 5 5 5 5 5 5 5 5 5 5 5 5 5 5 5 5 5 5 5 5 5 5 5 5 5 5 5 5 5 5 5 5 5 5 5 5 5 5 5 5 5 5 5 5 5 5 5 5 5 5 5 5 5 5 5 5 5 5 5 5 5 5 5 5 5 5 5 5 5 5 2 % 5 5 5 5 5 5 5 5 5 5 5 5 5 5 5 5 5 5 5 5 5 5 5 5 5 5 5 5 5 5 5 5 5 5 5 5 5 1 5 5 5 5 5 5 5 5 5 5 5 5 5 5 5 5 5 5 5 5 5 5 5 5 5 5 5 5 5 5 5 5 5 5 5 5 5 5 5 5 5 5 5 5 5 5 5 5 5 5 5 5 5 5 5 5 5 5 5 5 5 5 ",
"5 5 5 5 5 5 5 5 5 5 5 5 5 5 5 5 5 5 5 5 5 5 5 5 5 5 5 5 5 5 5 5 5 5 5 5 5 5 5 5 5 5 5 2 5 5 5 5 5 5 5 5 5 5 5 5 5 5 5 5 5 5 5 5 5 5 5 5 5 5 5 % 5 5 5 5 5 5 5 5 5 5 5 5 5 5 5 5 5 5 5 5 5 5 5 5 5 5 5 5 5 5 5 5 5 5 5 5 5 5 5 1 5 5 5 5 5 5 5 5 5 5 5 5 5 5 5 5 5 5 5 5 5 5 5 5 5 5 5 5 5 5 5 5 5 5 5 5 5 5 5 5 5 5 5 5 5 5 5 5 5 5 5 5 5 5 5 5 5 5 5 5 5 5 5 5 5 5 5 5 5 5 5 5 5 5 5 5 5 5 5 5 5 5 5 5 5 5 5 5 5 5 5 5 5 5 5 5 5 5 5 5 5 5 5 5 5 5 5 5 5 5 5 5 5 5 5 5 5 5 5 5 5 5 5 5 5 5 5 5 5 5 5 5 5 5 5 5 5 5 1 5 5 5 5 5 5 5 5 5 5 5 5 5 5 5 5 5 5 5 5 5 5 5 5 5 5 5 5 5 5 5 5 5 5 5 5 5 5 5 5 5 5 5 5 5 5 5 5 5 5 5 5 5 5 5 5 5 5 5 5 5 5 5 5 5 5 5 5 5 ",
"5 5 5 5 5 5 5 5 5 5 5 1 5 5 5 5 5 5 5 5 5 5 5 5 5 5 5 5 5 5 5 5 5 5 5 5 5 5 5 5 5 5 5 5 5 5 5 5 5 5 5 5 5 5 5 5 5 5 5 5 5 5 5 5 5 5 5 5 5 5 5 5 5 5 5 5 5 5 5 5 5 5 5 5 5 5 5 5 5 5 2 > 5 5 5 5 5 5 5 5 5 5 5 5 5 5 5 5 5 5 5 5 5 5 5 5 5 5 5 5 5 5 5 5 5 5 5 5 5 5 5 5 5 5 5 5 5 5 5 5 5 5 5 5 5 5 5 5 5 5 5 5 5 5 5 5 5 5 5 5 5 5 5 5 5 5 5 5 5 5 5 5 5 5 5 5 5 5 5 5 5 5 5 5 5 5 5 5 2 5 5 5 5 5 5 5 5 5 5 5 5 5 5 5 5 5 5 5 5 5 5 5 5 5 5 5 5 5 5 5 5 5 5 5 5 5 5 5 5 5 5 5 5 5 5 5 5 5 5 5 5 5 5 5 5 5 5 5 5 5 5 5 5 5 5 5 5 5 5 5 5 5 5 5 5 5 5 5 5 5 5 5 5 5 5 5 5 5 5 % 5 5 5 5 5 5 5 5 5 5 5 5 5 5 5 5 5 5 5 5 5 5 5 5 5 5 5 5 5 5 5 5 1 5 5 5 5 5 5 5 ",
"5 5 5 5 5 5 5 5 5 5 5 5 5 5 5 5 5 5 5 5 5 5 5 5 5 5 5 5 5 5 5 5 5 5 5 5 5 5 5 5 5 5 5 5 5 5 5 5 5 5 5 5 5 5 5 5 5 5 5 5 5 5 5 5 5 5 5 5 5 5 5 5 5 5 5 5 5 5 5 5 5 5 5 5 5 5 5 5 5 5 5 5 5 5 5 5 5 5 5 5 5 5 5 5 5 5 5 5 5 5 5 5 5 5 5 5 5 5 5 5 5 5 5 5 5 5 5 5 5 2 5 5 5 5 5 5 5 5 5 5 5 5 5 5 5 5 5 5 5 5 5 5 1 5 5 5 5 5 5 5 5 5 5 5 5 5 5 5 5 5 5 5 5 1 5 5 5 5 5 5 5 5 5 5 5 5 5 5 5 5 5 5 5 5 5 5 5 5 5 5 5 5 5 5 5 5 5 5 5 5 5 5 5 5 5 5 5 5 5 5 5 5 5 5 % 5 5 5 5 5 5 5 5 5 5 5 5 5 5 5 5 5 5 5 5 5 5 5 5 5 5 5 5 5 5 5 5 5 5 5 5 5 5 5 5 5 5 5 5 5 5 5 5 5 5 5 5 5 5 5 5 5 5 5 5 5 5 5 5 5 5 5 5 5 5 5 5 5 5 5 5 5 5 5 5 5 5 5 5 5 5 5 5 5 5 5 5 5 5 5 ",
"5 5 5 5 5 5 5 5 5 5 5 5 5 5 5 5 5 5 5 5 5 5 5 5 5 5 5 5 5 5 5 5 5 5 5 5 5 5 5 5 5 5 5 5 5 5 5 5 5 5 5 5 5 5 5 5 5 5 5 5 5 5 5 5 5 5 5 5 5 5 5 5 5 5 5 5 5 5 5 5 5 5 5 5 5 5 5 5 5 5 5 5 5 5 5 5 5 5 5 5 5 5 5 5 5 5 5 5 5 5 5 5 5 5 5 5 5 5 5 5 5 5 5 5 5 5 5 5 5 5 5 5 5 5 5 5 5 5 5 5 5 5 5 5 5 5 5 5 5 5 5 5 5 5 5 5 5 5 5 5 5 5 5 5 5 5 5 5 5 5 5 5 5 5 5 5 5 5 5 % 5 5 5 5 5 5 5 5 5 5 5 5 5 5 5 5 5 5 5 5 5 5 5 5 5 5 5 5 5 5 5 5 5 5 5 5 5 5 5 5 5 5 5 5 5 5 5 5 5 5 5 5 5 5 5 5 5 5 5 5 5 5 5 5 5 5 5 5 5 5 5 5 5 5 5 > 5 5 5 5 5 5 5 5 5 5 5 5 5 5 5 5 5 5 5 5 5 5 5 5 5 5 5 5 5 5 5 5 5 5 5 5 5 5 5 5 5 5 5 5 5 5 5 5 5 5 5 5 5 5 5 5 5 5 5 5 5 5 5 5 ",
"5 5 5 5 5 5 5 5 5 5 5 5 5 % 5 5 5 5 5 5 5 5 5 5 5 5 5 5 5 5 5 5 5 5 5 5 5 5 5 5 5 5 5 5 5 5 5 5 5 5 5 5 5 5 5 5 5 5 5 5 5 5 5 5 5 5 5 5 5 5 5 5 5 5 5 5 5 5 5 5 5 5 5 5 5 5 5 5 5 5 5 5 5 5 5 5 5 5 5 5 5 5 5 5 5 5 5 5 5 5 5 5 5 5 5 5 5 5 5 5 5 5 5 5 5 5 5 % 5 5 5 % 5 5 5 5 5 5 5 5 5 5 5 5 5 5 5 5 5 5 5 5 5 5 5 5 5 5 5 5 5 5 5 1 5 5 5 5 5 5 5 5 5 5 5 5 5 5 5 5 5 5 5 5 5 5 5 5 5 5 5 5 5 5 5 5 5 5 5 5 5 5 5 5 5 5 5 1 5 5 5 5 5 5 5 5 5 5 5 5 5 5 5 5 5 5 5 5 5 5 5 5 5 5 5 5 5 5 5 5 5 5 5 5 5 5 5 5 5 5 5 5 5 5 5 5 5 5 5 5 5 5 5 5 5 5 5 5 5 5 5 5 5 5 5 5 5 5 5 5 5 5 5 5 5 5 5 5 5 5 5 5 5 5 5 5 5 5 5 5 5 5 5 % 5 5 5 5 5 5 5 5 5 5 5 5 5 5 5 5 ",
"5 5 5 5 5 5 5 5 5 5 5 5 5 5 5 5 5 5 5 5 5 5 5 5 5 5 O 5 5 5 5 5 5 5 5 5 5 5 5 5 5 5 5 5 5 5 5 5 5 5 5 5 5 5 5 5 5 5 5 5 5 5 5 5 5 5 5 5 5 5 5 5 5 5 5 5 5 5 5 5 5 5 5 5 5 5 5 5 5 5 1 5 5 5 5 5 5 5 5 5 5 5 5 5 5 5 5 5 5 5 5 5 5 5 5 5 5 5 5 5 5 5 5 5 5 5 5 5 5 5 5 5 5 5 5 5 5 5 5 5 5 5 5 5 5 5 5 5 5 5 5 5 5 5 5 5 5 5 5 5 5 5 5 5 5 5 5 5 5 5 5 5 5 5 5 5 5 5 5 5 5 5 5 5 5 5 5 5 5 5 5 5 5 5 5 5 5 5 5 5 5 5 5 5 5 5 5 5 5 5 5 5 5 5 5 5 5 5 5 5 5 5 5 5 5 5 5 5 5 5 5 5 5 5 5 5 5 5 5 5 5 5 5 5 5 5 5 5 5 5 5 5 5 5 5 5 5 5 5 5 5 5 5 5 5 5 5 5 5 5 5 5 5 5 5 5 5 5 5 5 5 1 5 5 5 5 5 5 5 5 5 5 5 5 5 5 5 5 5 2 5 5 5 5 5 5 5 5 5 5 5 5 5 5 5 5 5 5 5 5 ",
"5 5 5 5 5 5 5 5 5 5 5 5 5 5 5 5 5 5 5 5 5 5 5 5 5 5 5 5 5 5 5 5 5 5 5 5 5 5 5 5 5 5 5 5 5 5 5 5 5 5 5 5 5 5 5 5 5 5 5 5 5 1 5 5 5 5 5 5 5 5 5 5 5 5 5 5 5 5 5 5 5 5 5 5 5 5 5 5 5 5 5 5 5 5 5 5 5 5 5 5 5 5 5 5 5 5 5 5 5 5 5 5 5 5 5 5 5 5 5 5 5 5 5 1 5 5 5 5 5 5 5 5 5 5 5 5 5 5 5 5 5 5 5 5 5 5 1 5 5 5 5 5 5 5 5 5 5 5 5 5 5 5 5 5 5 5 5 5 5 5 5 5 5 5 5 5 5 5 5 5 5 5 5 5 5 5 5 5 5 5 5 5 5 5 5 5 5 5 5 5 5 5 5 5 5 5 5 5 5 5 5 5 5 5 5 5 5 5 5 5 5 5 5 5 5 5 5 5 5 5 5 5 5 5 5 1 5 5 5 5 5 5 5 5 5 5 5 5 5 5 5 5 5 5 5 5 5 5 5 5 5 5 5 5 5 5 5 5 5 5 5 5 5 5 5 5 5 5 5 5 5 5 5 5 5 5 5 5 5 5 5 5 5 5 5 5 5 5 5 5 5 5 5 5 5 5 5 5 5 5 5 5 5 5 5 5 5 5 5 5 ",
"5 5 5 5 5 5 5 5 5 5 5 5 5 5 5 5 5 5 5 5 5 5 5 5 5 5 5 5 5 5 5 5 5 5 5 5 5 5 5 5 5 5 5 5 5 5 5 5 5 5 5 5 5 5 5 5 5 5 5 5 5 5 5 5 5 5 5 5 5 5 5 5 5 5 5 5 5 5 5 5 5 5 5 5 5 5 5 5 5 5 5 5 5 5 5 5 5 5 5 5 5 5 5 5 5 5 5 5 5 5 5 5 5 5 5 5 5 5 5 5 5 5 5 5 5 5 5 5 5 5 5 5 5 5 5 5 5 5 5 5 5 5 5 5 5 5 5 5 5 5 5 5 5 5 5 5 5 5 5 5 5 5 5 5 5 5 % 5 5 5 5 5 5 5 5 5 5 5 5 5 5 5 5 5 5 5 5 5 5 5 5 5 5 5 5 5 5 5 5 5 5 5 5 5 5 5 5 5 5 5 5 5 5 5 5 5 5 5 5 5 5 5 5 5 5 5 5 5 5 5 5 5 5 5 5 5 5 5 5 5 5 5 5 5 5 5 5 5 5 5 5 5 5 5 5 5 5 5 5 5 5 5 5 5 5 5 5 5 5 5 5 5 5 5 5 5 5 5 5 5 5 5 5 5 5 5 5 5 5 5 5 5 5 5 5 5 5 5 5 5 5 5 5 5 5 2 5 5 5 5 5 5 5 5 5 5 5 5 5 5 ",
"5 5 5 5 5 5 5 5 5 5 5 5 5 5 5 5 5 5 5 5 5 O 5 5 5 5 5 5 5 5 5 5 5 5 5 5 5 5 5 5 5 5 5 5 5 5 5 5 5 2 5 5 5 5 5 5 5 5 5 5 5 5 5 5 2 5 5 5 5 5 5 5 5 5 5 5 5 5 5 5 5 5 5 5 5 5 5 5 5 5 5 5 5 5 5 5 5 5 5 5 5 5 5 5 5 5 5 5 5 5 5 5 5 5 5 5 5 5 5 5 5 5 5 5 5 5 5 5 5 5 5 5 5 5 5 5 5 5 5 5 5 5 5 5 5 5 5 5 5 5 5 5 5 5 5 5 5 5 5 5 5 5 5 5 5 5 5 5 5 5 5 5 5 5 5 5 5 5 5 5 5 5 5 5 5 5 5 5 5 5 5 5 5 5 5 5 5 5 5 5 5 5 5 5 5 5 5 5 5 5 5 5 5 5 5 5 5 5 5 5 5 5 5 5 5 5 5 5 5 5 5 5 5 5 5 5 5 5 5 5 5 5 5 5 5 5 5 5 5 5 5 5 5 5 5 1 5 5 5 5 5 5 5 5 5 5 5 5 5 5 1 5 5 5 5 5 5 5 5 5 5 5 5 5 5 5 5 5 5 5 5 5 5 1 5 5 5 5 5 5 5 5 5 5 5 % 5 5 5 5 5 5 5 5 5 5 5 5 5 5 ",
"5 5 5 5 5 5 5 5 5 5 5 5 5 5 5 5 5 5 5 5 5 5 5 5 5 5 5 5 5 5 5 5 5 5 5 5 5 5 5 5 5 5 5 5 5 5 5 5 5 5 5 5 5 5 5 5 5 5 5 5 5 5 5 5 5 5 5 5 5 5 5 5 5 5 5 5 % 5 5 5 5 5 5 5 5 5 5 5 5 5 5 5 5 5 5 5 5 5 5 5 5 5 5 5 5 5 5 5 5 5 5 5 1 5 5 5 5 5 5 5 5 5 5 5 5 5 5 5 5 5 5 5 5 5 5 5 5 5 5 5 5 5 5 5 5 5 5 5 5 5 5 5 5 5 5 5 5 5 5 5 5 5 5 5 5 5 5 5 5 5 5 5 5 5 5 5 5 5 5 5 5 5 5 5 5 5 5 5 5 5 5 5 5 5 5 5 5 5 5 5 5 5 5 5 5 5 5 5 5 5 5 5 5 5 5 5 5 5 5 5 5 5 5 5 2 5 5 5 5 5 5 5 5 5 5 5 5 5 5 5 5 5 5 5 5 5 5 5 5 5 5 5 5 5 5 5 5 5 5 5 5 5 5 5 5 5 5 5 5 5 5 5 5 5 5 5 5 5 5 5 5 5 5 5 5 5 5 5 5 5 5 5 5 5 5 5 5 5 5 5 5 5 5 5 5 5 5 5 5 5 5 5 5 5 5 5 5 5 5 5 ",
"5 5 5 5 5 5 5 5 5 5 5 5 5 5 5 5 5 5 5 5 5 5 5 5 5 5 5 5 5 5 5 5 5 5 5 5 5 5 5 5 5 1 5 5 5 5 5 5 5 5 5 5 5 5 5 5 5 5 5 5 5 5 5 5 5 5 5 5 5 5 5 5 5 5 5 5 5 5 5 5 5 5 5 5 5 5 5 5 5 5 5 5 5 5 5 5 5 1 5 5 5 5 5 5 5 5 5 5 5 5 5 5 5 % 5 5 5 5 5 5 5 5 5 5 5 5 5 5 5 5 5 5 5 5 5 5 5 % 5 5 5 5 5 5 5 5 5 5 5 5 5 5 5 5 5 5 5 5 5 5 5 5 5 5 5 5 5 5 5 5 5 5 5 5 5 5 5 5 5 1 5 5 5 5 5 5 5 5 5 5 5 5 5 5 5 5 5 5 5 5 5 5 5 5 5 5 5 5 5 5 5 5 5 5 5 5 5 5 5 5 5 5 5 % 5 5 5 5 5 5 5 5 5 5 5 5 5 5 5 5 5 5 5 5 5 5 5 5 5 5 5 5 5 5 5 5 5 5 5 5 5 5 5 5 5 5 5 5 5 5 5 5 5 5 5 5 5 5 5 5 5 5 5 5 5 5 5 5 5 5 5 5 5 5 5 5 5 5 5 5 5 5 5 5 5 5 5 5 5 5 5 5 5 5 5 5 5 5 5 5 ",
"5 5 O 5 5 5 5 5 5 5 5 5 5 5 5 5 5 5 5 5 5 5 5 5 5 5 5 5 5 5 5 5 5 5 5 5 5 5 5 5 5 5 5 5 5 5 5 5 5 5 5 5 5 5 5 5 5 5 5 5 5 5 5 5 5 5 5 5 5 5 5 5 5 5 5 5 5 5 5 5 5 5 5 5 5 5 5 5 5 5 5 5 5 > 5 5 5 5 5 5 5 5 5 5 5 5 5 5 5 5 5 5 5 5 5 5 5 5 5 5 5 5 5 5 5 5 5 5 5 5 5 5 5 5 5 5 5 5 5 5 5 5 5 5 5 5 5 5 5 5 5 5 5 5 5 5 5 5 5 5 5 5 5 5 5 5 5 5 5 5 5 5 5 5 5 5 5 5 5 5 5 5 5 5 5 5 5 5 5 5 5 5 5 5 5 5 5 5 5 5 5 5 5 5 5 5 % 5 5 5 5 5 5 5 5 5 1 5 5 5 5 5 5 5 5 5 5 5 5 5 5 5 5 5 5 5 5 5 5 5 5 5 5 5 5 5 5 5 5 5 5 5 5 5 5 5 5 5 5 5 5 5 % 5 5 5 5 5 5 5 5 5 5 5 5 5 5 5 5 5 5 5 5 5 5 5 5 5 5 5 5 5 5 5 5 5 5 5 5 5 5 5 5 5 5 5 5 5 5 5 5 5 5 5 5 5 5 5 5 5 ",
"5 5 5 5 5 5 5 5 5 5 5 5 5 5 5 5 5 5 5 5 5 5 5 5 5 5 5 5 5 5 5 5 5 5 5 5 5 5 5 5 5 5 5 5 5 % 5 5 5 5 5 5 5 5 5 5 5 5 5 5 5 5 5 5 5 5 5 5 5 5 5 5 5 5 5 5 5 5 5 5 5 5 5 5 5 5 1 5 5 5 5 5 5 5 5 5 5 5 5 5 5 5 5 5 5 5 5 5 5 5 5 5 5 5 5 5 5 5 5 5 5 5 5 5 5 5 5 5 5 5 5 5 5 5 5 5 5 5 5 5 5 5 5 5 5 5 5 5 5 5 5 5 5 5 5 5 5 5 5 5 5 5 5 5 5 5 5 5 5 5 5 5 5 5 5 5 5 5 5 5 5 5 5 5 5 5 5 5 5 5 5 5 5 5 5 5 5 5 5 5 5 5 5 5 5 5 5 5 5 5 5 5 5 5 5 5 5 5 5 5 5 5 5 5 5 5 5 5 5 5 5 5 5 5 5 5 5 5 5 5 5 5 5 % 5 5 5 5 5 5 5 5 5 5 5 5 5 5 5 5 5 5 5 5 5 5 5 5 5 5 5 5 5 5 5 5 5 5 5 5 5 5 5 5 5 5 5 5 5 5 5 5 5 % 5 5 5 5 5 5 5 5 5 5 5 5 5 5 5 5 5 5 5 5 5 5 5 5 5 5 ",
"5 5 5 5 5 5 5 5 5 5 5 5 5 5 5 5 5 5 5 5 5 5 5 5 5 5 5 5 5 5 5 5 5 5 5 5 5 5 5 5 5 5 5 5 5 5 5 5 5 5 5 5 5 5 5 5 5 5 5 5 5 5 5 5 5 5 % 5 5 5 5 5 5 5 5 5 5 5 5 5 5 5 5 5 5 5 5 5 5 5 5 5 5 5 5 5 5 5 5 5 5 5 5 5 5 5 5 5 5 5 5 5 5 5 5 5 5 5 5 5 5 5 5 5 5 5 5 5 5 5 5 5 5 5 5 5 5 5 5 5 5 1 5 5 5 5 5 % 5 5 5 5 5 5 5 5 5 5 5 5 5 5 5 5 5 5 5 5 5 5 5 5 5 5 5 5 5 5 5 5 5 5 5 5 5 5 5 5 5 5 5 5 1 5 5 5 5 5 5 5 5 5 5 5 5 5 5 5 5 5 5 5 5 5 5 5 5 5 5 5 5 5 5 5 5 5 5 5 5 5 5 5 5 5 5 5 5 5 5 5 5 5 5 5 5 5 5 5 5 5 5 5 5 5 5 5 5 5 5 5 5 5 5 5 5 5 5 5 5 5 5 5 5 5 5 5 5 5 5 5 5 5 5 5 5 5 5 5 5 5 5 5 5 5 5 5 5 5 5 5 5 5 5 5 5 5 5 5 5 5 5 5 5 5 5 5 5 5 5 5 ",
"5 5 5 5 5 5 5 5 5 5 5 5 5 5 5 5 5 5 5 5 5 5 5 5 5 5 5 5 5 5 5 5 5 5 5 5 5 5 5 5 5 5 5 5 5 5 5 5 5 5 5 5 5 5 5 5 5 5 5 5 5 5 5 5 5 5 5 5 5 5 5 5 5 5 5 5 5 5 5 5 5 5 5 5 5 5 5 5 5 5 5 5 5 5 5 5 5 5 5 5 5 5 5 5 5 5 5 5 5 5 5 5 5 5 5 5 5 5 5 5 5 5 5 5 5 5 5 5 5 5 5 5 5 5 5 5 5 5 5 5 5 5 5 5 5 5 5 5 5 5 5 5 5 5 5 5 5 5 5 5 5 5 5 5 5 5 5 5 5 5 5 5 5 5 % 5 5 5 5 5 5 5 5 5 5 5 5 5 5 5 5 5 5 5 5 5 5 5 5 5 5 5 5 5 5 5 5 5 5 5 5 5 5 5 5 5 5 5 5 5 5 5 5 5 5 5 5 5 5 5 5 5 5 5 5 5 5 5 5 5 5 5 5 5 5 5 5 5 5 5 5 5 5 5 5 5 5 5 5 5 5 5 5 5 5 5 5 5 5 5 5 5 5 5 5 5 5 5 5 5 5 5 5 5 5 5 5 5 5 5 5 5 5 5 5 5 5 5 5 5 5 5 5 5 5 5 5 5 % 5 5 5 5 5 5 5 5 5 5 5 ",
"5 5 5 5 5 5 5 5 5 5 5 5 5 5 5 5 5 5 5 5 5 5 5 5 5 5 5 5 5 5 5 5 5 5 5 5 5 5 5 5 5 5 5 5 5 5 5 5 5 5 5 5 5 5 5 5 5 5 5 5 5 5 5 5 5 5 5 5 5 5 5 5 5 5 5 5 5 5 5 5 5 5 1 5 5 5 5 5 5 5 5 5 5 5 5 5 5 5 5 5 5 5 5 5 5 5 5 5 5 5 5 5 5 5 5 5 5 5 5 5 5 5 5 5 5 5 5 5 5 5 5 5 5 5 5 5 5 5 5 5 5 5 5 5 5 5 5 5 5 5 5 5 5 5 5 5 5 5 5 5 5 5 5 5 5 5 5 5 5 5 5 5 5 5 5 5 5 5 5 5 5 5 5 5 5 5 5 5 5 5 5 5 5 5 5 5 5 5 5 5 5 5 5 5 5 5 5 5 5 5 5 5 5 5 5 5 5 5 5 5 5 5 5 5 5 5 5 5 5 5 5 % 5 5 5 5 5 5 5 5 5 5 5 5 5 5 5 5 5 5 5 5 5 5 5 5 5 5 5 5 5 5 5 5 5 5 5 5 5 5 5 5 5 5 5 5 5 5 5 5 5 5 5 5 5 5 5 5 5 5 5 5 5 5 5 5 5 5 5 5 5 % 5 5 5 5 5 5 5 5 5 5 5 5 5 5 5 5 5 5 ",
"5 5 5 5 5 5 5 5 5 5 5 5 5 5 5 5 5 5 5 5 5 5 5 5 5 5 5 5 5 5 5 5 5 5 1 5 5 5 5 5 5 5 5 5 5 5 5 5 5 5 5 5 5 5 5 5 5 5 5 5 5 5 5 5 5 5 5 2 5 5 5 5 5 5 5 5 5 5 5 5 5 5 5 5 5 5 5 5 5 5 5 5 5 5 5 5 5 5 5 5 5 5 5 5 5 5 5 5 5 5 5 5 5 5 5 5 5 5 5 5 5 5 5 5 5 5 5 5 5 5 5 5 5 5 5 5 5 5 5 5 5 5 5 5 5 5 5 5 5 5 5 5 5 5 5 5 5 5 5 5 5 5 5 5 5 5 5 5 5 5 5 5 5 5 5 5 5 5 5 5 5 5 5 5 5 5 5 5 5 5 5 5 5 5 5 5 5 5 5 5 5 5 5 5 % 5 5 5 5 5 5 5 5 5 5 5 5 5 5 5 5 5 5 5 5 5 5 5 5 5 5 5 5 5 5 5 5 5 5 5 5 5 5 5 5 5 5 5 5 5 5 5 % 5 5 5 5 5 5 5 1 5 5 5 5 5 5 5 5 5 5 5 5 5 5 5 5 5 5 5 5 5 5 5 5 5 5 5 5 5 5 5 5 5 5 5 5 5 5 5 5 5 5 5 5 5 5 5 5 5 5 5 5 1 5 5 5 5 5 5 ",
"5 5 5 5 5 5 5 5 5 5 5 5 5 5 5 5 5 5 5 5 5 5 5 5 5 5 5 5 5 5 5 5 5 5 5 5 5 5 5 5 5 5 5 5 5 5 5 5 5 5 5 5 5 5 5 5 5 5 5 5 5 5 5 5 5 5 5 5 5 5 5 5 5 5 5 5 5 5 5 5 5 5 5 5 5 5 5 5 5 5 5 5 5 5 5 5 5 5 5 5 5 5 5 5 5 5 5 5 5 5 5 5 5 5 5 5 5 5 5 5 5 5 5 5 5 5 5 5 5 5 5 5 5 5 5 5 5 5 5 5 5 5 5 5 5 5 5 5 5 5 5 5 5 5 5 5 5 5 5 5 5 5 5 5 5 5 5 5 5 5 5 5 5 5 5 5 5 5 5 5 1 5 5 5 5 5 5 5 5 5 5 5 5 5 5 5 5 5 5 5 5 5 5 5 5 5 5 5 5 5 5 5 5 5 5 5 5 5 5 5 5 5 5 5 5 5 5 5 5 5 5 5 5 5 5 5 5 5 5 5 5 5 5 5 5 5 5 5 5 5 1 5 5 5 5 5 5 5 5 5 5 5 5 5 5 5 5 5 5 5 5 5 5 5 5 5 5 5 5 % 5 5 5 5 5 5 5 5 5 5 5 5 5 5 5 5 5 5 5 5 5 5 5 5 5 5 5 5 5 5 5 5 5 5 5 5 5 5 5 5 ",
"5 5 5 5 5 5 5 5 5 5 5 5 5 5 5 5 5 5 5 5 5 5 5 5 5 5 5 5 5 5 5 5 5 5 5 5 5 5 5 5 5 5 5 5 5 5 5 5 5 5 1 5 5 5 5 5 5 5 5 5 5 % 5 5 5 5 5 5 5 5 5 % 5 5 5 5 5 5 5 5 5 5 5 5 5 5 5 5 5 5 5 5 5 5 5 5 5 5 5 5 5 5 5 5 5 5 5 5 5 5 5 5 5 5 5 5 5 5 5 5 5 5 5 5 5 5 5 5 5 5 5 5 5 5 5 5 5 5 5 5 5 1 5 5 5 5 5 5 5 5 5 5 5 5 5 5 5 5 5 5 5 5 5 1 5 5 5 5 5 5 5 5 5 5 5 5 5 5 5 5 5 5 5 5 5 5 5 5 5 5 5 5 5 5 5 5 5 5 5 5 5 5 5 5 5 5 5 5 5 5 5 5 5 5 5 5 5 5 5 5 5 5 5 5 5 5 5 5 5 5 5 5 5 5 5 5 5 5 5 5 5 5 5 5 5 5 5 5 5 5 5 5 5 5 5 5 5 5 5 5 5 5 5 5 5 5 5 5 5 5 5 5 5 5 5 5 5 5 5 5 5 5 5 5 1 5 5 5 5 5 5 5 5 5 5 5 5 5 5 5 2 5 5 5 5 5 5 5 5 5 5 5 5 5 5 5 5 5 5 5 ",
"5 5 5 5 5 5 5 5 5 5 5 5 5 % 5 5 5 5 5 5 5 5 5 5 5 5 5 5 5 5 5 5 5 5 5 5 5 5 5 5 5 5 5 5 5 5 5 5 5 5 5 5 5 5 5 5 5 5 5 5 5 5 5 5 5 5 5 5 5 5 5 5 5 5 5 5 % 5 5 5 5 5 5 5 5 5 5 5 5 5 5 5 5 5 5 5 5 5 5 5 2 5 5 5 5 % 5 5 5 5 5 5 5 5 5 5 5 5 5 5 5 5 5 5 5 5 5 5 5 5 5 5 5 5 5 5 5 5 5 5 5 5 5 5 5 5 5 5 5 5 % 5 5 5 5 5 5 5 5 5 5 5 5 5 5 5 5 5 5 5 5 5 5 5 5 5 5 5 5 5 5 5 5 5 5 5 5 5 5 5 5 5 5 5 5 5 5 5 5 5 5 5 5 5 5 5 5 5 5 5 5 5 5 5 5 5 5 5 5 5 5 5 5 5 5 5 5 5 5 5 5 5 5 5 5 5 5 5 5 5 5 5 5 5 5 5 5 5 5 5 5 5 5 5 5 5 5 5 5 5 5 5 5 5 5 5 5 5 5 5 5 5 5 5 5 5 5 5 5 5 5 5 5 5 5 5 5 5 5 5 5 5 5 5 5 5 5 5 5 5 5 5 5 5 5 5 5 5 5 5 5 5 5 5 5 5 5 5 5 5 ",
"5 5 5 5 5 5 5 5 5 5 5 5 5 5 5 5 5 5 5 5 5 5 5 5 5 5 5 5 5 5 5 5 5 5 5 5 5 5 5 5 5 5 5 5 5 5 5 5 5 5 5 5 5 5 5 5 5 5 5 5 5 5 5 5 5 5 5 5 5 5 5 5 5 5 5 5 5 5 5 5 5 5 5 5 5 5 5 5 5 5 5 5 5 5 5 5 5 5 5 5 5 5 5 5 5 5 5 5 5 5 5 5 5 5 5 5 5 5 5 5 5 5 5 5 5 5 5 5 5 5 5 5 5 5 5 5 5 5 5 5 5 5 5 5 5 5 5 5 5 5 5 5 5 5 5 5 5 5 5 5 5 5 5 5 5 5 5 5 5 5 5 5 5 5 5 5 5 5 5 5 5 5 5 5 5 5 5 5 5 5 5 5 5 5 5 5 5 5 5 5 5 5 5 5 5 5 5 5 5 5 5 5 5 5 5 5 5 5 5 5 5 5 5 5 5 5 5 5 5 5 5 5 5 5 5 5 5 5 5 5 5 5 5 5 5 5 5 5 5 5 5 5 5 5 5 5 5 5 5 5 5 5 5 5 5 5 5 5 5 5 5 5 5 5 5 5 5 5 5 5 5 5 5 5 5 5 5 5 5 5 5 5 5 5 5 5 5 5 5 5 5 5 5 5 5 5 5 5 5 5 5 5 5 5 5 5 5 5 5 5 ",
"5 5 5 5 5 5 5 5 5 5 5 5 5 5 5 1 5 5 5 5 5 5 5 5 5 5 5 5 5 5 5 5 5 5 5 5 5 5 % 5 5 5 5 5 5 5 5 5 5 5 5 5 5 5 5 5 5 5 5 5 5 5 5 5 5 5 5 5 5 5 5 5 5 5 5 5 5 5 5 5 5 5 5 5 5 5 5 5 5 5 5 5 5 5 5 5 5 5 5 % 5 5 5 5 5 5 5 5 5 5 5 5 5 5 5 1 5 5 5 5 5 5 5 5 5 5 5 5 5 5 5 5 5 5 5 5 5 5 5 5 5 5 5 5 5 5 5 5 5 5 5 5 5 5 5 5 5 5 5 5 5 5 5 5 5 5 5 5 5 5 5 5 5 5 5 5 5 5 5 5 5 5 5 5 5 5 5 5 5 5 5 5 5 5 5 5 5 5 5 5 5 5 5 5 5 5 5 5 1 5 5 5 5 5 5 5 5 5 5 5 5 5 5 5 5 5 5 5 5 5 5 1 5 5 5 5 5 5 5 5 5 5 5 5 5 5 5 5 5 5 5 5 5 5 5 5 5 5 5 5 5 5 5 5 5 5 5 5 5 5 5 5 5 5 5 5 5 5 5 5 5 5 5 5 5 5 5 5 5 5 5 5 5 5 5 5 5 5 5 5 5 5 5 5 5 5 5 5 5 5 5 5 5 5 5 5 5 5 5 5 "
};
