/* XPM */
static char *floor_r00_c00[] = {
"64 64 7 1",
"a	c #242424",
"b	c #545454",
"c	c #4C4C4C",
"d	c #3C3C3C",
"e	c #444444",
"f	c #343434",
"g	c #2C2C2C",
"aaaaaaaaaaaaaaaaaaaaaaaaaaaaaaaaaaaaaaaaaaaaaaaaaaaaaaaaaaaaaaaa",
"aaaaaaaaaaaaaaaaaaaaaaaaaaaaaaaaaaaaaaaaaaaaaaaaaaaaaaaaaaaaaaaa",
"aabccccccccccccccccccccccccccccccccccccccccccccccccccccccccccdaa",
"aacceeeeeeeeeeeeeeeeeeeeeeeeeeeeeeeeeeeeeeeeeeeeeeeeeeeeeeeedfaa",
"aacedddddddddddddddddddddddddddddddddddddddddddddddddddddddddfaa",
"aacedfffffffffffffffffffffffffffdffffffffffgfffffffffffffffedfaa",
"aacedfffdffffffffffffffffffffffffffffffffffffffffffffffffffedfaa",
"aacedffffffffffffffffffffffffffffffffffffffffffffffffffffffedfaa",
"aacedffffffffffffffffffffffffffffffffffffffffffffffffffffffedfaa",
"aacedffffffffgdffffffffffffdfffffffffffffffffffffffffffffffedfaa",
"aacedffffffffddffffffffffffffffffffffffffffffffdfffffffffffedfaa",
"aacedffffffffffffffffffffffffffffffffffffffffffffffffffffffedfaa",
"aacedffffffffffffffffffffffffffffffffffffffffffffffffffffffedfaa",
"aacedffffffffffffffffffffffffffffffffffffffffffffffffffffffedfaa",
"aacedffffffffffffffffffffffffffffffffffffffffffffffffffffffedfaa",
"aacedffffffffffffffffffffffffffffffffffffffffffffffffffffffedfaa",
"aacedffffffffffffffffffffffffffffffffffffffffffffffffffffffedfaa",
"aacedffffffffffffffffffffffffffffffffffffffffffdfffffffffffedfaa",
"aacedffffffffffffffffffffffffffffffffffffffffffgedfffffffffedfaa",
"aacedffffffffffffffffffffffffffffffffffffffffffdeffffffffffedfaa",
"aacedffffffffffffffffffffffffffffffffffffffffffffffffffffffedfaa",
"aacedfffffffffffffffffffffffdffffffffffffffffffffgfffffffffedfaa",
"aacedffffffffffffffffffffffffffffffffffffffffffffffffffffffedfaa",
"aacedffffffffffffffffffffffffffffffffffffffffffffffffffffffedfaa",
"aacedffffffffffffffffffffffffffffffffffffffffffffffffffffffedfaa",
"aacedffffffffffffffffffffffffffffffffffffffffffffffffffffffedfaa",
"aacedgfffffffffffffffffffffffffffffffffffffffffffffffffffffedfaa",
"aaceddfffffffffffffffffffffffffffffffffffffffffffffffffffffedfaa",
"aacedffffffffffffffffffffffffffffffffffffffffffffffffffffffedfaa",
"aacedffffffffffffffffffffffffffffffffffffffffffffffffffffffedfaa",
"aacedffffffffffffffffffffffffffffffffffffffffffffffffffffffedfaa",
"aacedffffffffffffffffffffffffffffffffffffffffffffffffffffffedfaa",
"aacedffffffffffffffffffffffffffffffffffffffffffffffffffffffedfaa",
"aacedffffffffffffffffffffffgdffffffffffffffffdfffffffffffffedfaa",
"aacedffffffffffffffffffffffffffffffffffffffffffffffffffffgfedfaa",
"aacedffffddffffffffffffffdffffffffffffffffffffffffffffffffgedfaa",
"aacedffffdeffffffffffffffffffffffffffffffffffffffffffffffffedfaa",
"aacedffffffffffffffffffffffffffffffffffffffffffffffffffffffedfaa",
"aacedffffffffffffffffffffffffffffffffffffffffffffffffffffffedfaa",
"aacedffffffffffffffffffffffffffffffffffffffffffffffffffffffedfaa",
"aacedffffffffffffffffffffffffffffffffffffffffffffffffffffffedfaa",
"aacedffffffffffffffffffffffffffffffffffffffffffffffffffffffedfaa",
"aacedffffffffffffffffffffffffffffffffffffffffffffffffffffffedfaa",
"aacedffffffffffffffffffffffffffffffffffffffffffffffffffffffedfaa",
"aacedffffffffffffdfffffffffffffffffffffffffffffffffffffffffedfaa",
"aaceddffffffffffffffffffffffffffffffffgdfffffffffffffffffffedfaa",
"aacedfffffffffffffffffffffffffffffffffdefffffffffffffffffffedfaa",
"aacedffffffffffffffffffffffffffffffffffffffffffffffffffffffedfaa",
"aacedffffffffffffffffffffffffffffffffffffffffffffffffffffffedfaa",
"aacedfffffffffffffffffffffffffffffffffffffffffffdffffffffffedfaa",
"aacedffffffffffffffffffffffffffffffffffffffffffffffffffffffedfaa",
"aacedffffffffffffffffffffffffffffffffffffffffffffffffffffffedfaa",
"aacedffffffffffffffffffffffffffffffffffffffffffffffffffffffedfaa",
"aacedffffffffffffffffffffffffffffffffffffffffffffffffffffffedfaa",
"aacedffffffffffffffffffffffffffffffffffffffffffffffffffffffedfaa",
"aacedffffffffffffffffffffffffffffffffffffffffffffffffffffffedfaa",
"aacedffffffffffffffffffffffffffffgfffffffffffffffffffffffffedfaa",
"aacedfffffffgfffffffffffffffffgfdffffffffffffffffffffffgfffedfaa",
"aacedfffffffdfffffffffdffffffffffffffffffffffffffffffffffffedfaa",
"aacedeeeeeeeeeeeeeeeeeeeeeeeeeeeeeeeeeeeeeeeeeeeeeeeeeeeeeeedfaa",
"aacedddddddddddddddddddddddddddddddddddddddddddddddddddddddddfaa",
"aacffffffffffffffffffffffffffffffffffffffffffffffffffffffffffdaa",
"aaaaaaaaaaaaaaaaaaaaaaaaaaaaaaaaaaaaaaaaaaaaaaaaaaaaaaaaaaaaaaaa",
"aaaaaaaaaaaaaaaaaaaaaaaaaaaaaaaaaaaaaaaaaaaaaaaaaaaaaaaaaaaaaaaa"
};