/* XPM */
static char *floor_r05_c03[] = {
"64 64 9 1",
"a	c #242424",
"b	c #3C3C3C",
"c	c #343434",
"d	c #2C2C2C",
"e	c #1C1C1C",
"f	c #002C00",
"g	c #004400",
"h	c #005C00",
"i	c #007400",
"aaaaaaaaaaaaaaaaaaaaaaabcdeabcdeabcdeabcdeaaaaaaaaaaaaaaaaaaaaaa",
"aaaaaaaaaaaaaaaaaaaaaaabcdeabcdeabcdeabcdeaaaaaaaaaaaaaaaaaaaaaa",
"aaaaaaaaaaaaaaaaaaaaaaabcdeabcdeabcdeabcdeaaaaaaaaaaaaaaaaaaaaaa",
"aaaaaaaaaaaaaaaaaaaaaaabcdeabcdeabcdeabcdeaaaaaaaaaaaaaaaaaaaaaa",
"aaaaaaaaaaaaaaaaaaaaaaabcdeabcdeabcdeabcdeaaaaaaaaaaaaaaaaaaaaaa",
"aaaaaaaaaaaaaaaaaaaaaaabcdeabcdeabcdeabcdeaaaaaaaaaaaaaaaaaaaaaa",
"aaaaaaaaaaaaaaaaaaaaaaabcdeabcdeabcdeabcdeaaaaaaaaaaaaaaaaaaaaaa",
"aaaaaaaaaaaaaaaaaaaaaaabcdeabcdeabcdeabcdeaaaaaaaaaaaaaaaaaaaaaa",
"aaaaaaaaaaaaaaaaaacbbbbbbbbbbbbbbbbbbbbbbbbbbeaaaaaaaaaaaaaaaaaa",
"aaaaaaaaaaaaaaaaacbccccccccccccccccccccccccccceaaaaaaaaaaaaaaaaa",
"aaaaaaaaaaaaaaaacbcdddddddddddddddddddddddddddceaaaaaaaaaaaaaaaa",
"aaaaaaaaaaaaaaacbcddddddddddddddddddddddddddddddeaaaaaaaaaaaaaaa",
"aaaaaaaaaaaaaacbcdddddddddddddddddddddddddddddddaeaaaaaaaaaaaaaa",
"aaaaaaaaaaaaacbcdddddddddddddddddddddddddddddddddaeaaaaaaaaaaaaa",
"aaaaaaaaaaaacbcddddddddaaaaaaaaaaaaaaaaaaaddddddddaeaaaaaaaaaaaa",
"aaaaaaaaaaacbcddddddddafffffffffffffffffffaddddddddaeaaaaaaaaaaa",
"aaaaaaaaaacbcdddddddddagggggggggggggggggggadddddddddaeaaaaaaaaaa",
"aaaaaaaaacbcdddddddddchhhhhhhhhhhhhhhhhhhhhcdddddddddaeaaaaaaaaa",
"aaaaaaaacbcddddddddddciiiiiiiiiiiiiiiiiiiiicddddddddddaeaaaaaaaa",
"aaaaaaacbcdddddddddddchhhhhhhhhhhhhhhhhhhhhcdddddddddddaeaaaaaaa",
"aaaaaacbcdddddddddddddcgggggggggggggggggggcdddddddddddddaeaaaaaa",
"aaaaacbcdddddddddcccddcfffffffffffffffffffcddcccdddddddddaeaaaaa",
"aaaaacbcdddddddaahihccdcccccccccccccccccccdaahihccdddddddaeaaaaa",
"bbbbbcbcddddddafghihgfcdddddddddddddddddddafghihgfcddddddaedbbbb",
"ccccccbcddddddafghihgfcdddddddddddddddddddafghihgfcddddddaeccccc",
"dddddcbcddddddafghihgfcdddddddddddddddddddafghihgfcddddddaeddddd",
"eeeeecbcddddddafghihgfcdddddddddddddddddddafghihgfcddddddaeeeeee",
"aaaaacbcddddddafghihgfcdddddcbbbbbbbeaddddafghihgfcddddddaeaaaaa",
"bbbbbcbcddddddafghihgfcddddcbccccccabeadddafghihgfcddddddaedbbbb",
"ccccccbcddddddafghihgfcdddcbccdddddcabeaddafghihgfcddddddaeccccc",
"dddddcbcddddddafghihgfcdddbccdddddddcabeadafghihgfcddddddaeddddd",
"eeeeecbcddddddafghihgfcdddbcdddddddddabeadafghihgfcddddddaeeeeee",
"aaaaacbcddddddafghihgfcdddbcdddddddddabeadafghihgfcddddddaeaaaaa",
"bbbbbcbcddddddafghihgfcdddbacddddddddabeadafghihgfcddddddaedbbbb",
"ccccccbcddddddafghihgfcdddebacddddddabeaadafghihgfcddddddaeccccc",
"dddddcbcddddddafghihgfcdddaebaaaaaaabeaaddafghihgfcddddddaeddddd",
"eeeeecbcddddddafghihgfcddddaebbbbbbbeaadddafghihgfcddddddaeeeeee",
"aaaaacbcddddddafghihgfcdddddaeeeeeeeaaddddafghihgfcddddddaeaaaaa",
"bbbbbcbcddddddafghihgfcddddddaaaaaaaadddddafghihgfcddddddaedbbbb",
"ccccccbcddddddafghihgfcdddddddddddddddddddafghihgfcddddddaeccccc",
"dddddcbcddddddafghihgfcdddddddddddddddddddafghihgfcddddddaeddddd",
"eeeeecbcdddddddaahihccdaaaaaaaaaaaaaaaaaaadaahihccdddddddaeeeeee",
"aaaaacbcdddddddddcccddafffffffffffffffffffaddcccdddddddddaeaaaaa",
"aaaaaacbcdddddddddddddagggggggggggggggggggadddddddddddddaeaaaaaa",
"aaaaaaacbcdddddddddddchhhhhhhhhhhhhhhhhhhhhcdddddddddddaeaaaaaaa",
"aaaaaaaacbcddddddddddciiiiiiiiiiiiiiiiiiiiicddddddddddaeaaaaaaaa",
"aaaaaaaaacbcdddddddddchhhhhhhhhhhhhhhhhhhhhcdddddddddaeaaaaaaaaa",
"aaaaaaaaaacbcdddddddddcgggggggggggggggggggcdddddddddaeaaaaaaaaaa",
"aaaaaaaaaaacbcddddddddcfffffffffffffffffffcddddddddaeaaaaaaaaaaa",
"aaaaaaaaaaaacbcddddddddcccccccccccccccccccddddddddaeaaaaaaaaaaaa",
"aaaaaaaaaaaaacbcdddddddddddddddddddddddddddddddddaeaaaaaaaaaaaaa",
"aaaaaaaaaaaaaacbcdddddddddddddddddddddddddddddddaeaaaaaaaaaaaaaa",
"aaaaaaaaaaaaaaacbcdddddddddddddddddddddddddddddaeaaaaaaaaaaaaaaa",
"aaaaaaaaaaaaaaaacbcdddddddddddddddddddddddddddaeaaaaaaaaaaaaaaaa",
"aaaaaaaaaaaaaaaaacbcdddddddddddddddddddddddddaeaaaaaaaaaaaaaaaaa",
"aaaaaaaaaaaaaaaaaacbcdaaaaaaaaaaaaaaaaaaaaaaaeaaaaaaaaaaaaaaaaaa",
"aaaaaaaaaaaaaaaaaaaaeeeeeeeeeeeeeeeeeeeeeeeeeaaaaaaaaaaaaaaaaaaa",
"aaaaaaaaaaaaaaaaaaaaaaadddeadddeadddeadddeaaaaaaaaaaaaaaaaaaaaaa",
"aaaaaaaaaaaaaaaaaaaaaaabcdeabcdeabcdeabcdeaaaaaaaaaaaaaaaaaaaaaa",
"aaaaaaaaaaaaaaaaaaaaaaabcdeabcdeabcdeabcdeaaaaaaaaaaaaaaaaaaaaaa",
"aaaaaaaaaaaaaaaaaaaaaaabcdeabcdeabcdeabcdeaaaaaaaaaaaaaaaaaaaaaa",
"aaaaaaaaaaaaaaaaaaaaaaabcdeabcdeabcdeabcdeaaaaaaaaaaaaaaaaaaaaaa",
"aaaaaaaaaaaaaaaaaaaaaaabcdeabcdeabcdeabcdeaaaaaaaaaaaaaaaaaaaaaa",
"aaaaaaaaaaaaaaaaaaaaaaabcdeabcdeabcdeabcdeaaaaaaaaaaaaaaaaaaaaaa"
};