/* XPM */
static char *floor_r03_c01[] = {
"64 64 11 1",
"a	c #4C4C4C",
"b	c #2C2C2C",
"c	c #444444",
"d	c #343434",
"e	c #3C3C3C",
"f	c #1C1C1C",
"g	c #242424",
"h	c #244870",
"i	c #2C5480",
"j	c #204060",
"k	c #183450",
"aaaaaaaaaaaaaaaaaaaaaaaaaaaaaaaaaaaaaaaaaaaaaaaaaaaaaaaaaaaaaaaa",
"baccccccccccccccccccccccccccccccccccccccccccccccccccccccccccccab",
"dbaceeeeeeeeeeeeeeeeeeeeeeeeeeeeeeeeeeeeeeeeeeeeeeeeeeeeeeeecabf",
"cdbaceddddddddddddddddddddddddddddddddddddddddddddddddddddecabgf",
"aebbaceddddddddddddddddddddddddddddddddddddddddddddddddddecabggf",
"acdgbaceddddddddddddddddddddddddddddddddddddddddddddddddecabgbgf",
"acebgbaceddddddddddddddddddddddddddddddddddddddddddddddecabgbbgf",
"acedbgbaceddddddddddddddddddddddddddddddddddddddddddddecabgbdbgf",
"aceddbgbaceddddddddddddddddddddddddddddddddddddddddddecabgbddbgf",
"acedddbgbaceddddddddddddddddddbbbbddddddddddddddddddecabgbdddbgf",
"aceddddbgbaceddddddddddddddddbhiihbddddddddddddddddecabgbddddbgf",
"acedddddbgbaceddddddddddddddbjhiihjbddddddddddddddecabgbdddddbgf",
"aceddddddbgbaceddddddddddddbkjhiihjkbddddddddddddecabgbddddddbgf",
"acedddddddbgbacedddddddddddbkjhiihjkbdddddddddddecabgbdddddddbgf",
"aceddddddddbgbaceddddddddddbkjhiihjkbddddddddddecabgbddddddddbgf",
"acedddddddddbgbacedddddddddbkjhiihjkbdddddddddecabgbdddddddddbgf",
"aceddddddddddbgbaceddddddddbkjhiihjkbddddddddecabgbddddddddddbgf",
"acedddddddddddbgbacedddddddbkjhiihjkbdddddddecabgbdddddddddddbgf",
"aceddddddddddddbgbaceddddddbkjhiihjkbddddddecabgbddddddddddddbgf",
"acedddddddddddddbgbacedddddbkjhiihjkbdddddecabgbdddddddddddddbgf",
"aceddddddddddddddbgbaceddddbkjhiihjkbddddecabgbddddddddddddddbgf",
"acedddddddddddddddbgbacedddbkjhiihjkbdddecabgbdddddddddddddddbgf",
"aceddddddddddddddddbgbaceddbkjhiihjkbddecabgbddddddddddddddddbgf",
"acedddddddddddddddddbgbacedbkjhiihjkbdecabgbdddddddddddddddddbgf",
"aceddddddddddddddddddbgbacebkjhiihjkbecabgbddddddddddddddddddbgf",
"acedddddddddddddddddddbgbaceccccccccecabgbdddddddddddddddddddbgf",
"aceddddddddddddddddddddbgbaceddddddecabgbddddddddddddddddddddbgf",
"acedddddddddbbbbbbbbbbbbbgbaceddddecabgbbbbbbbbbbbbbdddddddddbgf",
"aceddddddddbkkkkkkkkkkkkkcgbaceddecabgbkkkkkkkkkkkkkbddddddddbgf",
"acedddddddbjjjjjjjjjjjjjjcbgbaceecabgbbjjjjjjjjjjjjjjbdddddddbgf",
"aceddddddbhhhhhhhhhhhhhhhcdbgbaccabgbdbhhhhhhhhhhhhhhhbddddddbgf",
"acedddddbiiiiiiiiiiiiiiiicddbgbaabgbddbiiiiiiiiiiiiiiiibdddddbgf",
"acedddddbiiiiiiiiiiiiiiiicddbgbaabgbddbiiiiiiiiiiiiiiiibdddddbgf",
"aceddddddchhhhhhhhhhhhhhhcdbgbaccabgbdbhhhhhhhhhhhhhhhcddddddbgf",
"acedddddddcjjjjjjjjjjjjjjcbgbaceecabgbbjjjjjjjjjjjjjjcdddddddbgf",
"aceddddddddckkkkkkkkkkkkkcgbaceddecabgbkkkkkkkkkkkkkcddddddddbgf",
"acedddddddddccccccccccccccbaceddddecabgcccccccccccccdddddddddbgf",
"aceddddddddddddddddddddbgbaceddddddecabgbddddddddddddddddddddbgf",
"acedddddddddddddddddddbgbacebbbbbbbbecabgbdddddddddddddddddddbgf",
"aceddddddddddddddddddbgbacebkjhiihjkbecabgbddddddddddddddddddbgf",
"acedddddddddddddddddbgbacedbkjhiihjkbdecabgbdddddddddddddddddbgf",
"aceddddddddddddddddbgbaceddbkjhiihjkbddecabgbddddddddddddddddbgf",
"acedddddddddddddddbgbacedddbkjhiihjkbdddecabgbdddddddddddddddbgf",
"aceddddddddddddddbgbaceddddbkjhiihjkbddddecabgbddddddddddddddbgf",
"acedddddddddddddbgbacedddddbkjhiihjkbdddddecabgbdddddddddddddbgf",
"aceddddddddddddbgbaceddddddbkjhiihjkbddddddecabgbddddddddddddbgf",
"acedddddddddddbgbacedddddddbkjhiihjkbdddddddecabgbdddddddddddbgf",
"aceddddddddddbgbaceddddddddbkjhiihjkbddddddddecabgbddddddddddbgf",
"acedddddddddbgbacedddddddddbkjhiihjkbdddddddddecabgbdddddddddbgf",
"aceddddddddbgbaceddddddddddbkjhiihjkbddddddddddecabgbddddddddbgf",
"acedddddddbgbacedddddddddddbkjhiihjkbdddddddddddecabgbdddddddbgf",
"aceddddddbgbaceddddddddddddckjhiihjkcddddddddddddecabgbddddddbgf",
"acedddddbgbaceddddddddddddddcjhiihjcddddddddddddddecabgbdddddbgf",
"aceddddbgbaceddddddddddddddddchiihcddddddddddddddddecabgbddddbgf",
"acedddbgbaceddddddddddddddddddccccddddddddddddddddddecabgbdddbgf",
"aceddbgbaceddddddddddddddddddddddddddddddddddddddddddecabgbddbgf",
"acedbgbaceddddddddddddddddddddddddddddddddddddddddddddecabgbdbgf",
"acebgbaceddddddddddddddddddddddddddddddddddddddddddddddecabgbbgf",
"acdgbaceddddddddddddddddddddddddddddddddddddddddddddddddecabgbgf",
"aebbaceddddddddddddddddddddddddddddddddddddddddddddddddddecabggf",
"cdbaceddddddddddddddddddddddddddddddddddddddddddddddddddddecabgf",
"dbacdbbbbbbbbbbbbbbbbbbbbbbbbbbbbbbbbbbbbbbbbbbbbbbbbbbbbbbdcabf",
"bacdggggggggggggggggggggggggggggggggggggggggggggggggggggggggdcab",
"edbffffffffffffffffffffffffffffffffffffffffffffffffffffffffffbde"
};