/* XPM */
static char *floor_r02_c03[] = {
"64 64 7 1",
"a	c #4C4C4C",
"b	c #2C2C2C",
"c	c #444444",
"d	c #343434",
"e	c #3C3C3C",
"f	c #1C1C1C",
"g	c #242424",
"aaaaaaaaaaaaaaaaaaaaaaaaaaaaaaaaaaaaaaaaaaaaaaaaaaaaaaaaaaaaaaaa",
"baccccccccccccccccccccccccccccccccccccccccccccccccccccccccccccab",
"dbaceeeeeeeeeeeeeeeeeeeeeeeeeeeeeeeeeeeeeeeeeeeeeeeeeeeeeeeecabf",
"cdbaceddddddddddddddddddddddddddddddddddddddddddddddddddddecabgf",
"aebbaceddddddddddddddddddddddddddddddddddddddddddddddddddecabggf",
"acdgbaceddddddddddddddddddddddddddddddddddddddddddddddddecabgbgf",
"acebgbaceddddddddddddddddddddddddddddddddddddddddddddddecabgbbgf",
"acedbgbaceddddddddddddddddddddddddddddddddddddddddddddecabgbdbgf",
"aceddbgbaceddddddddddddddddddddddddddddddddddddddddddecabgbddbgf",
"acedddbgbaceddddddddddddddddddddddddddddddddddddddddecabgbdddbgf",
"aceddddbgbaceddddddddddddddddddddddddddddddddddddddecabgbddddbgf",
"acedddddbgbaceddddddddddddddddddddddddddddddddddddecabgbdddddbgf",
"aceddddddbgbaceddddddddddddddddddddddddddddddddddecabgbddddddbgf",
"acedddddddbgbaceddddddddddddddddddddddddddddddddecabgbdddddddbgf",
"aceddddddddbgbaceddddddddddddddddddddddddddddddecabgbddddddddbgf",
"acedddddddddbgbaceddddddddddddddddddddddddddddecabgbdddddddddbgf",
"aceddddddddddbgbaceddddddddddddddddddddddddddecabgbddddddddddbgf",
"acedddddddddddbgbaceddddddddddddddddddddddddecabgbdddddddddddbgf",
"aceddddddddddddbgbaceddddddddddddddddddddddecabgbddddddddddddbgf",
"acedddddddddddddbgbaceddddddddddddddddddddecabgbdddddddddddddbgf",
"aceddddddddddddddbgbaceddddddddddddddddddecabgbddddddddddddddbgf",
"acedddddddddddddddbgbaceddddddddddddddddecabgbdddddddddddddddbgf",
"aceddddddddddddddddbgbaceddddddddddddddecabgbddddddddddddddddbgf",
"acedddddddddddddddddbgbaceddddddddddddecabgbdddddddddddddddddbgf",
"aceddddddddddddddddddbgbaceddddddddddecabgbddddddddddddddddddbgf",
"acedddddddddddddddddddbgbaceddddddddecabgbdddddddddddddddddddbgf",
"aceddddddddddddddddddddbgbaceddddddecabgbddddddddddddddddddddbgf",
"acedddddddddddddddddddddbgbaceddddecabgbdddddddddddddddddddddbgf",
"aceddddddddddddddddddddddbgbaceddecabgbddddddddddddddddddddddbgf",
"acedddddddddddddddddddddddbgbaceecabgbdddddddddddddddddddddddbgf",
"aceddddddddddddddddddddddddbgbaccabgbddddddddddddddddddddddddbgf",
"acedddddddddddddddddddddddddbgbaabgbdddddddddddddddddddddddddbgf",
"acedddddddddddddddddddddddddbgbaabgbdddddddddddddddddddddddddbgf",
"aceddddddddddddddddddddddddbgbaccabgbddddddddddddddddddddddddbgf",
"acedddddddddddddddddddddddbgbaceecabgbdddddddddddddddddddddddbgf",
"aceddddddddddddddddddddddbgbaceddecabgbddddddddddddddddddddddbgf",
"acedddddddddddddddddddddbgbaceddddecabgbdddddddddddddddddddddbgf",
"aceddddddddddddddddddddbgbaceddddddecabgbddddddddddddddddddddbgf",
"acedddddddddddddddddddbgbaceddddddddecabgbdddddddddddddddddddbgf",
"aceddddddddddddddddddbgbaceddddddddddecabgbddddddddddddddddddbgf",
"acedddddddddddddddddbgbaceddddddddddddecabgbdddddddddddddddddbgf",
"aceddddddddddddddddbgbaceddddddddddddddecabgbddddddddddddddddbgf",
"acedddddddddddddddbgbaceddddddddddddddddecabgbdddddddddddddddbgf",
"aceddddddddddddddbgbaceddddddddddddddddddecabgbddddddddddddddbgf",
"acedddddddddddddbgbaceddddddddddddddddddddecabgbdddddddddddddbgf",
"aceddddddddddddbgbaceddddddddddddddddddddddecabgbddddddddddddbgf",
"acedddddddddddbgbaceddddddddddddddddddddddddecabgbdddddddddddbgf",
"aceddddddddddbgbaceddddddddddddddddddddddddddecabgbddddddddddbgf",
"acedddddddddbgbaceddddddddddddddddddddddddddddecabgbdddddddddbgf",
"aceddddddddbgbaceddddddddddddddddddddddddddddddecabgbddddddddbgf",
"acedddddddbgbaceddddddddddddddddddddddddddddddddecabgbdddddddbgf",
"aceddddddbgbaceddddddddddddddddddddddddddddddddddecabgbddddddbgf",
"acedddddbgbaceddddddddddddddddddddddddddddddddddddecabgbdddddbgf",
"aceddddbgbaceddddddddddddddddddddddddddddddddddddddecabgbddddbgf",
"acedddbgbaceddddddddddddddddddddddddddddddddddddddddecabgbdddbgf",
"aceddbgbaceddddddddddddddddddddddddddddddddddddddddddecabgbddbgf",
"acedbgbaceddddddddddddddddddddddddddddddddddddddddddddecabgbdbgf",
"acebgbaceddddddddddddddddddddddddddddddddddddddddddddddecabgbbgf",
"acdgbaceddddddddddddddddddddddddddddddddddddddddddddddddecabgbgf",
"aebbaceddddddddddddddddddddddddddddddddddddddddddddddddddecabggf",
"cdbaceddddddddddddddddddddddddddddddddddddddddddddddddddddecabgf",
"dbacdbbbbbbbbbbbbbbbbbbbbbbbbbbbbbbbbbbbbbbbbbbbbbbbbbbbbbbdcabf",
"bacdggggggggggggggggggggggggggggggggggggggggggggggggggggggggdcab",
"edbffffffffffffffffffffffffffffffffffffffffffffffffffffffffffbde"
};