/* XPM */
static char *floor_r07_c00[] = {
"64 64 5 1",
"a	c #002C1C",
"b	c #004428",
"c	c #007448",
"d	c #005C38",
"e	c #141414",
"aaaaaaaaaaaaaaaaaaaaaaaaaaaaaaaaaaaaaaaaaaaaaaaaaaaaaaaaaaaaaaaa",
"aaaaaaaaaaaaaaaaaaaaaaaaaaaaaaaaaaaaaaaaaaaaaaaaaaaaaaaaaaaaaaaa",
"aaaaaaaaaaaaaaaaaaaaaaaaaabcccccccccbaaaaaaaaaaaaaaaaaaaaaaaaaaa",
"aaaaaaaaaaaaaaaaaaaaabcccccdddddddddcccccbaaaaaaaaaaaaaaaaaaaaaa",
"aaaaaaaaaaaaaaaaaaabccdddddbbbbbbbbbdddddccbaaaaaaaaaaaaaaaaaaaa",
"aaaaaaaaaaaaaaaabcccddbbbbbbbbbbbbbbbbbbbdddddaaaaaaaaaaaaaaaaaa",
"aaaaaaaaaaaaaaabcdddbbbbbbbbbbbbbbbbbbbbbbbbddddaaaaaaaaaaaaaaaa",
"aaaaaaaaaaaaabccdbbbbbbbbbbbbbbbbbbbbbbbbbbbbbbddaaaaaaaaaaaaaaa",
"aaaaaaaaaaaabcddbbbbbbbbbbbbbbbbbbbbbbbbbbbbbbbbbdaaaaaaaaaaaaaa",
"aaaaaaaaaabccdbbbbbbbbbbbbbbbbbbbbbbbbbbbbbbbbbbbbbaeaaaaaaaaaaa",
"aaaaaaaaabcddbbbbbbbbbbbbbbbbbbbbbbbbbbbbbbbbbbbbbbbaeaaaaaaaaaa",
"aaaaaaaabcdbbbbbbbbbbbbbbbbbbbbbbbbbbbbbbbbbbbbbbbbbbaeaaaaaaaaa",
"aaaaaaaacdbbbbbbbbbbbbbbbbbbbbbbbbbbbbbbbbbbbbbbbbbbbbaeaaaaaaaa",
"aaaaaaabcdbbbbbbbbbbbbbbbbbbbbbbbbbbbbbbbbbbbbbbbbbbbbaeaaaaaaaa",
"aaaaaabcdbbbbbbbbbbbbbbbbbbbbbbbbbbbbbbbbbbbbbbbbbbbbbbaeaaaaaaa",
"aaaaaacdbbbbbbbbbbbbbbbbbbbbbbbbbbbbbbbbbbbbbbbbbbbbbbbbaeaaaaaa",
"aaaaabcdbbbbbbbbbbbbbbbbbbbbbbbbbbbbbbbbbbbbbbbbbbbbbbbbaeaaaaaa",
"aaaaacdbbbbbbbbbbbbbbbbbbbbbbbbbbbbbbbbbbbbbbbbbbbbbbbbbbaeaaaaa",
"aaaabcdbbbbbbbbbbbbbbbbbbbbbbbbbbbbbbbbbbbbbbbbbbbbbbbbbbaeaaaaa",
"aaaacdbbbbbbbbbbbbbbbbbbbbbbbbbbbbbbbbbbbbbbbbbbbbbbbbbbbbaeaaaa",
"aaaacdbbbbbbbbbbbbbbbbbbbbbbbbbbbbbbbbbbbbbbbbbbbbbbbbbbbbaeaaaa",
"aaabcdbbbbbbbbbbbbbbbbbbbbbbbbbbbbbbbbbbbbbbbbbbbbbbbbbbbbaeaaaa",
"aaacdbbbbbbbbbbbbbbbbbbbbbbbbbbbbbbbbbbbbbbbbbbbbbbbbbbbbbbaeaaa",
"aaacdbbbbbbbbbbbbbbbbbbbbbbbbbbbbbbbbbbbbbbbbbbbbbbbbbbbbbbaeaaa",
"aaacdbbbbbbbbbbbbbbbbbbbbbbbbbbbbbbbbbbbbbbbbbbbbbbbbbbbbbbaeaaa",
"aaacdbbbbbbbbbbbbbbbbbbbbbbbbbbbbbbbbbbbbbbbbbbbbbbbbbbbbbbaeaaa",
"aaacdbbbbbbbbbbbbbbbbbbbbbbbbbbbbbbbbbbbbbbbbbbbbbbbbbbbbbbaeaaa",
"aaacdbbbbbbbbbbbbbbbbbbbbbbbbbbbbbbbbbbbbbbbbbbbbbbbbbbbbbbaeaaa",
"aaacdbbbbbbbbbbbbbbbbbbbbbbbbbbbbbbbbbbbbbbbbbbbbbbbbbbbbbbaeaaa",
"aaacdbbbbbbbbbbbbbbbbbbbbbbbbbbbbbbbbbbbbbbbbbbbbbbbbbbbbbbaeaaa",
"aaacdbbbbbbbbbbbbbbbbbbbbbbbbbbbbbbbbbbbbbbbbbbbbbbbbbbbbbbaeaaa",
"aaacdbbbbbbbbbbbbbbbbbbbbbbbbbbbbbbbbbbbbbbbbbbbbbbbbbbbbbbaeaaa",
"aaacdbbbbbbbbbbbbbbbbbbbbbbbbbbbbbbbbbbbbbbbbbbbbbbbbbbbbbbaeaaa",
"aaacdbbbbbbbbbbbbbbbbbbbbbbbbbbbbbbbbbbbbbbbbbbbbbbbbbbbbbbaeaaa",
"aaacdbbbbbbbbbbbbbbbbbbbbbbbbbbbbbbbbbbbbbbbbbbbbbbbbbbbbbbaeaaa",
"aaacdbbbbbbbbbbbbbbbbbbbbbbbbbbbbbbbbbbbbbbbbbbbbbbbbbbbbbbaeaaa",
"aaacdbbbbbbbbbbbbbbbbbbbbbbbbbbbbbbbbbbbbbbbbbbbbbbbbbbbbbbaeaaa",
"aaacdbbbbbbbbbbbbbbbbbbbbbbbbbbbbbbbbbbbbbbbbbbbbbbbbbbbbbbaeaaa",
"aaacdbbbbbbbbbbbbbbbbbbbbbbbbbbbbbbbbbbbbbbbbbbbbbbbbbbbbbbaeaaa",
"aaacdbbbbbbbbbbbbbbbbbbbbbbbbbbbbbbbbbbbbbbbbbbbbbbbbbbbbbbaeaaa",
"aaacdbbbbbbbbbbbbbbbbbbbbbbbbbbbbbbbbbbbbbbbbbbbbbbbbbbbbbbaeaaa",
"aaabcdbbbbbbbbbbbbbbbbbbbbbbbbbbbbbbbbbbbbbbbbbbbbbbbbbbbbaeaaaa",
"aaaacdbbbbbbbbbbbbbbbbbbbbbbbbbbbbbbbbbbbbbbbbbbbbbbbbbbbbaeaaaa",
"aaaacdbbbbbbbbbbbbbbbbbbbbbbbbbbbbbbbbbbbbbbbbbbbbbbbbbbbbaeaaaa",
"aaaabcdbbbbbbbbbbbbbbbbbbbbbbbbbbbbbbbbbbbbbbbbbbbbbbbbbbaeaaaaa",
"aaaaacdbbbbbbbbbbbbbbbbbbbbbbbbbbbbbbbbbbbbbbbbbbbbbbbbbbaeaaaaa",
"aaaaabcdbbbbbbbbbbbbbbbbbbbbbbbbbbbbbbbbbbbbbbbbbbbbbbbbaeaaaaaa",
"aaaaaacdbbbbbbbbbbbbbbbbbbbbbbbbbbbbbbbbbbbbbbbbbbbbbbbbaeaaaaaa",
"aaaaaabcdbbbbbbbbbbbbbbbbbbbbbbbbbbbbbbbbbbbbbbbbbbbbbbaeaaaaaaa",
"aaaaaaabcdbbbbbbbbbbbbbbbbbbbbbbbbbbbbbbbbbbbbbbbbbbbbaeaaaaaaaa",
"aaaaaaaacdbbbbbbbbbbbbbbbbbbbbbbbbbbbbbbbbbbbbbbbbbbbbaeaaaaaaaa",
"aaaaaaaabcdbbbbbbbbbbbbbbbbbbbbbbbbbbbbbbbbbbbbbbbbbbaeaaaaaaaaa",
"aaaaaaaaabcddbbbbbbbbbbbbbbbbbbbbbbbbbbbbbbbbbbbbbbbaeaaaaaaaaaa",
"aaaaaaaaaabccdbbbbbbbbbbbbbbbbbbbbbbbbbbbbbbbbbbbbaaeaaaaaaaaaaa",
"aaaaaaaaaaaabcddbbbbbbbbbbbbbbbbbbbbbbbbbbbbbbbbbaeeaaaaaaaaaaaa",
"aaaaaaaaaaaaabccdbbbbbbbbbbbbbbbbbbbbbbbbbbbbbbaaeaaaaaaaaaaaaaa",
"aaaaaaaaaaaaaaabcdddbbbbbbbbbbbbbbbbbbbbbbbbbbaeeaaaaaaaaaaaaaaa",
"aaaaaaaaaaaaaaaabcccddbbbbbbbbbbbbbbbbbbbbbaaaeaaaaaaaaaaaaaaaaa",
"aaaaaaaaaaaaaaaaaaabccddbbbbbbbbbbbbbbbbbaaeeeaaaaaaaaaaaaaaaaaa",
"aaaaaaaaaaaaaaaaaaaaabccddbbbbbbbbbbaaaaaeeaaaaaaaaaaaaaaaaaaaaa",
"aaaaaaaaaaaaaaaaaaaaaaaaaeeddbaaaaaaeeeeeaaaaaaaaaaaaaaaaaaaaaaa",
"aaaaaaaaaaaaaaaaaaaaaaaaaaaaeeeeeeeeaaaaaaaaaaaaaaaaaaaaaaaaaaaa",
"aaaaaaaaaaaaaaaaaaaaaaaaaaaaaaaaaaaaaaaaaaaaaaaaaaaaaaaaaaaaaaaa",
"aaaaaaaaaaaaaaaaaaaaaaaaaaaaaaaaaaaaaaaaaaaaaaaaaaaaaaaaaaaaaaaa"
};