/* XPM */
static char *floor_r06_c01[] = {
"64 64 5 1",
"a	c #2C2C00",
"b	c #747804",
"c	c #3C3C00",
"d	c #646400",
"e	c #505000",
"aaaaaaaaaaaaaaaaaaaaaaaaaaaaaaaaaaaaaaaaaaaaaaaaaaaaaaaaaaaaaaaa",
"aaaaaaaaaaaaaaaaaaaaaaaaaaaaaaaaaaaaaaaaaaaaaaaaaaaaaaaaaaaaaaaa",
"aabbbbbbbbbbbbbbbbbbbbbbbbbbbbbabbbbbbbbbbbbbbbbbbbbbbbbbbbbbcaa",
"aabddddddddddddeddddddddddddddcabdddddddddddddddddddecddddddccaa",
"aabdeeeeeeeeeeeeeeeeeeeeeeeeeecabdeeeeeeeeeeeeeeeeeeeddeeedeccaa",
"aabeeeeeeeeeeeeeeeeeeecdeeeeeecabdeeeeeeeeeeeeeeeeeeeeeeeeeeccaa",
"aabdeeeeeeeeeeeeeeeeeeddeeeeeecabdeeeeeeeeeeeeeeeeeeeeeeeeeeccaa",
"aabdeeeeeeeeeeeeeeeeeeeeeeeeeecabdeeeeeeeeeeeeceeeeeeeeeeeeeccaa",
"aabdeeeeeeeeeeeeeeeeeeeeeeeeeecabdeeeeeeeeeeeeeeeeeeeeeeeeeeccaa",
"aabdeeeeeeeeeeeeeeeeeeeeeeeeeecabdeeeeeeeeeeeeeeeeeeeeeeeeeeccaa",
"aabdeeeeeeeeeeeeeeeeeeeeeeeeeecabdeeeeeeeeeeeeeeeeeeceeeeeeeccaa",
"aabdeeeeeeeeeeeeeeeeeeeeeeeeeecabdeeeeeeeeeeeeeeeeeeeeeeeeeeccaa",
"aabdeeeeeeeeeeedeeeeeeeeeeeeeecabdeeeeeeeeeeeeeeeeeeeeeeeeeeccaa",
"aabdeeeeeeeeeeddeeeeeeeeeeeeeccabdeeeeeeeeeeeeeeeeeeeeeeeeeeccaa",
"aabdeeeeeeeeeeeeeeeeeeeeeeeeeecabdeeeeeeeeeeeeeeeeeeeeeeeeeeccaa",
"aabdeeeeeeeeeceeeeeeeeeeeeeeeecabdeeeeeeeeeeeeeeeeeeeeeeeeeeccaa",
"aabdeeeeeeeeeeeeeeeeeeeeeeeeeecabdeeeeeeeeeeeeeeeeeeeeeeeeeeccaa",
"aabdeeeeeeeeeeeeeeeeeeeeeeeeeecabdeeeeeeeeeeeeeeeeeeeeeeeeeeccaa",
"aabdeeeeeeeeeeeeeeeeeeeeeeeeeecabdeeeeeeeecdeeeeeeeeeeeeeeeeccaa",
"aabeedeeeeeeeeeeeeeeeeeeeeeeeecabdeeeeeeeeddeeeeeeeeeeeeeeeeccaa",
"aabeddeeeeeeeeeeeeeeeeeeeeeeeecabdeeeeeedeeeeeeeeeeeeeeeeeeeccaa",
"aabdeeeeeeeeeeeeeeeeeeeeeeeeeecabdeeeeeddeeeeeeeeeeeeeeeeeeeccaa",
"aabdeeeeeeeeeeeeeeeeeeeeeeeeeecabdeeeeeeeeeeeeeeeeeeeeeeeeeeccaa",
"aabdeeeeeeeeeeeeeeeeeeeeeeeeeccabdeeeeeeeeeeeeeeeeeeeeeeeeeeccaa",
"aabdeeeeeeeeeeeeeeeeeeeeeeeeeecabdeeeeeeeeeeeeeeeeeeeeeeeeeeccaa",
"aabdeeeeeeeeeeeeeeeeeeeeeeeeeccabdeeeeeeeeeeeeeeeeceeeeeeeeeccaa",
"aabdeeeeeeeeeeeeeeeeeeeeeeeeeecabdeeeeeeeeeeeeeeeeeeeeeeeeeeccaa",
"aabdeeeeeeeeeeeeeeeeeeeeeeeeeecabdeeeeeeeeeeeeeeeeeeeeeeeeeeccaa",
"aabdeeeeeeeeeeeeeeeeeeeeeeeeeecabdeeeeeeeeeeeeeeeeeeeeeeeeeeccaa",
"aabdeeeeeeeeeeeeeeeeeeeeeeeeeecabdeeeeeeeeeeeeeeeeeeeeeeeeeeccaa",
"aabccccccccccccccccccccccccccccabcccccccccccccccccccccccccccccaa",
"aacaaaaaaaaaaaaaaaaaaaaaaaaaaaaacaaaaaaaaaaaaaaaaaaaaaaaaaaaaaaa",
"aabbbbbbbbbbbbbbbbbbbbbbbbbbbbbcbbbbbbbbbbbbbbbbbbbbbbbbbbbbbcaa",
"aabdddddddddddddddddddddddddddcabdddddddddddddddddddddddddddccaa",
"aabdeeeeeeeeeeeeeeeeeeeeeeeeeecabdeeeeeeeeeeeeeeeeeeeeeeeeeeccaa",
"aabdeeeeeeeeeeeeeeeeeeeeeeeeeecabdeeeceeeeeeeeeeeeeeeeeeeeeeccaa",
"aabdeeeeeeeeeeeeeeeeeeeeeeeeeecabdeeeeeeeeeeeeeeeeeeeeeeeeeeccaa",
"aabdeeeeeeeeeeeeeeeeeeeeeeeeeecabccdeeeeeeeeeeeeeeeeeeeeeeeeccaa",
"aabdeeeeeceeeeeeeeeeeeeeeeeeeecabcddeeeeeeeeeeeeeeeeeeeeeeeeccaa",
"aabdeeeeeeeeeeeeeeeeeeeeeeeeeecabdeeeeeeeeeeeeeeeeeeeeeeeeeeccaa",
"aabdeeeeeeeeeeeeeeeeeeeeeeeeeecabdeeeeeeeeeeeeeeeeeeeeeeeeeeccaa",
"aabdeeeeeeeeeeeedeeeeeeeeeeeeecabdeeeeeeeeeeeeeeeeeeeeeeeeeeccaa",
"aabdeeeeeeeeeeeddeeeeeeeeeeeeecabdeeeeeeeeeeeeeeeceeeeeeeeeeccaa",
"aabdeeeeeeeeeeeeeeeeeeeeeeeeeecabdeeeeeeeeeeeeeeeeeeeeeeeeeeccaa",
"aabdeeeeeeeeeeeeecdeeeeeeeeeeecabdeeeeeeeeeeeeeeeeeeeeeeeeeeccaa",
"aabdeeeeeeeeeeeeeddeeeeeeeeeeecabdeeeeeeeeeeeeeeeeeeeeeeeeeeccaa",
"aabdeeeeeeeeeeeeeeeeeeeeeeeeeecabdeeeeeeeeeeeeeeeeeeeeeeeeeeccaa",
"aabdeeeeeeeeeeeeeeeeeeeeeeeeeecabdeeeeeeeeeeeeeeeeeeeeeeeeeeccaa",
"aabdeeeeeeeeeeeeeeeeeeeeeeeeeecabdeeeeeeeeeeeeeeeeecdeeeeeeeccaa",
"aabdeeeeeeeeeeeeeeeeeeeeeeeeeecabdeeeeeeeeeeeeeeeeeddeeeeeeeccaa",
"aabdeeeeeeeeeeeeeeeeeeeeeeeeeecabdeeeeeeeeeeeeeeeeeeeeeeeeeeccaa",
"aabdeeeeeeeeeeeeeceeeeeeeeeeeecabdeeeeeeeeeeeeeeeeeeeeeeeeeeccaa",
"aabdeeeeeeeeeeeeeeeeeeeeeeeeeecabdeeeeeeeeeeeeeeeeeeeeeeeeeeccaa",
"aabdeeeeeeeeeceeeeeeeeeeeeeeeecabdeeeeeeeeeeeeeeeeeeeeeeeeeeccaa",
"aabdeeeeeeeeeeeeeeeeeeeeeeeeeecabdeeeeeeeeeeeeeeeeeeeeeeeeeeccaa",
"aabcedeeeeeeeeeeeeeeeeeeeeeeeecabdeeeeeeeeeeeeeeeeeeeeeeeeeeccaa",
"aabcddeeeeeeeeeeeeeeeeeeeeeeeecabdeeeeeceeeeeeeeeeeeeeeeeeeeccaa",
"aabdeeeeeeeeeeeeeeeeeeeeeeeeeecabdeeeeeceeeeeeeeeeeeeeeeeeeeccaa",
"aabdeeeeeeeeeeeeeeeeeeeeeeeeeecabdeeeeeeeeeeeeeeeeeeeeeeeeeeccaa",
"aabdeeeeeeeeeeeeeeeeeeeeedeeeecabdeeeeeeeeeeeeeeeeeeeeeeeeeeccaa",
"aabcccccccccccccccccccccddcccccabcccccccccccccccccccccccccecccaa",
"aacaaaaaaaaaaaaaaaaaaaaaaaaaaaaacaaaaaaaaaaaaaaaaaaaaaaaaaaaaaaa",
"aaaaaaaaaaaaaaaaaaaaaaaaaaaaaaaaaaaaaaaaaaaaaaaaaaaaaaaaaaaaaaaa",
"aaaaaaaaaaaaaaaaaaaaaaaaaaaaaaaaaaaaaaaaaaaaaaaaaaaaaaaaaaaaaaaa"
};