/* XPM */
static char *floor_r02_c02[] = {
"64 64 5 1",
"a	c #242424",
"b	c #343434",
"c	c #3C3C3C",
"d	c #1C1C1C",
"e	c #2C2C2C",
"aaaaaaaaaaaaaaaaaaaaaaaaaaaaaaaaaaaaaaaaaaaaaaaaaaaaaaaaaaaaaaaa",
"aaaaaaaaaaaaaabccccccccccccccccccccccccccccccccccdaaaaaaaaaaaaaa",
"aaaaaaaaaaaaabcbbbbbbbbbbbbbbbbbbbbbbbbbbbbbbbbbbbdaaaaaaaaaaaaa",
"aaaaaaaaaaaabcbeeeeeeeeeeeeeeeeeeeeeeeeeeeeeeeeeeebdaaaaaaaaaaaa",
"aaaaaaaaaaabcbeeeeeeeeeeeeeeeeeeeeeeeeeeeeeeeeeeeeeedaaaaaaaaaaa",
"aaaaaaaaaabcbeeeeeeeeeeeeeeeeeeeeeeeeeeeeeeeeeeeeeeeadaaaaaaaaaa",
"aaaaaaaaabcbeeeeeeeeeeeeeeeeeeeeeeeeeeeeeeeeeeeeeeeeeadaaaaaaaaa",
"aaaaaaaabcbeeeeeeeeeeeeeeeeeeeeeeeeeeeeeeeeeeeeeeeeeeeadaaaaaaaa",
"aaaaaaabcbeeeeeeeeeeeeeeeeeeeeeeeeeeeeeeeeeeeeeeeeeeeeeadaaaaaaa",
"aaaaaabcbeeeeeeeeeeeeeeeeeeeeeeeeeeeeeeeeeeeeeeeeeeeeeeeadaaaaaa",
"aaaaabcbeeeeeeeeeeeeeeeeeeeeeeeeeeeeeeeeeeeeeeeeeeeeeeeeeadaaaaa",
"aaaabcbeeeeeeeeeeeeeeeeeeeeeeeeeeeeeeeeeeeeeeeeeeeeeeeeeeeadaaaa",
"aaabcbeeeeeeeeeeeeeeeeeeeeeeeeeeeeeeeeeeeeeeeeeeeeeeeeeeeeeadaaa",
"aabcbeeeeeeeeeeeeeeeeeeeeeeeeeeeeeeeeeeeeeeeeeeeeeeeeeeeeeeeadaa",
"abcbeeeeeeeeeeeeeeeeeeeeeeeeeeeeeeeeeeeeeeeeeeeeeeeeeeeeeeeeeada",
"abcbeeeeeeeeeeeeeeeeeeeeeeeeeeeeeeeeeeeeeeeeeeeeeeeeeeeeeeeeeada",
"abcbeeeeeeeeeeeeeeeeeeeeeeeeeeeeeeeeeeeeeeeeeeeeeeeeeeeeeeeeeada",
"abcbeeeeeeeeeeeeeeeeeeeeeeeeeeeeeeeeeeeeeeeeeeeeeeeeeeeeeeeeeada",
"abcbeeeeeeeeeeeeeeeeeeeeeeeeeeeeeeeeeeeeeeeeeeeeeeeeeeeeeeeeeada",
"abcbeeeeeeeeeeeeeeeeeeeeeeeeeeeeeeeeeeeeeeeeeeeeeeeeeeeeeeeeeada",
"abcbeeeeeeeeeeeeeeeeeeeeeeeeeeeeeeeeeeeeeeeeeeeeeeeeeeeeeeeeeada",
"abcbeeeeeeeeeeeeeeeeeeeeeeeeeeeeeeeeeeeeeeeeeeeeeeeeeeeeeeeeeada",
"abcbeeeeeeeeeeeeeeeeeeeeeeeeeeeeeeeeeeeeeeeeeeeeeeeeeeeeeeeeeada",
"abcbeeeeeeeeeeeeeeeeeeeeeeeeeeeeeeeeeeeeeeeeeeeeeeeeeeeeeeeeeada",
"abcbeeeeeeeeeeeeeeeeeeeeeeeeeeeeeeeeeeeeeeeeeeeeeeeeeeeeeeeeeada",
"abcbeeeeeeeeeeeeeeeeeeeeeeeeeeeeeeeeeeeeeeeeeeeeeeeeeeeeeeeeeada",
"abcbeeeeeeeeeeeeeeeeeeeeeeeeeeeeeeeeeeeeeeeeeeeeeeeeeeeeeeeeeada",
"abcbeeeeeeeeeeeeeeeeeeeeeeeeeeeeeeeeeeeeeeeeeeeeeeeeeeeeeeeeeada",
"abcbeeeeeeeeeeeeeeeeeeeeeeeeeeeeeeeeeeeeeeeeeeeeeeeeeeeeeeeeeada",
"abcbeeeeeeeeeeeeeeeeeeeeeeeeeeeeeeeeeeeeeeeeeeeeeeeeeeeeeeeeeada",
"abcbeeeeeeeeeeeeeeeeeeeeeeeeeeeeeeeeeeeeeeeeeeeeeeeeeeeeeeeeeada",
"abcbeeeeeeeeeeeeeeeeeeeeeeeeeeeeeeeeeeeeeeeeeeeeeeeeeeeeeeeeeada",
"abcbeeeeeeeeeeeeeeeeeeeeeeeeeeeeeeeeeeeeeeeeeeeeeeeeeeeeeeeeeada",
"abcbeeeeeeeeeeeeeeeeeeeeeeeeeeeeeeeeeeeeeeeeeeeeeeeeeeeeeeeeeada",
"abcbeeeeeeeeeeeeeeeeeeeeeeeeeeeeeeeeeeeeeeeeeeeeeeeeeeeeeeeeeada",
"abcbeeeeeeeeeeeeeeeeeeeeeeeeeeeeeeeeeeeeeeeeeeeeeeeeeeeeeeeeeada",
"abcbeeeeeeeeeeeeeeeeeeeeeeeeeeeeeeeeeeeeeeeeeeeeeeeeeeeeeeeeeada",
"abcbeeeeeeeeeeeeeeeeeeeeeeeeeeeeeeeeeeeeeeeeeeeeeeeeeeeeeeeeeada",
"abcbeeeeeeeeeeeeeeeeeeeeeeeeeeeeeeeeeeeeeeeeeeeeeeeeeeeeeeeeeada",
"abcbeeeeeeeeeeeeeeeeeeeeeeeeeeeeeeeeeeeeeeeeeeeeeeeeeeeeeeeeeada",
"abcbeeeeeeeeeeeeeeeeeeeeeeeeeeeeeeeeeeeeeeeeeeeeeeeeeeeeeeeeeada",
"abcbeeeeeeeeeeeeeeeeeeeeeeeeeeeeeeeeeeeeeeeeeeeeeeeeeeeeeeeeeada",
"abcbeeeeeeeeeeeeeeeeeeeeeeeeeeeeeeeeeeeeeeeeeeeeeeeeeeeeeeeeeada",
"abcbeeeeeeeeeeeeeeeeeeeeeeeeeeeeeeeeeeeeeeeeeeeeeeeeeeeeeeeeeada",
"abcbeeeeeeeeeeeeeeeeeeeeeeeeeeeeeeeeeeeeeeeeeeeeeeeeeeeeeeeeeada",
"abcbeeeeeeeeeeeeeeeeeeeeeeeeeeeeeeeeeeeeeeeeeeeeeeeeeeeeeeeeeada",
"abcbeeeeeeeeeeeeeeeeeeeeeeeeeeeeeeeeeeeeeeeeeeeeeeeeeeeeeeeeeada",
"abcbeeeeeeeeeeeeeeeeeeeeeeeeeeeeeeeeeeeeeeeeeeeeeeeeeeeeeeeeeada",
"abcbeeeeeeeeeeeeeeeeeeeeeeeeeeeeeeeeeeeeeeeeeeeeeeeeeeeeeeeeeada",
"aabcbeeeeeeeeeeeeeeeeeeeeeeeeeeeeeeeeeeeeeeeeeeeeeeeeeeeeeeeadaa",
"aaabcbeeeeeeeeeeeeeeeeeeeeeeeeeeeeeeeeeeeeeeeeeeeeeeeeeeeeeadaaa",
"aaaabcbeeeeeeeeeeeeeeeeeeeeeeeeeeeeeeeeeeeeeeeeeeeeeeeeeeeadaaaa",
"aaaaabcbeeeeeeeeeeeeeeeeeeeeeeeeeeeeeeeeeeeeeeeeeeeeeeeeeadaaaaa",
"aaaaaabcbeeeeeeeeeeeeeeeeeeeeeeeeeeeeeeeeeeeeeeeeeeeeeeeadaaaaaa",
"aaaaaaabcbeeeeeeeeeeeeeeeeeeeeeeeeeeeeeeeeeeeeeeeeeeeeeadaaaaaaa",
"aaaaaaaabcbeeeeeeeeeeeeeeeeeeeeeeeeeeeeeeeeeeeeeeeeeeeadaaaaaaaa",
"aaaaaaaaabcbeeeeeeeeeeeeeeeeeeeeeeeeeeeeeeeeeeeeeeeeeadaaaaaaaaa",
"aaaaaaaaaabcbeeeeeeeeeeeeeeeeeeeeeeeeeeeeeeeeeeeeeeeadaaaaaaaaaa",
"aaaaaaaaaaabcbeeeeeeeeeeeeeeeeeeeeeeeeeeeeeeeeeeeeeadaaaaaaaaaaa",
"aaaaaaaaaaaabcbeeeeeeeeeeeeeeeeeeeeeeeeeeeeeeeeeeeadaaaaaaaaaaaa",
"aaaaaaaaaaaaabcbeeeeeeeeeeeeeeeeeeeeeeeeeeeeeeeeeadaaaaaaaaaaaaa",
"aaaaaaaaaaaaaabcbeaaaaaaaaaaaaaaaaaaaaaaaaaaaaaaadaaaaaaaaaaaaaa",
"aaaaaaaaaaaaaaaadddddddddddddddddddddddddddddddddaaaaaaaaaaaaaaa",
"aaaaaaaaaaaaaaaaaaaaaaaaaaaaaaaaaaaaaaaaaaaaaaaaaaaaaaaaaaaaaaaa"
};