/* XPM */
static char *floor_r04_c00[] = {
"64 64 11 1",
"a	c #343434",
"b	c #3C3C3C",
"c	c #4C4C4C",
"d	c #444444",
"e	c #1C1C1C",
"f	c #242424",
"g	c #2C2C2C",
"h	c #002C2C",
"i	c #004444",
"j	c #005C5C",
"k	c #007474",
"aaaaaaaaaaaaaaaaaaaaaaaaaaaaabcdbaefaaaaaaaaaaaaaaaaaaaaaaaaaaaa",
"aaaaaaaaaaaaaaaaaaaaaaaaaaaaabcdbaefaaaaaaaaaaaaaaaaaaaaaaaaaaaa",
"aaaaaaaaaaaaaaaaaaaaaaaaaaaaabcdbaefaaaaaaaaaaaaaaaaaaaaaaaaaaaa",
"aaaaaaaaaaaaaaaaaaaaaaaaaaaaabcdbaefaaaaaaaaaaaaaaaaaaaaaaaaaaaa",
"aaaaaaaaaaaaaaaaaaaaaaaaaaaaabcdbaefaaaaaaaaaaaaaaaaaaaaaaaaaaaa",
"aaaaaaaaaaaaaaaaaaaaaaaaaaaaabcdbaefaaaaaaaaaaaaaaaaaaaaaaaaaaaa",
"aaaaaaaaaaaaaaaaaaaaaaaaaaaaabcdbaefaaaaaaaaaaaaaaaaaaaaaaaaaaaa",
"aaaaaaaaaaaaaaaaaaaaaaaaaaaaabcdbaefaaaaaaaaaaaaaaaaaaaaaaaaaaaa",
"aaaaaaaaaaaaaaaaaaaaaaaaaaaaabcdbaefaaaaaaaaaaaaaaaaaaaaaaaaaaaa",
"aaaaaaaaaaaaaaaaaaaaaaaaaaaaabcdbaefaaaaaaaaaaaaaaaaaaaaaaaaaaaa",
"aaaaaaaaaaaaaaaaaaaaaaaaaaaaabcdbaefaaaaaaaaaaaaaaaaaaaaaaaaaaaa",
"aaaaaaaaaaaaaaaaaaaaaaaaaaaaabcdbaefaaaaaaaaaaaaaaaaaaaaaaaaaaaa",
"aaaaaaaaaaaaaaaaaaaaaaaaaaaaabcdbaefaaaaaaaaaaaaaaaaaaaaaaaaaaaa",
"aaaaaaaaabbbbbbbbbbbbbbbbbbbbbcdbaefbbbbbbbbbbbbbbbbbbbaaaaaaaaa",
"aaaaaaaaabgggggggggggggggggggbcdbaefggggggggggggggggggbaaaaaaaaa",
"aaaaaaaaabghhhhhhhhhhhhhhhhhdbcdbaefhhhhhhhhhhhhhhhhhdbaaaaaaaaa",
"aaaaaaaaabgiiiiiiiiiiiiiiiihdbcdbaefhiiiiiiiiiiiiiiiidbaaaaaaaaa",
"aaaaaaaaabgjjjjjjjjjjjjjjjihdbcdbaefhijjjjjjjjjjjjjjjdbaaaaaaaaa",
"aaaaaaaaabgkkkkkkkkkkkkkkjihdbcdbaefhijkkkkkkkkkkkkkkdbaaaaaaaaa",
"aaaaaaaaabgjjjjjjjjjjjjjkjihdbcdbaefhijkjjjjjjjjjjjjjdbaaaaaaaaa",
"aaaaaaaaabgiiiiiiiiiiiijkjihdbcdbaefhijkjiiiiiiiiiiiidbaaaaaaaaa",
"aaaaaaaaabghhhhhhhhhhhijkjihdbcdbaefhijkjihhhhhhhhhhhdbaaaaaaaaa",
"aaaaaaaaabgddddddddddhijkjihdbcdbaefhijkjihdddddddddddbaaaaaaaaa",
"aaaaaaaaabbbbbbbbbbbdhijkjihdbcdbaefhijkjihdbbbbbbbbbbbaaaaaaaaa",
"aaaaaaaaaaaaaaaaaaabdhijkjihdbcdbaefhijkjihdbaaaaaaaaaaaaaaaaaaa",
"aaaaaaaaaaaaaaaaaaabdhijkjihdbcdbaefhijkjihdbaaaaaaaaaaaaaaaaaaa",
"aaaaaaaaaaaaaaaaaaabdhijkjihdbcdbaefhijkjihdbaaaaaaaaaaaaaaaaaaa",
"aaaaaaaaaaaaaaaaaaabdhijkjihdbcdbaefhijkjihdbaaaaaaaaaaaaaaaaaaa",
"aaaaaaaaaaaaaaaaaaabdhijkjihdbcdbaefhijkjihdbaaaaaaaaaaaaaaaaaaa",
"bbbbbbbbbbbbbbbbbbbbbbbbbbbbbbcdbaegbbbbbbbbbbbbbbbbbbbbbbbbbbbb",
"cccccccccccccccccccccccccccccbcdbagbcccccccccccccccccccccccccccc",
"dddddddddddddddddddddddddddddbcdbafadddddddddddddddddddddddddddd",
"bbbbbbbbbbbbbbbbbbbbbbbbbbbbbbcdbafabbbbbbbbbbbbbbbbbbbbbbbbbbbb",
"aaaaaaaaaaaaaaaaaaaaaaaaaaaaabcdbaegaaaaaaaaaaaaaaaaaaaaaaaaaaaa",
"eeeeeeeeeeeeeeeeeeeeeeeeeeeeebcdbaeeeeeeeeeeeeeeeeeeeeeeeeeeeeee",
"fffffffffffffffffffffffffffffbcdbaefffffffffffffffffffffffffffff",
"aaaaaaaaaaaaaaaaaaabghijkjihdbcdbaefhijkjihdbaaaaaaaaaaaaaaaaaaa",
"aaaaaaaaaaaaaaaaaaabghijkjihdbcdbaefhijkjihdbaaaaaaaaaaaaaaaaaaa",
"aaaaaaaaaaaaaaaaaaabghijkjihdbcdbaefhijkjihdbaaaaaaaaaaaaaaaaaaa",
"aaaaaaaaaaaaaaaaaaabghijkjihdbcdbaefhijkjihdbaaaaaaaaaaaaaaaaaaa",
"aaaaaaaaaaaaaaaaaaabghijkjihdbcdbaefhijkjihdbaaaaaaaaaaaaaaaaaaa",
"aaaaaaaaabbbbbbbbbbbghijkjihdbcdbaefhijkjihdbbbbbbbbbbbaaaaaaaaa",
"aaaaaaaaabggggggggggghijkjihdbcdbaefhijkjihgggggggggggbaaaaaaaaa",
"aaaaaaaaabghhhhhhhhhhhijkjihdbcdbaefhijkjihhhhhhhhhhhdbaaaaaaaaa",
"aaaaaaaaabgiiiiiiiiiiiijkjihdbcdbaefhijkjiiiiiiiiiiiidbaaaaaaaaa",
"aaaaaaaaabgjjjjjjjjjjjjjkjihdbcdbaefhijkjjjjjjjjjjjjjdbaaaaaaaaa",
"aaaaaaaaabgkkkkkkkkkkkkkkjihdbcdbaefhijkkkkkkkkkkkkkkdbaaaaaaaaa",
"aaaaaaaaabgjjjjjjjjjjjjjjjihdbcdbaefhijjjjjjjjjjjjjjjdbaaaaaaaaa",
"aaaaaaaaabgiiiiiiiiiiiiiiiihdbcdbaefhiiiiiiiiiiiiiiiidbaaaaaaaaa",
"aaaaaaaaabghhhhhhhhhhhhhhhhhdbcdbaefhhhhhhhhhhhhhhhhhdbaaaaaaaaa",
"aaaaaaaaabgddddddddddddddddddbcdbaefddddddddddddddddddbaaaaaaaaa",
"aaaaaaaaabbbbbbbbbbbbbbbbbbbbbcdbaefbbbbbbbbbbbbbbbbbbbaaaaaaaaa",
"aaaaaaaaaaaaaaaaaaaaaaaaaaaaabcdbaefaaaaaaaaaaaaaaaaaaaaaaaaaaaa",
"aaaaaaaaaaaaaaaaaaaaaaaaaaaaabcdbaefaaaaaaaaaaaaaaaaaaaaaaaaaaaa",
"aaaaaaaaaaaaaaaaaaaaaaaaaaaaabcdbaefaaaaaaaaaaaaaaaaaaaaaaaaaaaa",
"aaaaaaaaaaaaaaaaaaaaaaaaaaaaabcdbaefaaaaaaaaaaaaaaaaaaaaaaaaaaaa",
"aaaaaaaaaaaaaaaaaaaaaaaaaaaaabcdbaefaaaaaaaaaaaaaaaaaaaaaaaaaaaa",
"aaaaaaaaaaaaaaaaaaaaaaaaaaaaabcdbaefaaaaaaaaaaaaaaaaaaaaaaaaaaaa",
"aaaaaaaaaaaaaaaaaaaaaaaaaaaaabcdbaefaaaaaaaaaaaaaaaaaaaaaaaaaaaa",
"aaaaaaaaaaaaaaaaaaaaaaaaaaaaabcdbaefaaaaaaaaaaaaaaaaaaaaaaaaaaaa",
"aaaaaaaaaaaaaaaaaaaaaaaaaaaaabcdbaefaaaaaaaaaaaaaaaaaaaaaaaaaaaa",
"aaaaaaaaaaaaaaaaaaaaaaaaaaaaabcdbaefaaaaaaaaaaaaaaaaaaaaaaaaaaaa",
"aaaaaaaaaaaaaaaaaaaaaaaaaaaaabcdbaefaaaaaaaaaaaaaaaaaaaaaaaaaaaa",
"aaaaaaaaaaaaaaaaaaaaaaaaaaaaabcdbaefaaaaaaaaaaaaaaaaaaaaaaaaaaaa"
};