/* XPM */
static char *floor_r00_c03[] = {
"64 64 5 1",
"a	c #201408",
"b	c #60401C",
"c	c #503418",
"d	c #402810",
"e	c #301C0C",
"aaaaaaaaaaaaaaaaaaaaaaaaaaaaaaaaaaaaaaaaaaaaaaaaaaaaaaaaaaaaaaaa",
"aaaaaaaaaaaaaaaaaaaaaaaaaaaaaaaaaaaaaaaaaaaaaaaaaaaaaaaaaaaaaaaa",
"aabbbbbbbbbbbbbbbbbbbbbbbbbbbbcabbbbbbbbbbbbbbbbbbbbbbbbbbbbbbaa",
"aabccccccccccccdcccccccccccccceabcccccccccccccccccccddccccccceaa",
"aabcddddddddddddddddddddddddddeabcdddddddddddddddddddccdddcddeaa",
"aabddddddddddddddddddddcddddddeabcdddddddddddddddddddddddddddeaa",
"aabcddddddddddddddddddccddddddeabcdddddddddddddddddddddddddddeaa",
"aabcddddddddddddddddddddddddddeabcddddddddddddcddddddddddddddeaa",
"aabcddddddddddddddddddddddddddeabcdddddddddddddddddddddddddddeaa",
"aabcddddddddddddddddddddddddddeabcdddddddddddddddddddddddddddeaa",
"aabcddddddddddddddddddddddddddeabcddddddddddddddddddcddddddddeaa",
"aabcddddddddddddddddddddddddddeabcdddddddddddddddddddddddddddeaa",
"aabcdddddddddddcddddddddddddddeabcdddddddddddddddddddddddddddeaa",
"aabcddddddddddccddddddddddddddeabcdddddddddddddddddddddddddddeaa",
"aabcddddddddddddddddddddddddddeabcdddddddddddddddddddddddddddeaa",
"aabcdddddddddcddddddddddddddddeabcdddddddddddddddddddddddddddeaa",
"aabcddddddddddddddddddddddddddeabcdddddddddddddddddddddddddddeaa",
"aabcddddddddddddddddddddddddddeabcdddddddddddddddddddddddddddeaa",
"aabcddddddddddddddddddddddddddeabcdddddddddcdddddddddddddddddeaa",
"aabddcddddddddddddddddddddddddeabcddddddddccdddddddddddddddddeaa",
"aabdccddddddddddddddddddddddddeabcdddddecddddddddddddddddddddeaa",
"aabcddddddddddddddddddddddddddeabcdddddccddddddddddddddddddddeaa",
"aabcddddddddddddddddddddddddddeabcdddddddddddddddddddddddddddeaa",
"aabcddddddddddddddddddddddddddeabcdddddddddddddddddddddddddddeaa",
"aabcddddddddddddddddddddddddddeabcdddddddddddddddddddddddddddeaa",
"aabcddddddddddddddddddddddddddeabcddddddddddddddddcddddddddddeaa",
"aabcddddddddddddddddddddddddddeabcdddddddddddddddddddddddddddeaa",
"aabcddddddddddddddddddddddddddeabcdddddddddddddddddddddddddddeaa",
"aabcddddddddddddddddddddddddddeabcdddddddddddddddddddddddddddeaa",
"aabcddddddddddddddddddddddddddeabcdddddddddddddddddddddddddddeaa",
"aaceeeeeeeeeeeeeeeeeeeeeeeeeeeeaceeeeeeeeeeeeeeeeeeeeeeeeeeeeeaa",
"aaaaaaaaaaaaaaaaaaaaaaaaaaaaaaaaaaaaaaaaaaaaaaaaaaaaaaaaaaaaaaaa",
"aabbbbbbbbbbbbbbbbbbbbbbbbbbbbcabbbbbbbbbbbbbbbbbbbbbbbbbbbbbcaa",
"aabccccccccccccccccccccccccccceabcccccccccccccccccccccccccccceaa",
"aabcddddddddddddddddddddddddddeabcdddddddddddddddddddddddddddeaa",
"aabcddddddddddddddddddddddddddeabcdddcdddddddddddddddddddddddeaa",
"aabcddddddddddddddddddddddddddeabcdddddddddddddddddddddddddddeaa",
"aabcddddddddddddddddddddddddddeabddcdddddddddddddddddddddddddeaa",
"aabcdddddcddddddddddddddddddddeabdccdddddddddddddddddddddddddeaa",
"aabcddddddddddddddddddddddddddeabcdddddddddddddddddddddddddddeaa",
"aabcddddddddddddddddddddddddddeabcdddddddddddddddddddddddddddeaa",
"aabcddddddddddddcdddddddddddddeabcdddddddddddddddddddddddddddeaa",
"aabcdddddddddddccdddddddddddddeabcdddddddddddddddcdddddddddddeaa",
"aabcddddddddddddddddddddddddddeabcdddddddddddddddddddddddddddeaa",
"aabcdddddddddddddecdddddddddddeabcdddddddddddddddddddddddddddeaa",
"aabcdddddddddddddccdddddddddddeabcdddddddddddddddddddddddddddeaa",
"aabcddddddddddddddddddddddddddeabcdddddddddddddddddddddddddddeaa",
"aabcddddddddddddddddddddddddddeabcdddddddddddddddddddddddddddeaa",
"aabcddddddddddddddddddddddddddeabcdddddddddddddddddecddddddddeaa",
"aabcddddddddddddddddddddddddddeabcdddddddddddddddddccddddddddeaa",
"aabcddddddddddddddddddddddddddeabcddddddddddddddddddddddddddceaa",
"aabcdddddddddddddcddddddddddddeabcdddddddddddddddddddddddddddeaa",
"aabcddddddddddddddddddddddddddeabcdddddddddddddddddddddddddddeaa",
"aabcdddddddddcddddddddddddddddeabcdddddddddddddddddddddddddddeaa",
"aabcddddddddddddddddddddddddddeabcdddddddddddddddddddddddddddeaa",
"aabddcddddddddddddddddddddddddeabcdddddddddddddddddddddddddddeaa",
"aabdccddddddddddddddddddddddddeabcdddddcdddddddddddddddddddddeaa",
"aabcddddddddddddddddddddddddddeabcdddddcdddddddddddddddddddddeaa",
"aabcddddddddddddddddddddddddddeabcdddddddddddddddddddddddddddeaa",
"aabcdddddddddddddddddddddcddddeabcdddddddddddddddddddddddddddeaa",
"aabcddddddddddddddddddddccddddeabcddddddddddddddddddddddddcddeaa",
"aaceeeeeeeeeeeeeeeeeeeeeeeeeeeeaceeeeeeeeeeeeeeeeeeeeeeeeeeeeeaa",
"aaaaaaaaaaaaaaaaaaaaaaaaaaaaaaaaaaaaaaaaaaaaaaaaaaaaaaaaaaaaaaaa",
"aaaaaaaaaaaaaaaaaaaaaaaaaaaaaaaaaaaaaaaaaaaaaaaaaaaaaaaaaaaaaaaa"
};