/* XPM */
static char *floor_r05_c00[] = {
"64 64 12 1",
"a	c #1C1C1C",
"b	c #545454",
"c	c #4C4C4C",
"d	c #3C3C3C",
"e	c #444444",
"f	c #242424",
"g	c #2C2C2C",
"h	c #343434",
"i	c #503418",
"j	c #704820",
"k	c #805424",
"l	c #94602C",
"aaaaaaaaaaaaaaaaaaaaaaaaaaaaaaaaaaaaaaaaaaaaaaaaaaaaaaaaaaaaaaaa",
"aaaaaaaaaaaaaaaaaaaaaaaaaaaaaaaaaaaaaaaaaaaaaaaaaaaaaaaaaaaaaaaa",
"aabcccccccccccccccccccccccccccdaabcccccccccccccccccccccccccccdaa",
"aacceeeeeeeeeeeeeeeeeeeeeeeeedfaacceeeeeeeeeeeeeeeeeeeeeeeeedfaa",
"aacedddddddddddddddddddddddddgfaacedddddddddddddddddddddddddgfaa",
"aacedggggggggggggggggggggggghgfaacedggggggggggggggggggggggghgfaa",
"aacedggggggggggggggggggggggghgfaacedggggggggggggggggggggggghgfaa",
"aacedggggggggggggggggggggggghgfaacedggggggggggggggggggggggghgfaa",
"aacedggggggggggggggggggggggghgfaacedggggggggggggggggggggggghgfaa",
"aacedggggggggggggggggggggggghgfaacedggggggggggggggggggggggghgfaa",
"aacedggggggggggggggggggggggghgfaacedggggggggggggggggggggggghgfaa",
"aacedggggggggghhhhhhhhhhhhhhhgfaacedhhhhhhhhhhhhhhggggggggghgfaa",
"aacedggggggggghdddddddddddddhgfaaceddddddddddddddhggggggggghgfaa",
"aacedggggggggghdiiiiiiiiiiiihgfaacediiiiiiiiiiiidhggggggggghgfaa",
"aacedggggggggghdijjjjjjjjjjjegfaacecjjjjjjjjjjjidhggggggggghgfaa",
"aacedggggggggghdijkkkkkkkkkkkefaacckkkkkkkkkkkjidhggggggggghgfaa",
"aacedggggggggghdijkllllllllllleaaclllllllllllkjidhggggggggghgfaa",
"aacedggggggggghdijklkkkkkkkkkefaacckkkkkkkkklkjidhggggggggghgfaa",
"aacedggggggggghdijklkjjjjjjjegfaacecjjjjjjjklkjidhggggggggghgfaa",
"aacedggggggggghdijklkjiiiiiihgfaacediiiiiijklkjidhggggggggghgfaa",
"aacedggggggggghdijklkjidddddhgfaaceddddddijklkjidhggggggggghgfaa",
"aacedggggggggghdijklkjidhhhhhgfaacedhhhhdijklkjidhggggggggghgfaa",
"aacedggggggggghdijklkjidhggghgfaacedggghdijklkjidhggggggggghgfaa",
"aacedggggggggghdijklkjidhggghgfaacedggghdijklkjidhggggggggghgfaa",
"aacedggggggggghdijklkjidhggghgfaacedggghdijklkjidhggggggggghgfaa",
"aacedggggggggghdijklkjidhggghgfaacedggghdijklkjidhggggggggghgfaa",
"aacedggggggggghdijklkjidhggghgfaacedggghdijklkjidhggggggggghgfaa",
"aacedggggggggghdijklkjidhggghgfaacedggghdijklkjidhggggggggghgfaa",
"aacehhhhhhhhhhhhheklkehhhhhhhgfaacehhhhhhheklkehhhhhhhhhhhhhgfaa",
"aachggggggggggggggelegggggggggfaachggggggggelegggggggggggggggfaa",
"aadffffffffffffffffefffffffffffaadffffffffffefffffffffffffffffaa",
"aaaaaaaaaaaaaaaaaaaaaaaaaaaaaaaaaaaaaaaaaaaaaaaaaaaaaaaaaaaaaaaa",
"aaaaaaaaaaaaaaaaaaaaaaaaaaaaaaaaaaaaaaaaaaaaaaaaaaaaaaaaaaaaaaaa",
"aabcccccccccccccccccccccccccccdaabcccccccccccccccccccccccccccdaa",
"aacceeeeeeeeeeeeeeclceeeeeeeedfaacceeeeeeeeclceeeeeeeeeeeeeedfaa",
"aacedddddddddddddcklkcdddddddgfaacedddddddcklkcdddddddddddddgfaa",
"aacedggggggggghdijklkjidhggghgfaacedggghdijklkjidhggggggggghgfaa",
"aacedggggggggghdijklkjidhggghgfaacedggghdijklkjidhggggggggghgfaa",
"aacedggggggggghdijklkjidhggghgfaacedggghdijklkjidhggggggggghgfaa",
"aacedggggggggghdijklkjidhggghgfaacedggghdijklkjidhggggggggghgfaa",
"aacedggggggggghdijklkjidhggghgfaacedggghdijklkjidhggggggggghgfaa",
"aacedggggggggghdijklkjidhggghgfaacedggghdijklkjidhggggggggghgfaa",
"aacedggggggggghdijklkjidhhhhhgfaacedhhhhdijklkjidhggggggggghgfaa",
"aacedggggggggghdijklkjidddddhgfaaceddddddijklkjidhggggggggghgfaa",
"aacedggggggggghdijklkjiiiiiihgfaacediiiiiijklkjidhggggggggghgfaa",
"aacedggggggggghdijklkjjjjjjjegfaacecjjjjjjjklkjidhggggggggghgfaa",
"aacedggggggggghdijklkkkkkkkkkefaacckkkkkkkkklkjidhggggggggghgfaa",
"aacedggggggggghdijkllllllllllleaaclllllllllllkjidhggggggggghgfaa",
"aacedggggggggghdijkkkkkkkkkkkefaacckkkkkkkkkkkjidhggggggggghgfaa",
"aacedggggggggghdijjjjjjjjjjjegfaacecjjjjjjjjjjjidhggggggggghgfaa",
"aacedggggggggghdiiiiiiiiiiiihgfaacediiiiiiiiiiiidhggggggggghgfaa",
"aacedggggggggghdddddddddddddhgfaaceddddddddddddddhggggggggghgfaa",
"aacedggggggggghhhhhhhhhhhhhhhgfaacedhhhhhhhhhhhhhhggggggggghgfaa",
"aacedggggggggggggggggggggggghgfaacedggggggggggggggggggggggghgfaa",
"aacedggggggggggggggggggggggghgfaacedggggggggggggggggggggggghgfaa",
"aacedggggggggggggggggggggggghgfaacedggggggggggggggggggggggghgfaa",
"aacedggggggggggggggggggggggghgfaacedggggggggggggggggggggggghgfaa",
"aacedggggggggggggggggggggggghgfaacedggggggggggggggggggggggghgfaa",
"aacedggggggggggggggggggggggghgfaacedggggggggggggggggggggggghgfaa",
"aacehhhhhhhhhhhhhhhhhhhhhhhhhgfaacehhhhhhhhhhhhhhhhhhhhhhhhhgfaa",
"aachggggggggggggggggggggggggggfaachggggggggggggggggggggggggggfaa",
"aadffffffffffffffffffffffffffffaadffffffffffffffffffffffffffffaa",
"aaaaaaaaaaaaaaaaaaaaaaaaaaaaaaaaaaaaaaaaaaaaaaaaaaaaaaaaaaaaaaaa",
"aaaaaaaaaaaaaaaaaaaaaaaaaaaaaaaaaaaaaaaaaaaaaaaaaaaaaaaaaaaaaaaa"
};