/* XPM */
static char *floor_r03_c02[] = {
"64 64 11 1",
"a	c #1C1C1C",
"b	c #343434",
"c	c #3C3C3C",
"d	c #2C2C2C",
"e	c #0C0C0C",
"f	c #141414",
"g	c #2C2C00",
"h	c #3C3C00",
"i	c #505000",
"j	c #646400",
"k	c #242424",
"aaaaaaaaaaaaaabcbbdefaaaaaaaaaaaaaaaaaaaaaaaabcbbdefaaaaaaaaaaaa",
"aaaaaaaaaaaaaabcbbdefaaaaaaaaaaaaaaaaaaaaaaaabcbbdefaaaaaaaaaaaa",
"aaaaaaaaaaaaaabcbbdefaaaaaaaaaaaaaaaaaaaaaaaabcbbdefaaaaaaaaaaaa",
"aaaaaaaaaaaaaabcbbdefaaaaaaaaaaaaaaaaaaaaaaaabcbbdefaaaaaaaaaaaa",
"aaaaaaaaaaaaaabcbbdefaaaaaaaaaaaaaaaaaaaaaaaabcbbdefaaaaaaaaaaaa",
"aaaaaaaaaddddddddddddddddddddddddddddddddddddddddddddddaaaaaaaaa",
"aaaaaaadcccccccccccccccccccccccccccccccccccccccccccccccddfaaaaaa",
"aaaaaadccbbbbbbbbbbbbbbbbbbbbbbbbbbbbbbbbbbbbbbbbbbbbbbbcdfaaaaa",
"aaaaaadcbbbbbbbbbbbbbbbbbbbbbbbbbbbbbbbbbbbbbbbbbbbbbbbbbdefaaaa",
"aaaaadcbbbddddddddddddddddddddddddddddddddddddddddddddbbbbdefaaa",
"aaaaadcbbddeeeeeeeeeeeeeeeeeeeeeeeeeeeeeeeeeeeeeeeeeeddbbbdefaaa",
"aaaaadcbbdeefgggggggggggggggggggggggggggggggggggggggfecdbbdefaaa",
"aaaaadcbbdefgghhhhhhhhhhhhhhhhhhhhhhhhhhhhhhhhhhhhhggfcdbbdefaaa",
"aaaaadcbbdefghhiiiiiiiiiiiiiiiiiiiiiiiiiiiiiiiiiiihhgfcdbbdefaaa",
"aaaaadcbbdefghiijjjjjjjjjjjjjjjjjjjjjjjjjjjjjjjjjiihgfcdbbdefaaa",
"aaaaadcbbdefghijjjjjjjjjjjjjjjjjjjjjjjjjjjjjjjjjjjihgfcdbbdefaaa",
"aaaaadcbbdefghijjjjjjjjjjjjjjjjjjjjjjjjjjjjjjjjjjjihgfcdbbdefaaa",
"aaaaadcbbdefghijjjjjjjjjjjjjjjjjjjjjjjjjjjjjjjjjjjihgfcdbbdefaaa",
"aaaaadcbbdefghijjjjjjjjjjjjjjjjjjjjjjjjjjjjjjjjjjjihgfcdbbdefaaa",
"aaaaadcbbdefghijjjjjjjjjjjjjjjjjjjjjjjjjjjjjjjjjjjihgfcdbbdefaaa",
"bbbbbdcbbdefghijjjjjjjjjjjjjjjjjjjjjjjjjjjjjjjjjjjihgfcdbbdkbbbb",
"cccccdcbbdefghijjjjjjjjjjjjjjjjjjjjjjjjjjjjjjjjjjjihgfcdbbddcccc",
"bbbbbdcbbdefghijjjjjjjjjjjjjjjjjjjjjjjjjjjjjjjjjjjihgfcdbbdkbbbb",
"bbbbbdcbbdefghijjjjjjjjjjjjjjjjjjjjjjjjjjjjjjjjjjjihgfcdbbdkbbbb",
"ddddddcbbdefghijjjjjjjjjjjjjjjjjjjjjjjjjjjjjjjjjjjihgfcdbbdkdddd",
"eeeeedcbbdefghijjjjjjjjjjjjjjjjjjjjjjjjjjjjjjjjjjjihgfcdbbdeeeee",
"fffffdcbbdefghijjjjjjjjjjjjjjjjjjjjjjjjjjjjjjjjjjjihgfcdbbdeffff",
"aaaaadcbbdefghijjjjjjjjjjjjjjjjjjjjjjjjjjjjjjjjjjjihgfcdbbdefaaa",
"aaaaadcbbdefghijjjjjjjjjjjjjjjjjjjjjjjjjjjjjjjjjjjihgfcdbbdefaaa",
"aaaaadcbbdefghijjjjjjjjjjjjjjjjjjjjjjjjjjjjjjjjjjjihgfcdbbdefaaa",
"aaaaadcbbdefghijjjjjjjjjjjjjjjjjjjjjjjjjjjjjjjjjjjihgfcdbbdefaaa",
"aaaaadcbbdefghijjjjjjjjjjjjjjjjjjjjjjjjjjjjjjjjjjjihgfcdbbdefaaa",
"aaaaadcbbdefghijjjjjjjjjjjjjjjjjjjjjjjjjjjjjjjjjjjihgfcdbbdefaaa",
"aaaaadcbbdefghijjjjjjjjjjjjjjjjjjjjjjjjjjjjjjjjjjjihgfcdbbdefaaa",
"aaaaadcbbdefghijjjjjjjjjjjjjjjjjjjjjjjjjjjjjjjjjjjihgfcdbbdefaaa",
"aaaaadcbbdefghijjjjjjjjjjjjjjjjjjjjjjjjjjjjjjjjjjjihgfcdbbdefaaa",
"aaaaadcbbdefghijjjjjjjjjjjjjjjjjjjjjjjjjjjjjjjjjjjihgfcdbbdefaaa",
"aaaaadcbbdefghijjjjjjjjjjjjjjjjjjjjjjjjjjjjjjjjjjjihgfcdbbdefaaa",
"aaaaadcbbdefghijjjjjjjjjjjjjjjjjjjjjjjjjjjjjjjjjjjihgfcdbbdefaaa",
"aaaaadcbbdefghijjjjjjjjjjjjjjjjjjjjjjjjjjjjjjjjjjjihgfcdbbdefaaa",
"bbbbbdcbbdefghijjjjjjjjjjjjjjjjjjjjjjjjjjjjjjjjjjjihgfcdbbdkbbbb",
"cccccdcbbdefghijjjjjjjjjjjjjjjjjjjjjjjjjjjjjjjjjjjihgfcdbbddcccc",
"bbbbbdcbbdefghijjjjjjjjjjjjjjjjjjjjjjjjjjjjjjjjjjjihgfcdbbdkbbbb",
"bbbbbdcbbdefghijjjjjjjjjjjjjjjjjjjjjjjjjjjjjjjjjjjihgfcdbbdkbbbb",
"ddddddcbbdefghijjjjjjjjjjjjjjjjjjjjjjjjjjjjjjjjjjjihgfcdbbdkdddd",
"eeeeedcbbdefghijjjjjjjjjjjjjjjjjjjjjjjjjjjjjjjjjjjihgfcdbbdeeeee",
"fffffdcbbdefghijjjjjjjjjjjjjjjjjjjjjjjjjjjjjjjjjjjihgfcdbbdeffff",
"aaaaadcbbdefghijjjjjjjjjjjjjjjjjjjjjjjjjjjjjjjjjjjihgfcdbbdefaaa",
"aaaaadcbbdefghijjjjjjjjjjjjjjjjjjjjjjjjjjjjjjjjjjjihgfcdbbdefaaa",
"aaaaadcbbdefghiijjjjjjjjjjjjjjjjjjjjjjjjjjjjjjjjjiihgfcdbbdefaaa",
"aaaaadcbbdefghhiiiiiiiiiiiiiiiiiiiiiiiiiiiiiiiiiiihhgfcdbbdefaaa",
"aaaaadcbbdefgghhhhhhhhhhhhhhhhhhhhhhhhhhhhhhhhhhhhhggfcdbbdefaaa",
"aaaaadcbbdeffgggggggggggggggggggggggggggggggggggggggffcdbbdefaaa",
"aaaaadcbbbcefffffffffffffffffffffffffffffffffffffffffcddbbdefaaa",
"aaaaadcbbbdccccccccccccccccccccccccccccccccccccccccccddbbbdefaaa",
"aaaaafdcbbbdddddddddddddddddddddddddddddddddddddddddddbbbdefaaaa",
"aaaaafdcbbbbbbbbbbbbbbbbbbbbbbbbbbbbbbbbbbbbbbbbbbbbbbbbbdefaaaa",
"aaaaafeddcbbbbbbbbbbbbbbbbbbbbbbbbbbbbbbbbbbbbbbbbbbbbbddefaaaaa",
"aaaaaafeeddddddddddddddddddddddddddddddddddddddddddddddeefaaaaaa",
"aaaaaaaffeeeeekdkkkeeeeeeeeeeeeeeeeeeeeeeeeeekdkkkeeeeeffaaaaaaa",
"aaaaaaaaafffffbcbbdefffffffffffffffffffffffffbcbbdeffffaaaaaaaaa",
"aaaaaaaaaaaaaabcbbdefaaaaaaaaaaaaaaaaaaaaaaaabcbbdefaaaaaaaaaaaa",
"aaaaaaaaaaaaaabcbbdefaaaaaaaaaaaaaaaaaaaaaaaabcbbdefaaaaaaaaaaaa",
"aaaaaaaaaaaaaabcbbdefaaaaaaaaaaaaaaaaaaaaaaaabcbbdefaaaaaaaaaaaa"
};