/* XPM */
static char *floor_r05_c02[] = {
"64 64 5 1",
"a	c #242424",
"b	c #343434",
"c	c #3C3C3C",
"d	c #1C1C1C",
"e	c #2C2C2C",
"aaaaaaaaaaaaaaaaaaaaaaaaaaaaaaaaaaaaaaaaaaaaaaaaaaaaaaaaaaaaaaaa",
"aaaaaaaaaaaaaabccccccccccccccccccccccccccccccccccdaaaaaaaaaaaaaa",
"aaaaaaaaaaaaabcbbbbbbbbbbbbbbbbbbbbbbbbbbbbbbbbbbbdaaaaaaaaaaaaa",
"aaaaaaaaaaaabcbeeeeeeeeeeeeeeeeeeeeeeeeeeeeeeeeeeebdaaaaaaaaaaaa",
"aaaaaaaaaaabcbeeeeeeeeeeeeeeeeeeeeeeeeeeeeeeeeeeeeeedaaaaaaaaaaa",
"aaaaaaaaaabcbeeeeeeeeeeeeeeeeeeeeeeeeeeeeeeeeeeeeeeeadaaaaaaaaaa",
"aaaaaaaaabcbeeeeeeeeeeeeeeeeeeeeeeeeeeeeeeeeeeeeeeeeeadaaaaaaaaa",
"aaaaaaaabcbeeeeeeeeeddddddddddddddddddddddddeeeeeeeeeeadaaaaaaaa",
"aaaaaaabcbeeeeeeeeedaaaaaaaaaaaaaaaaaaaaaaebcbeeeeeeeeeadaaaaaaa",
"aaaaaabcbeeeeeeeeedaeeeeeeeeeeeeeeeeeeeeeeeebcbeeeeeeeeeadaaaaaa",
"aaaaabcbeeeeeeeeedaeeeeeeeeeeeeeeeeeeeeeeeeeebcbeeeeeeeeeadaaaaa",
"aaaabcbeeeeeeeeedaeeeeeeeeeeeeeeeeeeeeeeeeeeeebcbeeeeeeeeeadaaaa",
"aaabcbeeeeeeeeedaeeeeeeeeeeeeeeeeeeeeeeeeeeeeeebcbeeeeeeeeeadaaa",
"aabcbeeeeeeeeedaeeeeeeeeeeeeeeeeeeeeeeeeeeeeeeeebcbeeeeeeeeeadaa",
"abcbeeeeeeeeedaeeeeeeeeeeeeeeeeeeeeeeeeeeeeeeeeeebcbeeeeeeeeeada",
"abcbeeeeeeeedaeeeeeeeeeeeeeeeeeeeeeeeeeeeeeeeeeeeebcbeeeeeeeeada",
"abcbeeeeeeedaeeeeeeeeeeeeeeeeeeeeeeeeeeeeeeeeeeeeeebcbeeeeeeeada",
"abcbeeeeeedaeeeeeeeeeeeeeeeeeeeeeeeeeeeeeeeeeeeeeeeebcbeeeeeeada",
"abcbeeeeedaeeeeeeeeeeeeeeeeeeeeeeeeeeeeeeeeeeeeeeeeeebcbeeeeeada",
"abcbeeeedaeeeeeeeeeeeeeeeeeeeeeeeeeeeeeeeeeeeeeeeeeeeebcbeeeeada",
"abcbeeedaeeeeeeeeeeeeeeeeeeeeeeeeeeeeeeeeeeeeeeeeeeeeeebcbeeeada",
"abcbeedaeeeeeeeeeeeeeeeeeeeeeeeeeeeeeeeeeeeeeeeeeeeeeeeebceeeada",
"abcbeedaeeeeeeeeeeeeeeeeeeeeeeeeeeeeeeeeeeeeeeeeeeeeeeeebceeeada",
"abcbeedaeeeeeeeeeeeeeeeeeeeeeeeeeeeeeeeeeeeeeeeeeeeeeeeebceeeada",
"abcbeedaeeeeeeeeeeeeeeeeeeeeeeeeeeeeeeeeeeeeeeeeeeeeeeeebceeeada",
"abcbeedaeeeeeeeeeeeeeeeeeeeeeeeeeeeeeeeeeeeeeeeeeeeeeeeebceeeada",
"abcbeedaeeeeeeeeeeeeeeeeeeeeeeeeeeeeeeeeeeeeeeeeeeeeeeeebceeeada",
"abcbeedaeeeeeeeeeeeeeeeeeeeeeeeeeeeeeeeeeeeeeeeeeeeeeeeebceeeada",
"abcbeedaeeeeeeeeeeeeeeeeeeeeeeeeeeeeeeeeeeeeeeeeeeeeeeeebceeeada",
"abcbeedaeeeeeeeeeeeeeeeeeeeeeeeeeeeeeeeeeeeeeeeeeeeeeeeebceeeada",
"abcbeedaeeeeeeeeeeeeeeeeeeeeeeeeeeeeeeeeeeeeeeeeeeeeeeeebceeeada",
"abcbeedaeeeeeeeeeeeeeeeeeeeeeeeeeeeeeeeeeeeeeeeeeeeeeeeebceeeada",
"abcbeedaeeeeeeeeeeeeeeeeeeeeeeeeeeeeeeeeeeeeeeeeeeeeeeeebceeeada",
"abcbeedaeeeeeeeeeeeeeeeeeeeeeeeeeeeeeeeeeeeeeeeeeeeeeeeebceeeada",
"abcbeedaeeeeeeeeeeeeeeeeeeeeeeeeeeeeeeeeeeeeeeeeeeeeeeeebceeeada",
"abcbeedaeeeeeeeeeeeeeeeeeeeeeeeeeeeeeeeeeeeeeeeeeeeeeeeebceeeada",
"abcbeedaeeeeeeeeeeeeeeeeeeeeeeeeeeeeeeeeeeeeeeeeeeeeeeeebceeeada",
"abcbeedaeeeeeeeeeeeeeeeeeeeeeeeeeeeeeeeeeeeeeeeeeeeeeeeebceeeada",
"abcbeedaeeeeeeeeeeeeeeeeeeeeeeeeeeeeeeeeeeeeeeeeeeeeeeeebceeeada",
"abcbeedaeeeeeeeeeeeeeeeeeeeeeeeeeeeeeeeeeeeeeeeeeeeeeeeebceeeada",
"abcbeedaeeeeeeeeeeeeeeeeeeeeeeeeeeeeeeeeeeeeeeeeeeeeeeeebceeeada",
"abcbeedaeeeeeeeeeeeeeeeeeeeeeeeeeeeeeeeeeeeeeeeeeeeeeeeebceeeada",
"abcbeedaeeeeeeeeeeeeeeeeeeeeeeeeeeeeeeeeeeeeeeeeeeeeeeeebceeeada",
"abcbeeedaeeeeeeeeeeeeeeeeeeeeeeeeeeeeeeeeeeeeeeeeeeeeeebcbeeeada",
"abcbeeeedaeeeeeeeeeeeeeeeeeeeeeeeeeeeeeeeeeeeeeeeeeeeebcbeeeeada",
"abcbeeeeedaeeeeeeeeeeeeeeeeeeeeeeeeeeeeeeeeeeeeeeeeeebcbeeeeeada",
"abcbeeeeeedaeeeeeeeeeeeeeeeeeeeeeeeeeeeeeeeeeeeeeeeebcbeeeeeeada",
"abcbeeeeeeedaeeeeeeeeeeeeeeeeeeeeeeeeeeeeeeeeeeeeeebcbeeeeeeeada",
"abcbeeeeeeeedaeeeeeeeeeeeeeeeeeeeeeeeeeeeeeeeeeeeebcbeeeeeeeeada",
"aabcbeeeeeeeedaeeeeeeeeeeeeeeeeeeeeeeeeeeeeeeeeeebcbeeeeeeeeadaa",
"aaabcbeeeeeeeedaeeeeeeeeeeeeeeeeeeeeeeeeeeeeeeeebcbeeeeeeeeadaaa",
"aaaabcbeeeeeeeedaeeeeeeeeeeeeeeeeeeeeeeeeeeeeeebcbeeeeeeeeadaaaa",
"aaaaabcbeeeeeeeedbeeeeeeeeeeeeeeeeeeeeeeeeeeeebcbeeeeeeeeadaaaaa",
"aaaaaabcbeeeeeeeedbeeeeeeeeeeeeeeeeeeeeeeeeeebcbeeeeeeeeadaaaaaa",
"aaaaaaabcbeeeeeeeedbbbbbbbbbbbbbbbbbbbbbbbbbbcbeeeeeeeeadaaaaaaa",
"aaaaaaaabcbeeeeeeeedcccccccccccccccccccccccccbeeeeeeeeadaaaaaaaa",
"aaaaaaaaabcbeeeeeeeeeeeeeeeeeeeeeeeeeeeeeeeeeeeeeeeeeadaaaaaaaaa",
"aaaaaaaaaabcbeeeeeeeeeeeeeeeeeeeeeeeeeeeeeeeeeeeeeeeadaaaaaaaaaa",
"aaaaaaaaaaabcbeeeeeeeeeeeeeeeeeeeeeeeeeeeeeeeeeeeeeadaaaaaaaaaaa",
"aaaaaaaaaaaabcbeeeeeeeeeeeeeeeeeeeeeeeeeeeeeeeeeeeadaaaaaaaaaaaa",
"aaaaaaaaaaaaabcbeeeeeeeeeeeeeeeeeeeeeeeeeeeeeeeeeadaaaaaaaaaaaaa",
"aaaaaaaaaaaaaabcbeaaaaaaaaaaaaaaaaaaaaaaaaaaaaaaadaaaaaaaaaaaaaa",
"aaaaaaaaaaaaaaaadddddddddddddddddddddddddddddddddaaaaaaaaaaaaaaa",
"aaaaaaaaaaaaaaaaaaaaaaaaaaaaaaaaaaaaaaaaaaaaaaaaaaaaaaaaaaaaaaaa"
};