/* XPM */
static char *floor_r00_c01[] = {
"64 64 7 1",
"a	c #242424",
"b	c #545454",
"c	c #4C4C4C",
"d	c #3C3C3C",
"e	c #444444",
"f	c #2C2C2C",
"g	c #343434",
"aaaaaaaaaaaaaaaaaaaaaaaaaaaaaaaaaaaaaaaaaaaaaaaaaaaaaaaaaaaaaaaa",
"aaaaaaaaaaaaaaaaaaaaaaaaaaaaaaaaaaaaaaaaaaaaaaaaaaaaaaaaaaaaaaaa",
"aabcccccccccccccccccccccccccccdabccccccccccccccccccccccccccccdaa",
"aacceeeeeeeeeeeeeeeeeeeeeeeeedaacceeeeeeeeeeeeeeeeeeeeeeeeeedaaa",
"aacedddddddddddddddddddddddddfaaceddddddddddddddddddddddddddfaaa",
"aacedfffffffffffffffffffffffgfaacedffffffffffffffffffffffffgfaaa",
"aacedfffffffffffffffffffffffgfaacedffffffffffffffffffffffffgfaaa",
"aacedfffffffffffffffffffffffgfaacedffffffffffffffffffffffffgfaaa",
"aacedfffffffffffffffffffffffgfaacedffffffffffffffffffffffffgfaaa",
"aacedfffffffffffffffffffffffgfaacedffffffffffffffffffffffffgfaaa",
"aacedfffffffffffffffffffffffgfaacedffffffffffffffffffffffffgfaaa",
"aacedfffffffffffffffffffffffgfaacedffffffffffffffffffffffffgfaaa",
"aacedfffffffffffffffffffffffgfaacedffffffffffffffffffffffffgfaaa",
"aacedfffffffffffffffffffffffgfaacedffffffffffffffffffffffffgfaaa",
"aacedfffffffffffffffffffffffgfaacedffffffffffffffffffffffffgfaaa",
"aacedfffffffffffffffffffffffgfaacedffffffffffffffffffffffffgfaaa",
"aacedfffffffffffffffffffffffgfaacedffffffffffffffffffffffffgfaaa",
"aacedfffffffffffffffffffffffgfaacedffffffffffffffffffffffffgfaaa",
"aacedfffffffffffffffffffffffgfaacedffffffffffffffffffffffffgfaaa",
"aacedfffffffffffffffffffffffgfaacedffffffffffffffffffffffffgfaaa",
"aacedfffffffffffffffffffffffgfaacedffffffffffffffffffffffffgfaaa",
"aacedfffffffffffffffffffffffgfaacedffffffffffffffffffffffffgfaaa",
"aacedfffffffffffffffffffffffgfaacedffffffffffffffffffffffffgfaaa",
"aacedfffffffffffffffffffffffgfaacedffffffffffffffffffffffffgfaaa",
"aacedfffffffffffffffffffffffgfaacedffffffffffffffffffffffffgfaaa",
"aacedfffffffffffffffffffffffgfaacedffffffffffffffffffffffffgfaaa",
"aacedfffffffffffffffffffffffgfaacedffffffffffffffffffffffffgfaaa",
"aacedfffffffffffffffffffffffgfaacedffffffffffffffffffffffffgfaaa",
"aacegggggggggggggggggggggggggfaaceggggggggggggggggggggggggggfaaa",
"aacgffffffffffffffffffffffffffaacgfffffffffffffffffffffffffffaaa",
"aadaaaaaaaaaaaaaaaaaaaaaaaaaaaaadaaaaaaaaaaaaaaaaaaaaaaaaaaaaaaa",
"aaaaaaaaaaaaaaaaaaaaaaaaaaaaaaaaaaaaaaaaaaaaaaaaaaaaaaaaaaaaaaaa",
"aabcccccccccccccccccccccccccccdabccccccccccccccccccccccccccccdaa",
"aacceeeeeeeeeeeeeeeeeeeeeeeeedaacceeeeeeeeeeeeeeeeeeeeeeeeeedaaa",
"aacedddddddddddddddddddddddddfaaceddddddddddddddddddddddddddfaaa",
"aacedfffffffffffffffffffffffgfaacedffffffffffffffffffffffffgfaaa",
"aacedfffffffffffffffffffffffgfaacedffffffffffffffffffffffffgfaaa",
"aacedfffffffffffffffffffffffgfaacedffffffffffffffffffffffffgfaaa",
"aacedfffffffffffffffffffffffgfaacedffffffffffffffffffffffffgfaaa",
"aacedfffffffffffffffffffffffgfaacedffffffffffffffffffffffffgfaaa",
"aacedfffffffffffffffffffffffgfaacedffffffffffffffffffffffffgfaaa",
"aacedfffffffffffffffffffffffgfaacedffffffffffffffffffffffffgfaaa",
"aacedfffffffffffffffffffffffgfaacedffffffffffffffffffffffffgfaaa",
"aacedfffffffffffffffffffffffgfaacedffffffffffffffffffffffffgfaaa",
"aacedfffffffffffffffffffffffgfaacedffffffffffffffffffffffffgfaaa",
"aacedfffffffffffffffffffffffgfaacedffffffffffffffffffffffffgfaaa",
"aacedfffffffffffffffffffffffgfaacedffffffffffffffffffffffffgfaaa",
"aacedfffffffffffffffffffffffgfaacedffffffffffffffffffffffffgfaaa",
"aacedfffffffffffffffffffffffgfaacedffffffffffffffffffffffffgfaaa",
"aacedfffffffffffffffffffffffgfaacedffffffffffffffffffffffffgfaaa",
"aacedfffffffffffffffffffffffgfaacedffffffffffffffffffffffffgfaaa",
"aacedfffffffffffffffffffffffgfaacedffffffffffffffffffffffffgfaaa",
"aacedfffffffffffffffffffffffgfaacedffffffffffffffffffffffffgfaaa",
"aacedfffffffffffffffffffffffgfaacedffffffffffffffffffffffffgfaaa",
"aacedfffffffffffffffffffffffgfaacedffffffffffffffffffffffffgfaaa",
"aacedfffffffffffffffffffffffgfaacedffffffffffffffffffffffffgfaaa",
"aacedfffffffffffffffffffffffgfaacedffffffffffffffffffffffffgfaaa",
"aacedfffffffffffffffffffffffgfaacedffffffffffffffffffffffffgfaaa",
"aacedfffffffffffffffffffffffgfaacedffffffffffffffffffffffffgfaaa",
"aacegggggggggggggggggggggggggfaaceggggggggggggggggggggggggggfaaa",
"aacgffffffffffffffffffffffffffaacgfffffffffffffffffffffffffffaaa",
"aadaaaaaaaaaaaaaaaaaaaaaaaaaaaaadaaaaaaaaaaaaaaaaaaaaaaaaaaaaaaa",
"aaaaaaaaaaaaaaaaaaaaaaaaaaaaaaaaaaaaaaaaaaaaaaaaaaaaaaaaaaaaaaaa",
"aaaaaaaaaaaaaaaaaaaaaaaaaaaaaaaaaaaaaaaaaaaaaaaaaaaaaaaaaaaaaaaa"
};