/* XPM */
static char *floor_r03_c00[] = {
"64 64 4 1",
"a	c #2C2C2C",
"b	c #444444",
"c	c #4C4C4C",
"d	c #3C3C3C",
"aaaaaaaaaaaaaaaaaaaaaaaaaaaaaaaaaaaaaaaaaaaaaaaaaaaaaaaaaaaaaaaa",
"abbbbbbbbbbbbbbbbbbbbbbbbbbbbbbbbbbbbbbbbbbbbbbbbbbbbbbbbbbbbbba",
"abccccccccccccccccccccccccccccccccccccccccccccccccccccccccccccba",
"abcbbbbbbbbbbbbbbbbbbbbbbbbbbbbbbbbbbbbbbbbbbbbbbbbbbbbbbbbbbcba",
"abcbbbbddddbbdbbbbdbbdbddddbddbbddddbddddddddbddbdbbbdbdbdbbbcba",
"abcbddbdddbddddbdddddddddbdddddddbddbdddbddbbbbbdddddbddddddbcba",
"abcbdddbdbddbdddbdddbdddbdbbdddbbbbdddbddbdbddbdbdbdbddbbdddbcba",
"abcbbbbbbddbdddddbddbdddddddbbbbdbbbbbddbbbdbbddddbbdbdbbdbbbcba",
"abcbbdbdddddddddddddddbddbbdbdbddbbbbdddbdddbbbdbdbbdbdbbddbbcba",
"abcbddddbbbdbdbdbdddbbbbbdbdddddbbddbddbddddbddddbbbdbdbbbdbbcba",
"abcbdbbbdbdbdbddddddddbdddddddbbddbdbbbbdbdbdbbdddbbddbdbdddbcba",
"abcbddbbdbddbdbddbdddbbddddbbbdbdbddbdbdbbbbbdbbbbddddbbdddbbcba",
"abcbddbdddbdbbbdbbdbbddbddbbbbbbdbdbbbdbbbbbbbdbbbdbbbddddbbbcba",
"abcbbdbdbdbbdddbbdbbbbdbbbbbbbddbbdbddddbddbbbbbbbdbbddddbbdbcba",
"abcbbbddddbdbddbbbbddddbbbbdbbbdbbdbbbddbbbbdbbdddddbbdbddbbbcba",
"abcbbddddbddbdbbdddddddbddbddbbbbddbbdddbddbdbbbdbbdbdbbbbddbcba",
"abcbddbdbdbbbbbdddbdddddbbdbbbbbddddbdbddbddbbbdbdddddbdbbbdbcba",
"abcbbdbdddddbdbdbddddbbdbdbbbddddbbbbdddbddbbbbbdbdbddddbddbbcba",
"abcbdddddbbbddbdbbbdddddbbbbdbbdbbdbbbdbdddbbddddbdddddbbbbbbcba",
"abcbbbdbddbbdbdbbdddbdddddddbddbbbddbdddbdbbdbdbdbbdbbbddbddbcba",
"abcbddbdbdbdddbbbbbdddddbbdbbdddbddbbbbbbbddbbbdbdbbbbbbbbddbcba",
"abcbbddbbdbbbbdbbddddbbdbdbddbdbddbbddbddbbbdbbbbdbbddbbbbbdbcba",
"abcbdbddddbddbddddddbdbbbdbddbbbdddbbdbbdbbddbbdbbbbddddbdbdbcba",
"abcbbdddbddbdbbddbbdddbbbddbbbbddddddbddbddbbddbbddbdbbbbbdbbcba",
"abcbbdddddbdddbbbbbdbdbbbbbbbbdbbddbdddbdbdbddbdbbddbbddbbddbcba",
"abcbbdddbdbddbdbdbbdbddbbbdddddbdbdbdbdbbbbdddddbbddddbdbdbdbcba",
"abcbdddddbbbddddbdbdddbbbbdbddbddbbddddbdbdddddddbbdbbbddbddbcba",
"abcbbbbbdddbdbdddddbdbbbdddbbdddddddddbdbbdbbddbbdbdbdbdbddbbcba",
"abcbbbbbbbbbbbbbbbbbbbbbbbbbbbbbbbbbbbbbbbbbbbbbbbbbbbbbbbbbbcba",
"abccccccccccccccccccccccccccccccccccccccccccccccccccccccccccccba",
"abbbbbbbbbbbbbbbbbbbbbbbbbbbbbbbbbbbbbbbbbbbbbbbbbbbbbbbbbbbbbba",
"aaaaaaaaaaaaaaaaaaaaaaaaaaaaaaaaaaaaaaaaaaaaaaaaaaaaaaaaaaaaaaaa",
"aaaaaaaaaaaaaaaaaaaaaaaaaaaaaaaaaaaaaaaaaaaaaaaaaaaaaaaaaaaaaaaa",
"abbbbbbbbbbbbbbbbbbbbbbbbbbbbbbbbbbbbbbbbbbbbbbbbbbbbbbbbbbbbbba",
"abccccccccccccccccccccccccccccccccccccccccccccccccccccccccccccba",
"abcbbbbbbbbbbbbbbbbbbbbbbbbbbbbbbbbbbbbbbbbbbbbbbbbbbbbbbbbbbcba",
"abcbddddbdddddbdbbddddbdbdddddbdbbdbbddddddbdbbbdddbdbdbddddbcba",
"abcbbbbdbdddddbddbbdbdbdbbdbddddbdddbddbbddbbbdbdbbdbbdddbdbbcba",
"abcbddddbdbbbdbddbddbddbbbddbbbdbdbdbdbddbdbbddddbbdddddbdddbcba",
"abcbdddbbdbdddddbdbdbbbbbbddbddddddbdddddddbdbddddbdddbbbbdbbcba",
"abcbbddddddbdbdbbddbbddbddbdddddbbdbdbddbbdbbddbdddddbbdbbbbbcba",
"abcbddbdbddbbdddbddbddddbddbbbdbdddbdbddbdbbdbdbdddddddbdbbdbcba",
"abcbbdddbdbdddbddbdddbddbdddbdbdbdbddddbbbdbbdddbbdbddbbbbddbcba",
"abcbbddddbdddbddbdddbddbdbddbddbbdddddbddbbbdddddbbbdddbdbbdbcba",
"abcbbbdddddddbddddddbdbbddbddbbbdbbddbbdbdbbddbbbdddbbddddddbcba",
"abcbddbdddbbddddddbdbbdbbdddbdddddddbdbbdddbbbbbbdbddddddddbbcba",
"abcbdddbbdbbbddbdbddbdddbdbddbbbdbdbbbbbbbddbbbddbddbbdddbbbbcba",
"abcbbdbbddddbbddbbbddbbdbddddbddbdbdbdbbbddbbdbbbbbddbddbddbbcba",
"abcbddbdddddbdbbddbdddbbbbbddddddddbbbddbbbddbdbddbbdbbdbdbbbcba",
"abcbdbbbbddbbdddddbddbdbdbbdddbdddbddbbdbbddbbbddbdbdbdbddbbbcba",
"abcbbdddbdddbbdddddbbbbbdbbdddbddddbbdddbbbbbbbdbbbdbbddbdddbcba",
"abcbbdbdbbdbbbddddddbdbbddbdbbdbdbdddbdbddddbdbbbbbbbdddbbdbbcba",
"abcbdddbbbdddbbdbddbdbbdddddbddbdddddddbddbbbbddddddbdbddddbbcba",
"abcbddbddbdddddbdbddddddbbbbdbddbbddddbdbbbbddddbbddddbbddbdbcba",
"abcbddbddbbbddbddbddbbdbddbddbdbbbdddddddddbbbdbdbddbbdbdbdbbcba",
"abcbbdbdbbddbddddbbddbbddddbbddbdbdbdddbdddddbbdddddbddddbddbcba",
"abcbdbdddbdbdbbdddbddddbbdddddbbddbddbdbdddbdbbdbbbbdddbdddbbcba",
"abcbbddbdbbdddbddddddddbbdbddbbbdbdbbddbdbdbddbbddbbbdbbdbddbcba",
"abcbddbdbbdddbddddbbdddbdbdddbbdddbbbdddbddbddbbbbdbdddbbdbdbcba",
"abcbddbdbbbbdbdbddddbbbdddbdddbdbbddddbdbbbbdbddbbddbddbddddbcba",
"abcbbbbbbbbbbbbbbbbbbbbbbbbbbbbbbbbbbbbbbbbbbbbbbbbbbbbbbbbbbcba",
"abccccccccccccccccccccccccccccccccccccccccccccccccccccccccccccba",
"abbbbbbbbbbbbbbbbbbbbbbbbbbbbbbbbbbbbbbbbbbbbbbbbbbbbbbbbbbbbbba",
"aaaaaaaaaaaaaaaaaaaaaaaaaaaaaaaaaaaaaaaaaaaaaaaaaaaaaaaaaaaaaaaa"
};