/* XPM */
static char *floor_r01_c00[] = {
"64 64 5 1",
"a	c #081420",
"b	c #204060",
"c	c #142840",
"d	c #183450",
"e	c #0C1C30",
"aaaaaaaaaaaaaaaaaaaaaaaaaaaaaaaaaaaaaaaaaaaaaaaaaaaaaaaaaaaaaaaa",
"aaaaaaaaaaaaaaaaaaaaaaaaaaaaaaaaaaaaaaaaaaaaaaaaaaaaaaaaaaaaaaaa",
"aabbbbbbbbbbbbbbbbbbbbbbbbbbbbbcbbbbbbbbbbbbbbbbbbbbbbbbbbbbbcaa",
"aabddddddddddddcddddddddddddddcabdddddddddddddddddddccddddddceaa",
"aabdcccccccccccccccccccccccccceabdcccccccccccccccccccddcccdceeaa",
"aabccccccccccccccccccccdcccccceabdcccccccccccccccccccccccccceeaa",
"aabdccccccccccccccccccddcccccceabdcccccccccccccccccccccccccceeaa",
"aabdcccccccccccccccccccccccccceabdccccccccccccdccccccccccccceeaa",
"aabdcccccccccccccccccccccccccceabdcccccccccccccccccccccccccceeaa",
"aabdcccccccccccccccccccccccccceabdcccccccccccccccccccccccccceeaa",
"aabdcccccccccccccccccccccccccceabdccccccccccccccccccdccccccceeaa",
"aabdcccccccccccccccccccccccccceabdcccccccccccccccccccccccccceeaa",
"aabdcccccccccccdcccccccccccccceabdcccccccccccccccccccccccccceeaa",
"aabdccccccccccddcccccccccccccceabdcccccccccccccccccccccccccceeaa",
"aabdcccccccccccccccccccccccccceabdcccccccccccccccccccccccccceeaa",
"aabdcccccccccdcccccccccccccccceabdcccccccccccccccccccccccccceeaa",
"aabdcccccccccccccccccccccccccceabdcccccccccccccccccccccccccceeaa",
"aabdcccccccccccccccccccccccccceabdcccccccccccccccccccccccccceeaa",
"aabdcccccccccccccccccccccccccceabdcccccccccdcccccccccccccccceeaa",
"aabccdcccccccccccccccccccccccceabdccccccccddcccccccccccccccceeaa",
"aabcddcccccccccccccccccccccccceabdccccccdccccccccccccccccccceeaa",
"aabdcccccccccccccccccccccccccceabdcccccddccccccccccccccccccceeaa",
"aabdcccccccccccccccccccccccccceabdcccccccccccccccccccccccccceeaa",
"aabdcccccccccccccccccccccccccceabdcccccccccccccccccccccccccceeaa",
"aabdcccccccccccccccccccccccccceabdcccccccccccccccccccccccccceeaa",
"aabdcccccccccccccccccccccccccceabdccccccccccccccccdccccccccceeaa",
"aabdcccccccccccccccccccccccccceabdcccccccccccccccccccccccccceeaa",
"aabdcccccccccccccccccccccccccceabdcccccccccccccccccccccccccceeaa",
"aabdcccccccccccccccccccccccccceabdcccccccccccccccccccccccccceeaa",
"aabdcccccccccccccccccccccccccceabdcccccccccccccccccccccccccceeaa",
"aabceeeeeeeeeeeeeeeeeeeeeeeeeeeabceeeeeeeeeeeeeeeeeeeeeeeedeeeaa",
"aacaaaaaaaaaaaaaaaaaaaaaaaaaaaaacaaaaaaaaaaaaaaaaaaaaaaaaaaaaaaa",
"aabbbbbbbbbbbbbbbbbbbbbbbbbbbbbcbbbbbbbbbbbbbbbbbbbbbbbbbbbbbcaa",
"aabdddddddddddddddddddddddddddcabdddddddddddddddddddddddddddceaa",
"aabdcccccccccccccccccccccccccceabdcccccccccccccccccccccccccceeaa",
"aabdcccccccccccccccccccccccccceabdcccdcccccccccccccccccccccceeaa",
"aabdcccccccccccccccccccccccccceabdcccccccccccccccccccccccccceeaa",
"aabdcccccccccccccccccccccccccceabccdcccccccccccccccccccccccceeaa",
"aabdcccccdcccccccccccccccccccceabcddcccccccccccccccccccccccceeaa",
"aabdcccccccccccccccccccccccccceabdcccccccccccccccccccccccccceeaa",
"aabdcccccccccccccccccccccccccceabdcccccccccccccccccccccccccceeaa",
"aabdccccccccccccdccccccccccccceabdcccccccccccccccccccccccccceeaa",
"aabdcccccccccccddccccccccccccceabdcccccccccccccccdcccccccccceeaa",
"aabdcccccccccccccccccccccccccceabdcccccccccccccccccccccccccceeaa",
"aabdccccccccccccccdccccccccccceabdcccccccccccccccccccccccccceeaa",
"aabdcccccccccccccddccccccccccceabdcccccccccccccccccccccccccceeaa",
"aabdcccccccccccccccccccccccccceabdcccccccccccccccccccccccccceeaa",
"aabdcccccccccccccccccccccccccceabdcccccccccccccccccccccccccceeaa",
"aabdcccccccccccccccccccccccccceabdccccccccccccccccccdccccccceeaa",
"aabdcccccccccccccccccccccccccceabdcccccccccccccccccddccccccceeaa",
"aabdcccccccccccccccccccccccccceabdcccccccccccccccccccccccccceeaa",
"aabdcccccccccccccdcccccccccccceabdcccccccccccccccccccccccccceeaa",
"aabdcccccccccccccccccccccccccceabdcccccccccccccccccccccccccceeaa",
"aabdcccccccccdcccccccccccccccceabdcccccccccccccccccccccccccceeaa",
"aabdcccccccccccccccccccccccccceabdcccccccccccccccccccccccccceeaa",
"aabccdcccccccccccccccccccccccceabdcccccccccccccccccccccccccceeaa",
"aabcddcccccccccccccccccccccccceabdcccccdcccccccccccccccccccceeaa",
"aabdcccccccccccccccccccccccccceabdcccccdcccccccccccccccccccceeaa",
"aabdcccccccccccccccccccccccccceabdcccccccccccccccccccccccccceeaa",
"aabdcccccccccccccccccccccdcccceabdcccccccccccccccccccccccccceeaa",
"aabceeeeeeeeeeeeeeeeeeeeddeeeeeabceeeeeeeeeeeeeeeeeeeeeeeedeeeaa",
"aacaaaaaaaaaaaaaaaaaaaaaaaaaaaaacaaaaaaaaaaaaaaaaaaaaaaaaaaaaaaa",
"aaaaaaaaaaaaaaaaaaaaaaaaaaaaaaaaaaaaaaaaaaaaaaaaaaaaaaaaaaaaaaaa",
"aaaaaaaaaaaaaaaaaaaaaaaaaaaaaaaaaaaaaaaaaaaaaaaaaaaaaaaaaaaaaaaa"
};