/* XPM */
static char *floor_r02_c01[] = {
"64 64 5 1",
"a	c #2C2C2C",
"b	c #343434",
"c	c #4C4C4C",
"d	c #444444",
"e	c #3C3C3C",
"aaaaaaaaaaaaaaaaaaaaaaaaaaaaaaaaaaaaaaaaaaaaaaaaaaaaaaaaaaaaaaaa",
"abbbbbbbbbbbbbbbbbbbbbbbbbbbbbbaabbbbbbbbbbbbbbbbbbbbbbbbbbbbbba",
"abccccccccccccccccccccccccccccbaabccccccccccccccccccccccccccccba",
"abcddddddddddddddddddddddddddcbaabcddddddddddddddddddddddddddcba",
"abcdbeeebbebbbbbbebeebbbeebbdcbaabcdbbebebeeebbbbbeebbbbbbbbdcba",
"abcdebeebebbbbeebebbebbbebbbdcbaabcdeebebebbbebebbbbbeeebbebdcba",
"abcdbebeebeebebbebbbebbbebbedcbaabcdeebbbbbebeeebbbeeebbbebbdcba",
"abcdebbeebbbebbbbeebebeebeebdcbaabcdbeeebebbebbebeebbbbeebebdcba",
"abcdebbbbbebebbeebbebebeebbedcbaabcdbbbebbbbeebbbbbbbeebbebbdcba",
"abcdebbeeebbbbbbbbbeebbbebbedcbaabcdeebbeeebeebbebeebbbbbbebdcba",
"abcdbbeebebebeebbeebeebeeeebdcbaabcdbeeeebbeeeeebebeebbebbeedcba",
"abcdbbebbbebbbeebebbebeebebbdcbaabcdbebbebebebbbeeebbbbbbebbdcba",
"abcdbebbbbebbeebbbbeebeeeeeedcbaabcdebbebbbebbbbebbbeeebeebedcba",
"abcdeeeeebbbbbbbebbbeebebbbedcbaabcdbbbebbbebebbebeebebbbeeedcba",
"abcdebbeeebebbebeebbbeebebebdcbaabcdbbbebbbebebbbebebbbeebbbdcba",
"abcdebeebbbbbeeebbebbbbebbeedcbaabcdbebbbbbeebbbbeeebbbebeeedcba",
"abcdeebeeeebebebbbbbbbeebeebdcbaabcdbbbeeebeeebbebbeebbebbebdcba",
"abcdbebbebbeeebbebebebbeeebedcbaabcdeebebebbeebebeebbbbbbeeedcba",
"abcdbbebbeeebbeeebbebbeeebebdcbaabcdeebbebbbebbbebbebebebbebdcba",
"abcdebebbeeebebeebebbebeebbbdcbaabcdbebbbbbbbebeeeebbbbeeebedcba",
"abcdbeebeeebebebbbbbbbeebbbedcbaabcdebbbbebbebbbebbeebbbbebbdcba",
"abcdbbbbebebeebebebebbbebeeedcbaabcdbebbbebbbebbbbebbeeeebbedcba",
"abcdbbbeeebebbebbbbebbbebbbedcbaabcdeebbebbbbbbbbbbbeebeeebedcba",
"abcdbebbeebbbbbbbbbebeeebbebdcbaabcdbebebeeeeebebebbeebbbeeedcba",
"abcdbbeeeebbebbebbbebbbbbbeedcbaabcdbeebeebbebbeeebbbbbeebeedcba",
"abcdbebbbebebebbbbbeebebbeebdcbaabcdbebebeebebeebeebebeeebbedcba",
"abcdbbebbebbbbeebbebeeebebeedcbaabcdbebbbebbbbbbeebbbebebebedcba",
"abcdbbeebbeebbbebbbebebbbbebdcbaabcdeebbeeeeebeeebebbbbeeebedcba",
"abcdeeebbeeebbebbbebeebbbbebdcbaabcdbbbbeeebbeebeeebbbbbbeebdcba",
"abcdbbebeeebebbebbebbbbbbebedcbaabcdbeeebeebbbebbebeeebeeebedcba",
"abcdbbeebebeeebbeeebbbbbbbeedcbaabcdbebeebbeeeebbbeeebbeeebedcba",
"abcdbeeebbebbebebeeebebbebeedcbaabcdebebebbebbbbbbbbebbebeeedcba",
"abcdbebebebbebeebebeebbbbebbdcbaabcdbbbbbbbbebeeebebeebbbbbbdcba",
"abcdeeebbebebbbbbbbbebebeeeedcbaabcdebbbeebbbbebbbebebbbeeebdcba",
"abcdeebbbebbbbbebbebbbbbbebedcbaabcdbbbebbbeebbeebbbebbbbbeedcba",
"abcdeebbbebbbbbebbbebbbbebeedcbaabcdeebbbbbbbbbeeebebbbbbbbedcba",
"abcdeebbbbebbbeebebbbbeebbbbdcbaabcdbebebeebbebbebeeebbbbbeedcba",
"abcdbbbebebbebbeeeebbbbbeebedcbaabcdeebbbebbbeeeeebebbbbebeedcba",
"abcdeebbbeebbbeeebeeebbbbebbdcbaabcdebeebbbbbbbbeeebbbeeebebdcba",
"abcdebbbbbeeeeebebebbbeeebebdcbaabcdebbebebeeebbebebebbbebebdcba",
"abcdeebeebbbbeeebbebeebeebbbdcbaabcdeebeebbbebbeeebbebebeebbdcba",
"abcdbebbeebbbbbbeebeeebbbebbdcbaabcdeebebbbebebbebbebebeebebdcba",
"abcdeebebebeebbbeeebeeebbeebdcbaabcdebebbbbeebbbbebbebbebeeedcba",
"abcdebebebbbeebebebebbbeebbedcbaabcdebbebbeeebbbeebebbbeeeeedcba",
"abcdbeebbbeeebbbeeebeeeeeebedcbaabcdebeeebbeeebbbeeebbebbbbedcba",
"abcdbebebbbbbeebebbeeebebeebdcbaabcdbbbebbeebbebbebbeebbebbedcba",
"abcdebbbbbebbbbbbebebebeeebedcbaabcdebbbebbbebbbebbbeebeebbbdcba",
"abcdbbbbebeebbbeeeebbbbeeeebdcbaabcdbbbbeebebeebbbbbbbbeeebedcba",
"abcdeebeebbbebeeeeeebbbbbebbdcbaabcdebbebebbeeebeeeeeebbbbebdcba",
"abcdbebbebeeebeebebbebebebebdcbaabcdbebbeebbbbbbbbbbbeeeebbbdcba",
"abcdbebbbebbebbbebbebbbbbbeedcbaabcdebeeebeebbbeeebebeeeeebbdcba",
"abcdeeebbbbbbebeebebebeebebbdcbaabcdbbeebbebbebeebebebeebbbbdcba",
"abcdbbeebebeebbebebebeeeebeedcbaabcdbebeeebebbbbbbbeebbeebbbdcba",
"abcdeeebeebebeebebbbebebebebdcbaabcdeeebeeebebbbbbbbbbeebebbdcba",
"abcdebbbbbbebebbeeeeebbebebedcbaabcdbbebbbeebebbeebbbbbebbbbdcba",
"abcdebebbbbeebbebbeebbeebebedcbaabcdbeeeeeeeebbeebbbebbebeebdcba",
"abcdbebbbebebbeebbbbbebeebeedcbaabcdbbbbbebebeebebbbbbbebeebdcba",
"abcdbeebbbebebbbbbbbebeebeebdcbaabcdbbebebebbbbbbbbbbeebebebdcba",
"abcdeebbebebbbbebbbebbebebebdcbaabcdbeeeeebeebeebebebbbbbbbbdcba",
"abcdbbeeebebeeebeeeebbbbeebbdcbaabcdbeebbeebbbebbbebbbbeeeeedcba",
"abcddddddddddddddddddddddddddcbaabcddddddddddddddddddddddddddcba",
"abccccccccccccccccccccccccccccbaabccccccccccccccccccccccccccccba",
"abbbbbbbbbbbbbbbbbbbbbbbbbbbbbbaabbbbbbbbbbbbbbbbbbbbbbbbbbbbbba",
"aaaaaaaaaaaaaaaaaaaaaaaaaaaaaaaaaaaaaaaaaaaaaaaaaaaaaaaaaaaaaaaa"
};