/* XPM */
static char *floor_r03_c03[] = {
"64 64 7 1",
"a	c #141414",
"b	c #2C2C2C",
"c	c #343434",
"d	c #242424",
"e	c #040404",
"f	c #0C0C0C",
"g	c #1C1C1C",
"aaaaaaaaaaaaaabcbbdefaaaaaaaaaaaaaaaaaaaaaaaabcbbdefaaaaaaaaaaaa",
"aaaaaaaaaaaaaabcbbdefaaaaaaaaaaaaaaaaaaaaaaaabcbbdefaaaaaaaaaaaa",
"aaaaaaaaaaaaaabcbbdefaaaaaaaaaaaaaaaaaaaaaaaabcbbdefaaaaaaaaaaaa",
"aaaaaaaaaaaaaabcbbdefaaaaaaaaaaaaaaaaaaaaaaaabcbbdefaaaaaaaaaaaa",
"aaaaaaaaaaaaaabcbbdefaaaaaaaaaaaaaaaaaaaaaaaabcbbdefaaaaaaaaaaaa",
"aaaaaaaaaddddddddddddddddddddddddddddddddddddddddddddddaaaaaaaaa",
"aaaaaaadcccccccccccccccccccccccccccccccccccccccccccccccddfaaaaaa",
"aaaaaadccbbbbbbbbbbbbbbbbbbbbbbbbbbbbbbbbbbbbbbbbbbbbbbbcdfaaaaa",
"aaaaaadcbbbbbbbbbbbbbbbbbbbbbbbbbbbbbbbbbbbbbbbbbbbbbbbbbdefaaaa",
"aaaaadcbbbddddddddddddddddddddddddddddddddddddddddddddbbbbdefaaa",
"aaaaadcbbddeeeeeeeeeeeeeeeeeeeeeeeeeeeeeeeeeeeeeeeeeeddbbbdefaaa",
"aaaaadcbbdeefffffffffffffffffffffffffffffffffffffffffecdbbdefaaa",
"aaaaadcbbdeffaaaaaaaaaaaaaaaaaaaaaaaaaaaaaaaaaaaaaaaffcdbbdefaaa",
"aaaaadcbbdefaaaaaaaaaaaaaaaaaaaaaaaaaaaaaaaaaaaaaaaaafcdbbdefaaa",
"aaaaadcbbdefaaaaaaaaaaaaaaaaaaaaaaaaaaaaaaaaaaaaaaaaafcdbbdefaaa",
"aaaaadcbbdefaaaaaaaaaaaaaaaaaaaaaaaaaaaaaaaaaaaaaaaaafcdbbdefaaa",
"aaaaadcbbdefaaaaaaaaaaaaaaaaaaaaaaaaaaaaaaaaaaaaaaaaafcdbbdefaaa",
"aaaaadcbbdefaaaaaaaaaaaaaaaaaaaaaaaaaaaaaaaaaaaaaaaaafcdbbdefaaa",
"aaaaadcbbdefaaaaaaaaaaaaaaaaaaaaaaaaaaaaaaaaaaaaaaaaafcdbbdefaaa",
"aaaaadcbbdefaaaaaaaaaaaaaaaaaaaaaaaaaaaaaaaaaaaaaaaaafcdbbdefaaa",
"bbbbbdcbbdefaaaaaaaaaaaaaaaaaaaaaaaaaaaaaaaaaaaaaaaaafcdbbdgbbbb",
"cccccdcbbdefaaaaaaaaaaaaaaaaaaaaaaaaaaaaaaaaaaaaaaaaafcdbbddcccc",
"bbbbbdcbbdefaaaaaaaaaaaaaaaaaaaaaaaaaaaaaaaaaaaaaaaaafcdbbdgbbbb",
"bbbbbdcbbdefaaaaaaaaaaaaaaaaaaaaaaaaaaaaaaaaaaaaaaaaafcdbbdgbbbb",
"ddddddcbbdefaaaaaaaaaaaaaaaaaaaaaaaaaaaaaaaaaaaaaaaaafcdbbdgdddd",
"eeeeedcbbdefaaaaaaaaaaaaaaaaaaaaaaaaaaaaaaaaaaaaaaaaafcdbbdeeeee",
"fffffdcbbdefaaaaaaaaaaaaaaaaaaaaaaaaaaaaaaaaaaaaaaaaafcdbbdeffff",
"aaaaadcbbdefaaaaaaaaaaaaaaaaaaaaaaaaaaaaaaaaaaaaaaaaafcdbbdefaaa",
"aaaaadcbbdefaaaaaaaaaaaaaaaaaaaaaaaaaaaaaaaaaaaaaaaaafcdbbdefaaa",
"aaaaadcbbdefaaaaaaaaaaaaaaaaaaaaaaaaaaaaaaaaaaaaaaaaafcdbbdefaaa",
"aaaaadcbbdefaaaaaaaaaaaaaaaaaaaaaaaaaaaaaaaaaaaaaaaaafcdbbdefaaa",
"aaaaadcbbdefaaaaaaaaaaaaaaaaaaaaaaaaaaaaaaaaaaaaaaaaafcdbbdefaaa",
"aaaaadcbbdefaaaaaaaaaaaaaaaaaaaaaaaaaaaaaaaaaaaaaaaaafcdbbdefaaa",
"aaaaadcbbdefaaaaaaaaaaaaaaaaaaaaaaaaaaaaaaaaaaaaaaaaafcdbbdefaaa",
"aaaaadcbbdefaaaaaaaaaaaaaaaaaaaaaaaaaaaaaaaaaaaaaaaaafcdbbdefaaa",
"aaaaadcbbdefaaaaaaaaaaaaaaaaaaaaaaaaaaaaaaaaaaaaaaaaafcdbbdefaaa",
"aaaaadcbbdefaaaaaaaaaaaaaaaaaaaaaaaaaaaaaaaaaaaaaaaaafcdbbdefaaa",
"aaaaadcbbdefaaaaaaaaaaaaaaaaaaaaaaaaaaaaaaaaaaaaaaaaafcdbbdefaaa",
"aaaaadcbbdefaaaaaaaaaaaaaaaaaaaaaaaaaaaaaaaaaaaaaaaaafcdbbdefaaa",
"aaaaadcbbdefaaaaaaaaaaaaaaaaaaaaaaaaaaaaaaaaaaaaaaaaafcdbbdefaaa",
"bbbbbdcbbdefaaaaaaaaaaaaaaaaaaaaaaaaaaaaaaaaaaaaaaaaafcdbbdgbbbb",
"cccccdcbbdefaaaaaaaaaaaaaaaaaaaaaaaaaaaaaaaaaaaaaaaaafcdbbddcccc",
"bbbbbdcbbdefaaaaaaaaaaaaaaaaaaaaaaaaaaaaaaaaaaaaaaaaafcdbbdgbbbb",
"bbbbbdcbbdefaaaaaaaaaaaaaaaaaaaaaaaaaaaaaaaaaaaaaaaaafcdbbdgbbbb",
"ddddddcbbdefaaaaaaaaaaaaaaaaaaaaaaaaaaaaaaaaaaaaaaaaafcdbbdgdddd",
"eeeeedcbbdefaaaaaaaaaaaaaaaaaaaaaaaaaaaaaaaaaaaaaaaaafcdbbdeeeee",
"fffffdcbbdefaaaaaaaaaaaaaaaaaaaaaaaaaaaaaaaaaaaaaaaaafcdbbdeffff",
"aaaaadcbbdefaaaaaaaaaaaaaaaaaaaaaaaaaaaaaaaaaaaaaaaaafcdbbdefaaa",
"aaaaadcbbdefaaaaaaaaaaaaaaaaaaaaaaaaaaaaaaaaaaaaaaaaafcdbbdefaaa",
"aaaaadcbbdefaaaaaaaaaaaaaaaaaaaaaaaaaaaaaaaaaaaaaaaaafcdbbdefaaa",
"aaaaadcbbdefaaaaaaaaaaaaaaaaaaaaaaaaaaaaaaaaaaaaaaaaafcdbbdefaaa",
"aaaaadcbbdefaaaaaaaaaaaaaaaaaaaaaaaaaaaaaaaaaaaaaaaaafcdbbdefaaa",
"aaaaadcbbdeffaaaaaaaaaaaaaaaaaaaaaaaaaaaaaaaaaaaaaaaffcdbbdefaaa",
"aaaaadcbbbcefffffffffffffffffffffffffffffffffffffffffcddbbdefaaa",
"aaaaadcbbbdccccccccccccccccccccccccccccccccccccccccccddbbbdefaaa",
"aaaaafdcbbbdddddddddddddddddddddddddddddddddddddddddddbbbdefaaaa",
"aaaaafdcbbbbbbbbbbbbbbbbbbbbbbbbbbbbbbbbbbbbbbbbbbbbbbbbbdefaaaa",
"aaaaafeddcbbbbbbbbbbbbbbbbbbbbbbbbbbbbbbbbbbbbbbbbbbbbbddefaaaaa",
"aaaaaafeeddddddddddddddddddddddddddddddddddddddddddddddeefaaaaaa",
"aaaaaaaffeeeeegdgggeeeeeeeeeeeeeeeeeeeeeeeeeegdgggeeeeeffaaaaaaa",
"aaaaaaaaafffffbcbbdefffffffffffffffffffffffffbcbbdeffffaaaaaaaaa",
"aaaaaaaaaaaaaabcbbdefaaaaaaaaaaaaaaaaaaaaaaaabcbbdefaaaaaaaaaaaa",
"aaaaaaaaaaaaaabcbbdefaaaaaaaaaaaaaaaaaaaaaaaabcbbdefaaaaaaaaaaaa",
"aaaaaaaaaaaaaabcbbdefaaaaaaaaaaaaaaaaaaaaaaaabcbbdefaaaaaaaaaaaa"
};