/* XPM */
static char *floor_r04_c02[] = {
"64 64 5 1",
"a	c #2C0014",
"b	c #740438",
"c	c #3C001C",
"d	c #640030",
"e	c #500024",
"aaaaaaaaaaaaaaaaaaaaaaaaaaaaaaaaaaaaaaaaaaaaaaaaaaaaaaaaaaaaaaaa",
"aaaaaaaaaaaaaaaaaaaaaaaaaaaaaaaaaaaaaaaaaaaaaaaaaaaaaaaaaaaaaaaa",
"aabbbbbbbbbbbbbbbbbbbbbbbbbbbbbcbbbbbbbbbbbbbbbbbbbbbbbbbbbbbcaa",
"aabddddddddddddeddddddddddddddcabdddddddddddddddddddecddddddccaa",
"aabdeeeeeeeeeeeeeeeeeeeeeeeeeecabdeeeeeeeeeeeeeeeeeeeddeeedeccaa",
"aabeeeeeeeeeeeeeeeeeeecdeeeeeecabdeeeeeeeeeeeeeeeeeeeeeeeeeeccaa",
"aabdeeeeeeeeeeeeeeeeeeddeeeeeecabdeeeeeeeeeeeeeeeeeeeeeeeeeeccaa",
"aabdeeeeeeeeeeeeeeeeeeeeeeeeeecabdeeeeeeeeeeeeceeeeeeeeeeeeeccaa",
"aabdeeeeeeeeeeeeeeeeeeeeeeeeeecabdeeeeeeeeeeeeeeeeeeeeeeeeeeccaa",
"aabdeeeeeeeeeeeeeeeeeeeeeeeeeecabdeeeeeeeeeeeeeeeeeeeeeeeeeeccaa",
"aabdeeeeeeeeeeeeeeeeeeeeeeeeeecabdeeeeeeeeeeeeeeeeeeceeeeeeeccaa",
"aabdeeeeeeeeeeeeeeeeeeeeeeeeeecabdeeeeeeeeeeeeeeeeeeeeeeeeeeccaa",
"aabdeeeeeeeeeeedeeeeeeeeeeeeeecabdeeeeeeeeeeeeeeeeeeeeeeeeeeccaa",
"aabdeeeeeeeeeeddeeeeeeeeeeeeeccabdeeeeeeeeeeeeeeeeeeeeeeeeeeccaa",
"aabdeeeeeeeeeeeeeeeeeeeeeeeeeecabdeeeeeeeeeeeeeeeeeeeeeeeeeeccaa",
"aabdeeeeeeeeeceeeeeeeeeeeeeeeecabdeeeeeeeeeeeeeeeeeeeeeeeeeeccaa",
"aabdeeeeeeeeeeeeeeeeeeeeeeeeeecabdeeeeeeeeeeeeeeeeeeeeeeeeeeccaa",
"aabdeeeeeeeeeeeeeeeeeeeeeeeeeecabdeeeeeeeeeeeeeeeeeeeeeeeeeeccaa",
"aabdeeeeeeeeeeeeeeeeeeeeeeeeeecabdeeeeeeeecdeeeeeeeeeeeeeeeeccaa",
"aabeedeeeeeeeeeeeeeeeeeeeeeeeecabdeeeeeeeeddeeeeeeeeeeeeeeeeccaa",
"aabeddeeeeeeeeeeeeeeeeeeeeeeeecabdeeeeeedeeeeeeeeeeeeeeeeeeeccaa",
"aabdeeeeeeeeeeeeeeeeeeeeeeeeeecabdeeeeeddeeeeeeeeeeeeeeeeeeeccaa",
"aabdeeeeeeeeeeeeeeeeeeeeeeeeeecabdeeeeeeeeeeeeeeeeeeeeeeeeeeccaa",
"aabdeeeeeeeeeeeeeeeeeeeeeeeeeccabdeeeeeeeeeeeeeeeeeeeeeeeeeeccaa",
"aabdeeeeeeeeeeeeeeeeeeeeeeeeeecabdeeeeeeeeeeeeeeeeeeeeeeeeeeccaa",
"aabdeeeeeeeeeeeeeeeeeeeeeeeeeccabdeeeeeeeeeeeeeeeeceeeeeeeeeccaa",
"aabdeeeeeeeeeeeeeeeeeeeeeeeeeecabdeeeeeeeeeeeeeeeeeeeeeeeeeeccaa",
"aabdeeeeeeeeeeeeeeeeeeeeeeeeeecabdeeeeeeeeeeeeeeeeeeeeeeeeeeccaa",
"aabdeeeeeeeeeeeeeeeeeeeeeeeeeecabdeeeeeeeeeeeeeeeeeeeeeeeeeeccaa",
"aabdeeeeeeeeeeeeeeeeeeeeeeeeeecabdeeeeeeeeeeeeeeeeeeeeeeeeeeccaa",
"aabccccccccccccccccccccccccccccabcccccccccccccccccccccccccccccaa",
"aacaaaaaaaaaaaaaaaaaaaaaaaaaaaaacaaaaaaaaaaaaaaaaaaaaaaaaaaaaaaa",
"aabbbbbbbbbbbbbbbbbbbbbbbbbbbbbcbbbbbbbbbbbbbbbbbbbbbbbbbbbbbcaa",
"aabdddddddddddddddddddddddddddcabdddddddddddddddddddddddddddccaa",
"aabdeeeeeeeeeeeeeeeeeeeeeeeeeecabdeeeeeeeeeeeeeeeeeeeeeeeeeeccaa",
"aabdeeeeeeeeeeeeeeeeeeeeeeeeeecabdeeeceeeeeeeeeeeeeeeeeeeeeeccaa",
"aabdeeeeeeeeeeeeeeeeeeeeeeeeeecabdeeeeeeeeeeeeeeeeeeeeeeeeeeccaa",
"aabdeeeeeeeeeeeeeeeeeeeeeeeeeecabccdeeeeeeeeeeeeeeeeeeeeeeeeccaa",
"aabdeeeeeceeeeeeeeeeeeeeeeeeeecabcddeeeeeeeeeeeeeeeeeeeeeeeeccaa",
"aabdeeeeeeeeeeeeeeeeeeeeeeeeeecabdeeeeeeeeeeeeeeeeeeeeeeeeeeccaa",
"aabdeeeeeeeeeeeeeeeeeeeeeeeeeecabdeeeeeeeeeeeeeeeeeeeeeeeeeeccaa",
"aabdeeeeeeeeeeeedeeeeeeeeeeeeecabdeeeeeeeeeeeeeeeeeeeeeeeeeeccaa",
"aabdeeeeeeeeeeeddeeeeeeeeeeeeecabdeeeeeeeeeeeeeeeceeeeeeeeeeccaa",
"aabdeeeeeeeeeeeeeeeeeeeeeeeeeecabdeeeeeeeeeeeeeeeeeeeeeeeeeeccaa",
"aabdeeeeeeeeeeeeecdeeeeeeeeeeecabdeeeeeeeeeeeeeeeeeeeeeeeeeeccaa",
"aabdeeeeeeeeeeeeeddeeeeeeeeeeecabdeeeeeeeeeeeeeeeeeeeeeeeeeeccaa",
"aabdeeeeeeeeeeeeeeeeeeeeeeeeeecabdeeeeeeeeeeeeeeeeeeeeeeeeeeccaa",
"aabdeeeeeeeeeeeeeeeeeeeeeeeeeecabdeeeeeeeeeeeeeeeeeeeeeeeeeeccaa",
"aabdeeeeeeeeeeeeeeeeeeeeeeeeeecabdeeeeeeeeeeeeeeeeecdeeeeeeeccaa",
"aabdeeeeeeeeeeeeeeeeeeeeeeeeeecabdeeeeeeeeeeeeeeeeeddeeeeeeeccaa",
"aabdeeeeeeeeeeeeeeeeeeeeeeeeeecabdeeeeeeeeeeeeeeeeeeeeeeeeeeccaa",
"aabdeeeeeeeeeeeeeceeeeeeeeeeeecabdeeeeeeeeeeeeeeeeeeeeeeeeeeccaa",
"aabdeeeeeeeeeeeeeeeeeeeeeeeeeecabdeeeeeeeeeeeeeeeeeeeeeeeeeeccaa",
"aabdeeeeeeeeeceeeeeeeeeeeeeeeecabdeeeeeeeeeeeeeeeeeeeeeeeeeeccaa",
"aabdeeeeeeeeeeeeeeeeeeeeeeeeeecabdeeeeeeeeeeeeeeeeeeeeeeeeeeccaa",
"aabcedeeeeeeeeeeeeeeeeeeeeeeeecabdeeeeeeeeeeeeeeeeeeeeeeeeeeccaa",
"aabcddeeeeeeeeeeeeeeeeeeeeeeeecabdeeeeeceeeeeeeeeeeeeeeeeeeeccaa",
"aabdeeeeeeeeeeeeeeeeeeeeeeeeeecabdeeeeedeeeeeeeeeeeeeeeeeeeeccaa",
"aabdeeeeeeeeeeeeeeeeeeeeeeeeeecabdeeeeeeeeeeeeeeeeeeeeeeeeeeccaa",
"aabdeeeeeeeeeeeeeeeeeeeeedeeeecabdeeeeeeeeeeeeeeeeeeeeeeeeeeccaa",
"aabcccccccccccccccccccccddcccccabcccccccccccccccccccccccccecccaa",
"aacaaaaaaaaaaaaaaaaaaaaaaaaaaaaacaaaaaaaaaaaaaaaaaaaaaaaaaaaaaaa",
"aaaaaaaaaaaaaaaaaaaaaaaaaaaaaaaaaaaaaaaaaaaaaaaaaaaaaaaaaaaaaaaa",
"aaaaaaaaaaaaaaaaaaaaaaaaaaaaaaaaaaaaaaaaaaaaaaaaaaaaaaaaaaaaaaaa"
};