/* XPM */
static char *floor_r02_c00[] = {
"64 64 5 1",
"a	c #242424",
"b	c #3C3C3C",
"c	c #343434",
"d	c #2C2C2C",
"e	c #1C1C1C",
"aaaaaaaaaaaaaaaaaaaaaaabcdeabcdeabcdeabcdeaaaaaaaaaaaaaaaaaaaaaa",
"aaaaaaaaaaaaaaaaaaaaaaabcdeabcdeabcdeabcdeaaaaaaaaaaaaaaaaaaaaaa",
"aaaaaaaaaaaaaaaaaaaaaaabcdeabcdeabcdeabcdeaaaaaaaaaaaaaaaaaaaaaa",
"aaaaaaaaaaaaaaaaaaaaaaabcdeabcdeabcdeabcdeaaaaaaaaaaaaaaaaaaaaaa",
"aaaaaaaaaaaaaaaaaaaaaaabcdeabcdeabcdeabcdeaaaaaaaaaaaaaaaaaaaaaa",
"aaaaaaaaaaaaaaaaaaaaaaabcdeabcdeabcdeabcdeaaaaaaaaaaaaaaaaaaaaaa",
"aaaaaaaaaaaaaaaaaaaaaaabcdeabcdeabcdeabcdeaaaaaaaaaaaaaaaaaaaaaa",
"aaaaaaaaaaaaaaaaaaaaaaabcdeabcdeabcdeabcdeaaaaaaaaaaaaaaaaaaaaaa",
"aaaaaaaaaaaaaaaaaacbbbbbbbbbbbbbbbbbbbbbbbbbbeaaaaaaaaaaaaaaaaaa",
"aaaaaaaaaaaaaaaaacbccccccccccccccccccccccccccceaaaaaaaaaaaaaaaaa",
"aaaaaaaaaaaaaaaacbcdddddddddddddddddddddddddddceaaaaaaaaaaaaaaaa",
"aaaaaaaaaaaaaaacbcddddddddddddddddddddddddddddddeaaaaaaaaaaaaaaa",
"aaaaaaaaaaaaaacbcdddddddddddddddddddddddddddddddaeaaaaaaaaaaaaaa",
"aaaaaaaaaaaaacbcdddddddddddddddddddddddddddddddddaeaaaaaaaaaaaaa",
"aaaaaaaaaaaacbcdddddddddddddddddddddddddddddddddddaeaaaaaaaaaaaa",
"aaaaaaaaaaacbcdddddddddddddddddddddddddddddddddddddaeaaaaaaaaaaa",
"aaaaaaaaaacbcdddddddddddddddddddddddddddddddddddddddaeaaaaaaaaaa",
"aaaaaaaaacbcdddddddddddddddddddddddddddddddddddddddddaeaaaaaaaaa",
"aaaaaaaacbcdddddddddddddddddddddddddddddddddddddddddddaeaaaaaaaa",
"aaaaaaacbcdddddddddddddddddddddddddddddddddddddddddddddaeaaaaaaa",
"aaaaaacbcdddddddddddddddddddddddddddddddddddddddddddddddaeaaaaaa",
"aaaaacbcdddddddddddddddddddddddddddddddddddddddddddddddddaeaaaaa",
"aaaaacbcdddddddddddddddddddddddddddddddddddddddddddddddddaeaaaaa",
"bbbbbcbcdddddddddddddddddddddddddddddddddddddddddddddddddaedbbbb",
"ccccccbcdddddddddddddddddddddddddddddddddddddddddddddddddaeccccc",
"dddddcbcdddddddddddddddddddddddddddddddddddddddddddddddddaeddddd",
"eeeeecbcdddddddddddddddddddddddddddddddddddddddddddddddddaeeeeee",
"aaaaacbcdddddddddddddddddddddddddddddddddddddddddddddddddaeaaaaa",
"bbbbbcbcdddddddddddddddddddddddddddddddddddddddddddddddddaedbbbb",
"ccccccbcdddddddddddddddddddddddddddddddddddddddddddddddddaeccccc",
"dddddcbcdddddddddddddddddddddddddddddddddddddddddddddddddaeddddd",
"eeeeecbcdddddddddddddddddddddddddddddddddddddddddddddddddaeeeeee",
"aaaaacbcdddddddddddddddddddddddddddddddddddddddddddddddddaeaaaaa",
"bbbbbcbcdddddddddddddddddddddddddddddddddddddddddddddddddaedbbbb",
"ccccccbcdddddddddddddddddddddddddddddddddddddddddddddddddaeccccc",
"dddddcbcdddddddddddddddddddddddddddddddddddddddddddddddddaeddddd",
"eeeeecbcdddddddddddddddddddddddddddddddddddddddddddddddddaeeeeee",
"aaaaacbcdddddddddddddddddddddddddddddddddddddddddddddddddaeaaaaa",
"bbbbbcbcdddddddddddddddddddddddddddddddddddddddddddddddddaedbbbb",
"ccccccbcdddddddddddddddddddddddddddddddddddddddddddddddddaeccccc",
"dddddcbcdddddddddddddddddddddddddddddddddddddddddddddddddaeddddd",
"eeeeecbcdddddddddddddddddddddddddddddddddddddddddddddddddaeeeeee",
"aaaaacbcdddddddddddddddddddddddddddddddddddddddddddddddddaeaaaaa",
"aaaaaacbcdddddddddddddddddddddddddddddddddddddddddddddddaeaaaaaa",
"aaaaaaacbcdddddddddddddddddddddddddddddddddddddddddddddaeaaaaaaa",
"aaaaaaaacbcdddddddddddddddddddddddddddddddddddddddddddaeaaaaaaaa",
"aaaaaaaaacbcdddddddddddddddddddddddddddddddddddddddddaeaaaaaaaaa",
"aaaaaaaaaacbcdddddddddddddddddddddddddddddddddddddddaeaaaaaaaaaa",
"aaaaaaaaaaacbcdddddddddddddddddddddddddddddddddddddaeaaaaaaaaaaa",
"aaaaaaaaaaaacbcdddddddddddddddddddddddddddddddddddaeaaaaaaaaaaaa",
"aaaaaaaaaaaaacbcdddddddddddddddddddddddddddddddddaeaaaaaaaaaaaaa",
"aaaaaaaaaaaaaacbcdddddddddddddddddddddddddddddddaeaaaaaaaaaaaaaa",
"aaaaaaaaaaaaaaacbcdddddddddddddddddddddddddddddaeaaaaaaaaaaaaaaa",
"aaaaaaaaaaaaaaaacbcdddddddddddddddddddddddddddaeaaaaaaaaaaaaaaaa",
"aaaaaaaaaaaaaaaaacbcdddddddddddddddddddddddddaeaaaaaaaaaaaaaaaaa",
"aaaaaaaaaaaaaaaaaacbcdaaaaaaaaaaaaaaaaaaaaaaaeaaaaaaaaaaaaaaaaaa",
"aaaaaaaaaaaaaaaaaaaaeeeeeeeeeeeeeeeeeeeeeeeeeaaaaaaaaaaaaaaaaaaa",
"aaaaaaaaaaaaaaaaaaaaaaadddeadddeadddeadddeaaaaaaaaaaaaaaaaaaaaaa",
"aaaaaaaaaaaaaaaaaaaaaaabcdeabcdeabcdeabcdeaaaaaaaaaaaaaaaaaaaaaa",
"aaaaaaaaaaaaaaaaaaaaaaabcdeabcdeabcdeabcdeaaaaaaaaaaaaaaaaaaaaaa",
"aaaaaaaaaaaaaaaaaaaaaaabcdeabcdeabcdeabcdeaaaaaaaaaaaaaaaaaaaaaa",
"aaaaaaaaaaaaaaaaaaaaaaabcdeabcdeabcdeabcdeaaaaaaaaaaaaaaaaaaaaaa",
"aaaaaaaaaaaaaaaaaaaaaaabcdeabcdeabcdeabcdeaaaaaaaaaaaaaaaaaaaaaa",
"aaaaaaaaaaaaaaaaaaaaaaabcdeabcdeabcdeabcdeaaaaaaaaaaaaaaaaaaaaaa"
};