/* XPM */
static char *floor_r04_c01[] = {
"64 64 10 1",
"a	c #242424",
"b	c #2C2C2C",
"c	c #3C3C3C",
"d	c #343434",
"e	c #1C1C1C",
"f	c #3C001C",
"g	c #500024",
"h	c #640030",
"i	c #740438",
"j	c #98084C",
"aaaaaaaaaaaaaaaaaaaaaaaaaaaaabcdbaeaaaaaaaaaaaaaaaaaaaaaaaaaaaaa",
"aaaaaaaaaaaaaaaaaaaaaaaaaaaaabcdbaeaaaaaaaaaaaaaaaaaaaaaaaaaaaaa",
"aaaaaaaaaaaaaaaaaaaaaaaaaaaaabcdbaeaaaaaaaaaaaaaaaaaaaaaaaaaaaaa",
"aaaaaaaaaaaaaaaaaaaaaaaaaaaaabcdbaeaaaaaaaaaaaaaaaaaaaaaaaaaaaaa",
"aaaaaaaaaaaaaaaaaaaaaaaaaaaaabcdbaeaaaaaaaaaaaaaaaaaaaaaaaaaaaaa",
"aaaaaaaaaaaaaaaaaaaaaaaaaaaaabcdbaeaaaaaaaaaaaaaaaaaaaaaaaaaaaaa",
"aaaaaaaaaaaaaaaaaaaaaaaaaaababcdbaebaaaaaaaaaaaaaaaaaaaaaaaaaaaa",
"aaaaaaaaaaaaaaaaaaaaaaaaaabdabcdbaedbaaaaaaaaaaaaaaaaaaaaaaaaaaa",
"aaaaaaaaaaaaaaaaaaaaaaaaabdfabcdbaefdbaaaaaaaaaaaaaaaaaaaaaaaaaa",
"aaaaaaaaaaaaaaaaaaaaaaaabdfgabcdbaegfdbaaaaaaaaaaaaaaaaaaaaaaaaa",
"aaaaaaaaaaaaaaaaaaaaaaabdfghabcdbaehgfdbaaaaaaaaaaaaaaaaaaaaaaaa",
"aaaaaaaaaaaaaaaaaaaaaabdfghiabcdbaeihgfdbaaaaaaaaaaaaaaaaaaaaaaa",
"aaaaaaaaaaaaaaaaaaaaabdfghiiabcdbaeiihgfdbaaaaaaaaaaaaaaaaaaaaaa",
"aaaaaaaaaaaaaaaaaaaabdfghiijabcdbaejiihgfdbaaaaaaaaaaaaaaaaaaaaa",
"aaaaaaaaaaaaaaaaaaabdfghiijiabcdbaeijiihgfdbaaaaaaaaaaaaaaaaaaaa",
"aaaaaaaaaaaaaaaaaabdfghiijiiabcdbaeiijiihgfdbaaaaaaaaaaaaaaaaaaa",
"aaaaaaaaaaaaaaaaabdfghiijiihabcdbaehiijiihgfdbaaaaaaaaaaaaaaaaaa",
"aaaaaaaaaaaaaaaabdfghiijiihgabcdbaeghiijiihgfdbaaaaaaaaaaaaaaaaa",
"aaaaaaaaaaaaaaabdfghiijiihgfabcdbaefghiijiihgfdbaaaaaaaaaaaaaaaa",
"aaaaaaaaaaaaaabdfghiijiihgfdabcdbaedfghiijiihgfdbaaaaaaaaaaaaaaa",
"aaaaaaaaaaaaabdfghiijiihgfdbabcdbaebdfghiijiihgfdbaaaaaaaaaaaaaa",
"aaaaaaaaaaaabdfghiijiihgfdbaabcdbaeabdfghiijiihgfdbaaaaaaaaaaaaa",
"aaaaaaaaaaabdfghiijiihgfdbaaabcdbaeaabdfghiijiihgfdbaaaaaaaaaaaa",
"aaaaaaaaaabdfghiijiihgfdbaaaabcdbaeaaabdfghiijiihgfdbaaaaaaaaaaa",
"aaaaaaaaabdfghiijiihgfdbaaaaabcdbaeaaaabdfghiijiihgfdbaaaaaaaaaa",
"aaaaaaaabdfghiijiihgfdbaaaaaabcdbaeaaaaabdfghiijiihgfdbaaaaaaaaa",
"aaaaaaabdfghiijiihgfdbaaaaaaabcdbaeaaaaaabdfghiijiihgfdbaaaaaaaa",
"aaaaaabdfghiijiihgfdbaaaaaaaabcdbaeaaaaaaabdfghiijiihgfdbaaaaaaa",
"aaaaabdfghiijiihgfdbaaaaaaaaabcdbaeaaaaaaaabdfghiijiihgfdbaaaaaa",
"bbbbbbbbbbbbbbbbbbbbbbbbbbbbbbcdbabbbbbbbbbbbbbbbbbbbbbbbbbbbbbb",
"cccccccccccccccccccccccccccccccccccccccccccccccccccccccccccccccc",
"dddddddddddddddddddddddddddddddddddddddddddddddddddddddddddddddd",
"bbbbbbbbbbbbbbbbbbbbbbbbbbbbbbbbbbbbbbbbbbbbbbbbbbbbbbbbbbbbbbbb",
"aaaaaaaaaaaaaaaaaaaaaaaaaaaaaacdbaaaaaaaaaaaaaaaaaaaaaaaaaaaaaaa",
"eeeeeeeeeeeeeeeeeeeeeeeeeeeeebcdbaeeeeeeeeeeeeeeeeeeeeeeeeeeeeee",
"aaaaabdfghiijiihgfdbaaaaaaaaabcdbaeaaaaaaaaabdfghiijiihgfdbaaaaa",
"aaaaaabdfghiijiihgfdbaaaaaaaabcdbaeaaaaaaaabdfghiijiihgfdbaaaaaa",
"aaaaaaabdfghiijiihgfdbaaaaaaabcdbaeaaaaaaabdfghiijiihgfdbaaaaaaa",
"aaaaaaaabdfghiijiihgfdbaaaaaabcdbaeaaaaaabdfghiijiihgfdbaaaaaaaa",
"aaaaaaaaabdfghiijiihgfdbaaaaabcdbaeaaaaabdfghiijiihgfdbaaaaaaaaa",
"aaaaaaaaaabdfghiijiihgfdbaaaabcdbaeaaaabdfghiijiihgfdbaaaaaaaaaa",
"aaaaaaaaaaabdfghiijiihgfdbaaabcdbaeaaabdfghiijiihgfdbaaaaaaaaaaa",
"aaaaaaaaaaaabdfghiijiihgfdbaabcdbaeaabdfghiijiihgfdbaaaaaaaaaaaa",
"aaaaaaaaaaaaabdfghiijiihgfdbabcdbaeabdfghiijiihgfdbaaaaaaaaaaaaa",
"aaaaaaaaaaaaaabdfghiijiihgfdbbcdbaebdfghiijiihgfdbaaaaaaaaaaaaaa",
"aaaaaaaaaaaaaaabdfghiijiihgfdbcdbaedfghiijiihgfdbaaaaaaaaaaaaaaa",
"aaaaaaaaaaaaaaaabdfghiijiihgfbcdbaefghiijiihgfdbaaaaaaaaaaaaaaaa",
"aaaaaaaaaaaaaaaaabdfghiijiihgbcdbaeghiijiihgfdbaaaaaaaaaaaaaaaaa",
"aaaaaaaaaaaaaaaaaabdfghiijiihbcdbaehiijiihgfdbaaaaaaaaaaaaaaaaaa",
"aaaaaaaaaaaaaaaaaaabdfghiijiibcdbaeiijiihgfdbaaaaaaaaaaaaaaaaaaa",
"aaaaaaaaaaaaaaaaaaaabdfghiijibcdbaeijiihgfdbaaaaaaaaaaaaaaaaaaaa",
"aaaaaaaaaaaaaaaaaaaaabdfghiijbcdbaejiihgfdbaaaaaaaaaaaaaaaaaaaaa",
"aaaaaaaaaaaaaaaaaaaaaabdfghiibcdbaeiihgfdbaaaaaaaaaaaaaaaaaaaaaa",
"aaaaaaaaaaaaaaaaaaaaaaabdfghibcdbaeihgfdbaaaaaaaaaaaaaaaaaaaaaaa",
"aaaaaaaaaaaaaaaaaaaaaaaabdfghbcdbaehgfdbaaaaaaaaaaaaaaaaaaaaaaaa",
"aaaaaaaaaaaaaaaaaaaaaaaaabdfgbcdbaegfdbaaaaaaaaaaaaaaaaaaaaaaaaa",
"aaaaaaaaaaaaaaaaaaaaaaaaaabdfbcdbaefdbaaaaaaaaaaaaaaaaaaaaaaaaaa",
"aaaaaaaaaaaaaaaaaaaaaaaaaaabdbcdbaedbaaaaaaaaaaaaaaaaaaaaaaaaaaa",
"aaaaaaaaaaaaaaaaaaaaaaaaaaaabbcdbaebaaaaaaaaaaaaaaaaaaaaaaaaaaaa",
"aaaaaaaaaaaaaaaaaaaaaaaaaaaaabcdbaeaaaaaaaaaaaaaaaaaaaaaaaaaaaaa",
"aaaaaaaaaaaaaaaaaaaaaaaaaaaaabcdbaeaaaaaaaaaaaaaaaaaaaaaaaaaaaaa",
"aaaaaaaaaaaaaaaaaaaaaaaaaaaaabcdbaeaaaaaaaaaaaaaaaaaaaaaaaaaaaaa",
"aaaaaaaaaaaaaaaaaaaaaaaaaaaaabcdbaeaaaaaaaaaaaaaaaaaaaaaaaaaaaaa",
"aaaaaaaaaaaaaaaaaaaaaaaaaaaaabcdbaeaaaaaaaaaaaaaaaaaaaaaaaaaaaaa"
};