/* XPM */
static char *floor_r07_c01[] = {
"64 64 4 1",
"a	c #0C1C30",
"b	c #142840",
"c	c #204060",
"d	c #183450",
"aaaaaaaaaaaaaaaaaaaaaaaaaaaaaaaaaaaaaaaaaaaaaaaaaaaaaaaaaaaaaaaa",
"abbbbbbbbbbbbbbbbbbbbbbbbbbbbbbaabbbbbbbbbbbbbbbbbbbbbbbbbbbbbba",
"abccccccccccccccccccccccccccccbaabccccccccccccccccccccccccccccba",
"abcddddddddddddddddddddddddddcbaabcddddddddddddddddddddddddddcba",
"abcdbdddbbdbbbbbbdbddbbbddbbdcbaabcdbbdbdbdddbbbbbddbbbbbbbbdcba",
"abcddbddbdbbbbddbdbbdbbbdbbbdcbaabcdddbdbdbbbdbdbbbbbdddbbdbdcba",
"abcdbdbddbddbdbbdbbbdbbbdbbddcbaabcdddbbbbbdbdddbbbdddbbbdbbdcba",
"abcddbbddbbbdbbbbddbdbddbddbdcbaabcdbdddbdbbdbbdbddbbbbddbdbdcba",
"abcddbbbbbdbdbbddbbdbdbddbbddcbaabcdbbbdbbbbddbbbbbbbddbbdbbdcba",
"abcddbbdddbbbbbbbbbddbbbdbbddcbaabcdddbbdddbddbbdbddbbbbbbdbdcba",
"abcdbbddbdbdbddbbddbddbddddbdcbaabcdbddddbbdddddbdbddbbdbbdddcba",
"abcdbbdbbbdbbbddbdbbdbddbdbbdcbaabcdbdbbdbdbdbbbdddbbbbbbdbbdcba",
"abcdbdbbbbdbbddbbbbddbdddddddcbaabcddbbdbbbdbbbbdbbbdddbddbddcba",
"abcddddddbbbbbbbdbbbddbdbbbddcbaabcdbbbdbbbdbdbbdbddbdbbbddddcba",
"abcddbbdddbdbbdbddbbbddbdbdbdcbaabcdbbbdbbbdbdbbbdbdbbbddbbbdcba",
"abcddbddbbbbbdddbbdbbbbdbbdddcbaabcdbdbbbbbddbbbbdddbbbdbddddcba",
"abcdddbddddbdbdbbbbbbbddbddbdcbaabcdbbbdddbdddbbdbbddbbdbbdbdcba",
"abcdbdbbdbbdddbbdbdbdbbdddbddcbaabcdddbdbdbbddbdbddbbbbbbddddcba",
"abcdbbdbbdddbbdddbbdbbdddbdbdcbaabcdddbbdbbbdbbbdbbdbdbdbbdbdcba",
"abcddbdbbdddbdbddbdbbdbddbbbdcbaabcdbdbbbbbbbdbddddbbbbdddbddcba",
"abcdbddbdddbdbdbbbbbbbddbbbddcbaabcddbbbbdbbdbbbdbbddbbbbdbbdcba",
"abcdbbbbdbdbddbdbdbdbbbdbddddcbaabcdbdbbbdbbbdbbbbdbbddddbbddcba",
"abcdbbbdddbdbbdbbbbdbbbdbbbddcbaabcdddbbdbbbbbbbbbbbddbdddbddcba",
"abcdbdbbddbbbbbbbbbdbdddbbdbdcbaabcdbdbdbdddddbdbdbbddbbbddddcba",
"abcdbbddddbbdbbdbbbdbbbbbbdddcbaabcdbddbddbbdbbdddbbbbbddbdddcba",
"abcdbdbbbdbdbdbbbbbddbdbbddbdcbaabcdbdbdbddbdbddbddbdbdddbbddcba",
"abcdbbdbbdbbbbddbbdbdddbdbdddcbaabcdbdbbbdbbbbbbddbbbdbdbdbddcba",
"abcdbbddbbddbbbdbbbdbdbbbbdbdcbaabcdddbbdddddbdddbdbbbbdddbddcba",
"abcddddbbdddbbdbbbdbddbbbbdbdcbaabcdbbbbdddbbddbdddbbbbbbddbdcba",
"abcdbbdbdddbdbbdbbdbbbbbbdbddcbaabcdbdddbddbbbdbbdbdddbdddbddcba",
"abcdbbddbdbdddbbdddbbbbbbbdddcbaabcdbdbddbbddddbbbdddbbdddbddcba",
"abcdbdddbbdbbdbdbdddbdbbdbdddcbaabcddbdbdbbdbbbbbbbbdbbdbddddcba",
"abcdbdbdbdbbdbddbdbddbbbbdbbdcbaabcdbbbbbbbbdbdddbdbddbbbbbbdcba",
"abcddddbbdbdbbbbbbbbdbdbdddddcbaabcddbbbddbbbbdbbbdbdbbbdddbdcba",
"abcdddbbbdbbbbbdbbdbbbbbbdbddcbaabcdbbbdbbbddbbddbbbdbbbbbdddcba",
"abcdddbbbdbbbbbdbbbdbbbbdbdddcbaabcdddbbbbbbbbbdddbdbbbbbbbddcba",
"abcdddbbbbdbbbddbdbbbbddbbbbdcbaabcdbdbdbddbbdbbdbdddbbbbbdddcba",
"abcdbbbdbdbbdbbddddbbbbbddbddcbaabcdddbbbdbbbdddddbdbbbbdbdddcba",
"abcdddbbbddbbbdddbdddbbbbdbbdcbaabcddbddbbbbbbbbdddbbbdddbdbdcba",
"abcddbbbbbdddddbdbdbbbdddbdbdcbaabcddbbdbdbdddbbdbdbdbbbdbdbdcba",
"abcdddbddbbbbdddbbdbddbddbbbdcbaabcdddbddbbbdbbdddbbdbdbddbbdcba",
"abcdbdbbddbbbbbbddbdddbbbdbbdcbaabcdddbdbbbdbdbbdbbdbdbddbdbdcba",
"abcdddbdbdbddbbbdddbdddbbddbdcbaabcddbdbbbbddbbbbdbbdbbdbddddcba",
"abcddbdbdbbbddbdbdbdbbbddbbddcbaabcddbbdbbdddbbbddbdbbbddddddcba",
"abcdbddbbbdddbbbdddbddddddbddcbaabcddbdddbbdddbbbdddbbdbbbbddcba",
"abcdbdbdbbbbbddbdbbdddbdbddbdcbaabcdbbbdbbddbbdbbdbbddbbdbbddcba",
"abcddbbbbbdbbbbbbdbdbdbdddbddcbaabcddbbbdbbbdbbbdbbbddbddbbbdcba",
"abcdbbbbdbddbbbddddbbbbddddbdcbaabcdbbbbddbdbddbbbbbbbbdddbddcba",
"abcdddbddbbbdbddddddbbbbbdbbdcbaabcddbbdbdbbdddbddddddbbbbdbdcba",
"abcdbdbbdbdddbddbdbbdbdbdbdbdcbaabcdbdbbddbbbbbbbbbbbddddbbbdcba",
"abcdbdbbbdbbdbbbdbbdbbbbbbdddcbaabcddbdddbddbbbdddbdbdddddbbdcba",
"abcddddbbbbbbdbddbdbdbddbdbbdcbaabcdbbddbbdbbdbddbdbdbddbbbbdcba",
"abcdbbddbdbddbbdbdbdbddddbdddcbaabcdbdbdddbdbbbbbbbddbbddbbbdcba",
"abcddddbddbdbddbdbbbdbdbdbdbdcbaabcddddbdddbdbbbbbbbbbddbdbbdcba",
"abcddbbbbbbdbdbbdddddbbdbdbddcbaabcdbbdbbbddbdbbddbbbbbdbbbbdcba",
"abcddbdbbbbddbbdbbddbbddbdbddcbaabcdbddddddddbbddbbbdbbdbddbdcba",
"abcdbdbbbdbdbbddbbbbbdbddbdddcbaabcdbbbbbdbdbddbdbbbbbbdbddbdcba",
"abcdbddbbbdbdbbbbbbbdbddbddbdcbaabcdbbdbdbdbbbbbbbbbbddbdbdbdcba",
"abcdddbbdbdbbbbdbbbdbbdbdbdbdcbaabcdbdddddbddbddbdbdbbbbbbbbdcba",
"abcdbbdddbdbdddbddddbbbbddbbdcbaabcdbddbbddbbbdbbbdbbbbddddddcba",
"abcddddddddddddddddddddddddddcbaabcddddddddddddddddddddddddddcba",
"abccccccccccccccccccccccccccccbaabccccccccccccccccccccccccccccba",
"abbbbbbbbbbbbbbbbbbbbbbbbbbbbbbaabbbbbbbbbbbbbbbbbbbbbbbbbbbbbba",
"aaaaaaaaaaaaaaaaaaaaaaaaaaaaaaaaaaaaaaaaaaaaaaaaaaaaaaaaaaaaaaaa"
};