/* XPM */
static char *floor_r07_c03[] = {
"64 64 6 1",
"a	c #2C0014",
"b	c #500024",
"c	c #740438",
"d	c #1C1C1C",
"e	c #640030",
"f	c #3C001C",
"aaaaaaaaaaaaaaaaaaaaaaaaaaaaaaaaaaaaaaaaaaaaaaaaaaaaaaaaaaaaaaaa",
"aaaaaaaaaaaaaabccccccccccccccccccccccccccccccccccdaaaaaaaaaaaaaa",
"aaaaaaaaaaaaabceeeeeeeeeeeeeeeeeeeeeeeeeeeeeeeeeeedaaaaaaaaaaaaa",
"aaaaaaaaaaaabcebbbbbbbbbbbbbbbbbbbbbbbbbbbbbbbbbbbfdaaaaaaaaaaaa",
"aaaaaaaaaaabcebbbbbbbbbbbbbbbbbbbbbbbbbbbbbbbbbbbbbfdaaaaaaaaaaa",
"aaaaaaaaaabcebbbbbbbbbbbbbbbbbbbbbbbbbbbbbbbbbbbbbbbfdaaaaaaaaaa",
"aaaaaaaaabcebbbbbbbbbbbbbbbbbbbbbbbbbbbbbbbbbbbbbbbbbfdaaaaaaaaa",
"aaaaaaaabcebbbbbbbbbaaaaaaaaaaaaaaaaaaaaaaaabbbbbbbbbbfdaaaaaaaa",
"aaaaaaabcebbbbbbbbbafffffffffffffffffffffffecebbbbbbbbbfdaaaaaaa",
"aaaaaabcebbbbbbbbbafbbbbbbbbbbbbbbbbbbbbbbbbecebbbbbbbbbfdaaaaaa",
"aaaaabcebbbbbbbbbafbbbbbbbbbbbbbbbbbbbbbbbbbbecebbbbbbbbbfdaaaaa",
"aaaabcebbbbbbbbbafbbbbbbbbbbbbbbbbbbbbbbbbbbbbecebbbbbbbbbfdaaaa",
"aaabcebbbbbbbbbafbbbbbbbbbbbbbbbbbbbbbbbbbbbbbbecebbbbbbbbbfdaaa",
"aabcebbbbbbbbbafbbbbbbbbbbbbbbbbbbbbbbbbbbbbbbbbecebbbbbbbbbfdaa",
"abcebbbbbbbbbafbbbbbbbbbbbbbbbbbbbbbbbbbbbbbbbbbbecebbbbbbbbbfda",
"abcebbbbbbbbafbbbbbbbbbbbbbbbbbbbbbbbbbbbbbbbbbbbbecebbbbbbbbfda",
"abcebbbbbbbafbbbbbbbbbbbbbbbbbbbbbbbbbbbbbbbbbbbbbbecebbbbbbbfda",
"abcebbbbbbafbbbbbbbbbbbbbbbbbbbbbbbbbbbbbbbbbbbbbbbbecebbbbbbfda",
"abcebbbbbafbbbbbbbbbbbbbbbbbbbbbbbbbbbbbbbbbbbbbbbbbbecebbbbbfda",
"abcebbbbafbbbbbbbbbbbbbbbbbbbbbbbbbbbbbbbbbbbbbbbbbbbbecebbbbfda",
"abcebbbafbbbbbbbbbbbbbbbbbbbbbbbbbbbbbbbbbbbbbbbbbbbbbbecebbbfda",
"abcebbafbbbbbbbbbbbbbbbbbbbbbbbbbbbbbbbbbbbbbbbbbbbbbbbbecbbbfda",
"abcebbafbbbbbbbbbbbbbbbbbbbbbbbbbbbbbbbbbbbbbbbbbbbbbbbbecbbbfda",
"abcebbafbbbbbbbbbbbbbbbbbbbbbbbbbbbbbbbbbbbbbbbbbbbbbbbbecbbbfda",
"abcebbafbbbbbbbbbbbbbbbbbbbbbbbbbbbbbbbbbbbbbbbbbbbbbbbbecbbbfda",
"abcebbafbbbbbbbbbbbbbbbbbbbbbbbbbbbbbbbbbbbbbbbbbbbbbbbbecbbbfda",
"abcebbafbbbbbbbbbbbbbbbbbbbbbbbbbbbbbbbbbbbbbbbbbbbbbbbbecbbbfda",
"abcebbafbbbbbbbbbbbbbbbbbbbbbbbbbbbbbbbbbbbbbbbbbbbbbbbbecbbbfda",
"abcebbafbbbbbbbbbbbbbbbbbbbbbbbbbbbbbbbbbbbbbbbbbbbbbbbbecbbbfda",
"abcebbafbbbbbbbbbbbbbbbbbbbbbbbbbbbbbbbbbbbbbbbbbbbbbbbbecbbbfda",
"abcebbafbbbbbbbbbbbbbbbbbbbbbbbbbbbbbbbbbbbbbbbbbbbbbbbbecbbbfda",
"abcebbafbbbbbbbbbbbbbbbbbbbbbbbbbbbbbbbbbbbbbbbbbbbbbbbbecbbbfda",
"abcebbafbbbbbbbbbbbbbbbbbbbbbbbbbbbbbbbbbbbbbbbbbbbbbbbbecbbbfda",
"abcebbafbbbbbbbbbbbbbbbbbbbbbbbbbbbbbbbbbbbbbbbbbbbbbbbbecbbbfda",
"abcebbafbbbbbbbbbbbbbbbbbbbbbbbbbbbbbbbbbbbbbbbbbbbbbbbbecbbbfda",
"abcebbafbbbbbbbbbbbbbbbbbbbbbbbbbbbbbbbbbbbbbbbbbbbbbbbbecbbbfda",
"abcebbafbbbbbbbbbbbbbbbbbbbbbbbbbbbbbbbbbbbbbbbbbbbbbbbbecbbbfda",
"abcebbafbbbbbbbbbbbbbbbbbbbbbbbbbbbbbbbbbbbbbbbbbbbbbbbbecbbbfda",
"abcebbafbbbbbbbbbbbbbbbbbbbbbbbbbbbbbbbbbbbbbbbbbbbbbbbbecbbbfda",
"abcebbafbbbbbbbbbbbbbbbbbbbbbbbbbbbbbbbbbbbbbbbbbbbbbbbbecbbbfda",
"abcebbafbbbbbbbbbbbbbbbbbbbbbbbbbbbbbbbbbbbbbbbbbbbbbbbbecbbbfda",
"abcebbafbbbbbbbbbbbbbbbbbbbbbbbbbbbbbbbbbbbbbbbbbbbbbbbbecbbbfda",
"abcebbafbbbbbbbbbbbbbbbbbbbbbbbbbbbbbbbbbbbbbbbbbbbbbbbbecbbbfda",
"abcebbbafbbbbbbbbbbbbbbbbbbbbbbbbbbbbbbbbbbbbbbbbbbbbbbecebbbfda",
"abcebbbbafbbbbbbbbbbbbbbbbbbbbbbbbbbbbbbbbbbbbbbbbbbbbecebbbbfda",
"abcebbbbbafbbbbbbbbbbbbbbbbbbbbbbbbbbbbbbbbbbbbbbbbbbecebbbbbfda",
"abcebbbbbbafbbbbbbbbbbbbbbbbbbbbbbbbbbbbbbbbbbbbbbbbecebbbbbbfda",
"abcebbbbbbbafbbbbbbbbbbbbbbbbbbbbbbbbbbbbbbbbbbbbbbecebbbbbbbfda",
"abcebbbbbbbbafbbbbbbbbbbbbbbbbbbbbbbbbbbbbbbbbbbbbecebbbbbbbbfda",
"aabcebbbbbbbbafbbbbbbbbbbbbbbbbbbbbbbbbbbbbbbbbbbecebbbbbbbbfdaa",
"aaabcebbbbbbbbafbbbbbbbbbbbbbbbbbbbbbbbbbbbbbbbbecebbbbbbbbfdaaa",
"aaaabcebbbbbbbbafbbbbbbbbbbbbbbbbbbbbbbbbbbbbbbecebbbbbbbbfdaaaa",
"aaaaabcebbbbbbbbafbbbbbbbbbbbbbbbbbbbbbbbbbbbbecebbbbbbbbfdaaaaa",
"aaaaaabcebbbbbbbbafbbbbbbbbbbbbbbbbbbbbbbbbbbecebbbbbbbbfdaaaaaa",
"aaaaaaabcebbbbbbbbaeeeeeeeeeeeeeeeeeeeeeeeeeecebbbbbbbbfdaaaaaaa",
"aaaaaaaabcebbbbbbbbacccccccccccccccccccccccccebbbbbbbbfdaaaaaaaa",
"aaaaaaaaabcebbbbbbbbbbbbbbbbbbbbbbbbbbbbbbbbbbbbbbbbbfdaaaaaaaaa",
"aaaaaaaaaabcebbbbbbbbbbbbbbbbbbbbbbbbbbbbbbbbbbbbbbbfdaaaaaaaaaa",
"aaaaaaaaaaabcebbbbbbbbbbbbbbbbbbbbbbbbbbbbbbbbbbbbbfdaaaaaaaaaaa",
"aaaaaaaaaaaabcebbbbbbbbbbbbbbbbbbbbbbbbbbbbbbbbbbbfdaaaaaaaaaaaa",
"aaaaaaaaaaaaabcebbbbbbbbbbbbbbbbbbbbbbbbbbbbbbbbbfdaaaaaaaaaaaaa",
"aaaaaaaaaaaaaabceffffffffffffffffffffffffffffffffdaaaaaaaaaaaaaa",
"aaaaaaaaaaaaaaabebdddddddddddddddddddddddddddddddaaaaaaaaaaaaaaa",
"aaaaaaaaaaaaaaaaaaaaaaaaaaaaaaaaaaaaaaaaaaaaaaaaaaaaaaaaaaaaaaaa"
};