/* XPM */
static char *floor3_hud[] = {
/* columns rows colors chars-per-pixel */
"1280 63 205 2 ",
"   c #010101",
".  c #090914",
"X  c #0F1012",
"o  c #121315",
"O  c #02032A",
"+  c #030639",
"@  c #0C113E",
"#  c #040A48",
"$  c #09114B",
"%  c #151746",
"&  c #030C56",
"*  c #07135A",
"=  c #181B59",
"-  c #1E205A",
";  c #26394E",
":  c #23235B",
">  c #293C54",
",  c #303F58",
"<  c #020B67",
"1  c #081667",
"2  c #131D68",
"3  c #010B77",
"4  c #061A79",
"5  c #101E78",
"6  c #0F206E",
"7  c #19226A",
"8  c #0C217C",
"9  c #16257A",
"0  c #232668",
"q  c #2B3868",
"w  c #343967",
"e  c #232977",
"r  c #26357A",
"t  c #343D76",
"y  c #2D4159",
"u  c #30435C",
"i  c #2E4463",
"p  c #334966",
"a  c #3A516D",
"s  c #374973",
"d  c #3D5575",
"f  c #4A4B4A",
"g  c #504F4F",
"h  c #4F504F",
"j  c #50504F",
"k  c #4F4F50",
"l  c #4F5050",
"z  c #525252",
"x  c #434979",
"c  c #425A7A",
"v  c #505A7E",
"b  c #5F6262",
"n  c #4A617E",
"m  c #5D697F",
"M  c #010E84",
"N  c #031A84",
"B  c #000E98",
"V  c #051A96",
"C  c #0D2487",
"Z  c #11278B",
"A  c #1C3388",
"S  c #0E2694",
"D  c #112998",
"F  c #19329A",
"G  c #222B86",
"H  c #253689",
"J  c #212E96",
"K  c #253699",
"L  c #051AA8",
"P  c #061FB8",
"I  c #0D28A5",
"U  c #132BA5",
"Y  c #0F32A7",
"T  c #1732AA",
"R  c #0B27B5",
"E  c #142EB4",
"W  c #1933BB",
"Q  c #212FA4",
"!  c #2336A7",
"~  c #223CB9",
"^  c #38468A",
"/  c #2B4496",
"(  c #354696",
")  c #3B559B",
"_  c #2A43AA",
"`  c #354AA8",
"'  c #3A52AA",
"]  c #2543B8",
"[  c #334CB7",
"{  c #3B51BC",
"}  c #464F89",
"|  c #485488",
" . c #555888",
".. c #424F95",
"X. c #495797",
"o. c #525C98",
"O. c #4C678B",
"+. c #516B8D",
"@. c #5C728D",
"#. c #4F6B91",
"$. c #526E92",
"%. c #5B769A",
"&. c #666B96",
"*. c #617B9E",
"=. c #757A9D",
"-. c #66718D",
";. c #4A5AA7",
":. c #525EA2",
">. c #455CB8",
",. c #4A64A6",
"<. c #5966A6",
"1. c #5E7BA0",
"2. c #5869B4",
"3. c #5A73B2",
"4. c #4E62B3",
"5. c #646DAA",
"6. c #637DA1",
"7. c #757BA9",
"8. c #636EB4",
"9. c #6976B5",
"0. c #757CB3",
"q. c #142DC2",
"w. c #1A36C2",
"e. c #203CC5",
"r. c #1F41C3",
"t. c #2746C7",
"y. c #314DC5",
"u. c #3957C8",
"i. c #465CC5",
"p. c #4C63C8",
"a. c #5268CD",
"s. c #5A73CA",
"d. c #4D63D0",
"f. c #546CD2",
"g. c #5E75D6",
"h. c #677AC7",
"j. c #717CC1",
"k. c #6984A6",
"l. c #738CAC",
"z. c #7991AE",
"x. c #6F8BB0",
"c. c #778AB3",
"v. c #7A94B3",
"b. c #6B80CD",
"n. c #7A89C7",
"m. c #7D91C8",
"M. c #6D83D4",
"N. c #7589D5",
"B. c #7B93D7",
"V. c #80809E",
"C. c #858CA7",
"Z. c #8397AD",
"A. c #848ABB",
"S. c #849BB9",
"D. c #999CBE",
"F. c #A29FBC",
"G. c #8AA1BC",
"H. c #97A8BC",
"J. c #A3A9BF",
"K. c #A4B1BF",
"L. c #868DC1",
"P. c #8A93C4",
"I. c #939BC7",
"U. c #8B9AD4",
"Y. c #939DD2",
"T. c #8CA4C1",
"R. c #99ACC4",
"E. c #9DB2CA",
"W. c #99A7D8",
"Q. c #A3A9CA",
"!. c #A6B6C8",
"~. c #B1BECD",
"^. c #A4ADD7",
"/. c #AAB9D4",
"(. c #B3BCD7",
"). c #8AA3E3",
"_. c #9AAAE4",
"`. c #9FB5E1",
"'. c #A1AEE2",
"]. c #A9B7E6",
"[. c #B4BDE5",
"{. c #C0BFDE",
"}. c #B3C0CF",
"|. c #AFC0D4",
" X c #B8C5D5",
".X c #BAC4E6",
"XX c #C2CBDA",
"oX c #C7D2DD",
"OX c #D1D0DC",
"+X c #C5CBE5",
"@X c #CCD4E8",
"#X c #D6DBE7",
"$X c #C2CCF2",
"%X c #CBD5F1",
"&X c #D5DCF2",
"*X c #E0DEF2",
"=X c #DEE4E9",
"-X c #DCE3F4",
";X c #E8EBED",
":X c #EEF0EF",
">X c #F0F1EF",
",X c #ECEEF1",
"<X c #EEF1F2",
"1X c #FAFBFC",
"2X c None",
/* pixels */
"b z z z z j j g f f f f f f g f h h f h f h h f h h h j z g f g j g z g g f f f g g f g f f f g f f f f f g f f g f g f f f f f f f f f f f f f f f f f f f f f f f f f f f f f f f f f f f f f f f f f f f g f j g f g f g f z z j j z h f f f f f f f f f h f f f f f f f f f f f j h f h f f f f f f f f f f f f f f f f f f f f h f f f f f f f f z h j l j z z z z j z z z z z z z z z h h f l z h g j j j g f f j j j g f h f f f f f f f f f f f f h j z z z h h h l l z h z z z z z j j j z z z j j j j j j z z j z f f h h h h f h f f f f f f f j z z z z f f f f f f f j j j j j j j f h f j j j j z j z j j j z j j l z z z z l j z z z z z z z z z z z z j j z j f f f f j j j j j j z f f f f f f f f f f f f f f f f f f f f f f f f f f f f f f f f f f f f f f f f f f f f f f f f f f f f f h f f f f f f f f u h f f f f f f f f f f f f f f f f f f f f f f f f f f f f f f f f f f f f f f f f f f f f f f f f f j f h f f f f f f f f f f j f g f f j f f f h f j f f f f f f f f f f f f f f f f f f f f f u f f f f f f f f f f f f f f f f f f f f f f f y f f f f f f f f f f f f f f f f j f j j f j f j j j j j f j j j j j h z z z z z z z g g f f f f f f f f f f f f f f f h f z j j g f f f g j l l l l f f f f f f f f f f f f f f f f f f f f f f f f h f f f f f g j z h h z h f j f f f f f f h f j j f g f z z j j z z h z z z z j j z z z z z l z f f f f h j f f g g z z z z g f f f f f f f f f f f f f f f f f f f f f f f f f f g f f f f f f f f f f f f f f f f f f f f f f f f f f f f j j j j f f f h f f f f f f f f j j h j f j f f f f f f f f f f f f f f f f f f f g f j f f f f f f f f g f f f g f f f f j f j j f f f f f f h h z h f f f f f f f f f f f f f j h f z f f f f f j g f j f f f f f f h f z j f f g f f f f f f l f h f f f f j f f f f f j f f f f f f f h f f f h f f f g f j j h z f f f f f f f f f f f h h h h f f h h f j j j j f j j j j j j j j j z z z j z z z z z z z z z z z z z z z z z z z z j l f l h h l h h h z z z z z z z z z z g f j f h l j h h f h j f j z h j j z z z z z z z f f f f f f f f f h z j f z z z z z z z z z z g f z j j z j g z j j z z z z z z j z j z j j j j j z j j j f f j h f f f f f f f f f f f f f f f f f f f f f f f f f f f f f f f h f h f f j g f h j j j j h h j j j j j j z j h j j j z j h j j g j j j z h f f f f f f f f f f f f f f f f f f f f f f j f j j f f f f f g f f f f h h f f j f j j f f h l l z z h j h f j j l z j z z j j z g g z g f j f f j f j j j f z f j j j h j h f g g f j f f f f f f f f f f f f f f f f f f f j f j j j j j f h f h h f j j j z z z j j j z z z j g f j h z h z h z j z z z z z z b z z z z ",
"2X2X2X2X2X2X2X2X2X2X2X2X2X2X2X2X2X2X2X2X2X2X2X2X2X2X2X2X2X2X2X2X2X2X2X2X2X2X2X2X2X2X2X2X2X2X2X2X2X2X2X2X2X2X2X2X2X2X2X2X2X2X2X2X2X2X2X2X2X2X2X2X2X2X2X2X2X2X2X2X2X2X2X2X2X2X2X2X2X2X2X2X2X2X2X2X2X2X2X2X2X2X2X2X2X2X2X2X2X2X2X2X2X2X2X2X2X2X2X2X2X2X2X2X2X2X2X2X2X2X2X2X2X2X2X2X2X2X2X2X2X2X2X2X2X2X2X2X2X2X2X2X2X2X2X2X2X2X2X2X2X2X2X2X2X2X2X2X2X2X2X2X2X2X2X2X2X2X2X2X2X2X2X2X2X2X2X2X2X2X2X2X2X2X2X2X2X2X2X2X2X2X2X2X2X2X2X2X2X2X2X2X2X2X2X2X2X2X2X2X2X2X2X2X=XoXXX X}.}.;X,X;X:X1X1X1X1X1X1X1X1X1X1X1X1X1X1X1X1X1X1X1X1X1X1X1X1X1X1X1X1X1X1X1X1X1X1X1X1X1X1X<X<X<X:X,X<X<X<X1X1X1X1X1X1X1X1X1X1X1X1X1X1X1X1X1X1X1X1X1X1X1X1X1X1X1X1X1X1X1X1X1X1X1X1X1X1X1X1X1X1X1X1X1X1X1X1X1X1X1X1X1X1X1X1X1X1X1X1X1X1X1X1X1X1X1X1X1X1X1X1X1X1X1X1X1X1X1X1X1X1X1X1X1X1X1X1X1X1X1X1X1X1X1X1X1X1X1X1X1X1X1X1X1X1X1X1X1X1X1X1X1X1X1X1X1X1X1X1X1X1X1X1X1X1X1X1X1X1X1X1X1X1X1X1X1X1X1X1X1X1X1X1X1X1X1X1X1X>X1X1X1X1X1X1X1X1X1X1X1X>X1X1X1X1X1X1X1X1X1X1X1X1X1X1X1X1X1X1X1X1X1X1X1X1X1X1X1X1X1X1X1X1X1X1X1X1X1X1X1X1X1X1X1X1X1X1X1X1X1X1X1X1X1X1X1X1X1X1X1X>X1X1X1X1X1X1X1X1X1X1X1X1X1X1X1X1X1X1X1X1X1X1X1X1X1X1X1X1X1X1X1X1X1X1X1X1X1X1X1X1X1X1X1X1X1X1X1X1X1X1X1X1X>X1X>X:X1X1X1X1X1X1X1X1X1X1X1X1X1X1X1X1X1X1X1X1X1X1X1X1X1X1X1X1X1X1X1X1X1X1X1X1X1X1X1X1X1X1X1X1X1X1X1X1X1X1X1X1X1X1X1X1X1X1X1X1X1X1X1X1X1X1X1X1X1X1X1X1X1X1X1X1X1X1X1X1X1X1X1X1X1X1X1X1X1X1X1X1X1X1X1X1X1X1X1X1X1X1X1X1X1X1X1X1X1X1X1X1X1X1X1X1X1X1X1X1X1X1X1X1X1X1X1X1X1X1X1X1X1X1X1X1X1X1X1X1X1X>X1X1X1X1X1X1X1X1X1X1X1X1X1X1X1X1X1X1X1X1X1X1X1X1X1X1X1X1X1X1X1X1X1X1X1X1X1X1X1X1X1X1X1X1X1X1X1X1X1X1X1X1X1X1X1X1X1X1X1X1X1X1X1X1X1X1X1X1X1X1X1X1X1X1X1X1X1X1X1X1X1X1X1X1X1X1X1X1X1X1X1X1X1X1X1X1X1X1X1X1X1X1X1X1X1X1X1X1X1X1X1X1X1X1X1X1X1X1X1X1X1X1X1X1X1X1X1X1X1X1X1X1X1X1X1X1X1X1X1X1X1X1X1X1X1X1X1X1X1X1X1X1X1X1X1X1X1X1X1X1X1X1X1X1X1X1X1X1X1X1X1X1X1X1X1X1X1X1X1X1X1X1X1X1X1X1X1X1X1X1X1X1X1X1X1X1X1X1X1X1X1X1X1X1X1X1X1X1X1X1X1X1X1X1X1X1X1X1X1X1X1X1X1X1X1X1X1X1X1X1X1X1X1X1X1X1X1X1X1X1X1X1X1X1X1X1X1X1X1X1X1X1X1X1X1X1X1X1X1X1X1X1X1X1X1X1X1X1X1X1X1X1X1X1X1X1X1X1X1X1X1X1X1X1X1X1X1X1X1X1X1X1X1X1X1X1X1X1X1X1X1X1X1X1X1X1X1X1X1X1X1X1X1X1X1X1X1X1X1X1X1X1X1X1X1X1X1X1X1X1X1X1X1X1X1X1X1X1X1X1X1X1X1X1X1X1X1X1X1X1X1X1X1X1X1X1X1X1X1X1X1X1X1X1X1X1X1X1X1X1X1X>X1X1X>X1X>X:X1X1X1X1X1X1X1X1X1X1X1X1X1X1X1X1X1X1X1X1X1X1X1X1X1X1X1X1X1X1X1X1X1X1X1X1X1X1X1X1X1X1X1X1X1X1X1X1X1X1X1X1X1X1X1X1X1X1X1X1X1X1X1X1X1X1X1X1X1X1X1X1X1X1X1X1X1X1X1X1X1X1X1X1X1X1X1X1X1X1X1X1X1X1X1X1X1X1X1X1X1X1X1X1X1X1X1X1X1X1X1X1X1X1X1X1X1X1X1X1X1X1X1X1X1X1X1X1X1X1X1X1X1X1X1X1X1X1X1X1X1X1X1X1X1X1X1X1X1X1X1X1X1X1X1X1X1X1X1X1X1X1X1X1X1X1X1X1X1X1X1X1X1X1X1X1X1X1X1X1X1X1X1X1X1X1X1X1X1X1X1X1X1X1X1X1X1X}.z.C.Z.a ",
"=X#X,X;X;X:X:X;X:X,X;X;X;X:X:X:X;X;X:X;X:X;X;X<X<X<X:X:X>X>X<X<X:X,X:X,X,X<X:X<X:X<X:X:X<X,X:X,X;X:X:X:X:X;X:X;X:X;X:X:X,X,X:X;X:X;X;X;X:X;X;X;X;X;X;X;X=X;X:X:X:X<X<X:X:X:X,X:X:X:X:X;X:X,X,X:X:X:X:X,X;X:X:X:X:X,X,X;X:X;X:X,X:X;X;X;X,X;X;X;X;X:X:X,X,X:X<X:X:X:X,X;X,X,X:X:X,X:X:X:X:X:X:X,X,X,X:X,X,X:X:X:X:X:X,X,X,X:X:X,X;X:X;X:X:X,X,X:X;X:X:X,X:X:X;X:X,X:X;X;X:X;X,X;X;X:X;X;X:X,X;X;X;X:X:X,X;X:X;X:X:X,X:X:X:X,X:X:X,X:X:X,X:X,X;X:X:X;X,X;X=X;X=X=XXX|.!.!.!.!.#X#X#XoX;X=X;X;X;X;X=X;X;X;X;X;X=X=X>X:X;X;X;X:X<X:X;X:X;X:X>X;X;X:X;X;X:X;X;X;X;X=X=XOX=X#X#X#X#X#X;X;X;X;X:X:X;X;X;X;X:X;X;X;X;X;X,X;X;X,X:X,X<X<X<X<X<X<X:X,X,X;X;X,X:X,X,X;X;X:X:X,X;X;X;X:X:X:X;X,X,X,X:X;X,X;X;X,X:X,X:X;X;X:X:X;X:X:X:X;X;X;X;X:X:X;X;X;X;X:X;X:X>X:X;X:X:X:X<X:X:X,X:X,X<X:X;X:X:X;X>X;X:X:X,X;X<X:X:X:X:X:X:X:X,X,X;X,X<X<X;X<X:X:X>X:X,X:X;X,X:X:X,X;X,X;X;X;X:X;X:X;X;X;X:X;X:X;X:X;X;X;X=X;X;X;X;X;X;X;X;X;X;X;X;X;X:X;X:X,X:X:X:X,X:X;X:X;X;X;X:X;X;X;X:X;X,X:X:X,X<X:X;X:X:X:X<X<X>X<X>X<X<X>X:X:X<X<X:X,X:X,X:X;X;X;X:X:X:X:X>X>X;X;X:X;X;X>X:X,X:X,X:X;X:X:X:X;X:X;X:X;X:X:X:X;X:X>X:X,X>X:X:X;X,X;X:X,X;X;X;X;X,X;X=X;X;X=X;X;X=X=X=X=X=X=X=X=X;X;X:X,X;X;X,X;X:X,X:X;X:X;X;X;X:X:X:X;X>X:X;X:X;X:X<X:X,X,X,X:X<X:X;X:X:X;X,X:X:X,X:X:X<X<X:X,X:X,X<X,X:X:X:X:X>X:X;X:X:X:X:X:X:X:X:X:X<X:X,X:X,X:X<X:X,X:X:X:X<X:X,X:X,X:X<X:X:X:X,X:X<X<X,X:X,X:X<X<X>X:X:X:X<X<X:X,X,X:X<X:X,X:X,X:X<X<X,X:X:X:X<X:X:X,X,X:X:X:X,X:X<X<X;X:X:X:X:X:X:X;X;X:X:X:X<X:X:X,X:X,X<X:X:X;X;X:X>X,X,X;X;X:X>X:X:X:X;X:X<X:X,X;X;X;X:X;X;X;X;X;X;X;X;X;X;X;X;X;X;X;X;X,X<X:X:X,X:X;X:X:X:X:X:X:X:X:X,X,X,X:X<X<X;X:X:X;X:X:X;X:X;X,X:X,X:X,X:X;X<X:X:X;X:X<X<X>X<X:X,X:X<X:X;X;X;X;X:X;X:X;X;X:X<X:X,X,X,X:X<X<X,X:X:X,X<X:X:X:X;X:X<X<X:X;X;X:X<X,X,X,X:X,X<X<X:X:X;X:X<X,X:X;X;X:X:X,X:X,X;X:X:X,X,X;X:X;X:X,X;X:X,X;X:X;X;X;X:X>X<X<X:X:X:X:X<X,X:X,X:X;X<X:X:X:X:X:X>X:X:X,X:X<X<X<X,X:X,X;X,X;X;X;X;X;X;X;X;X=X=X=X;X=X=X=X;X:X:X:X;X;X:X;X:X<X<X<X>X<X1X<X<X<X<X<X>X:X:X,X,X>X<X<X,X:X:X;X:X;X:X,X:X:X<X:X<X,X:X<X<X<X:X:X:X,X<X:X,X:X,X:X>X<X<X<X;X=X;X;X;X;X;X;X<X:X,X;X;X;X,X;X;X;X;X;X:X:X:X:X:X;X:X,X;X:X:X,X<X,X:X:X;X:X:X,X:X;X;X;X:X;X;X:X:X;X:X,X;X;X;X;X:X;X;X;X;X;X,X;X;X;X;X;X;X;X;X;X;X;X:X,X;X;X;X;X;X;X;X;X;X;X;X;X;X=X=X=X=X=X=X=X;X:X>X:X,X;X:X;X<X,X;X:X;X;X:X,X;X;X;X;X:X;X;X;X;X;X:X,X:X;X:X;X<X,X:X,X;X:X<X<X,X,X;X:X<X:X;X:X:X;X:X,X;X,X:X;X:X;X:X;X;X:X<X:X;X;X;X:X:X,X;X;X;X:X:X,X:X;X;X;X,X;X;X;X;X;X,X:X;X,X:X;X:X,X;X;X;X;X:X,X;X;X;X;X:X;X:X:X;X;X:X,X;X;X;X;X:X;X;X;X;X;X:X,X;X;X;X;X:X;X;X;X;X;X,X;X=X;X;X=X=X=X;X=X=X;X=X;X;X;X;X;X;X;X=X;X>X;X>X;X:X;X;X;X:X;X;X;X;X;X:X,X;X;X;X;X,X;X;X;X;X;X;X;X;X=X;X=X;X=X;X;X=X;X;XH.k.l.p u ",
"=X;X=X;X:X;X;X:X,X,X:X:X;X;X;X;X:X;X;X;X;X:X:X:X:X:X,X:X>X<X<X<X<X<X:X:X,X:X:X<X:X:X:X>X:X:X,X:X,X,X;X:X;X:X;X:X:X;X;X;X;X;X;X;X;X;X;X;X;X;X;X;X;X;X;X;X;X;X:X:X:X:X:X<X:X:X:X,X:X:X:X:X:X<X:X,X:X,X:X:X:X:X;X:X:X,X;X:X;X:X;X,X;X;X;X;X;X;X;X;X,X;X:X:X:X:X:X,X<X,X;X,X,X,X:X:X:X:X:X:X:X:X,X:X,X:X,X:X:X:X;X:X:X,X,X:X:X,X,X:X:X:X,X:X:X:X,X;X:X:X;X,X:X;X:X;X,X;X:X;X;X;X:X;X;X:X;X;X;X;X;X;X;X;X;X,X:X;X:X>X:X,X,X:X,X:X,X,X;X,X:X:X:X,X,X;X:X;X;X;X=X=X;X=XXX!.!.!.E.K.#XoX#XoX;X;X;X;X=X;X=X;X;X;X;X=X;X=X:X:X:X:X:X,X,X:X:X;X:X:X:X:X:X;X;X:X;X;X;X;X;X=X#X#X=XoX#XoX#X#X=X;X=X=X;X;X;X;X;X;X;X;X;X;X;X;X;X;X:X:X:X;X:X:X;X<X;X<X:X,X,X,X:X,X:X,X;X:X,X;X,X:X,X;X;X;X;X;X;X,X;X;X,X,X;X;X;X,X;X:X;X;X:X:X,X:X;X;X;X,X;X;X:X;X;X:X;X;X:X:X:X;X:X:X,X:X:X:X:X:X;X,X;X:X,X:X>X;X;X:X:X:X;X;X;X:X;X:X;X:X;X:X,X:X,X;X:X,X:X:X:X<X;X:X:X:X,X,X,X:X;X:X;X,X:X:X;X;X:X;X;X;X;X;X;X;X;X;X;X;X;X;X;X;X;X;X;X;X;X;X;X;X;X:X;X:X;X;X;X:X;X;X:X,X,X,X:X:X;X;X;X:X;X:X:X;X;X;X,X:X,X:X,X,X:X:X<X<X>X>X<X<X<X<X:X:X:X<X:X:X,X:X;X:X:X:X;X:X;X:X>X;X>X>X:X:X:X:X:X,X,X:X:X:X:X;X;X:X;X:X:X;X:X:X;X:X;X>X,X:X:X:X;X:X;X:X:X,X:X;X;X;X;X;X;X;X;X;X;X=X=X=X=X=X=X=X=X=X;X;X:X;X;X;X;X;X;X;X;X;X;X;X;X;X;X;X;X:X;X,X:X;X:X;X<X>X:X:X:X<X,X:X:X:X;X:X,X:X,X,X,X,X:X>X,X,X:X:X>X:X,X>X:X,X:X,X:X:X;X;X:X,X,X;X:X<X,X:X:X,X:X:X<X<X:X,X:X<X,X,X,X:X,X:X<X:X,X,X:X:X:X<X:X,X:X,X<X<X<X>X:X>X<X<X:X:X:X,X<X>X,X<X,X,X:X:X:X,X;X:X<X:X;X:X;X:X;X:X:X:X:X:X:X;X;X;X,X;X;X:X;X:X;X:X:X,X,X,X:X,X,X:X:X:X:X;X:X:X;X:X;X;X;X:X;X:X:X:X:X,X;X:X,X,X;X;X;X;X;X;X;X;X;X;X;X;X;X;X=X;X;X;X<X<X,X,X:X,X,X,X;X:X;X:X:X:X:X:X:X:X:X:X:X;X;X:X,X:X,X;X:X,X:X:X;X:X;X:X<X>X:X,X:X<X<X<X,X,X:X,X:X:X:X,X:X:X;X:X:X;X:X:X>X,X:X:X:X;X:X:X:X:X,X:X:X,X:X,X,X:X:X:X:X:X:X:X:X:X:X:X;X:X:X:X,X,X,X:X<X:X:X;X;X;X:X,X,X:X,X:X,X,X;X,X;X;X,X,X,X,X;X;X,X,X;X;X:X>X<X<X:X:X;X:X:X:X;X:X;X,X:X,X;X:X;X:X:X<X,X:X,X:X<X<X,X:X;X:X,X;X,X;X;X;X;X;X;X=X;X;X;X;X=X=X;X;X:X;X:X;X;X;X,X<X<X<X<X<X>X<X<X>X<X<X<X<X:X<X:X,X:X:X;X:X,X<X,X:X,X,X;X:X,X,X;X:X:X:X<X<X:X,X,X:X,X:X:X,X:X,X<X<X<X<X;X;X=X;X;X:X;X;X:X,X;X;X;X;X;X;X;X;X:X;X:X;X;X;X;X,X,X:X;X,X,X:X:X,X,X;X:X;X;X:X;X;X;X;X,X;X;X;X;X;X;X;X;X>X;X;X,X;X;X;X;X;X;X;X=X;X=X;X;X;X;X;X;X;X;X;X;X;X;X;X;X;X;X;X;X;X;X;X=X;X;X=X=X;X;X;X:X:X;X;X,X:X;X;X:X,X;X;X:X;X;X;X;X;X;X:X:X;X:X:X:X:X;X,X;X;X,X:X:X:X,X,X,X:X:X:X;X:X:X;X,X:X:X;X;X:X;X:X,X,X;X:X:X;X;X;X;X;X;X:X;X:X;X;X:X,X;X:X;X;X;X,X;X;X;X;X:X;X;X;X;X;X;X,X;X:X;X:X,X:X,X,X;X:X;X;X;X;X;X;X,X;X;X;X:X;X,X,X:X;X;X;X;X;X;X:X;X;X;X:X,X;X:X;X;X,X;X;X;X;X;X;X=X;X=X;X;X=X=X=X=X=X=X;X=X;X;X;X=X;X;X=X;X;X:X;X;X:X;X:X;X;X;X;X;X;X;X;X;X;X;X;X;X;X;X;X=X=X;X;X=X;X=X;X;X;X=X=X;X=X=X!.z.u a p ",
";X=X=X=X;X;X;X;X;X;X;X;X;X;X;X;X;X;X;X;X:X:X;X;X,X:X,X,X:X:X>X<X:X:X;X,X,X,X,X:X:X:X:X>X:X:X:X:X;X;X;X;X;X;X;X:X;X;X;X;X;X;X;X;X;X;X;X;X;X;X;X;X;X=X;X=X=X;X;X:X:X;X;X:X:X;X;X:X:X:X:X:X:X>X:X:X;X,X:X;X;X:X:X;X;X;X;X;X;X;X;X;X;X;X;X;X;X;X;X;X;X;X,X:X,X,X:X;X;X;X;X;X;X;X:X;X;X:X;X;X;X;X;X:X,X;X;X,X;X:X;X:X,X:X:X:X;X:X:X;X;X:X;X:X;X;X;X;X;X;X;X;X;X;X;X:X,X:X;X:X;X:X;X;X;X;X;X=X;X;X;X:X;X;X;X;X;X;X;X;X,X:X;X;X:X:X;X:X;X;X;X;X;X;X,X;X;X;X;X;X=X=X=X=XoXE.H.K.K.K. XoXoXoX=X=X=X=X=X=X;X=X=X;X=X;X;X;X,X:X,X<X;X:X;X:X;X;X;X;X;X;X;X:X:X;X;X;X;X;X;XOXoX#X#XoXoXoX#XoX=X;X=X=X,X:X;X;X;X;X,X,X;X;X;X;X;X;X:X<X;X,X,X:X<X<X;X<X,X,X:X;X;X:X,X,X;X;X,X:X;X;X;X:X;X;X;X;X;X;X;X;X;X:X;X;X;X;X;X;X;X;X;X;X;X;X;X:X;X;X>X;X;X;X;X;X:X;X;X;X;X;X;X,X;X;X:X:X;X:X:X;X;X;X;X;X;X;X;X=X;X;X;X:X;X;X;X;X;X;X;X;X;X:X:X;X;X;X:X;X;X;X;X:X;X:X;X;X;X:X;X;X;X;X;X;X;X,X;X;X;X;X;X;X;X;X;X=X;X;X;X;X;X;X;X;X;X;X=X=X;X;X=X;X;X;X;X;X;X;X;X;X;X;X,X:X;X;X:X,X;X;X;X;X;X;X;X,X;X:X;X;X;X;X:X:X:X;X:X<X:X,X;X:X;X:X<X<X:X:X:X:X:X:X:X;X:X:X;X:X;X:X;X;X;X;X;X;X:X:X:X:X;X:X;X;X;X:X;X;X:X;X;X:X;X:X;X,X;X;X:X,X;X;X;X,X;X;X;X;X;X;X;X;X=X;X=X;X=X=X=X=XOX=X=X=XOX=X:X;X;X:X=X;X;X;X;X;X;X;X;X:X;X;X;X;X;X;X;X:X;X;X;X;X,X;X:X;X,X;X;X;X:X;X;X:X;X:X:X:X,X,X:X:X,X,X:X:X:X;X,X;X;X,X:X;X;X;X:X;X:X:X;X:X,X;X,X:X,X,X;X:X:X;X:X:X,X;X:X;X;X:X:X:X;X:X;X;X;X:X:X;X:X;X:X,X,X:X;X,X,X>X:X:X:X;X:X:X:X:X;X;X:X,X:X:X;X:X;X,X:X:X,X,X;X,X;X,X:X:X:X:X,X:X;X:X;X;X;X;X;X;X;X;X;X:X:X;X;X;X,X;X;X;X;X;X;X:X;X:X;X;X;X;X;X;X:X;X;X:X;X;X;X;X;X;X;X;X;X=X;X;X;X=X;X;X;X=X;X=X;X;X,X<X<X:X;X;X:X;X=X;X:X;X;X:X:X:X;X;X;X;X;X;X:X;X;X;X;X,X;X;X;X:X:X:X;X:X:X<X:X,X:X:X:X:X:X:X:X:X;X;X,X;X;X,X;X;X;X:X;X:X;X:X;X,X;X;X,X;X:X:X:X,X;X:X,X:X:X;X:X;X;X;X:X:X;X;X;X;X,X;X;X,X;X;X:X:X:X;X;X:X;X;X:X:X:X:X:X:X:X:X:X;X;X;X;X;X;X;X;X;X;X;X;X;X,X:X:X:X:X:X;X:X;X:X:X;X:X;X:X;X:X:X;X;X;X,X,X,X:X;X:X;X;X;X;X;X;X;X;X=X#X;X;X;X;X=X;X;X=X=X=X=X;X;X;X;X;X;X;X;X;X,X:X:X>X:X<X,X<X:X>X:X<X<X<X<X:X,X,X,X<X<X;X:X,X;X,X;X:X;X,X,X,X;X<X;X;X;X,X;X:X,X,X:X,X,X:X:X,X,X:X;X=X;X;X;X;X;X;X;X;X;X;X;X;X;X;X;X;X;X;X;X;X,X,X,X;X:X;X;X;X:X;X:X;X;X;X;X;X;X;X;X:X,X;X;X;X;X;X,X;X;X;X;X;X=X:X;X;X;X;X;X=X;X;X;X;X=X;X;X=X;X=X;X;X;X;X;X;X=X;X;X=X;X;X;X;X;X;X;X;X;X=X;X=X;X=X=X;X;X,X;X;X;X;X;X;X;X;X;X;X;X;X;X;X;X;X;X;X;X;X:X;X;X;X;X;X;X:X;X,X,X,X;X,X:X;X;X:X;X;X;X;X:X;X;X;X;X;X;X:X;X:X;X;X:X;X;X;X;X;X;X;X;X;X;X;X;X:X;X;X;X;X;X;X;X;X;X;X;X;X;X;X;X;X;X;X;X:X;X;X;X;X;X;X;X:X;X;X;X;X;X;X;X;X;X;X;X;X;X;X;X;X;X;X;X;X;X;X;X;X;X;X;X;X;X;X;X;X;X=X;X;X=X;X=X=X;X=X=X=X=X=X=X=X=X=X=X=X=X=X;X=X;X;X;X;X;X;X;X;X:X;X;X;X=X;X;X;X;X;X;X;X;X;X;X;X=X;X=X;X=X=X=X=X=X=X=X=X=X=X=X=XZ.u u u u ",
";X;X;X;X}.K.}.}.!.!.!.!.!.K.K.!.H.H.}.}.!.!.!. X X X}.~.!.!.!.!.!.~.}.~.~.~.~.!.~.!.!.!.!.H.H.H.J.K.!.K.K.K.Q.H.H.R.K.!.J.J.H.H.H.H.H.G.H.G.G.v.H.Z.G.G.H.Z.G.K.!.K.K.G.H.D.G.H.G.H.H.K.!.!.!.!.~.!.!.K.H.J.K.H.K.R.H.H.H.H.H.H.H.G.G.H.Z.G.G.G.Q.!.!.!.!.~.}.}.}.!.E.K.H.!.K.H.H.H.H.H.H.H.H.G.H.H.H.H.H.H.H.H.H.H.H.R.!.H.!.H.K.H.K.H.K.K.R.K.Q.K.H.K.K.K.H.H.H.H.H.R.H.H.H.H.H.G.H.H.Z.G.G.Z.Z.H.H.H.H.G.H.G.H.H.H.H.H.R.H.H.H.G.H.H.H.H.H.H.H.H.H.H.H.H.H.H.G.z.z.l.k.v.G.K.H.H.E.E.K.H.H.H.H.H.H.H.K.K.K.K.}.}.}.|. X}.}.~.}.H.H.H.H.H.H.G.H.R.H.H.H.Z.H.S.H.H.Z.G.K.!.E.K.E.|.!.}. X X X XXXXX X XXX X+X X XoX X XXX X XXXoX X X X X X X X XXX.X XoX X X.X}.}.}. X~.~.!.~.!.!.!.!.!.R.R.R.H.H.H.R.H.!.H.!.!.!.!.!.!.!.!.~.!.|.!.E.K.E.R.E.E.!.!.!.R.!.!.!.K.H.H.H.H.H.H.H.H.G.H.H.G.H.H.H.H.H.H.H.J.J.K.H.H.H.H.K.H.H.H.H.H.H.H.H.H.R.H.R.H.H.H.R.H.R.R.R.H.H.H.H.H.H.H.H.G.Z.H.H.G.G.Z.G.Z.Z.Z.Z.Z.G.H.G.G.G.H.H.H.H.!.K.E.R.!.!.!.E.K.R.H.H.H.H.H.H.G.H.G.G.H.K.!.R.!.H.H.K.E.E.E.E.}.|.}. X X X}. X X X X}.}.!.Q.H.K.K.H.G.K.E.K.E.E.m.K.!.!.E.K.!.H.H.H.H.H.H.H.J.H.H.H.K.K.H.H.E.H.H.H.H.H.H.H.H.H.H.H.H.H.H.H.Z.Z.C.z.z.z.Z.z.z.z.x.z.z.z.z.Z.z.Z.G.Z.Z.Z.G.G.Z.Z.H.H.G.H.H.H.H.K.H.K.Q.K.K.K.K.H.H.!.!.!.!.!.!.!.!.E.K.K.H.H.E.!.!.!.!.!.!.!.!.|.}.}.~./.~.~.!.~.!.|.|.!.}.!.E.}.|.~.!.!.!.!.!.!.!.!.!.H.H.H.H.H.H.H.G.H.H.H.R.H.R.H.R.Q.R.H.H.H.K.H.H.K.!.Q.H.R.H.E.R.H.H.H.H.H.H.H.H.H.H.H.H.K.R.H.H.H.H.H.H.H.H.H.H.H.H.H.H.K.H.J.J.!.H.K.H.!.H.H.H.H.H.H.H.H.H.H.H.G.H.Z.G.G.G.D.H.H.G.H.H.H.H.H.H.H.H.H.H.Z.Z.z.z.z.z.z.Z.S.H.H.H.H.H.H.H.H.G.!.!.!.!.!.!.!.~.}.|.|.!.}.!.!.E.!.!.!.!.!.!.|.|.}.}./.|.~.~.!.~./.}.!. X}.|.}.|. XXXXX X X X X XXX XXX X X X}.XX X X|.}.|.|.|.|.~.~.|. X!.|.}.|./.!.!.!.!.!.!.!.|.!.!.!.~.~././.!.~.!.!.!.!.!.!.!.~.K.K.Q.K.H.!.K.K.E.K.E.E.E.!.!.!.!.!.!.R.K.K.H.H.G.G.R.R.K.Q.!.E.!.E.!.!.!.!.!.!.!.!.!.K.!.!.!.!.!.!.!.!.!.!.E.R.H.H.H.H.H.G.G.Z.Z.S.Z.Z.G.Z.Z.H.H.H.R.!.!.!.K.}.|.E.E.~.}.}.!.~.oXoX+X XoX.XoX XoX XXXXXXX X X X X X X X X X X X X X|.|. X X X X X|.~.~.~.~. X X!.E.H.H.H.G.G.G.Z.H.H.K.~./.}.}.!.~.~.~.K.Q.!.!.!.!.!.!.!.!.!.!.Q.!.K.!.!.K.!.!.!.E.!.!.K.Q.R.H.!.K.!.!.H.H.H.H.G.D.Z.H.Z.G.Z.G.G.H.H.H.H.H.H.K.H.H.H.H.H.H.H.H.H.G.Z.Z.H.H.K.H.H.H.D.Z.H.Z.v.z.z.Z.Z.Z.Z.Z.H.H.H.K.H.!.!.!.!.K.H.K.H.!.K.H.!.H.H.H.H.H.K.!.Q.K.K.K.H.H.H.H.H.H.H.H.H.H.H.K.R.H.H.K.H.H.H.K.H.R.H.!.H.!.R.K.E.R.H.H.R.K.K.Q.K.K.R.!.H.!.H.R.K.H.K.R.H.K.R.H.H.H.H.K.H.H.H.H.H.K.E.K.K.E.K.K.K.H.H.R.H.H.H.H.K.K.!.R.!.!.K.H.K.R.K.H.H.K.H.H.H.H.H.H.H.H.H.H.H.H.G.H.Z.H.H.Z.Z.z.Z.Z.Z.G.G.G.H.H.H.H.H.H.G.H.H.K.K.K.~.~.~.~.K.H.K.K.!.K.!.H.!.!.!.!.K.!.!.!.K.R.R.R.H.H.H.H.H.T.E.H.H.E.E.T.H.H.H.@.a a p a ",
";X;X;X;XV.z.z.z.%.%.%.$.$.%.@.$.#.k.n k.k.k.k.k.l.c.l.l.$.$.$.$.$.k.x.k.x.k.k.k.l.l.l.k.l.@.$.$.#.O.O.+.%.*.*.*.*.*.k.%.%.%.%.%.%.O.O.O.O.n O.c c | O.c n n n %.%.*.*.%.%.%.@.$.@.k.*.*.k.k.l.k.k.k.k.%.%.%.%.%.%.%.$.$.$.$.$.$.$.%.$.$.@.$.$.$.k.v.v.v.v.v.v.v.z.%.k.%.%.%.%.%.%.%.$.%.%.$.%.%.@.%.%.$.%.$.$.%.$.%.@.%.%.*.%.%.%.%.%.%.%.%.k.k.k.*.*.*.k.%.k.%.k.%.1.%.k.%.%.%.%.%.%.%.@.%.$.$.@.$.%.$.@.$.%.$.$.%.%.%.*.6.*.*.%.k.k.%.k.%.1.%.%.%.%.%.k.k.%.%.%.@.%.$.%.k.l.l.x.x.k.k.k.k.k.k.k.k.k.k.*.k.*.%.l.v.v.v.G.G.S.G.k.k.k.%.k.%.k.%.*.*.%.#.+.$.$.%.k.n O.$.v.v.v.v.v.v.v.v.R.R.T.E.R.R.E.R.E.E.E.E.E.E.E.E.E././.E.E.E.E.E.E.E.E.E.E.E.E.E.E.R.R.T.v.v.v.m.v.v.v.c.v.x.v.x.l.k.k.l.l.l.l.l.l.k.l.l.l.l.x.l.x.l.l.z.x.x.x.l.k.l.l.l.l.l.v.x.l.k.l.k.k.%.%.%.%.O.+.+.$.$.%.%.%.%.1.%.%.%.%.%.%.%.@.%.%.%.%.%.%.%.%.%.#.$.#.k.k.#.#.$.%.%.$.%.%.$.%.$.%.$.$.%.$.%.@.$.$.k.%.$.@.#.$.$.@.$.+.$.@.%.%.%.@.%.%.$.%.%.k.*.%.k.%.k.k.k.1.%.*.%.*.%.%.%.%.%.@.%.%.k.k.k.k.k.k.l.l.l.l.l.G.v.S.S.S.P.v.v.T.v.G.G.G.l.l.k.k.k.k.k.k.k.k.k.k.k.*.6.k.1.k.k.$.%.@.$.$.%.$.$.%.@.$.$.$.%.k.$.%.$.%.%.%.%.%.%.%.%.%.%.%.%.$.#.#.O.O.O.O.O.n O.O.O.m +.$.$.@.$.$.#.@.+.$.%.@.$.-.%.#.$.k.k.k.k.k.k.k.k.l.k.k.k.k.k.l.l.l.l.l.k.l.l.x.l.l.k.x.l.x.v.l.v.z.c.x.l.v.v.v.v.v.v.v.v.v.c.x.v.v.x.l.x.z.x.l.l.l.l.l.l.l.l.l.k.k.k.k.*.%.%.%.k.%.k.%.%.%.%.%.*.*.%.*.*.%.%.%.%.%.%.%.%.%.%.%.%.%.%.k.%.k.%.%.%.%.%.%.*.*.*.6.6.*.*.*.*.*.6.*.*.*.*.*.k.*.%.%.%.%.@.$.$.%.$.%.%.$.%.@.%.$.%.$.$.$.$.@.$.$.$.+.$.$.$.+.$.$.$.$.%.%.#.$.$.$.$.#.O.O.O.O.n O.@.%.%.%.%.k.k.k.x.v.v.v.v.v.v.z.v.v.v.v.v.l.v.v.v.z.v.v.v.z.v.T.T.G.G.S.v.S.v.v.S.v.v.v.T.G.G.T.G.S.G.T.T.R.T.T.T.G.H.T.T.T.T.H.T.T.T.T.T.T.T.v.T.P.G.v.v.v.v.v.v.v.l.l.x.c.z.v.v.v.x.v.l.l.l.v.v.c.x.v.v.v.v.v.v.z.z.l.k.k.l.l.k.k.k.k.k.k.k.k.k.k.k.k.*.*.*.k.*.k.k.k.%.k.x.k.k.k.k.k.k.l.l.l.l.k.k.*.*.*.*.%.%.%.%.1.%.1.%.%.1.k.%.%.k.k.k.k.#.%.%.$.$.O.$.#.$.@.%.%.%.k.l.k.k.k.G.G.G.G.G.S.v.S.S.!.E.!.E.E.E.E.E./.E.E.E.E.E.E.m.T.E.T.R.T.E.R.R.T.T.T.R.T.m.T.G.T.v.v.v.v.v.v.v.x.k.k.k.k.k.k.k.k.k.k.G.G.G.G.G.l.k.l.k.%.%.k.k.k.x.k.k.k.k.6.k.k.k.k.k.k.k.k.k.k.k.k.k.k.k.k.k.k.k.k.k.%.%.*.*.@.O.@.+.$.+.@.$.#.O.+.+.O.O.O.O.O.O.O.O.O.O.@.%.%.%.*.$.%.$.%.O.#.O.O.| n O.O.O.O.$.%.%.$.k.*.%.*.*.%.*.%.%.%.*.*.k.*.*.*.*.*.*.%.$.%.$.$.%.%.%.@.%.%.%.%.%.%.%.%.%.%.%.%.%.%.%.%.%.%.%.%.%.%.%.*.%.*.%.k.k.k.%.%.%.$.%.@.$.@.%.%.%.*.*.*.%.%.%.%.%.%.%.%.%.%.%.%.%.%.@.*.*.%.%.k.%.k.%.%.%.%.%.*.%.k.k.*.*.k.k.k.k.k.k.k.k.%.k.k.%.6.k.k.*.6.k.*.%.*.%.%.$.+.@.$.$.$.O.O.+.c O.c O.m %.k.%.-.k.@.k.@.@.$.$.*.%.-.%.k.k.k.l.k.k.k.k.k.k.#.k.*.6.*.%.%.%.%.%.%.%.1.%.1.%.%.%.#.$.k.#.k.k.k.#.%.%.%.a u u p u ",
":X;X;X:XZ.z.l.l.%.$.$.%.$.$.$.%.n k.k.O.k.k.k.z.z.z.v.l.%.%.%.%.%.l.l.k.l.k.l.l.l.l.l.l.l.$.$.+.$.+.+.*.*.*.*.*.*.*.%.6.$.@.@.%.%.#.O.O.O.O.O.O.O.O.| O.n n %.k.k.*.*.%.$.$.%.%.@.*.k.*.k.l.k.l.k.k.k.%.*.%.%.%.%.$.@.$.$.$.$.$.$.$.%.$.%.%.$.%.l.S.S.S.S.v.S.v.v.%.%.%.%.*.%.%.%.%.%.%.%.%.%.%.%.$.$.%.$.$.$.%.%.@.@.%.*.%.*.%.%.%.%.%.%.%.*.k.%.k.k.k.k.k.k.k.k.k.k.1.6.k.%.%.%.%.%.%.%.@.$.%.@.%.%.%.$.%.$.%.$.@.%.%.%.*.*.*.k.%.%.k.%.k.%.1.%.6.k.*.k.%.k.k.k.%.%.%.$.k.k.l.k.l.x.l.k.l.x.k.k.k.k.k.k.*.*.*.v.v.v.S.v.G.S.G.k.k.k.k.k.%.%.k.*.*.*.$.@.$.%.$.n k.k.k.v.v.v.v.G.v.G.G.E.E.E.R.R.E.E.E.E.E.E.E.E.!.E.`.E.E.E.E.`.E.E.E.E.E.).E.E.E.E.E.R.E.R.T.v.v.v.v.v.v.v.v.v.c.v.z.z.l.l.k.l.l.l.l.l.l.l.l.l.l.z.x.z.c.z.c.v.v.l.l.l.v.v.v.z.v.l.l.k.l.k.k.k.-.%.%.%.+.+.+.+.$.%.%.k.%.%.%.%.%.%.%.%.%.%.%.%.%.%.%.%.%.%.%.k.#.k.$.#.k.k.,.%.%.%.%.%.%.%.%.%.%.%.%.%.%.$.@.%.$.$.%.@.$.$.$.+.$.$.+.%.%.k.$.%.%.%.%.$.@.*.*.k.%.k.k.%.k.k.*.*.*.*.%.%.%.%.%.*.*.*.l.z.z.l.l.l.z.l.z.l.z.G.G.G.S.G.S.G.G.v.T.G.v.v.k.k.x.k.k.k.k.#.k.k.k.1.1.6.6.1.k.%.k.%.$.$.%.$.@.$.%.$.$.#.k.$.$.%.%.%.%.%.%.%.%.%.%.%.%.%.%.%.%.$.+.#.O.O.O.O.O.O.O.O.O.n +.@.%.@.+.$.@.@.+.$.$.%.%.%.%.k.@.@.k.k.k.k.k.k.k.k.k.k.k.k.%.l.l.z.k.l.l.l.l.k.l.k.k.l.l.l.l.z.z.v.v.v.z.v.v.v.v.v.v.v.v.v.v.v.v.v.v.z.z.x.v.c.l.l.l.l.l.l.l.l.k.k.k.6.%.%.%.%.%.%.%.%.%.%.%.%.*.6.*.*.*.*.*.%.k.%.*.*.%.*.*.%.k.%.%.k.%.%.%.%.%.%.%.*.*.*.6.6.6.*.*.*.*.*.*.*.k.*.k.*.*.k.%.%.%.*.%.%.%.$.%.$.%.%.$.%.@.%.%.$.$.$.$.$.@.$.$.+.$.@.$.+.@.%.$.$.%.%.$.$.$.$.#.#.#.O.O.O.O.O.%.%.@.$.%.k.k.k.l.S.v.v.S.v.S.v.v.v.v.v.v.v.z.v.v.v.v.v.S.v.v.T.G.G.G.G.S.v.S.v.S.G.v.v.G.G.G.T.v.S.S.S.G.T.T.R.T.T.G.R.T.T.R.T.T.T.T.T.T.T.G.T.T.G.G.T.G.v.G.v.v.v.z.z.l.z.z.v.v.v.l.l.x.l.l.x.x.v.v.v.v.v.v.v.z.v.z.k.k.l.k.k.l.l.k.l.k.k.k.k.k.*.*.*.k.k.*.k.*.k.k.k.k.k.k.x.k.l.x.x.l.k.l.x.l.l.k.*.*.%.*.*.%.%.*.%.%.6.6.%.*.%.k.k.k.k.k.k.%.%.@.$.$.$.$.$.$.%.@.%.-.k.k.k.l.k.G.G.G.G.G.G.G.G.G.!././.!./.E./.E.E.E.E.E.E.E.E.E.T.T.T.R.R.W.R.T.W.T.T.T.T.T.T.T.T.T.v.P.v.S.v.v.z.k.k.k.k.k.k.k.k.l.G.G.G.S.G.S.k.k.k.k.%.k.k.k.k.k.k.k.k.k.k.k.k.6.k.k.k.k.k.k.k.k.k.k.k.k.k.k.k.k.*.%.*.%.*.*.%.O.+.+.$.$.O.@.@.$.O.+.O.+.O.+.O.O.O.O.O.O.$.%.%.%.@.%.%.$.%.O.O.O.O.O.c O.n O.O.+.$.%.%.%.*.k.*.*.*.*.*.*.*.*.*.%.*.*.*.*.*.*.$.%.$.@.@.%.%.%.%.%.%.%.%.%.%.%.%.%.%.%.$.%.%.%.%.%.%.%.%.%.*.%.%.*.*.*.%.*.k.%.%.%.%.$.%.%.%.%.*.*.*.%.%.*.%.*.%.*.%.k.%.k.%.k.*.*.*.*.*.*.k.%.%.%.%.k.k.%.6.*.*.6.*.*.k.k.6.k.k.k.*.k.*.k.k.*.k.k.k.*.*.k.k.*.k.%.%.-.k.@.$.$.$.$.$.@.+.+.O.O.O.O.n $.%.%.*.*.%.%.@.%.%.%.l.z.l.z.z.z.k.l.k.k.k.k.k.k.k.k.k.6.*.%.%.*.%.%.%.%.%.%.%.%.%.%.k.O.k.k.k.k.k.%.*.%.%.a p p p p ",
";X:X;X;Xl.z.z.l.*.%.%.$.$.%.$.$.k.O.k.k.k.k.k.z.z.v.x.x.%.%.%.%.%.k.l.l.l.k.k.k.l.l.k.k.l.+.+.+.O.+.O.6.*.k.k.*.*.*.*.*.%.@.%.$.#.#.O.O.O.O.c O.O.O.O.O.#.%.k.k.k.k.k.@.%.$.$.%.@.*.*.*.k.l.x.l.x.k.1.1.%.%.%.%.%.@.#.#.#.$.$.$.$.$.<.$.%.%.%.%.v.v.m.v.T.v.v.v.v.%.%.%.%.%.%.%.%.%.%.%.%.$.%.$.$.$.%.$.$.$.$.%.$.%.%.%.%.%.%.%.%.%.%.%.%.%.1.6.%.k.%.k.k.%.k.%.%.k.*.*.1.k.1.%.%.%.%.%.$.%.$.$.#.#.$.#.%.$.%.$.$.%.%.$.1.1.%.%.k.%.%.1.%.k.1.k.%.k.k.%.%.k.k.k.k.%.%.%.+.k.k.k.l.k.l.l.k.k.k.k.k.k.k.k.k.1.1.k.S.v.G.v.G.G.v.G.k.k.%.%.k.%.%.%.%.%.1.$.$.$.%.%.k.#.k.O.v.v.v.v.v.G.v.G.R.E.R.E.E.E.E.R.E.E.E.E.E.E.E.E.E.E.E.E.E.E.E.R.E.E.E.E.E.E.E.W.E.E.E.R.G.v.G.v.v.v.v.v.v.x.v.v.v.x.x.l.x.l.l.l.l.k.x.x.l.l.l.x.l.z.l.v.x.v.l.l.x.l.x.x.l.v.v.x.l.k.k.x.k.%.*.*.%.#.$.$.$.$.k.%.1.%.%.%.%.%.%.%.$.%.%.%.@.%.%.%.%.%.%.%.%.%.%.%.%.%.%.%.1.$.%.%.%.%.%.%.%.@.%.%.$.%.$.$.%.$.$.$.$.$.$.$.$.$.#.#.%.%.k.%.%.@.%.%.$.%.k.%.1.6.*.6.k.*.1.*.*.%.%.1.*.%.%.%.*.%.*.l.l.l.x.l.l.l.l.z.l.v.v.v.v.v.v.m.v.v.m.v.v.v.k.k.k.k.k.k.k.k.k.%.k.k.1.k.6.k.6.1.6.k.%.$.@.$.$.$.#.#.$.%.$.$.%.%.%.%.%.%.%.%.%.%.%.k.%.%.%.%.%.$.$.#.#.O.O.O.O.O.O.O.O.#.$.$.$.$.$.$.$.$.$.$.$.%.$.$.%.%.%.%.k.k.k.1.k.k.k.l.k.k.k.k.k.k.l.l.x.l.l.l.l.k.x.k.x.k.k.l.l.z.l.v.v.v.v.v.v.v.v.v.v.z.v.v.x.v.v.v.v.x.x.v.x.l.x.l.x.x.l.l.x.x.l.k.6.k.k.%.%.%.%.%.%.%.%.%.%.%.%.k.1.k.*.*.6.%.%.*.%.*.%.%.%.%.%.%.*.%.%.1.%.%.$.k.$.k.%.1.1.1.*.*.1.1.6.*.*.6.6.*.*.*.*.*.*.%.$.%.%.%.%.$.%.%.%.%.%.%.%.%.$.%.@.$.$.$.#.#.$.$.$.$.$.#.$.%.$.$.%.%.$.#.#.#.#.#.O.O.O.O.O.O.O.k.*.%.%.%.k.k.k.l.v.v.S.v.S.v.S.S.v.v.v.v.v.v.v.z.v.v.v.x.z.v.T.T.T.G.G.v.G.v.G.v.v.S.v.G.G.S.v.T.T.v.v.v.G.G.T.T.T.S.T.T.T.T.T.T.T.T.T.T.T.T.T.T.T.v.G.v.v.v.v.v.v.l.l.l.l.l.v.v.x.x.z.l.l.l.x.x.v.v.v.v.v.v.v.v.v.z.l.k.k.l.k.k.k.k.l.k.k.k.k.k.k.%.k.1.%.k.k.1.%.k.k.%.k.k.k.x.x.x.k.x.x.l.x.k.k.k.1.%.*.%.%.%.%.%.*.%.1.1.%.%.%.%.k.k.k.1.k.%.%.$.%.$.$.$.$.$.%.%.%.%.k.k.l.k.k.G.G.G.G.G.G.S.S.S.E././.E.E.E.E.E.E.E.E.E.E.E.T.R.R.T.T.R.R.T.R.).R.T.R.T.T.T.T.T.T.v.v.T.v.G.v.v.l.k.k.k.k.%.%.k.k.v.v.v.T.v.v.G.k.k.k.k.%.%.k.k.k.k.k.x.k.k.k.k.k.k.k.k.k.k.k.k.k.k.k.k.k.k.k.k.k.k.%.%.%.*.*.%.%.O.+.$.$.$.$.+.+.+.+.+.O.+.O.+.O.O.O.O.O.+.%.%.%.%.%.$.%.$.$.O.O.#.O.O.O.O.| O.O.#.%.%.$.k.*.*.6.1.*.%.6.%.%.*.-.%.%.6.%.%.*.*.@.@.$.$.%.%.*.%.%.%.%.%.%.%.%.%.%.%.%.%.%.%.$.%.%.%.%.%.%.%.%.%.%.%.*.%.1.1.%.%.%.%.%.$.%.$.%.@.%.%.%.*.%.*.%.%.1.%.%.%.%.k.%.k.1.%.%.%.%.*.%.%.k.%.*.*.k.%.1.1.1.1.%.k.1.k.k.k.k.k.k.1.k.6.6.k.*.k.6.k.6.*.k.*.k.%.%.%.%.$.$.$.$.@.$.+.O.$.| O.c O.O.$.$.%.%.%.%.@.@.%.@.%.l.l.l.k.l.l.l.l.k.k.%.k.$.k.k.k.k.k.k.%.k.%.%.k.%.%.1.%.%.%.k.%.k.#.k.%.k.k.%.%.k.k.k.a p p p p ",
";X;X;X;Xl.l.l.z.%.%.%.$.%.$.$.%.O.k.k.k.k.k.k.z.v.v.v.k.$.%.%.$.%.l.k.k.l.l.l.l.l.l.l.k.k.+.+.+.O.+.O.k.k.*.*.*.*.k.*.k.%.*.-.%.%.#.#.O.O.| ) O.| c O.O.*.k.k.k.k.k.k.%.%.%.%.$.$.*.*.*.%.k.k.k.k.k.k.1.%.%.%.1.*.%.%.#.%.$.$.%.$.$.$.%.$.#.$.$.v.v.v.v.v.v.m.v.v.k.*.@.%.%.%.%.%.%.%.%.%.$.%.@.%.%.%.%.%.%.$.%.%.%.%.k.k.k.*.k.k.%.%.%.%.*.k.1.k.1.1.1.k.k.k.k.*.*.*.*.1.1.%.$.%.%.*.6.%.,.%.$.$.k.k.k.%.%.%.$.$.%.$.$.%.%.%.6.%.%.k.%.%.k.1.k.k.%.k.k.k.k.k.k.%.@.%.%.k.l.l.l.l.l.k.l.k.k.l.l.l.l.k.k.%.k.k.k.G.G.m.v.v.T.T.v.l.%.k.k.%.k.k.%.k.k.k.#.%.$.%.$.O.+.O.k.v.x.v.v.v.G.v.G.E.R.E.E.R.E.E.E.E.E.E.E.E.|.E.E.|.`.|.|.E.`.`.|.!.E.E.E.E.E.E.E.E.E.R.T.v.v.v.G.v.v.v.v.v.v.v.x.x.x.k.l.k.l.l.z.l.l.l.l.z.l.x.v.v.v.v.v.v.x.v.l.z.l.x.x.v.l.l.l.k.l.k.k.%.%.*.%.%.#.#.#.$.+.%.%.%.1.%.%.%.%.%.%.%.%.%.%.%.%.$.1.%.%.*.*.1.%.1.%.%.%.%.%.1.1.%.%.%.%.%.<.%.%.%.$.%.$.%.%.$.%.@.%.$.#.%.$.$.$.#.#.$.%.%.%.%.%.%.%.%.%.k.k.k.6.6.k.*.k.k.%.k.*.%.%.%.%.%.%.@.%.%.k.k.x.k.k.k.l.l.z.x.x.G.G.E.T.T.v.E.G.G.m.T.T.x.k.k.k.k.k.k.k.k.k.%.k.k.k.k.k.6.6.k.k.%.$.$.%.$.@.#.#.%.$.$.%.$.%.%.,.k.%.1.1.%.%.%.%.%.%.@.%.%.%.$.#.#.#.O.O.O.O.O.O.#.#.$.$.1.%.%.%.$.#.$.@.%.@.%.$.%.$.%.%.%.k.k.k.k.k.l.k.x.k.k.k.k.1.l.l.l.x.v.l.z.z.x.x.l.l.l.z.x.x.z.v.v.v.v.v.S.v.Z.v.v.S.v.x.v.v.v.v.v.v.x.x.z.x.z.x.x.x.l.l.l.x.l.k.k.k.k.1.%.%.1.1.%.%.%.%.%.%.%.%.k.1.*.6.*.6.k.*.*.*.1.1.6.*.*.*.*.*.%.%.%.k.%.%.%.%.%.1.k.1.*.k.6.1.6.*.*.6.6.6.*.*.*.*.*.$.*.%.%.%.@.%.%.%.%.%.%.@.%.%.%.%.%.$.$.@.#.#.$.$.%.$.$.#.$.$.%.#.%.$.%.#.$.$.$.$.#.O.O.O.O.O.O.%.*.*.6.%.k.k.l.k.S.S.S.S.v.v.v.S.S.S.Z.S.v.v.v.v.v.v.v.v.v.c.T.T.G.G.G.P.T.G.G.G.v.v.v.T.S.T.G.T.G.v.G.v.R.R.R.T.R.R.R.R.R.R.E.R.R.R.R.T.T.T.T.T.T.G.T.m.G.m.v.v.v.z.x.x.l.l.l.z.v.x.v.z.z.v.v.v.v.v.v.v.v.v.v.v.z.z.k.k.k.k.k.k.l.k.l.k.k.k.x.k.k.k.k.k.k.1.k.k.k.k.k.k.k.k.k.l.k.x.x.l.l.k.k.k.l.k.*.1.*.6.6.1.*.k.*.*.1.1.1.k.k.k.*.*.k.k.k.#.%.%.$.#.$.%.$.$.@.%.%.%.k.k.k.k.k.P.G.G.G.v.G.v.S.v./.E.E.!.!.!.!.`.E.|./.!.!.`.!.E.E.E.R.E.E.E.E.R.E.T.T.T.T.T.T.G.m.x.v.v.v.v.v.x.l.k.%.k.k.k.k.k.k.m.R.T.T.P.G.G.k.k.l.k.k.k.k.k.k.k.k.k.k.k.k.k.k.l.k.k.k.k.l.k.k.k.k.x.k.k.k.k.k.6.*.*.*.%.*.*.$.O.O.+.O.O.+.+.+.O.+.+.+.+.+.+.+.+.+.+.+.%.*.%.%.%.%.%.%.%.%.#.#.#.$.O.O.O.O.O.c O.$.$.#.k.*.*.%.%.*.*.*.%.*.*.*.k.%.1.6.k.*.*.%.%.%.%.%.*.*.*.%.%.-.%.*.%.%.%.%.%.%.%.%.@.%.%.%.%.*.%.%.%.*.%.6.1.*.6.%.1.%.k.%.%.$.%.%.%.%.%.%.*.%.1.*.*.k.k.%.1.k.k.%.%.k.%.%.1.k.k.*.*.1.1.*.k.*.*.%.k.k.1.k.1.k.*.1.k.k.%.*.k.k.k.k.6.k.*.*.k.k.k.k.k.k.k.k.%.*.*.*.%.$.%.$.$.#.$.+.+.O.O.O.c c k.k.k.k.k.k.k.%.%.%.%.l.l.l.l.k.l.k.l.k.k.k.k.k.k.k.k.k.k.%.%.%.%.%.%.%.%.%.%.%.%.%.%.#.k.%.k.k.%.k.k.O.O.k.a p p u p ",
":X;X:X;X+.%.%.%.%.%.%.@.%.l.l.l.x.l.v.l.k.k.l.l.x.l.x.k.k.$.%.%.%.k.k.l.k.k.k.k.$.@.@.@.%.k.*.k.k.l.k.d a d d a u u y i i i i i i > i > y y y > > > > q y > > > > y > > , > y > , y u u y y i > > y > > y y > q , > > > > > > > ; > > > y > > > y y > > y y > > > > y ; > > > > > > > > > > > y y y > > , > > > > > > > > > y > > > q > y y > y y y i i y y > q y q y > > > > > > ; > > > > ; ; > > > 7 > ; > > > > > > > i y y q y > y y > y > y y > y y y y y y k.k.k.R.v.l.l.k.k.k.k.k.k.d i a d d i y y i > y y > > > y y y q y > y y ; y y y > > i > i > > > > ; ; > i q > > > u y > q y q i > y y i i y > i q y i > > y y i > q > y q > > i y > > > y > q y y y > > > q > q y y > > > > > y > > > > > y > y > y > > > y > > > > > ; > > > > > > > > > > > y > y ; y > > > > > y y > ; > > > > > ; y ; : > > > > ; > > > > > > ; > > > ; ; ; ; > ; ; > ; ; ; ; > > ; > > > ; > > > q ; > > > > > > > ; : > y ; > > > > ; > > > > > > > > > ; > > > > , > > > , > > y > > y > , ; > > > > > y y > > y > > ; > > > > ; ; > ; : > > > ; ; > > > ; > ; > > ; > ; ; ; ; ; ; - ; > ; y ; > > > ; > > ; > ; ; > 7 > > > > > > > > ; > > > > > > > > > > > , > > > > > y ; > > > > > ; ; ; q ; > ; ; ; ; > > > ; > > ; > > > > > > y > > > y > > > ; > : > > > > ; > ; > ; q ; > > > > > > y > > > > > > > > > > > ; ; > > > > > > > ; > > , > > > > > > > > , > > > > > > > > > > > > > > > q > ; > > > : > > > > > > > > > > > > > > > > > > > , ; > > > > > > > > ; y > > > > > > > y y > > > > > > > > > > > > > > > ; > ; > > > > > > > > > > > > > > u p i i i i y , > y > , i > y > > q i > > > i > > > > > > > > > > > > > > > > > , > > y y y y > > > > i i > > , > > q y > > i > > y q > y y i > y y i > y y y y > > y y i > > > > > > > q > > > > > q > > > y y > q > > > y y y q > > > > > > > > > > > ; > > > > ; y > ; > > > y > > > > > > > > > > > > > > y > > > > > > > y > y > ; > > > > y > > > y > > y ; y y y y > y y y y > y y y y y u y u u y y u y y q i y i y y y > i > i > y y y i y q y y y i > y y y y i q > y y y y > y ; > ; > > ; ; ; > ; ; > 7 ; ; > ; ; ; ; > > ; ; ; > > , > > > ; > ; > ; > ; ; ; > ; > > > > > ; ; > ; ; > ; > > ; > +.+.+.|.G.k.%.k.k.%.%.%.%.a i i i y y , > y y > > > > > > q y > y y y > > y > > > > > , > > > y > y y , y > , > > > > , , y > > > > y > > y > > > > > > ; > > > > > > > > > , > > > > > > > ; y y y y , y > y u y > i y > y > y y y > q y > y y y > y y y > i i i u y > q > > > > > > y > > > > > > > > , > > > > > > > > ; > > > ; > , > y y y y > y > y > > q > > y y i y ; y O.%.k.+.oXz.z.l.l.k.-.k.k.k.k.-.k.k.k.$.k.k.%.k.%.%.%.%.%.1.%.%.%.1.%.%.%.k.#.#.k.%.%.%.%.k.k.k.p u p u p ",
";X:X;X:X$.%.%.%.%.%.%.%.%.l.l.l.l.x.l.l.k.k.l.l.l.l.k.k.$.k.$.k.*.k.l.l.l.k.l.l.$.$.%.%.@.*.k.k.k.k.k.d d a s p u u y y , y i > > i > i y y i > y y y > y > > > > > > y > > > > > y y > q > > > > > > y > y > > > > > > > > > > > > > > ; > ; > > > ; > > > > > ; > > > > > > > y > > > > y > > > > > > > > > > > > > > > > > > > y y > y y > y > > > y y > i > y y > y i > > > > > > > > ; > ; > ; > ; > ; : ; > > > > > > > > > y > > y y > y > y y y y y u y u k.l.K.oXv.l.l.k.k.k.k.k.k.d i p d d i y i y y y > > i i y y y y > y > ; y > ; > > > > > > > > > ; > > > > > > > > y y > y > > > q q > > > y q y y > > > q > > > y > > y > > > > > > > > > > > > q > y > > y > y y > > > > > > > > > > > > > > y y > > > > > > > > > > > > > > > > > > > > , > > y ; y > > > > > y ; ; > ; ; ; ; ; ; > ; ; ; ; ; ; ; ; ; ; ; > > ; > > > > > > ; > ; > > ; > > > > > ; > > ; ; ; > ; > ; ; ; > > ; ; ; ; > > ; ; ; > ; ; ; ; > > ; > ; ; > > > > > > > > > > > > > > > > > > > y > > > q > > > > > ; > ; > ; > ; ; ; - ; ; ; > ; ; ; ; ; ; ; > > ; > ; ; ; ; > ; ; > > > ; > > ; ; ; ; ; ; > ; ; ; > ; ; ; > ; > ; ; > > > > ; > > > > > > > ; ; > > ; > > > > > ; > ; > > ; > > > > > > ; > ; > > > > > > > > y > > > > > > > : ; > > ; ; > ; ; > ; > > > > ; ; > > ; ; ; > > : > > > : > > > > > > > > > > > > > > > ; ; > > > > ; > > > > > > > > > > > > > > ; > > > > ; > > > > > > ; > > > ; ; > > > ; > > > > > > , > > > > > > > > ; ; ; > ; ; > > ; > > > ; ; > > > > > > > ; > > > > ; > > ; > > ; > ; ; > > > > ; > > > > > > > > > > > > > u u u u y y y y i > > y > > > > > > > > > > > > > > > > > > > > > > ; ; > > > > > > > > > > > y > > > > > > > , y y y > i i > y y > y > y y > y > > > > y y > > y y > > > > > > > > > > > > > > > > > > > y > > > > > > > ; y ; > > > > > > y > > > y > ; ; > > > > > > > > > > y ; > > > > > > > > > > > > > > ; > > > > > > > > > > y > > > > > > > > y y y ; y y ; y > > > > y y y ; y > > > y > > > y y y y y > > > > > > y i > > > y y y y y > > > > > > > > > y y > > > y y > ; > ; ; ; > ; > ; ; ; ; ; ; ; ; ; ; ; ; ; ; ; ; ; ; ; ; > > > ; > ; > ; > > ; > ; > > > > ; ; > > > > > > > > > ; > ; > > +.%. X XG.k.k.%.k.%.%.%.%.a i y i i y u > y y > y > > > > > > i > y y > > > > y > > y > u y y y > > > > > > > > > > > > > y > > y > > y > > y > > > > y > > > > > ; > > > > > > > > > > > > y ; y > y > y y y > y y y > y > y > y > y y y y > y > i > y y i > > > y > i > > y y > y > > y > y > > y > > > > > > > > > > > > > > > > > > > > > > > y > y y > y y > > > > > > y y n @.Z.=XOXk.k.l.l.k.k.k.*.k.k.k.k.k.k.k.k.k.k.%.%.k.%.1.%.1.%.k.%.%.%.%.k.%.%.k.%.%.k.k.%.k.O.k.a p p u p ",
";X;X;X:X@.%.%.%.%.%.%.%.%.l.l.l.l.l.z.l.z.x.x.x.x.x.l.k.%.k.$.%.%.l.x.k.k.l.l.k.%.@.%.%.%.k.k.k.k.k.k.c c d a p i u y i y u u > y y y > y y > > y > > y , > > y > y y y y > y y > y y > u > > > > > > > > y > > > > > > > > > > > ; > > > ; ; ; > > > > > ; ; > > ; ; ; > > > > > > > > > ; y ; > > > > > > > > > > > > y > y > , > > > y > , y y > y > y > y > > > > > > > > > > ; > > > > > > > > > > > ; ; > > > > ; > > > > > > y > y y y y y y y u i u i u u k. X X.Xv.k.k.k.l.k.k.k.k.c p p p a i y y y y > > > > > > > > y > > > > ; y > > > > > y > > > > > > > > > > > > > > > > > , > > > > > > > y > i > y > i > q > > > q y > y > > > q y y , > > , y > > > > > > > > > > > > > > > > > > > > > > > > > > > > > > > > > ; > ; > > > > > > > > > > > > > > > > y y > > > ; > > ; ; > ; > ; ; ; ; > ; ; > > ; > > > ; > > > > > > ; ; > - > ; ; > > ; > > > > ; ; ; > > ; ; ; > ; ; ; ; ; ; ; > > ; ; ; > ; > > > > ; > > > > > > > > > > > > > > ; > > > > > > > > > > > > > > > > > > > > > ; > ; > ; > ; ; ; ; ; ; ; ; > ; ; ; ; ; ; ; ; > ; > > ; > ; ; ; ; > ; ; ; ; ; ; ; ; ; > ; ; ; ; ; > ; > > ; ; > > > > > > ; > > > > > ; > > > > > > > > > > > > ; > ; > > > > > > ; > > > > > > > > > > > > > ; ; > ; ; ; > > > > > ; > > > ; > > > > ; > ; > > ; > > ; > > > ; > ; ; > > > > > > > > q > > > > > > > > > > > > ; > ; > > > > > > > > > > > > > > > > > > > > > > > > > ; > ; > > ; ; ; > > > ; > > > > > > > ; > ; ; ; > > > > > > > > > > > > > > > > > > > ; ; ; ; ; ; > > ; ; ; > > > > ; > > > > > > > > > > > > ; , > > > i i y u y > y y > y > > > > ; > > > > > i > > , > > > > > > ; > > ; > > > > > > > > > > > > > > > > > , > > > > y > > y > > y > y y > i y y y y y > > > > > > > > > > > > > > > > > > > > > > > > > > > > > > > > > > > > ; > > > > > > > > > > > > > > > y > ; > > ; > ; ; ; ; > > > > > > > > > > > > > > > > > > > > > > ; > > > y ; > > > > > > > > > > y > ; > > y > > > > > y > > ; > > > > y > , y y > y > y , > y y > y > i > y y y > y > > y > > > y > > > i > > > y y > > > ; ; ; ; ; ; ; ; ; ; ; ; ; ; ; ; > ; ; ; ; ; ; ; ; ; > ; > ; y ; > ; ; > ; > > > ; ; > > ; > > > > > > > > > > > > > > y v  X X XG.%.%.@.k.@.@.%.%.p i i u i u u u y , , u i > y > , , > > > > > > > > ; > > > y > y > > y y , > > > > > y > > > > > > > y > > > > > > y > > > > > > > > > > > > , > , > > > > > > > > > > > > > > > > > > y > > , y y y y , > y > y > , > > y y y > > y > > > > , q y > y > > > y > > , > > > > > y > > > u > > , > > > > ; > > ; ; > > > > > > y , > > > > > > y y y y O.Z.=XOX=Xz.l.l.l.k.*.k.k.k.k.k.k.k.k.k.k.k.k.%.%.%.%.%.%.%.%.%.%.k.1.%.k.#.k.%.k.k.#.#.k.k.O.k.i i i p i ",
":X;X;X;X%.%.k.%.%.%.%.%.%.l.l.l.l.l.v.v.v.z.x.x.z.z.k.k.%.k.%.%.%.k.k.x.l.k.k.l.$.%.%.%.@.k.l.k.l.l.l.c c ^ d s p u i i i i i i y y i y i y y y y i y q , u q u q y y y y u u u y u u u u u u y i i > i > y y > y > y > q > > > > > > > > > > > > > > > > > > > > > > > > > > ; > > > y > y ; y y > > y > ; > > , , , u , , y y , u i , i u y i i i i p i y u y y y > y > y , y q > > > > > > ; > > > > > ; > > q > > > q y y y y y y y y u y y y y u u i i u p y oX#X@XoXG.z.z.z.z.x.k.k.k.c i i p p i y y y y u y y y > i > i y y y u y y y y y u u u y y y y y i y y q > > y q i > y i > y y y y q i y y i > q y i i i y i y i y y y y q i y i > y > y y > i > y > y y y > > > > > ; > > > > > > > > y > y > y y y > y y > , > > u > , > > ; > > > > , > > , y > y > , , > > > y > y y > > ; > > > > > ; > > > > > ; > > q > > > > > > > > > > > > > > ; > > > > > ; > > > > > > > ; > > > ; > > > q > > > > > > > ; > > > > > ; > > > > > ; > > , u , > u , u y y y y , y y , i u y > y , , y > > > > > ; : > : ; > q ; > > ; > > > > > , ; > > > > > ; > > > : ; ; ; > > ; > > > ; > > > > > q > > > ; > > > > > ; > > > > > y y y y y > > > , > > > , > > > > > ; > > > > > > > ; > > > ; > > > > > > > , > > > > q > > > > > > > > > > ; > ; > > ; ; > > > > ; ; > > > ; > > > ; > > > > y > y q > > > > q > > > > > q > > > > > > y > > > , y > y y , > > , > > > > , > > > , , > > > > > > > > > > > q > y > y > q > y > > > > > , > , > > > , , > , > > > > > > y > > > > > y , > > ; > > > > > > > > > > > ; > > > > > > > y , , > > , , > > p p i p i p y u u u u > > i y y , u u > u , i > > > y > , > > ; > > > > > > > > y > > > y y y y , > , > , i y y u u y y > i y y y y y > y y > y > > i > y y > > i > > i > > u , > > , > y > > > > ; > > > y > > > > , , y y > > > > > ; y > q i y y y y y y y y y y y > y y y y > y y y , , > > y y y > > , > > > > > > > y y y y y ; y y > > y y > y y , y > > y y > y , , > y y > u u y y , y > > y u y y y y , u , u y y y y , y y u y y y y y y y i i i > > i > > > > > q y y y > > ; ; ; > ; ; ; ; ; ; > ; ; > > ; > > > ; > > > ; > > , , > y y y > > y ; > > > > , > > , > > > , > , > > y y > y , i i oXoX@XXXE.k.k.k.k.%.%.%.%.a i u i u u u u u , u > y y y i > u y u u u u > u y y y > , u > y y , u u u u , u y , > y u u > y > y y u , y > y , y > u y u > , > > , u > u > , , , > , > > , > y , , y u , u u i , u u u u u y y i y , u u u u , u u y q y y u u i u i u i u y i i y , , > q > i , > , y > > y > > > , > > > > , > , > > , , , , , , y y > u , , y y i u i , y y i *.=X#X=X=Xl.z.l.l.*.k.k.k.k.k.k.k.k.k.k.k.k.k.%.%.k.%.k.%.%.k.%.%.%.%.%.%.k.#.k.#.#.k.k.k.O.k.k.p p p i p ",
":X;X:X;X%.%.%.k.%.@.$.$.$.x.l.l.x.x.k.k.k.k.k.O.#.k.k.k.x.k.x.x.x.%.%.$.$.%.$.%.%.%.%.%.%.%.%.%.*.*.-.p p i i p C C C C 8 C C N C C C C C C C C C C C C C 8 C C C C C C 8 C 8 8 C 8 8 8 4 4 C 8 4 C C C C C C C C C C C C C C C C 8 8 C N C 8 C 8 C C C C 8 C 8 C C N C C 8 C C C C 8 C C C C C C C C C C C 8 C C N N 8 8 C C C C 8 8 C N C 4 8 C 8 4 C 8 8 8 5 C 8 8 8 C 8 4 4 4 8 8 4 4 4 C C 8 C C 8 4 C 4 C C 8 C C 8 C C C C C C C C C C C C C C C C 9 C 9 1 =X=X#X=Xz.k.k.k.l.%.$.#.$.d p p p i C C C C 8 4 C 4 8 4 8 N 8 8 4 8 4 8 4 8 4 8 8 4 8 8 4 8 8 8 8 4 4 8 4 8 4 8 4 8 4 4 4 C 4 8 4 8 8 C 4 8 8 8 8 8 4 8 4 8 8 8 8 8 8 8 4 4 8 8 8 8 4 8 4 8 8 C 8 N C N 8 8 8 C 8 8 C N 8 C 8 8 C C C 8 C C 8 C C C 8 4 C C C C C C C C C C C C 8 N C C C C 8 C C C C C C C C C C C C C C C C C C N S C C C 8 C N C C C 8 N C 8 4 4 8 C N C 8 C C C C 8 C C 5 C C N C C C C N V C C C C C 4 C C 4 C 8 4 8 4 C N C 4 C 4 C N C N C 4 C C 4 8 C 8 8 4 8 4 8 4 8 4 4 8 8 4 4 8 8 4 8 4 4 8 4 8 8 8 8 C 8 8 8 4 C C 8 4 C C C C C C N 8 8 N C 8 C C C N N 8 C C 8 C C 8 C C C 8 8 C 8 C C C 8 C 4 C N C N 4 C C C N C 8 C 8 C C C C C C C C C C C C C C N C 4 4 C C C N C C N C C C C C C C C 8 C 8 N N N 8 4 4 C C N 4 C C C C C C C C C N C C C C C N C C C C C V C N C N C 4 C C C N C C N C C C N C C C N 4 C C C 4 C 8 C N 8 C 4 C 4 C N C 8 8 8 C C 8 N N 8 4 4 8 4 N 8 8 5 N 8 8 8 C 4 C 8 C 4 N C 4 C C 8 C N 8 C 8 C C C 8 C C C C C 8 C C 8 N Z C 8 C N C N C 8 8 C 8 C C C 8 N C C C C C C V C C N C N C C 8 C 8 C C C 8 C C C C C C C C C S C C C C C N C N N N C C C C C C N N C C C C C C C C C C C C C C C C C C C C C C 8 C 8 C C C C C C C 8 C C C N C C C C C C C C C C C C C C C C C C C 8 C 4 C C C C C C C C C C C C Z N C 8 C C C N C C C C C C C C S 4 C 8 C C C C C C C C C 8 C C C C C C C C C C C C C C C C C C C Z C C C C Z C C C C C C C C C C C C C C C C C C C C C C C C C C C C C C C C N C C 8 8 8 8 8 C 8 8 8 8 N 8 8 8 8 C 8 8 8 4 8 C 4 8 8 8 C 8 8 8 C 8 8 8 8 8 C 8 8 8 8 4 N 8 8 8 8 8 C 8 8 8 8 8 8 4 4 8 8 8 8 8 8 8 8 8 N 8 8 8 N C 4 8 8 8 4 8 8 8 8 8 8 8 5 8 8 8 5 8 8 8 4 8 8 4 4 C 4 8 8 8 5 N 8 5 8 8 8 8 C 9 8 8 8 8 Z ,X=X=X=X/.k.k.*.k.@.%.1.%.d p p p                                                                                                                                                                                                                                                                                                                                                 =X#X#X#X-.*.k.*.*.-.k.k.@.k.k.k.k.k.k.k.k.k.k.%.%.1.%.%.%.%.%.k.%.%.1.k.k.k.k.k.k.k.k.#.#.k.k.i p p i p ",
";X;X:X;X%.%.k.%.%.$.$.$.$.v.l.l.k.k.k.k.k.k.k.k.$.#.O.k.k.x.k.k.k.$.$.%.$.%.%.$.%.$.%.%.k.%.k.*.6.6.6.i p p p p Z Z Z Z 8 8 C 8 8 8 8 C C C C C 8 C 8 C 8 C 8 8 8 8 8 8 C 8 C C C C C 8 C 8 8 C C C 8 N 8 C 8 8 C C C 8 8 C 4 C C 8 4 C 8 C C 8 C C 8 C 8 C C C C C C 8 C C C 8 8 C C 8 8 C 8 C 8 C 8 C 8 C 8 8 C 8 8 8 C 8 8 C 8 C 8 8 C 8 C 8 8 8 8 8 8 8 8 8 4 8 4 8 4 8 8 8 8 4 8 8 C 8 8 8 8 8 8 C C 8 C 8 8 C 8 8 C C C C C C C C 8 C C C C C C C C C 9 C 1 =X=X=X=Xz.l.l.l.l.$.%.$.$.c p p i i C C 8 C C 8 4 8 8 8 8 8 8 8 4 8 8 8 8 8 4 8 4 8 8 8 8 4 6 8 8 8 8 4 8 8 8 8 8 8 8 8 8 4 8 8 8 8 8 8 8 4 8 8 8 4 C 8 8 8 8 8 4 8 8 8 8 8 8 8 8 8 8 8 8 8 8 8 8 8 8 C 8 8 C 8 C C 8 C 8 8 C C 8 8 C C C 8 C 8 C 8 8 C C 8 C C 8 C 8 C C C C 8 C C N 4 C C C C C 8 C C C C C C C C C C C 8 C 8 8 C C 8 C 8 C 8 C 4 C C C 8 C C C C C C C C C 4 4 C 8 C 4 C C C C C 8 C 8 8 C C 8 4 C C 4 C 8 C 8 C 8 C 8 C 8 C N C 4 C 4 8 N 8 8 8 4 8 C C 4 8 4 C 8 8 8 8 8 8 8 8 4 8 8 8 4 4 8 8 8 4 C 8 4 8 8 8 8 8 8 8 8 8 8 8 8 8 8 N C 8 8 C C 8 C C 8 C C C C C 8 C C C C 8 C N C 8 C C C 8 8 N C 8 C 8 C C C C C 8 4 C C C 8 C C N C 8 C C C 8 C 8 C 4 8 8 C 8 C 8 C C 8 C 8 C C C C C C C 8 N C C 8 C 8 C C C C C C C C C C C N C C 8 C 8 8 C C 8 C 8 C C N 8 C 8 8 C 4 C 8 N C C 4 C C 8 C C C C C C C C C C C C C 8 C C C C 4 C 8 8 8 4 8 8 8 8 8 8 8 8 4 8 8 8 8 C 8 C 8 8 8 C 8 C 4 C 4 8 C 8 8 8 C 4 C C 8 8 C 8 C C 8 C C 8 C C 8 C 4 C C C 8 C C C N 4 C C C C 8 8 C C C C 8 C C 8 C C 8 4 C 4 8 C 8 C 8 8 C 8 C C C C C C C C C 8 C C C C C C C C C C C C C C C C C C 8 4 C C N 8 C C C 8 C C C C C C C C C C C 8 C 4 C C C 8 C C C C C C C 8 C C C C C 8 8 C C 8 C C C C C C C C C C C C C C C C C C C C C C C 8 C 8 C C C C C C C C C C N C C C Z C 4 C C C C C 8 C C C C C 8 C C C C C C C C C C 8 C C 8 C C C 8 C C C C C 8 C C C C C C C C C C C C C C C C C 8 C C C 8 C C C C 8 C C C 8 C C C 8 C 8 8 C N 8 8 8 8 C 8 8 C 4 4 8 C 8 C 8 8 8 8 8 4 C C 8 8 8 8 8 8 8 8 4 8 8 8 4 8 8 4 8 8 8 8 8 8 8 8 8 8 8 8 8 8 4 C 8 8 8 8 8 C 8 8 8 8 8 8 8 8 8 8 N 8 8 8 8 8 8 8 8 8 8 8 8 4 8 8 8 8 8 4 8 4 8 8 8 8 8 8 8 8 8 4 8 C 4 8 8 8 8 C 8 8 8 C 8 8 C 8 Z 8 Z >X;X;X=X|.k.%.*.k.$.$.%.$.a i p p                                                                                                                                                                                                                                                                                                                                                 #X=X;X#X*.k.*.k.k.k.k.k.k.k.k.k.k.k.k.k.k.%.k.%.%.%.k.%.%.k.1.%.1.k.%.%.#.k.#.#.k.#.#.k.k.k.k.p u p p i ",
":X;X>X;X-.6.6.6.%.#.$.$.$.v.l.l.x.x.k.k.k.k.k.#.%.%.$.k.k.k.k.k.k.#.#.O.O.k.k.#.%.$.%.k.%.k.k.k.k.k.k.i p p p i S C Z Z C 8 C 8 8 Z 9 8 8 C 8 8 C 8 8 C C 5 C C C 8 8 8 8 8 C 8 C 8 8 C 8 8 8 8 8 8 8 8 C C 8 8 8 C 8 8 8 C 8 5 8 8 5 C 5 N C 8 8 C 8 C 8 C 8 C C 8 C C C 8 5 C 4 C C 5 C 8 C 5 C C 8 8 4 C 8 8 C 8 C 5 C C 5 C C 8 8 8 8 8 C 5 8 8 8 8 8 8 8 8 8 8 8 8 6 8 5 5 6 5 8 8 8 8 8 5 8 4 C 5 C C 5 C C 5 C C C C Z C 8 C 9 8 C 8 9 C 8 9 C 9 C C C 9 6 =X;X;X=Xl.l.l.k.x.#.#.#.O.d p i i p 8 C C 8 8 8 8 8 8 6 8 8 6 8 8 8 8 8 6 8 6 8 6 6 8 8 6 8 6 8 6 8 8 6 8 8 8 8 5 8 8 8 8 N 5 8 8 8 8 8 8 6 8 C 5 5 8 8 8 4 8 8 8 8 8 8 8 8 8 8 8 4 8 8 8 8 8 8 8 8 8 8 8 8 8 8 8 8 8 5 C 5 Z 8 C 8 8 C 8 8 8 8 C 8 8 8 8 C 8 9 C C C C 8 8 8 C C C 8 C 8 C C C C C C C C C C C C C C C C C C C 8 C 8 8 8 8 8 C 9 C C 8 C C C 8 8 8 C C C 8 C C C 8 C 9 C C C C C C 8 C 8 5 C 8 8 8 4 8 8 8 N 8 C 8 8 8 C 8 C 8 C 8 8 8 8 8 8 5 N 8 8 8 8 8 8 8 5 8 8 5 8 4 4 8 4 8 8 8 8 8 4 5 5 8 4 5 4 5 5 8 8 8 8 8 8 8 8 8 C 8 8 C 4 5 N C 8 5 C 5 N C 8 C 8 8 8 8 8 C 8 C 8 8 N 8 8 C 5 C 8 8 C 8 8 8 C 8 C 8 C C 8 C C 8 4 4 C 5 8 8 C 8 C C C C C C 5 N 8 C 8 4 C 8 4 C 5 N C C 8 8 C C C 9 N 8 C 5 C 8 C N C 5 C 8 C C 8 C C C C C C C 8 C 8 C C 8 C 8 C 8 8 C 8 8 C C 8 5 5 8 N 8 C C 8 8 C 8 C C C C 8 C C C 8 C C 5 N N 8 C C 5 8 4 8 8 8 8 8 8 8 8 8 8 8 4 8 8 8 8 8 4 8 8 8 8 5 8 8 8 C 8 8 8 8 8 8 8 C 8 5 C 5 8 C 5 8 C 8 C 8 C 8 C 8 C C 8 C C 5 C N 5 C C 5 8 8 8 8 C 8 8 C C C 8 C 8 N 5 C C 4 C C C 8 C 8 8 C C 8 C 4 C C C 8 C C C C C C 5 C C C C Z C C C C C C C 8 8 C C C C C C C 8 C 8 8 C C C C 8 C C 8 C 8 8 C 8 C 8 C 8 C 8 5 Z C C C C C C 8 C C C 8 8 Z C 8 8 C C 8 8 C 8 C N C C C C 8 C 9 C C C C C 8 C C C 8 C 8 C C 8 C 8 C 9 8 C C C 8 C C C C C C C C C 8 C C C C C C 8 C 8 C C C 8 C C 8 C 8 C C 9 C C 8 C 8 C 8 C C 8 Z C C C C C A C 8 8 C C Z C C C C 9 C C 8 C 8 8 C C 8 C 8 C 8 C C 8 8 8 C 8 8 8 8 8 8 C 9 8 8 8 8 8 8 8 9 8 8 8 8 8 8 8 8 5 8 8 8 8 8 8 8 8 5 5 5 8 8 8 8 8 8 8 8 5 5 N 8 4 C 8 8 8 8 8 8 8 8 8 8 5 4 8 8 8 8 8 8 8 8 8 8 6 8 8 6 6 8 8 8 8 8 5 5 8 5 6 8 8 8 8 8 8 8 8 8 6 6 8 8 8 8 8 8 8 8 8 8 8 8 8 8 8 8 8 C 8 8 A <X;X;X;X|.*.k.*.*.$.%.$.%.s i p p .                                                                                                                                                                                                                                                                                                                                               =X=X=X;X@.k.k.k.k.k.k.k.%.k.k.1.k.k.k.k.k.%.%.%.k.%.k.%.%.k.%.%.%.%.$.k.k.$.k.$.k.k.$.k.1.1.1.a i i p u ",
";X:X;X,X%.6.6.6.%.$.$.$.$.x.x.l.l.l.k.k.k.k.k.$.$.%.%.k.k.k.k.k.k.O.k.k.k.$.+.#.k.k.%.k.k.k.%.%.6.k.k.i p p i s Z Z Z Z C 8 C 8 8 8 8 8 8 9 8 C 8 C 8 8 N 5 5 8 9 8 8 8 8 8 8 C 8 C 5 5 8 8 C C C C C 8 C 8 C Z C C C C 8 C C 8 5 5 4 C 5 5 9 8 8 C 8 8 8 8 8 C 8 C 5 N 8 C N C C 8 C C C C C Z C 8 8 C C 5 5 N 5 8 5 C 5 5 5 5 4 C 8 C 8 C 8 N C 5 8 8 8 4 8 8 8 8 8 8 8 8 8 8 8 8 8 C 8 8 8 5 8 8 5 N 5 5 8 4 C 5 5 C 5 C Z Z C C Z C C C C C C Z C 8 Z 8 9 8 6 ;X=X-X;Xl.k.k.k.k.k.#.#.k.d i p i p C 8 C 8 C 8 8 8 8 8 8 8 8 8 8 6 6 8 8 8 8 8 8 8 8 8 8 8 8 8 6 8 8 8 6 8 8 6 8 8 8 8 5 5 5 8 8 8 8 8 8 8 8 4 5 5 4 8 8 8 8 8 8 8 8 8 8 8 8 8 5 8 8 8 8 8 8 8 8 C 8 8 8 C C 8 C 8 C C 9 C 5 8 8 8 C 8 8 8 8 8 8 8 C C 8 8 C N Z C 8 8 Z C C 8 9 C 8 N 5 5 8 8 8 4 C 8 C C C C C C Z 8 C C C C C 8 C C C C C 8 N C C C 8 9 C 8 C C Z 8 C 8 8 8 N 5 N 8 5 5 Z 9 C 8 C 8 C C N C C C C C 5 C C 4 8 8 8 8 8 8 8 8 8 8 8 5 4 4 5 5 N 8 C 8 C 8 C C 8 8 8 8 8 8 8 8 8 6 8 4 8 6 5 6 8 8 4 8 5 5 5 8 8 8 8 8 8 8 8 8 4 5 C 8 8 C 4 5 9 C 4 C 8 C C C C C 8 8 C N 5 5 8 8 5 4 8 4 5 8 4 5 5 C 8 8 8 C 8 8 8 N 5 5 4 4 8 5 4 5 N 8 8 C C C C Z 8 Z N C 8 C C C 8 C 8 N Z 5 C C C C C C C 5 5 8 N 5 5 4 5 5 4 5 N 5 C C C C 8 8 C Z N 8 C C C C 8 C 8 C C C C C C 8 C 5 8 N C 8 5 8 8 8 C 8 N 4 8 8 C 8 C 8 8 C N C 8 C C C C 8 8 8 8 5 5 4 8 4 5 8 8 8 8 8 8 8 8 8 8 8 8 8 8 8 8 8 8 8 8 8 8 8 8 8 C 8 8 N C C C N C C 5 C C C 8 8 C C 8 C 8 8 8 8 8 C 4 C 5 N 5 5 N C C C C C C C C 5 5 C N C C C C 8 C C 8 N 5 8 C C 8 8 C 8 C 4 8 8 C 8 C C C C C C C C C Z Z Z C 4 C N N 8 C 8 C 8 8 8 8 8 4 C C C C C C C C C C C C C 8 8 C C 8 C 8 C N 8 C 8 5 8 C 8 8 8 C 8 C 5 C N 5 C C C Z 8 C C C C C C C 4 C 8 C N N 5 N 8 5 C 8 8 Z C Z C C Z C C Z C C C C 8 8 C C 8 5 5 8 5 C 8 8 C C 5 C 5 C 8 8 C 4 8 8 8 C C 8 8 C Z N 8 C C C C C C C C Z C C C Z Z C C C C C C 8 C C 5 9 8 8 8 C C C 8 C 8 C C 8 8 C C 8 8 8 8 8 8 C 8 8 8 C 8 C N 5 8 8 8 C C 8 8 8 8 8 4 C 8 8 8 8 4 8 8 8 8 4 8 6 8 8 8 8 8 5 8 8 8 8 8 8 8 8 5 5 5 5 8 8 8 8 8 8 8 8 8 8 8 6 5 5 8 8 8 8 8 8 8 8 8 8 8 8 8 8 8 8 6 8 8 5 5 5 8 8 8 8 8 8 6 8 8 6 8 8 8 8 6 8 8 8 8 6 9 8 8 8 6 8 9 8 8 8 8 8 C 8 C <X;X;X;X|.%.*.*.k.$.%.$.%.d p p p                                                                                                                                                                                                                                                                                                                                                 =X;X;X=Xk.%.k.@.%.%.k.k.k.k.k.k.k.k.k.k.k.%.%.k.%.%.%.%.%.%.%.k.%.k.k.#.$.k.$.k.k.$.$.k.1.k.1.a y i i i ",
":X,X,X;X%.6.6.6.1.1.k.k.x.l.l.l.x.l.%.%.%.%.%.k.k.x.k.k.k.k.%.k.k.#.k.#.O.k.$.k.+.$.%.$.$.k.k.k.k.k.k.i i i i i S D D D Z Z F Z Z D Z D F F <.c.0.A.0.0.0.9.5.9.5.5.5.9.x.0.;.Z Z C A.A.c.0.K Z Z S Z S S Z Z Z C Z C C Z C H 5.0.0.0.c.A.c.P.D D Z S Z Z Z C C C C c.9.0.A.A.P.L.A.n.F F D D S D Z ,.0.0.0.A.0.c.0.7.0.0.0.9.2.Z Z Z Z Z Z Z Z Z Z C C C C Z N C C C Z C Z Z S Z S Z Z Z D D F c.c.j.0.7.5.5.5.9.5.5.<.K Z Z Z Z Z D D D D A D Z D F Z A Z Z C 8 =X;X;X=Xk.k.x.x.k.#.k.k.O.c i i i u Z Z Z Z S C Z Z Z S Z Z Z S Z Z Z C C Z S C S C C Z S Z C C C Z Z C C S C Z Z C Z Z Z C Z C C S C Z C C S C Z S Z Z Z Z Z C Z S Z Z Z C C Z Z Z Z C Z S Z Z Z C Z Z S Z Z Z Z Z Z Z Z Z S Z Z Z D Z D D Z F D Z Z D Z D Z Z D Z Z D Z Z F P.P.D.A.A.A.0.c.c.c.c.0.c.D D D D D D Z Z Z Z Z C 9.9.0.0.0.7.9.9.5.S F F D D Z Z Z D Z Z Z Z 8.0.7.0.9.5.5.<.o./ / ( X.Z D D D D D D S 4.0.c.0.0.0.5.5.3.S S Z C C C Z Z :.c.0.A.7.N V Z S Z Z S S Z S Z Z Z Z C C S C C C C S Z C C C Z Z Z V C S C C Z Z Z S Z Y.L.L.A.0.c.7.0.c.0.0.0.0.8 Z Z S P.A.P.D.L.A.A.P.L.A.A.c.A.c.c.7.l.:.C C C Z C S S C P.I.L.A.A.c.0.9.X.....:.,.F D D ` c.L.P.A.J S S S S Z S Z V 0.A.A.c.Z Z C C 9.0.0.A.0.0.c.A.0.A.L.c.0.` C C Z Z Z Z S S 2.A.A.A.P.P.A.A.c.I D S S S n.A.L.A.A.A.A.A.A.A.A.A.A.A.A.A.n.Z S S V v.L.L.A.P.Z C Z Z S S S Z V A.c.A.A.C Z Z Z Z Z C Z Z Z C Z Z S C C C Z C C Z Z Z Z Z C Z C c.A.c.c.0.7.5.5.5.C C C C Z S Z D W.P.P.L.A.c.0.A.c.c.c.0.0.F F D D D D D D W.W.P.L.c.4 N 5 N C C C N S.D.C C C C C Z Z N L.A.P.P.9.D Z D S ^.Q.Y.L.8.D D D S 9.0.c.c.Z C C C C C C C 9.L.P.Y.I.T F F D Y D D D Z Z A.A.A.A.A.A.c.0.A.c.A.c.8.Z S Z 2.P.D.A.A.A.A.0.A.A.A.A.c.A.m.P.N.S D D S c.L.L.L.A.A.A.c.0.0.9.5.c.Z Z Z S F F D D F D D D S x.c.0.0.0.5.5.<.5 C Z C C Z Z Z N A.P.P.I.I.P.L.L.P.P.L.D.A.L.L.L.c.Z Z D Z S.P.P.P.L.S Z Z S D Z D Z D A.c.0.0.0.9.6.9.9.Z Z Z Z S Z D F R.R.W.R.I.H K H A / / H / A Z Z Z Z S S Z Z S Z C Z Z Z Z Z Z Z Z Z Z C Z C C C Z C Z C Z C Z Z Z C C Z Z Z C C C Z S Z S C Z Z C C Z Z C Z C Z Z Z C C C Z C Z Z C C S C C C Z S C C Z Z C C C Z S Z C C Z Z S Z C S Z Z Z Z C S D Z Z Z Z S Z S Z Z Z Z Z D S Z Z Z F :X;X;X;X|.6.*.%.6.$.$.$.<.p p p p                                                                                                                                                                                                                                                                                                                                                 =X=X=X;X%.k.k.k.k.k.%.k.k.k.k.k.k.1.k.%.k.%.k.%.%.%.k.%.%.k.%.k.%.k.$.k.k.$.k.k.k.k.k.k.k.x.k.a i i i i ",
":X:X,X;X@.6.6.6.%.1.k.k.x.k.l.x.l.l.%.%.%.%.%.k.x.k.k.k.k.k.k.%.#.k.#.k.#.O.+.k.@.%.%.$.%.k.k.k.k.k.k.i i p i p D D D D F D D D F D D D D D @X<X<X<X:X>X,X,X:X,X:X>X,X<X,X,Xc.Z C 8 1X1X1X<X;.Z C Z Z S S S Z Z D S D D D D ,.1X1X1X1X<X<X1X1XD S S Z D S Z Z Z Z Z ,X<X1X>X>X>X1X<X1XD S S S D D D ^.1X1X<X1X1X1X1X<X<X<X1X<X^.S S S S S Z S Z N Z S Z Z Z S Z Z Z S Z S Z Z S S Z S Z Z Z S Z <X<X1X<X<X<X1X>X<X<X<X1X8.D D D D D D Z D Z D Z D Z D D Z Z Z Z 8 =X=X;X=Xx.k.k.k.x.#.#.k.#.c p p i i S S S S S Z S S S S S Z Z Z S S S C S S Z S Z Z S Z S S S S S Z S C S Z C C S S Z S S S Z S S S S S S C S S S S S S S S S S Z D Z D S Z Z S S S S Z Z Z D Z D D S Z D Z D S D S Z S S Z S D D Z D S Z D D D Z D D D D D D D D D D D D D ' 1X1X1X<X<X1X<X:X:X,X<X,X<XD D D D D D D U F D F D <X1X1X1X<X>X:X,X<XS D D D D D D D D D D D D &X1X1X<X<X<X<X;X:XT./.@X-XU D S S V Z Z V (.<X<X:X,X:X:X,X,XS S S D D D D S +X1X1X1X1XN D D S S S Z Z S Z N S S S S Z Z Z S Z C S Z S Z S Z S C S C C S S S Z Z Z C 1X1X<X<X1X1X1X1X1X1X1X1X1XA D D N 1X1X1X1X1X1X1X1X1X1X1X1X1X1X1X1X1X.XS S S S S D D N 1X1X1X<X1X1X1X1X<X,X:X,X&XS S Z ;.1X1X<X1X` S S Z S S S S N <X1X1X1X_ D D F 1X1X1X1X1X1X1X1X1X1X1X1X1X9.U U U U U D D D [.1X1X1X<X1X1X1X1XU D S Z S 1X1X1X1X1X1X1X1X1X1X1X1X1X1X1X1X1XS D D N 1X1X<X<X1XD S S C S S S S D 1X<X<X1XZ S S S S Z Z C S S S S Z S Z Z Z Z N C Z Z S Z Z Z Z S 1X1X1X1X1X1X<X1X1XF F D D I D F F 1X1X1X<X1X1X1X<X1X>X1X1X1XK S S D Z Z C S -X<X:X<X;X< 4 4 5 V S S V 1X1XY D Z D Z D S N 1X1X1X1X,XD D Z N 1X<X<X1X1XY U T E 1X1X1X1XD Z Z D Z D D Z %X1X1X<X<X! S D D D D F U D F 1X1X1X1X1X>X1X1X:X<X<X1X+XD F F ].1X1X1X<X1X1X1X1X1X>X1X1X>X1X1X<XD D D V 1X1X1X1X1X<X1X1X1X1X1X<X1XY F F D D S S S S S Z S V ,X<X<X<X:X<X>X<XV D S S D S D D N 1X>X1X>X1X1X1X1X1X1X1X1X1X<X1X1X1XF F D F 1X<X<X<X1XU F F D D F D D D 1X:X:X:X<X<X>X>X<XF D F F D D D D 1X1X1X1X1X,X,X,X#X3.,.,.) F S F S Z S Z Z Z Z Z S S Z Z S Z Z S Z Z Z Z S Z Z Z S Z Z S Z Z Z S Z Z S S Z S S Z C C S C C Z Z S S Z S Z S Z S Z Z Z S Z S Z Z Z Z C C C Z S Z C S Z S S Z S Z S Z Z Z Z Z S Z C S Z Z S S S Z S S Z D Z S Z Z S Z D D Z D S Z Z Z Z Z D <X,X;X=X|.*.*.6.1.$.$.$.$.a p p p                                                                                                                                                                                                                                                                                                                                                 ;X=X;X=X@.k.%.k.k.%.k.k.k.k.k.k.k.k.%.k.%.%.%.%.k.k.%.%.%.k.%.%.k.%.k.%.%.k.$.k.x.k.x.k.k.k.k.a i u u y ",
":X:X,X,X%.6.6.*.%.%.k.k.x.l.l.l.x.x.%.$.%.%.%.k.k.k.k.k.k.k.k.%.k.#.#.k.$.k.#.$.%.%.$.%.%.k.k.k.k.k.k.p i p p i F D D D D D Z D D D D D D D #X<X1X<X<X1X<X<X<X<X<X<X<X<X<X<Xc.S C N 1X1X1X1X<.D Z S S S Z Z S Z S S Z Z S S ;.1X1X<X1X1X1X1X1XD S Z S Z F D D D F F 1X1X1X1X1X1X1X1X1XI S S Z Z Z Z ^.1X<X<X1X1X1X>X1X1X1X1X1XW.S S C Z S Z S Z S S S C S C Z S Z Z Z Z S Z Z Z Z Z S Z Z D Z F 1X1X<X1X1X1X>X1X1X1X1X<X3.D D D D D D D Z Z D Z D Z D Z Z Z Z Z 8 =X=X;X=Xk.k.x.l.k.k.#.$.%.d i i i i Z Z S S Z Z Z Z Z Z Z S Z Z Z S Z Z Z S Z C Z Z Z S Z S Z C Z Z S Z S Z C S C S S Z Z S S Z S Z S S S S Z S Z S Z S Z S S Z Z Z S Z Z Z S S Z S Z Z Z S Z D Z D S S S Z Z Z S Z Z S S Z S S Z S D Z D D D D Z S S Z D Z D D S D D D D D ;.1X1X1X1X1X1X1X1X1X1X<X1X1XD D S D D Z S D S S S S ,X1X1X1X1X<X1X1X<XS D D D S S D S D Z D D D -X1X1X<X1X1X1X1X1X^..X=X,XD D S S S V S Z [.1X1X1X1X<X1X1X<XF D S S S S Z Z +X1X1X1X1XB S D S S D S Z Z Z S C S Z C C C S C C S C Z S C Z C S Z C S Z S Z S S S Z A 1X1X1X>X1X1X1X1X1X1X1X1X1X4 Z Z M 1X1X1X1X1X1X1X1X1X1X1X1X1X1X1X1X1X+XS Z S C Z Z Z M 1X1X1X1X1X1X1X1X1X1X<X1X-XD Z S 2.1X1X1X1X` D S S S S S S M 1X1X1X1X_ S D D <X1X1X1X1X1X1X1X1X1X1X1X1Xh.D D D Z D D D D $X1X1X1X1X1X1X1X1XE D S Z S 1X1X1X1X1X1X1X1X1X1X1X1X1X1X1X1X1XS D D N 1X1X<X<X1XS S Z S S S S S F 1X1X1X1XZ Z Z C Z S Z Z S C Z Z Z S Z S Z S S Z Z Z S Z D D F F 1X1X1X1X1X1X1X>X1XD Z C C C Z S S 1X1X<X<X1X1X1X1X1X1X1X1X1XK D S S Z S D S <X1X1X1X1X3 4 N N S S S N 1X1XS Z C S Z D S M 1X1X1X1X<XD S Z N 1X1X1X1X1X].T ~ T 1X1X1X1XF S C Z Z C C C &X1X1X1X1XT S S D D D D D D Y 1X1X1X1X1X1X1X1X1X1X1X1X@XD D D /.1X1X1X1X1X1X1X1X1X1X1X1X1X1X1X1XD S D N 1X1X1X1X1X1X1X1X1X1X1X1X1XU F D S D S S S D S D D N <X1X<X1X1X<X1X<XS D S S S S D Z M 1X1X1X1X1X1X1X1X1X1X1X1X1X<X1X1X1XY D S D 1X<X,X,X1XU D D D D D D D F 1X1X1X1X1X1X1X1X,XD D D Z Z Z D Z 1X1X1X1X1X1X1X<X1X,.,.) ) Z D S S S Z S S Z Z S Z Z S Z Z Z S S Z Z Z Z S Z Z S Z Z Z Z Z C Z S Z C S Z Z Z S C S Z Z Z C C S Z S S Z C S S C S C S Z Z C C Z S Z S Z S Z Z C Z S Z C Z S Z Z Z S Z Z Z Z Z S Z Z Z Z Z Z Z Z S Z Z S Z Z S Z S Z S Z Z S Z Z S Z Z Z F >X;X;X,X|.6.k.%.k.$.$.$.$.s p p p                                                                                                                                                                                                                                                                                                                                                 ;X;X=X;Xk.k.k.%.k.%.k.k.k.k.k.k.k.%.%.%.%.%.k.%.%.k.%.%.%.k.%.%.%.%.%.k.k.$.k.$.k.k.x.k.k.x.k.a u i i y ",
":X,X,X,X$.*.*.6.%.%.k.k.k.l.x.x.x.x.$.#.$.%.%.k.k.k.k.k.%.%.k.k.#.k.k.#.+.k.k.O.%.%.%.%.%.k.k.k.k.k.k.i i i i p D D D D D D F D D S D Z D Z @X<X<X<X,X,X1X<X<X,X:X,X:X:X:X:X8.Z Z C 1X1X1X1X<.D D Z D S D D S S D Z S S S D ;.1X1X1X1X<X<X1X1XD S D D D Z Z D D S Z <X1X1X1X1X1X<X1X1XS S Z C Z C C /.1X1X1X1X1X1X1X1X1X<X1X1XY.S Z S C Z S S S Z Z C S C S Z Z Z S S S Z Z S Z Z S Z S D Z D A 1X<X1X<X1X1X1X>X>X1X:X<X2.S S S Z Z S D Z D Z D Z D Z D Z D Z Z C =X;X-X;Xk.k.k.k.k.#.#.$.%.d i i i i Z S Z Z C S S S S S Z Z S S Z Z S S S Z Z Z S C S Z S Z Z S C Z C C S S S Z S Z S S Z C S S Z S S S Z S S S S S S S S S S D S S S S S Z S Z V S S S S S S Z S S Z Z S S S S S S D S S D S D S S S Z D S S D D D S S D S S S S Z S Z Z V [ <X1X1X<X<X1X1X1X<X1X1X<X1XD D D F S D D D D D F D <X1X1X1X1X1X1X1X1XS D D D D F D Z D S Z Z Z @X1X1X1X<X1X<X1X1X~.+X&X-XV S Z S Z S S S (.1X<X<X<X1X<X1X1XS Z S Z Z Z Z C XX1X1X1X<X3 S Z S S Z S S S S C S N Z Z S C C S Z C S S Z S C S C S Z S Z S S S Z Z D D 1X1X1X1X1X1X1X>X1X1X1X1X>X4 N 5 3 <X1X1X1X1X1X1X1X1X1X1X1X1X1X1X1X1X.XS S Z S Z S S V 1X1X1X1X1X1X1X1X<X<X<X<X&XS D D 8.1X1X1X1X( D S S D S S S N 1X1X1X1X/ S S S 1X1X1X1X1X1X1X1X1X1X1X1X1X4.U D I I U E Y U &X1X<X1X1X1X1X1X1XW C Z Z D 1X1X1X1X1X1X1X1X1X1X1X1X1X1X1X1X1XC Z F V 1X1X<X1X1XS S S S D I I D ! 1X1X1X1XZ C Z C Z Z Z C S S Z Z S C S Z Z Z S S S S Z D S Z D D 1X1X1X1X1X1X>X1X1XC 5 C S S S D D 1X1X1X1X1X1X1X1X1X1X1X1X<XA S Z Z Y S D D <X1X1X1X1X< 4 5 4 S S S C 1X1XC S S Z S Z Z 3 1X1X1X1X,XV 5 4 3 1X1X<X<X<X;X;.T U 1X1X1X1XU F D U Y D D D ,X1X1X1X1XK Y D F U D D S S D 1X1X1X1X1X>X1X<X1X<X<X,X+XS Z Z W.1X1X1X1X1X1X1X1X1X1X1X1X1X1X1X,XD D D N 1X1X1X1X1X1X1X1X1X1X1X1X1XF D D D D D D D D D D D S 1X1X1X<X<X1X<X:XM C C C Z S Z S M <X1X1X1X1X1X1X1X1X1X1X1X1X1X1X1X1XZ S Z A 1X1X,X,X1XD D D D D D F D F 1X1X1X1X>X<X<X1X&XS Z Z Z C C C Z 1X1X1X1X1X1X1X1X1X) ) ) / A S Z Z Z Z Z Z Z Z V Z Z Z S Z S Z Z S S C C S Z C Z C Z S Z S S Z Z S Z Z S C S C Z C Z V Z S Z C Z Z C C S S Z S S Z C C C S Z S C Z Z Z S C S Z S C S S S Z S Z S C Z S S Z S Z Z Z S S S Z S S S S S S S S Z S Z S Z S S Z Z S Z Z Z S Z <X,X;X;X|.*.%.%.*.$.$.$.$.s p p p                                                                                                                                                                                                                                                                                                                                                 ;X=X;X=Xk.%.k.k.k.%.k.k.k.k.k.%.k.k.k.%.k.k.%.%.%.%.%.k.%.k.%.k.k.k.%.%.k.k.#.k.k.k.k.k.k.k.k.a i u u i ",
",X<X<X<X%.6.%.6.k.k.k.k.%.k.k.k.k.k.$.k.k.$.k.k.k.k.k.k.k.%.k.%.#.k.#.#.k.#.$.#.#.k.%.%.%.k.k.k.6.k.6.i i u i i D D D D D D D D D D D D F F @X1X1X1X1X1X1X1X1X1X1X1X1X1X1X1X<.C 8 4 1X1X1X1X#.C Z C Z S S Z S S S S S S S C ' 1X1X1X1X1X1X1X1XM 4 3 N S D D S V V S 1X1X1X1X1X1X1X1X1XV C N N S S Z (.1X<X1X<X1X1X1X1X1X1X1X1XI.3 3 3 3 S S I N V V M D S D S S D S Z S S Z S S S S S S D D S S 1X1X1X1X1X1X1X1X1X1X1X1X2.M B V N U D D D D D D D Z D D Z D S Z C ;X;X;X;Xk.k.k.k.k.$.$.$.$.d i u i u Z Z Z S S S S Z S S S Y Z S S D S S S Z D S S S S S S S S S S S S S Z S Z S S S S S S S S S S S S S S D S S S S S S D D D D D S S D S S S D D D S D S S S D D S S S S S S S D S D D D D D S S D D D D D D D D D D D D D D D D D D D D F >.1X1X<X1X1X1X1X1X1X1X1X1X1XV N V B D S D D N N N N ;X1X1X1X1X1X1X1X1X3 3 1 3 M D D U I M N M N &X1X1X1X1X1X1X1X1X<X<X<X1XD I U I M B B M ].1X1X1X1X1X1X1X1XN M N N D D D D +X1X1X1X1XM Z Z S Z D S S S S S S S S S S S S S S S S Z S S S S S S C S S S S N B C N M 1X1X1X1X1X1X1X1X1X1X1X1X1X5 Z S N 1X1X1X1X1X1X1X1X1X1X1X1X1X1X1X1X1X.XS D S M N N N M 1X1X1X1X1X1X1X1X<X<X1X1X&XF D D 9.1X1X1X1X( C C C Z S Z S M 1X1X1X1X/ Z S Z 1X1X1X1X1X1X1X1X1X1X1X1X1X;.B M N M I D D D .X1X1X1X1X1X1X1X1Xt.N Z S Z 1X1X1X1X1X1X1X1X1X1X1X1X1X1X1X1X1XN C Z M <X<X<X<X1XM 4 4 N D D D D F 1X1X1X1XF Z S S S S D Z S Z S S S S S Z S S S Z S Z Z N M N N C 1X1X1X1X1X1X1X1X1X< < 1 M V U D U 1X1X1X1X1X1X1X1X1X1X1X1X1XS V V C N S S S ;X1X<X<X1X< & & & C C C 4 1X1X3 3 3 3 S D D N 1X1X1X1X1XS C N 3 1X1X1X1X1X<X,X~ F 1X1X1X1XB 3 M M S D D D -X1X1X1X1XA Z S S D V S V S N 1X1X1X1X1X1X1X1X1X1X1X1X+XS D D [.1X1X1X1X1X1X1X1X1X1X1X1X1X1X1X-XD F D N 1X1X1X1X1X1X1X1X1X1X1X1X1XS V V V I U U I M B N V 3 1X1X1X1X1X1X1X1X3 4 N V V D U D N 1X1X1X1X1X1X1X1X1X1X1X1X1X1X1X1X1XS Z Z F 1X1X<X1X1XF F D Y V V M N M 1X1X1X1X1X1X1X1X-XM M N N D D D F 1X1X1X1X1X1X1X1X1XA ) / A D M N N M D D S S S S Z S S S S S S S Z Z S Z Z S S S Z S Z S S S S D S S S S S S S S S S S S S S S V S S S S Z S S S C S S S S S S S S Z S S S S S S S S S S S S S S S S S S Z S S S S S D D D D D Y Z D D D D D D S S S D S S S S S D D D D >X,X;X;X~.*.*.*.*.$.$.$.$.a i p p                                                                                                                                                                                                                                                                                                                                                 =X;X=X;Xk.%.k.@.k.k.k.k.k.k.k.k.k.%.%.k.%.%.%.k.%.k.%.%.%.%.k.%.%.%.%.k.#.k.k.k.k.k.k.k.k.k.k.a u i u y ",
":X:X:X:X$.%.6.%.l.x.x.v.z.$.%.$.%.%.k.k.k.k.k.k.k.k.k.%.k.%.%.%.k.#.#.k.$.#.k.k.$.$.%.$.$.%.%.%.*.%.*.i p p i p T T T U U Y D Y U U T Y U U N 3 M 3 S . . . . & & & & # + # $ 1 1 C 1X1X1X1X&.$ * * Y T U U Y D D I &X1X1X1X(.< & # # O O + + 1X1X1X1XS S S 1X1X1X1X= # + + . . . . O 1X1X1X1XC 8 C I.<X,X<X<XO + O O N 4 N 4 A.1X<X1X1XU D N ,X,X,X<XL I I U U D U D I U U U U U U U Y U U U Q B L # < # O O . . S V V W.<X,X,X<XV U D U D U U U U D U D F D D C -X=X;X;Xk.k.k.k.k.$.%.$.%.c i i i i F Y Y Y D U U U Y Y Y Y Y U U Y U U U U U Y I Y U Y I Y U Y U U Y U U U U I U U I U U U U U Y U U U D Y Y D U U U U U U U U U U T U Y Y Y U U I T U U U U U D Y Y U U U U U U U U U U U U Y U U U U I U U U I U U U U U U U T I U T U U >.1X,X,X1X+ + @ O 5 4 4 4 4 <X,X<X<XV Y Y F 1X1X1X1X5 < < & < S V D M 1X1X1X1X1XU D D D <X<X<X1Xt & # # & < & & # 1X1X1X<XN C C M 1X<X1X1Xo.< * & & 1 * < < 1X1X1X1XF S S Z +X1X1X1X1X& 1 1 1 U U U U U D U I D U D I D I U D D I D I D I D U U I U D U U -X<X,X;X:X< 4 4 4 5 # # + # V V N M 5 1 1 < 1X1X1X1Xx # # # & & & & & 1 4 3 3 N Z S S 1X,X,X,X<X3 < 1 1 4 4 5 4 1X<X1X1X,XF U D h.1X1X1X1XH 8 5 6 Z I U U V 1X1X1X1Xe * < 1 <X<X,X1X1XO + @ @ N N N 3 Q.1X1X1X1XL E E E I I M 1X1X1Xs $ # # U U D I S V # + + OX<X1X1X1X% + + + Z S S C 4 5 C 1X1X1X1X1X&X1X1X1XT I D U D 1X1X1X1XZ Z C C D D D D I D I D D I D U I D D U U T Y .X1X1X1X1X& < < < Z 1 < < & 1X1X1X1XU.D D D <X,X,X<X<XO O O O < < 1 < 1X<X<X1X1XD S S &X1X1X1X1X<X<X1X1X! / F A 1X1X1X1X1X1XV Z Z M 1X1X1X1X<X1 * * < 1X<X1X1X;X^.{.@X&X3 4 M C <X1X<X1XY S S S -X1X1X<X1X7 1 1 1 4 <X<X1X1X1XN N N N # + # + N 4 5 N V U U D D I * # + O 1X1X1X1X1X$ + + & < C C C C M <X<X<X1XO O O O & 1 3 1 3 <X1X<X<XV S S I 1X1X1X>X1X& # # # @ O + # 1X1X1X1X1XI D D F V # # # $ 1X1X1X1XC.O O O # * 1 6 S D S S 1X<X<X<X<X* $ $ # I.1X1X1X1X& * < * 1 1 1 * 8.1X<X,X<XV D D D 1X1X1X1X1X# & # # @Xv.3.A W.1X1X1X1XE U D U U U U U D D U D D D D D D I D D D D I D Y D I U D U U U U Y I D I D Y D U I D U U I D I D U D I D I D D I D D U U U U I D Y Y D U U U U U D Y U U D U U I Y U Y U U U Y Y U U Y Y Y Y U U U U U U U U Y U D Y U D Y D F F Y >X;X,X;X}.*.*.*.*.$.$.$.$.s p p p                                                                                                                                                                                                                                                                                                                                                 ;X;X;X;X%.k.k.k.%.k.k.k.%.k.%.%.%.k.%.%.%.k.%.k.%.%.%.k.k.%.%.%.k.%.%.%.k.$.k.k.x.x.x.k.k.k.k.a y u i y ",
":X<X<X,X@.%.6.%.v.x.x.v.l.$.$.%.$.%.k.k.k.k.k.k.k.k.k.$.%.k.%.k.#.k.k.#.#.$.k.#.$.%.%.%.%.%.%.%.%.k.%.i p i i i U T U U U U U D D U D D U D Z C C Z C # # + # 4 N N 4 * * * * 1 1 C 1X1X1X>X&.# $ @ S D D U D D U U %X1X<X1X@X2 1 1 1 & $ $ * 1X1X1X1XD S S 1X1X1X>Xw # # # # # # @ $ 1X1X1X1X8 5 5 I.1X,X,X1X# $ @ @ C C C C A.<X,X<X1XU D V 1X<X1X1XL T U T U Y U U D U U U U U U U Q U U U U U U * 2 1 O O O O D U U U.<X,X<X1XV T Y U U U U D U D U D F D D C =X;X=X=Xk.k.k.k.k.$.$.$.%.d i i i w F U D U D U U U U U U U U U U U U D U U U U U U U U U U U U U U F U F U U Q I D I U U U U U D U U U D U U D D U U U U U D U U U U U U U U U U U T U U U U U U U U D U U D D U U U U U U U U U U D U U U U U U U U U U U U U U U U U U F >.1X,X:X1X$ # # @ C N 8 8 9 1X<X1X1XV T U U 1X1X1X1Xe & $ & & C Z Z N 1X1X<X1X1XY U U F 1X<X1X1Xt & * $ & 1 1 < * 1X1X1X1XC 8 8 5 1X1X1X1X<.6 6 6 1 9 5 1 7 1X1X<X<XZ S Z C @X1X1X1X1X& 1 1 < U U U U D U U D U D I D U D U D U D D D D Q D D U Q D D U U -X1X,X<X1X< N C C N * & * & Z D S C 5 5 1 3 1X1X1X1X| & & & & * * < * Z C C C S Y D Y 1X1X<X,X1X8 6 1 1 5 5 8 5 <X1X1X1X-XS C Z 4.1X1X1X1X9 < 1 1 N D U D V 1X1X1X1Xr 1 1 6 1X1X<X1X1X# $ $ # Z Z C 5 Q.1X1X<X<XB S D D D S B <X1X1Xx + # # D U U U T U & # $ &X1X1X1X1X- # # # Z F Z Z 4 4 N f.1X1X<X1X+X;X;X<XV D D D D 1X1X1X1XA Z S S D U D U D U I U U U U D U D U U F U U [.1X1X1X1X< < 1 1 C N 4 4 1 1X1X1X1XP.D S D 1X<X,X<X1X& & * * C C Z Z 1X1X1X1X1XD S Z -X1X1X1X1X1X1X1X1X/ K H 9 <X1X1X<X1X1XS S S M 1X1X1X1X1X1 < 1 & 1X<X1X1X,X{.%X&X&XC 4 5 A <X<X1X1X/ D S S &X1X1X1X1X6 * * 1 3 1X1X1X1X1XZ Z Z Z & * * $ Z Z S Z D T U T U U 4 # + O 1X<X1X1X1X# # # $ 1 C C Z Z N <X<X1X1X@ + @ + & 8 8 8 3 1X1X1X1XI U U U 1X1X1X1X1X1 * * & & $ $ $ 1X1X,X<X1XT T U U U Z $ $ % 1X1X1X1X7.# + # $ 4 1 8 D S D Y 1X<X<X<X1X& & $ $ U.1X1X1X1X& & * * 4 N 8 9 c.1X<X<X1XS Q F Y 1X1X1X1X1X* $ $ # 1X,XR.A _.1X1X1X1XT U U D U U D U D U D D Q D D I D D D U D U D U D U D I I U D D U U U D U I D U U D I I U I Q U U D U D I U D U I D U U U D D Y D U U D D U U U U I Q I Q U U U U U U U U U U U U U U U U U U U U U U U U U U U D U F U U U U D Y Y 1X:X:X;X~.6.*.*.*.$.$.$.$.p i p p                                                                                                                                                                                                                                                                                                                                                 ;X;X;X=Xk.k.k.*.*.*.k.k.k.%.%.k.%.%.%.%.%.%.k.%.k.%.%.%.%.%.k.%.%.%.k.k.$.k.$.x.l.k.x.k.k.k.k.a i u y i ",
":X:X<X,X%.*.%.*.c.l.x.l.l.$.%.$.%.$.k.k.k.k.k.%.k.k.k.%.%.%.%.%.k.#.#.k.k.#.k.$.%.%.%.$.%.%.k.%.%.%.%.i i i i q U T T U U F U U U D U U Q D 9 5 8 8 5 O O + O 1 1 5 4 1 1 * 1 9 8 C 1X1X1X1X=.* * * T Y Y U U U U D &X1X1X<X%X1 * 1 C $ $ $ $ 1X1X1X1XD Z S 1X1X1X1Xw # # # * 4 5 2 1 1X1X1X1X1 1 1 L.1X,X:X>X+ # # @ Z Z C Z S.1X<X1X1XD D B 1X<X<X<XB E T U U U U U U U U U U U U U U U U U U U T 1 1 4 # # # O U U U P.<X<X<X<XL D U D U D U U F D U U F U F C -X;X;X;Xk.k.k.k.k.$.$.$.$.d i y u u F D U D U U U U F U F U U U U U U U U U U U U D U U U U U U U U U U U U U U U U U U U U U U U U U U U U U U U D U U U U U U U U U Q U U U U U U U U U Q I U D U U U U U U U U U U Q U U U U U U U U U U U U U U U U U U U U U U U U D U >.<X,X,X1X$ # @ @ 9 8 8 8 7 1X1X<X1XB U D F 1X1X1X1Xs * * * 1 D Z S C 1X1X<X1X1XY U U D 1X<X1X1Xt $ # $ & 4 1 4 < 1X1X1X1X2 * 1 5 1X1X1X1X<.6 6 1 1 Z Z C e 1X<X<X1XN N 5 N OX1X1X1X1X& 1 1 1 U U U U U U U U U U D U D D D U D U Q D I I I I D I U U U F -X1X<X,X<X3 4 5 4 8 * * * # C C N 5 5 4 5 4 1X1X1X1X .* & * * 4 4 4 4 S S S S S D D I 1X<X<X<X1X1 1 1 1 1 5 4 6 1X<X<X<X&XC C C 2.1X1X1X1Xe 1 1 1 C U U T V 1X1X1X1Xr 5 1 5 1X<X<X<X1X# @ @ @ 8 N C 4 Q.1X1X1X1XN Z I I I U V 1X1X1Xx # # & D U U U U U & & # -X1X1X1X1X$ # # # C 8 8 8 1 4 V f.$X<X1X1X@X<X1X1XT T T I U 1X1X1X1XZ S Z Z D U U U U D D U D D U U D D D D D D D ].1X1X1X1X& & & 1 Z Z D F N 1X1X1X1XU.D D F 1X<X,X<X1X# $ % $ 5 4 C C 1X1X1X1X1XS C Z -X1X1X1X1X<X1X1X1X/ / / A 1X1X1X<X1X1XD S Z 3 1X1X1X1X<X* & # & >X1X1X1X*X[.&X*X,X4 5 5 A 1X<X1X1XK S S S -X1X1X1X1X6 1 1 1 M 1X1X1X1X1XZ Z Z Z 1 1 < < C N C C S D U D D D S + + O <X1X1X1X1X+ + + # 1 C S S F N 1X<X<X1X% $ + # 1 Z Z Z 4 1X1X1X1XV S D U 1X1X1X1X1X1 * 1 * C 5 5 C 1X1X<X<X<XI V Z Z S Z $ # $ 1X1X1X1X7.+ + # $ 4 5 5 S Z D F 1X1X<X<X1X* & & * U.1X1X1X1X& 1 1 1 8 D D Z j.1X1X<X<XB S S Z 1X1X1X1X1X= * $ # 1X1X<X) '.1X1X1X1XU U D U D D F D U D D D D I Q U D U D D U D U D D I J Q D U D I D D D U D D U D U D I D D I D D U D U U D D U D U I D D U U U U U F U U U U D D Q D U D D D U U U D U U U U U D U U U U U U U U U U U U U U U U U U U D F U D D D F >X;X;X;X~.1.%.%.6.$.$.$.$.s i p p                                                                                                                                                                                                                                                                                                                                                 -X=X;X;Xk.-.*.k.*.k.%.k.k.%.1.1.%.k.k.1.k.%.k.%.%.%.%.k.k.%.k.%.%.k.%.%.k.#.k.k.l.k.x.k.k.k.k.a u u u y ",
",X:X:X,X%.*.*.6.v.l.l.l.x.$.%.$.%.$.k.k.k.k.k.k.k.k.k.%.%.k.%.%.#.#.#.#.k.#.#.k.%.%.%.%.%.%.k.%.%.%.%.p p i i s T T U U U U U J F U U D D D 5 C 9 9 Z # # # $ 8 Z Z Z Z C 8 Z S Z V 1X1X1X1X7.$ $ * D U D F D F D I &X1X<X1X#X4 C S D 1 * * 7 1X1X1X1XZ C C 1X1X1X1Xw # # & 5 N Z 8 9 1X1X1X1X2 1 1 L.<X<X,X<X+ @ # @ Z 8 C C A.1X,X1X1XT F D 1X<X,X1XL U U U D U F U U F U F U U U Q Q U U U D F F 1 1 5 8 C Z 8 T ! ! W.<X,X1X1XI T T U U U U D U U U D U F D C =X=X=X=X1.k.k.k.k.$.$.$.$.d p p i i U Q D D D U U U T T U U U U U U U U U U U U U F U U U U U Y F U U U F U U U U Q Q U U D U U U U D F U U U U U U U U U U U U U U T U U U Q U U U U Q U U Q U Y U U U U U U Q U U Q D I U U U U U U U U U U U U U U U T U U U U T U T T Q p.1X,X;X<X$ @ @ @ A Z A C C 1X<X1X1XL T T T 1X1X1X1Xs * * & * S S S N 1X1X1X<X1XS S S D 1X<X1X1Xs 1 * * 1 S C N 4 <.^ 9 9 1 1 * 4 1X1X1X<X@.* = 1 * F F K K 1X1X1X1XN C C N #X1X1X1X1X& < 1 1 D D D U D U D U U D U U U U U U U U U I Q D D U Q U U U Y T ,X1X<X,X<X4 C 9 C C 9 Z C C S S S S S D S V 1X1X1X1X .* * * * F D Z Z C 8 8 8 C Z S S 1X<X<X1X1X5 1 1 1 8 4 5 4 / / _ ( ^ N C C 2.1X1X1X1Xt 5 5 5 Z E E E I 1X1X1X1Xr < < < <X<X,X<X1X# $ @ # Z Z Z Z I.1X1X1X1XC S E Y E T S 1X1X1Xx * * * U Y E T Y I N & # #X<X1X1X1X$ + + + 6 8 8 8 4 C S g.N.1X1X1X*X1X1X1X[ U U S D 1X1X1X1XN C C Z S D D D D D U U U U D U Y T U U U U T [.1X1X1X1X1 1 1 1 D Y Y Y S 1X1X1X1XA.C V C 1X<X,X<X<X# $ $ $ C C 8 C 1X1X<X1X1XC V C -X1X1X1X1X1X<X1X1X/ / / Z 1X1X1X,X<X1XF A D M 1X1X1X1X<X* $ & & 1X1X1X1X*X(.@X*X<XK C 8 A <X<X<X1XH C C C &X1X1X1X1X6 1 2 5 N 1X1X1X1X1XZ Z Z C Z Z Z Z 8 C 5 C S T U T T Y D 1 $ + 1X<X1X1X1X$ # + # 4 C C Z Z N <X<X<X1X% + @ @ 2 D F F N 1X1X1X1XD U U F 1X1X1X1X1X* & & $ Z D D K 1X1X<X<X1XT T U U U U 5 * * 1X1X1X1X=.# # + # 4 1 5 D Y D Y 1X1X<X<X1X* * & & U.1X1X1X1X$ 1 * 1 4 S D D N.1X<X<X<XM S Z Z 1X1X1X1X1X* $ $ & 1X1X1X9.[.1X1X1X1XT T U U T U U U U U U U D Q D D U D U D U D U Q I J Q I U U U U Y U U U U U U U U Q D I Q Q Q U Y I D U U D U D U D U U U U Q U Y U F U U U D Q L Q Q I U U U U F U U U U Q U Y T U U Y T U U U U U U U U U U U U U U U U T F U U Y 1X,X,X,X~.*.6.6.6.%.%.%.%.s p i p                                                                                                                                                                                                                                                                                                                                                 ;X;X;X;X%.%.k.*.%.k.k.k.k.%.%.k.%.k.%.%.%.k.%.k.%.k.%.k.1.%.%.%.%.%.%.%.k.#.#.x.l.l.z.x.k.x.l.a i i y y ",
":X:X:X:X*.l.l.l.l.1.%.%.%.1.k.k.k.%.k.%.%.k.%.%.%.%.k.%.%.%.k.%.k.k.k.k.k.#.k.k.%.$.%.$.%.O.O.#.$.$.#.i i i p p ~ W ~ W W ~ W W W W W W W W '.*X-X,X,XR.Q.Q./.&X&X&X@X~ W W W E T U 1X1X1X1X=.1 1 1 E W W W W W W E %X1X1X1X,X1 4 1 8 T W W { 1X1X1X1X& # < 1X1X1X1Xx 1 < < Z ~ W t.! 1X1X1X1X* # 1 h.1X<X1X1XQ.R.R.I.W.W.W.R.^.W.I.D.I.I U I ! Q 3 & & < * 3 w.W W W W W W W E W E E W W ~ W W W W W W T ]..X.X.X].]._.(.I.D.A.C.W ~ w.~ W ~ ~ ~ ~ W ~ E T T T I =X-X;X-X1.k.k.k.k.$.#.$.@.d p i y , T T W T E W W W W W W W W W W e.W W W W W W W W W W ~ W W W W W W W W W W E W E W W W W W W W W W W W W W W W W W ~ W W W W W W W W e.W W w.~ w.w.q.W W w.W W W W W W W W W W W W W W W W W W W W W W ~ W W W W W W W W W W W W W W W W i.1X<X1X1XQ.D.Q.Q.'.^.'.W. XP.A.m.A.I U U T 1X1X1X1XX.1 1 1 5 E E W E 1X1X<X1X1X5 6 1 A 1X1X1X1X| 1 1 1 8 T T W W C 5 6 4 S D D M 1X1X1X1X^.0.c.L.I.[.`._._.1X1X1X1X1 5 4 5 @X1X1X1X1X& 5 1 1 W E E W E E W W W W W E E E E T W W W E E W W W E W W W W W ).W.U.L.L.]..X[.[..X.X.X X/.R W E W W W E E (.;X1X1X#X@X+X.X+X.X.X[.`.Y W q.w.r.w.r.r.1X1X<X<X1X1 1 1 1 F Y T E 4 1 1 1 8 E E W b.1X1X1X1X( Z C C U e.w.e.E 1X1X1X1X_ D I I <X1X1X<X1XL.H.Q.^.^.^.'.(.^.(.~.^.I.q.r.r.w.w.~ W 1X1X1Xt & E T E E T T E T E W W =X1X1X1X1X6 1 1 1 ~ W r.W w.e.w.w.W 4 < # 1X1X1X1X1X1X1X1X<X3 < < # I U D U T E E W W W E E W W W W W w.w.w.w.w.w.].1X1X1X1X9.c.L.L.B.L.P.P.B.1X1X1X1Xc.& & < 1X,X,X,X<X# & $ $ W W W ] 1X1X1X1X1X5 1 4 ,X1X1X1X1X5 = * ^ 1X1X1X1X1 ;X1X1X<X<XN 5 8 3 1X1X1X1X1X1 1 * < 1X,X,X1X(.& & & 3.1XXX4 N 1X1X1X1X9 1 1 2 ;X1X1X1X1X6 1 1 2 N N.j.0.9.9.^.^.^.^..X[.]./.R E W Q E E E E E W E w.q.I 1X1X<X1X1X5 4 4 C W w.W W W I 1X1X>X1XC.=.7.C.P.T.Y.U.L.I.D.Z.Z.D D D Y 1X1X1X1X1XP.P.I.W.].^.W.I.1X1X1X1X1XN 4 5 4 T E W W U 1X1X1X1X7.2 1 1 C W W W W W E W 1X<X<X<X1X& & $ & U.1X1X1X1X1 5 5 1 Y W W W N.1X<X<X<X< 1 4 5 1X1X1X1X1X$ $ $ < 1X<X1X%X[.1X1X1X1XE U U U E W W W W W W W q.W W W W W W W W W W w.q.E W E W W W W W w.W w.~ W w.W W w.q.W W W W W W W w.W W w.W W W W W ~ W w.W W W W W E W W W W W E W q.W W W W ~ W W ~ W W W W W W W W W W W ~ W W W w.W W ~ W W w.~ W W W T T T T 1X,X,X,X/.6.%.*.%.%.1.%.6.s i i i                                                                                                                                                                                                                                                                                                                                                 ;X;X=X;Xk.k.%.k.%.%.k.@.%.k.%.%.k.%.%.k.%.%.%.%.k.%.%.%.%.1.%.1.k.%.%.k.#.k.k.k.x.x.z.T.v.G.v.a y y y y ",
";X,X:X;X6.l.l.l.l.%.%.%.%.6.k.6.k.k.k.%.%.%.%.k.k.%.%.%.k.%.k.%.k.k.k.k.k.k.k.#.%.$.%.%.%.#.#.#.#.#.+.u i i i w W W W W ~ W W ~ ~ W w.~ w.w.&X1X1X1X1X1X1X1X1X1X1X1X1XW E Y E I I I <X1X1X1X&.* * 1 W w.W w.W w.W ~ %X1X<X1X-X< & * * T W E [ 1X1X1X1X# + 1 1X1X1X1X| 1 * 1 S r.e.~ T 1X1X1X1X* & * 9.1X<X1X1X1X1X1X1X1X1X1X1X2.Z 4 1 1 E T E T E 3 # # # # < E E E W E W W W W W W W W W W W w.W w.e.~ ~ 1X1X<X1X1X1X1Xj.4 * * & ~ W E ~ E W W W W W W T T T E Y =X;X-X;Xk.k.k.k.k.@.%.$.%.d i p i i E E E Q E w.W W w.W e.W w.W e.W W W W w.W W w.W w.W w.W W W W W w.W W W W W W w.W w.W w.W w.w.W w.W w.W w.W w.w.w.W w.w.w.w.w.w.w.w.W W e.w.W e.W w.W W w.W w.W w.W w.W w.w.W w.w.W w.w.W W W w.W q.w.W W w.w.W w.W W W w.W W W W w.W W d.1X<X1X1X1X1X1X1X1X1X1X1X*X< 1 5 4 T T T ] 1X1X1X1X$.1 5 1 N W E E R 1X1X<X1X1X* * * r <X<X1X1X| 1 1 1 4 E E E E U C V S D I U V 1X1X1X1X1X1X1X1X1X1X1X1X1X1X1X1X1X1 1 * * #X1X1X1X<X& 1 1 1 W W W W W W W W W w.W W W W W W W W W W W W W W W W W W W q.w.W E 4 4 1X1X1X1X<X1X1X1X1XP E E E T E E I 1X1X1X1X1X1X1X1X1X1X1X1X1Xq.W W W W W W q.1X<X,X<X1X* * * * E E W W N N 4 N V W W W N.1X1X1X1XH N 8 5 D W ~ W R 1X1X1X1X[ I E U <X1X1X1X1X1X1X1X1X1X1X1X1X:.5 1 1 1 r.W W W W E R <X1X<Xs # Y E E E W W W W W W q.,X1X1X1X1X9 6 4 4 w.w.w.w.W w.W W T & # + 1X<X<X1X1X1X1X<X*X< * & 1 U E E T W q.W W W W W W W W W W W W W W W W w.].1X1X1X1X1X1X1X1X1X1X1X1X1X1X1X1X1XC.& & * 1X<X,X<X1X# $ * * w.W ~ W 1X1X1X1X1X2 2 1 ,X1X1X1X1X& + # | 1X1X1X1X< *X<X<X1X1XC 8 C M 1X1X1X1X1X1 1 * < 1X<X<X1XI.# # < m.1X1X^ 9 1X1X1X1Xe 1 1 7 ,X1X1X1X1X6 2 1 5 C q.W 5 1 2 1X1X1X1X1X1X1X1XR w.W W W W W W W W W W W L <X1X1X1X1X1 * * 1 E U U E E L 1X1X1X1X1X1X1X1X1X1X1X1X1X1 * * * D D D F 1X1X<X1X1X1X1X1X1X1X1X1X1X1X1X1X1X1X4 4 5 4 W W T E V 1X1X1X1X5.1 * 1 4 E W W R w.W r.1X1X<X<X1X1 * * * B.1X1X1X1X1 1 1 4 U W E W N.1X<X<X1X& * 1 1 1X1X1X1X1X= * * 1 1X1X1X1X+X1X1X1X1XT U U U W W W W W W W w.W w.q.W w.w.w.w.w.w.w.w.w.w.w.w.W W w.w.W w.w.W w.w.W W w.W w.w.W w.W W w.w.w.W w.W w.w.W w.W w.w.w.w.e.w.w.W W W w.W w.W w.w.w.w.W w.w.w.w.W e.w.W w.W w.w.w.w.w.W w.e.w.W w.W w.W W W w.W W W W W T T T T >X;X,X,X}.6.6.1.*.6.6.6.6.d i i i                                                                                                                                                                                                                                                                                                                                                 ;X;X;X;X*.*.k.%.%.%.%.k.%.%.k.%.k.%.%.%.k.%.1.%.1.%.%.1.1.%.%.%.%.k.k.%.k.$.k.k.k.k.v.v.G.G.G.a y y y y ",
":X:X:X;Xk.l.z.l.l.%.%.%.%.k.k.1.k.k.%.%.%.k.k.%.%.k.k.%.k.%.%.k.k.#.k.#.#.k.k.k.%.$.%.%.%.#.#.+.#.#.#.u i p i i W W W W W W W E W W W W W W %X1X1X1X1X1X1X1X1X1X1X1X1XW E Y E T I I 1X1X1X1X7.1 1 1 W W W W W W W W %X1X<X1X=X* * & * W W T [ 1X1X1X1X# # 1 1X1X1X1Xx < & & Z w.e.e.T 1X1X1X1X$ & * h.1X<X1X1X1X1X1X1X1X<X1X1X4.4 1 1 1 U T E E E D & 1 5 5 D w.q.w.W W W W W W W W W W W W W W W W W W T 1X1X<X<X1X<X1X5.1 * $ $ e.W ~ W ~ ~ W W W W W Q W W ! Y ;X;X;X;Xk.k.k.k.l.$.$.%.%.d p i y u T T E W W W w.W W W W W W q.W W W w.W W W W ~ W W W W w.W W e.W w.W W w.W w.W W e.W w.~ W w.W e.W w.W W w.w.W W w.W w.W w.w.W w.W W e.e.W W w.W w.W e.w.W W W w.W W W w.W q.~ ~ w.w.W W w.W W W w.W w.w.W W ~ W w.W W W W W W W w.W W W a.1X1X1X1X1X1X1X1X1X1X1X1X-X* & 1 5 U Y Y _ 1X1X1X1XX.1 1 1 5 E T R R 1X1X1X<X1X* * * H >X<X1X1Xo.4 5 5 C W W W W W E T E Y U U V 1X1X1X1X1X1X1X1X1X1X1X1X1X1X1X1X1X= * * 1 *X1X1X1X1X& 1 1 1 E W E W E W W W W W W W W W W W W W W W W q.W W W W w.W w.W w.W W 4 8 1X1X1X<X1X1X1X1X1XV I E E W E E R 1X1X1X1X1X1X1X1X1X1X1X1X1Xq.w.w.w.W W W q.1X<X<X<X1X1 1 * 1 E W q.W W E W W E W E R h.1X1X1X1XH 4 5 4 D w.w.w.R 1X1X1X1X[ R T T 1X1X1X1X1X1X1X1X1X1X1X1X1X} < $ $ * W E W E E W R 1X1X1Xw & E E W W w.W q.w.w.W w.-X1X1X1X1X9 5 8 5 W w.W W W W W E T N + # 1X1X1X1X1X1X1X1X,X* & 1 2 E E E E E W W W W E W E W E W W W W W W W W W _.1X1X1X1X1X1X1X1X1X1X1X1X1X1X1X1X1XA.* * * 1X<X,X<X1X# $ $ & w.W W W 1X1X1X1X1X* * < ;X1X1X1X1X& # #  .1X1X1X1X< ;X1X<X1X1XC 8 C M 1X1X1X1X1X* $ & < >X<X<X<XF.& & 1 W.1X1X7.K 1X1X1X1X9 = $ * -X1X1X<X1X2 1 1 1 N W W C 4 6 1X1X1X1X1X1X1X1XP W W E W W W W W W W W W P 1X<X1X1X1X1 1 1 4 W W W W E L 1X1X1X1X1X1X1X1X1X1X1X1X1X2 1 1 1 U U U Y 1X1X1X1X1X1X1X1X1X1X1X1X1X1X1X1X1X1X3 1 5 1 T T T W L 1X1X1X1X7.1 1 < C W q.W W w.q.r.1X<X<X<X1X& $ $ # N.1X1X1X1X1 5 5 4 Y W W W N.1X<X<X<X& 1 * * 1X1X1X1X1X$ $ $ 1 1X1X1X1X+X1X1X1X1XE T U U w.W W W W w.~ W w.W W W W W w.w.W W w.w.w.W w.w.w.w.W W w.W w.e.W w.~ w.W w.w.w.w.W e.w.W W e.w.W w.W w.q.W w.w.w.W w.W W w.w.W w.w.W W W W w.W W w.W w.w.w.w.W w.w.~ w.w.W W W W W W W W w.W w.W w.e.~ w.W e.e.w.W E T T W <X,X,X:X|.%.6.*.6.6.6.k.k.d i i i                                                                                                                                                                                                                                                                                                                                                 ;X;X;X;Xk.k.%.k.%.k.%.%.k.%.%.k.%.%.k.k.k.%.%.%.%.k.%.%.k.%.k.%.%.%.%.%.k.k.k.k.x.k.v.v.G.v.v.a y y y y ",
";X;X,X,Xk.l.l.l.x.%.%.%.%.*.k.k.k.k.%.%.%.%.%.%.%.%.k.k.%.%.%.%.#.k.k.k.k.k.#.k.%.%.%.%.%.+.$.+.$.#.#.i i i i i W W Q ~ W W W W W W T W W W %X1X1X1X1X1X1X1X1X1X1X1X1XN 8 W W W W E 1X1X1X1X5.* * 1 E E W E W W W T @X1X1X<X-X< * * < E W T [ 1X1X1X1X$ + 1 1X1X1X1Xs * & & Z w.W ~ ~ 1X1X1X1X* $ * n.1X<X1X1X1X1X1X1X1X1X1X1X,.1 1 1 1 E E E W W E I U U U U E W W W W W W E W W W W W W W W W W W ~ W W 1X1X1X1X1X1X1X5.3 1 1 1 t.e.e.~ e.W W W W W W W E E E I =X=X;X=Xk.k.k.k.k.%.$.$.@.d p i i y E E T E Q W W w.W W w.~ w.q.W W W W W w.W W W W W W w.W w.w.W W W W W W W W W w.W W w.W w.W W W W W ~ w.W W e.W w.w.w.W W ~ w.W e.w.W w.w.e.W w.W W W w.W w.W ~ w.W w.W W ~ q.~ w.W W W W W W W w.W W W W W W W W W W W W W W W W W W W d.1X<X1X1X1X1X1X1X1X<X1X1X#X$ # * 4 T T T ] 1X1X1X1X$.1 1 1 4 E E E R 1X1X<X<X1X* * * A 1X<X1X1X| 1 1 1 C E E E E T E Y I U U U V 1X1X1X1X1X1X1X1X1X1X1X1X1X1X1X1X1X1 1 2 1 *X1X>X1X1X& 1 1 1 W E W E W E W W W W W W W E W W W W W E W W W W W w.W W W W W W W D Z 1X1X1X1X<X1X1X1X1XL U W q.W W W I 1X1X1X1X1X1X1X1X1X1X1X1X1XP R W W W W w.w.1X<X,X<X1X2 1 1 1 W W w.W E E E T E U U R s.1X1X1X1XH 4 5 4 U w.w.w.R 1X1X1X1X[ E E T 1X1X1X1X1X1X1X1X1X1X1X1X1X| * & * 1 r.w.w.w.W W R 1X1X1Xw # W W W q.q.w.W w.W W W -X1X1X1X1X6 1 1 1 T E E W E E E E W R I 3 1X1X1X<X1X1X1X1X,X< * 1 1 T U U U E E E W E R W E W W E W W W W W W W w._.1X1X1X1X1X1X1X1X1X1X1X1X1X1X1X1X1XI.* * * 1X<X,X<X1X# # % # W W R W 1X1X1X1X1X1 < * <X1X1X1X1X* & #  .1X1X1X1X< ,X1X<X<X1XC 9 N M 1X1X1X1X>X& # # & ,X<X<X1XF.& & 4 W.1X1X,X4.1X1X1X1X7 * $ $ ,X1X1X1X1X6 5 5 8 Z e.w.W Y 8 1X1X1X1X1X1X<X1XP W w.W W W W E W E E E E L <X1X1X1X1X4 1 1 5 w.W W ~ e.E 1X1X1X1X1X1X1X1X1X1X1X1X1X* & & & D S D D 1X1X1X1X1X1X1X1X1X1X1X1X1X1X1X1X1X1X5 5 N 5 W ~ W W E 1X1X1X1X&.1 < 1 8 q.w.W W W W W 1X1X,X<X1X& # # $ b.1X1X1X1X1 1 5 1 Y W E W M.1X<X<X<X# = 1 1 1X1X1X1X1X* $ * 1 1X1X1X1X+X1X1X1X1XE U U Q W W W W W W W W W W W w.W W W W w.W q.w.W W w.W W W w.w.W w.w.w.W e.w.w.W w.~ W W w.W W W w.W W w.W w.W w.W W W w.w.w.w.w.w.W W w.W W W w.w.W w.W W e.w.W W W w.W W w.W W W w.W w.W w.W w.W W ~ w.W W W w.W w.w.W W T Y T T 1X,X,X<X X6.k.6.k.6.k.k.6.s i i i                                                                                                                                                                                                                                                                                                                                                 ;X;X;X;X-.k.k.%.%.%.k.%.k.%.%.%.%.k.%.%.%.k.%.k.%.k.%.k.%.%.1.1.%.%.%.k.#.k.k.k.l.v.z.G.v.v.T.a y y y y ",
":X,X:X;X*.k.6.k.k.k.1.k.k.k.k.k.k.%.%.k.%.k.k.%.k.%.%.%.%.k.k.%.#.k.k.#.k.#.k.k.%.%.%.@.%.+.#.#.+.#.#.i i i i w W ! W W W W W W W W ~ W W W ;X1X1X1X1X<X,X;X;X;X&X#X;X4 8 I E R E I 1X1X1X1X&.* * * E W E W E W W W .X1X<X1X,X* & # < W T W ] 1X1X1X1X& $ 8 1X1X1X1Xw 1 1 1 S w.W ~ T 1X1X1X1X1 * * U.1X1X<X1X;X;X;X#X#XOX#X@XQ.I.W.I.9.W E E ! i.d.i.E W E W W W W W E E E W E W W W W W W W W W W W ~ W <X,X-X@X+XXX(.A.(.+X.XQ.e.~ ~ W W W W W W Q W U T T T I =X;X=X=Xk.k.k.k.k.%.$.%.%.d i y i y T E T E W W W W W W W W W W W W W W W W W W W w.W W w.W ~ W W W W w.W W W W W W W W W W w.W w.W w.W W W w.W W W W W W W w.w.W e.W W w.W w.W w.W w.w.W ~ w.w.W W w.W W W w.q.~ q.W W e.W w.W w.W W W w.W w.W W W W W W W W W W W W W W W d.1X1X<X1X;X*X;X*X;X;X*X#X.XI.I.Q.^.T T T ] 1X1X1X1Xo.N 5 1 C q.W W R 1X1X1X1X1X1 2 = A 1X1X<X1X^ 1 1 1 1 E E T E >.a.d.{ U U U R 1X1X1X1X1X1X1X1X1X1X1X1X1X1X1X1X1X5 4 5 5 #X1X1X1X1X& 5 1 1 W W E W E W W W W W W W W W E W W W W W W q.W W W W W w.w.w.w.W q.W W -X-X;X-X;X&X#X#XXX+X&X;X&XW W W R 1X1X1X1X1X#XOX#XOXOX{.(.I.V Y E E E E E q.1X<X,X<X1X1 * * 1 T E E E >.d.a.p.[ E W W M.1X1X1X1XK V S V E e.e.e.R 1X1X1X1X[ D I I <X1X1X1X1XOX=X#X=X&X=X%X@X!.6.7.6.<.W w.w.w.w.w.R 1X1X1Xq $ E E W W W E W E R E W -X1X1X1X1X9 C C C W w.w.w.w.w.w.w.q.w.w.R F.D.F.F.F.Q.F.A.} Z D U U E E E E E W W W W W W W W W W W W W W w.w.w.w.].1X1X1X1X1X1X<X<X<X1X,X1X<X1X1X1X1XC.1 & 1 1X<X,X<X1X# $ $ $ w.E W E 1X1X1X1X1X2 1 1 <X1X1X1X1X1 & * r ;X&X#X;X4 #X<X<X1X1XS V Z M 1X1X1X1X1X1 * * 3 1X1X<X1XI.5 5 N U y.y.e.u.1X<X<X1X9 4 5 4 &X1X1X1X1X1 1 8 8 D W w.W W W @X-X=X&X#X+XXX(.'.[.$X$X).W W W w.w.w.w.e.R 1X1X1X1X1XZ C V Z W W E E R L <X1X1X1X#X#X=X=X#X#X@XOXXX<.6.7.7.D U I I 1X<X1X1X1X<X1X1X1X1X1X1X1X1X1X1X1X1XD Z N 5 E W W W L 1X1X1X1X<.5 5 5 C q.W W W W q.w.1X1X,X<X1X& * * $ b.1X1X1X1X1 5 5 4 U E W W M.1X<X,X1X& 8 8 5 1X1X1X1X1X< * * & w.t.u.i.-X1X1X1X1XW U U U W W W W W q.W W W w.W W q.w.W q.W w.W W q.w.W w.w.w.w.W w.W w.W e.W w.W w.W w.W w.W w.w.W W w.w.W W w.w.W w.w.w.W W w.w.W W w.W ~ W w.W w.W w.W w.w.w.W w.W e.w.W w.W W w.W w.W W W W W W e.w.W W W W e.~ W W W W W E U T Y 1X;X,X,X|.6.k.6.6.%.1.1.6.p i i i                                                                                                                                                                                                                                                                                                                                                 ;X;X;X;X%.k.k.%.k.%.k.%.%.%.k.k.%.%.k.%.%.%.%.%.%.%.%.%.%.%.%.%.%.k.%.l.k.k.k.k.v.v.v.v.T.G.v.d y y y y ",
":X;X:X;X$.1.1.1.k.k.k.k.k.k.k.k.k.k.%.k.k.%.%.%.6.%.k.%.%.%.*.%.k.k.k.$.k.k.k.$.#.#.k.k.#.O.+.#.#.#.+.y i i i i W W W W W W W T Q W W W W W ;X1X1X1X1X& # $ & & & * & S D U E W W R 1X1X1X1X=.* * 1 R W W W W W W W [.1X1X<X1X& # + 1 ~ W E E 1X1X1X1X# # Z 1X1X1X1Xs 1 1 1 S W W W U 1X1X1X1X* $ & U.<X,X,X<X& = * * 5 5 4 4 <X<X<X<X1Xq.q.R ^.].{.+Xq.w.e.w.q.w.W W W W w.W W W q.W w.q.W w.W w.W W q.W D S & 1 # # $ P.<X<X<X<XE ~ T Q E W Q W E W ~ E T T E S -X;X;X=Xk.k.k.k.l.k.k.%.k.d i i i y Y U E U E W W W W W W W W W W E W W E W W W W W W W W W W W q.W W W W w.W W W W W W W W W w.W q.W W W W w.W w.W W W W w.W W w.W w.W w.w.W W w.w.W W e.W w.W W W w.q.W W W W w.w.W W W w.W W w.W W W W W W W E q.Q W W W W W Q q.W W W W d.1X,X,X<X& % # # 8 Z N C G 1X<X1X1XL E T ] 1X<X1X1Xo.8 1 2 N E W W R 1X1X1X<X1X1 2 1 C 1X1X1X1XX.5 4 4 5 W q.W E 1X1X1X1Xw.W w.W 1X1X1X1X+.2 1 2 * 2 2 1 2 1X1X1X1XV C S V OX1X1X1X1X& 1 4 1 W W W W W w.W W W W W W W W W W W Q W W W W W W q.q.W W q.W W q.w.W w.Y U Y D D & # & # 1X<X<X1XE Y Y L 1X1X1X1XV.# $ # # & & < < D S q.q.w.w.w.w.1X1X,X<X1X4 5 4 1 T w.w.w.1X<X1X1X1Xw.q.q.M.1X1X1X1X/ Z Z V U w.w.w.R 1X1X1X1X` S V S <X<X,X<X1X& * $ & 5 C N Z <X1X1X1X1Xq.q.w.w.w.w.R 1X1X1Xq & I W W w.W W W W w.W W &X1X1X1X1XA S S S E w.w.w.W W W W W W E W U D O + + & & < 1 E E E E w.q.w.q.q.W w.q.W q.w.W W W q.W W W W E W w.W '.1X1X1X1X< < 1 1 * $ $ $ # 1X1X1X1XP.1 1 1 1X1X,X<X1X# $ * $ r.W W W 1X1X1X1X1X1 1 1 ;X1X1X1X1X* & * * & # $ % C #X1X,X<X1XU D I B 1X1X1X1X1X1 * * 3 1X<X<X1XQ.V S S U w.w.w.w.1X<X1X1XJ Z C 5 =X1X1X1X1X1 4 1 4 Z W q.W W W R U S S 1 1 1 1 1X1X1X1X%Xw.W w.w.w.q.w.w.R 1X1X1X1X1XD D S S E T E T E L ,X<X1X1X+ * $ = 1 1 4 5 < 1X1X1X1XE W W W 1X1X1X1X1X2 * * = 2 5 4 2 1X<X<X<X1XL V Z 5 E E W W I 1X1X1X1X<.8 5 C S W q.W W W w.w.1X1X<X<X1X* 1 * * h.1X1X1X1X1 5 1 4 D W W W M.1X,X<X1X3 C N 8 1X1X1X1X1X1 1 1 * w.w.w.w.-X1X1X1X1XT T U U W W W W W W W W q.W w.W w.q.w.W w.w.w.W w.W w.W W w.W W w.w.W w.W W w.W w.w.W W w.w.W w.W W W W W W q.w.W w.w.w.W w.w.W w.w.q.W w.W W w.W W W w.W W w.W w.W w.W w.W w.W W W W W q.W W W W W W ~ W W W W W W W W W W U E U E >X<X,X,X~.*.k.*.k.$.%.%.$.i i i y                                                                                                                                                                                                                                                                                                                                                 ,X;X,X,Xk.%.*.k.%.*.*.%.%.k.%.k.%.%.%.k.%.k.k.%.%.%.k.%.#.k.#.k.#.k.k.l.l.l.l.z.T.v.T.T.G.G.v.a y > y y ",
",X:X,X;X%.1.1.%.%.k.k.k.k.k.k.k.k.k.k.%.%.%.k.k.%.k.%.%.%.k.%.k.k.#.k.#.k.$.k.k.k.#.#.#.k.#.#.#.O.#.#.i i i i s W W W W W W W W W W W E W E &X1X1X1X1X# # # # # & $ & D I I E q.w.W 1X1X1X1X-.* * * E q.E W E E E E .X1X<X<X1X# # # 3 E T E U 1X1X1X1X& $ D 1X1X1X1Xt 1 1 < N w.W W D 1X1X1X1X* & * Y.1X,X,X<X# & * & 5 M 5 5 1X1X,X<X1Xe.w.W ^.[.{..XR q.W W w.q.q.W q.W W q.W W W W W W W W w.W w.w.w.w.S Z & 1 + @ $ ^.<X<X<X<X3 W W W W W W E E E E T T T T I =X;X-X;Xx.k.k.k.k.k.%.%.%.c y y i y E E T E T W W E W W W W W W W W W E W W W W W q.W W W W W W W W W q.W W W E W W W W W W W W W W W W q.W W W W W W w.W W w.W W w.W w.W W q.w.W W w.W W w.W e.W W W W W W w.W W W W w.W q.W W W W w.W w.W W W W W q.W W E W q.E W W E W E i.1X,X,X1X$ $ # % Z C C C Z 1X<X1X1XV T U T 1X1X1X1X5.8 4 5 5 W W W R 1X1X<X1X1X6 5 2 A 1X<X1X1X..4 1 4 4 W W E R 1X1X1X1XW W W E 1X1X1X1X} & & * * 1 2 3 2 1X<X<X<XS D V Z @X1X1X1X1X& 5 1 1 W W W W E W W W E W W E E W E W W q.W W W E W q.Q q.W w.W w.w.W w.w.W U U D U U & # & # 1X1X1X1XU E W R 1X1X1X1X=.# # @ # & & & & Z Z E W w.w.w.e.1X1X<X<X1X4 5 4 1 T w.w.q.<X<X<X1X1Xq.W q.M.1X1X1X1XK V C Z U w.w.w.R 1X1X1X1X` V D S <X<X,X1X1X& * & * 5 5 N 4 <X1X1X1X1Xq.W w.W q.w.R 1X1X1Xq # D E E w.q.W w.W W W q.&X1X1X1X1XD Z Z Z E W W W q.W q.q.q.q.W E W W & # # & * < < U U U U E E W W W W W q.W W W W w.W W W W W q.W W W q._.1X1X1X1X& * < * * # # # @ 1X1X1X1XA.1 * 1 1X<X,X:X1X# $ $ $ w.E W W 1X1X1X1X1X5 1 1 ,X1X1X1X1X< * * 1 # # # # Z OX<X,X1X1XD I D V 1X1X1X1X1X1 * * 3 >X<X<X1XW.V S V D R W q.w.<X1X1X1XA N 5 N &X1X1X1X1X1 5 5 8 D w.w.q.W W Y U S V 1 & * = 1X1X1X1X%XW w.W q.W W W W L <X<X1X1X<XS S S D E W W E W R <X<X<X1X# = * < 1 3 4 1 & 1X1X1X1XI E I E 1X1X1X1X1X$ # # # 1 1 1 1 1X1X<X<X1XU D S S W W E W L 1X1X1X1X5.N C 8 S q.w.q.w.W w.r.1X<X<X<X1X1 * * * h.1X1X1X1X1 1 5 1 I W W W B.1X<X<X<X4 Z Z C 1X1X1X1X1X3 1 1 < W w.w.w.,X1X1X1X1XW T U U q.W W W w.W W W W W W W w.W W w.W W q.q.W w.W w.w.w.W w.q.W w.w.w.w.W w.W W w.W W W w.W W W W W w.W W W w.W w.q.w.W W W W W W W W q.W W q.q.W W w.W w.q.W w.W w.W w.W W w.W w.W W W W W W W W W q.W W W W W w.W W W Q T T T 1X,X,X,X!.*.k.*.*.%.$.%.$.p i i q                                                                                                                                                                                                                                                                                                                                                 ,X;X;X;X%.k.*.%.%.%.*.*.%.%.%.%.%.k.%.k.%.%.%.%.%.k.$.%.k.#.k.#.k.#.k.x.l.v.l.v.T.T.T.v.v.v.G.a y y > > ",
":X;X,X,X$.1.%.%.%.k.x.k.k.k.k.k.k.k.*.*.k.%.k.%.k.6.%.6.k.%.%.%.k.k.#.k.k.k.$.k.#.k.#.k.#.#.#.#.#.#.#.y i i i s E W E W T W E W E W W W W ~ ;X1X1X1X1X$ & # & & * < & I U Y E W W R 1X1X1X1X&.* * $ Y W E E W E W W $X1X<X1X1X* # # 4 E T E D 1X1X1X1X# # S 1X1X1X1X0 < * * C W E W S 1X1X1X1X1 < 2 '.1X,X<X1X# = * * 5 5 5 5 1X1X<X<X1XE E E R.^.(.(.R w.W w.q.W W W W W W q.W W W W W W W W w.W W W W W S V 4 5 N N C /.1X<X<X1X$ ~ W W W W W W Q W W U T T T S -X=X=X;Xk.k.k.k.k.k.%.k.k.a y i y i Y E E E E E E W W W W W E W W W W W W W W W W W q.W W W W q.W W W W q.W W W W W W q.W W E W W W W w.W q.W W W W W W W W ~ W w.w.W W W W W W W w.W W w.W W W W W W W W W W w.W w.W w.w.W w.W W W W W q.w.W W E W W E W W E W W q.E E E E i.<X,X,X1X+ @ + @ C C C N 9 1X<X1X1X< 5 5 D 1X1X1X1Xo.5 1 1 4 E E E R 1X1X1X<X1X1 1 1 8 <X<X1X1X^ 1 1 1 4 q.W W E 1X1X1X1XY T T E 1X1X1X1X} * * * 1 4 4 1 2 1X1X<X1XD D J D @X1X1X1X<X& 1 1 * E W W W W W W W W E W W W E W q.W W W W W q.W W W W q.W w.W w.w.w.w.w.U Y U D Y # # # + <X1X1X1X1 6 1 R 1X1X1X1X-.+ + + # # $ & # C C I E E E W w.1X<X<X<X1X5 5 4 5 W w.e.e.1X1X<X1X1XW W W g.1X1X1X1XF N Z N I q.w.w.P 1X1X1X1X' S D U 1X1X,X1X1X* = * * 5 4 4 4 ,X1X1X<X1XP E W E E E L 1X1X1Xq # Z W W w.W W W W R w.W %X1X1X1X1XD Z Z Z W W w.w.w.w.W w.W E E E E E N 5 & & & C D I T I E E W W W W W E q.W E W W W W W W W W W W w.w.w.'.1X1X1X1X< 1 1 1 1 & & # + 1X1X1X1XC.* & & <X,X,X,X1X# $ $ $ T E R E 1X1X1X1X1X4 4 4 <X1X1X1X1X1 1 1 1 & # # # Z OX<X,X>X1XL D S M 1X1X1X1X1X1 1 * 3 1X1X<X1XY.S D D D W W W E 1X<X1X1XH N N C &X1X1X1X1X4 8 9 8 D w.w.w.w.w.Y I I N & # & $ 1X1X1X1X$XE E E E E E W W L <X1X1X1X1XD D D D W W W W W L 1X<X1X1X# * * < 1 5 3 1 < 1X1X1X1XN N S I 1X1X1X1X1X# + # + 1 1 5 2 1X1X<X<X1XU D D S W W W w.R 1X1X1X1X<.C 5 8 C W W W W W W w.1X1X<X<X1X* * * $ s.1X1X1X1X5 4 1 4 Y E W E B.1X<X<X1XM Z Z C 1X1X1X1X1X< < * * E w.W w.,X1X1X1X1XT T U U w.W W W W W ~ W W W W W E W w.W W W E W W W w.W W q.q.w.W W w.W w.W w.W w.W W w.W W W W W W W W W W W q.W W W W w.W W q.W W W W W W W w.W W W W W W w.W W W W q.w.q.W W W W q.W W W W W W W W W W W W W W W W E W W T T T T >X,X,X,X!.*.*.*.*.$.$.$.%.p i i i                                                                                                                                                                                                                                                                                                                                                 ;X,X;X:X%.k.%.k.%.k.*.%.%.k.%.k.%.%.%.%.1.%.%.%.%.k.k.$.O.k.O.k.k.O.k.k.l.l.l.v.T.T.v.T.G.v.v.d > y y > ",
",X:X,X,X%.%.1.%.k.k.k.k.k.k.k.k.k.k.%.k.%.k.%.k.k.%.6.6.6.%.k.%.#.k.k.k.#.k.#.k.#.k.#.#.#.O.#.#.#.#.#.i i i i i E W W T W W T T W E T E E W &X1X1X1X1X& & & # S S C Z I U U E E E R 1X1X1X1X-.= * 6 Y w.w.r.w.W W r.%X1X<X<X1XC 5 N F ~ E T V 1X1X1X1X& 1 I 1X1X1X1Xr 1 3 1 U t.y.] Y 1X1X1X1X* * 1 Y.<X,X,X<X# & $ # 1 1 1 3 <X<X<X<X1X~ T E ^.[.+X[.R ~ W W W W W E W W E Q W W W W w.W w.e.w.W W W R R 4 4 1 1 V D V P.1X,X1X1X& ~ W W ~ W ! E W T E U U T Y S -X=X;X=Xk.k.k.k.k.%.k.k.%.d y i y q Y I T U T W W W E E E W E E E E E E E E W E W W Q W E W E E E E W W q.Q W E W W E E W W W W W W Q W W E Q Q W E T E E T E W Q E W Q W E E W W Q W W W W W W W W W W E W W W E E W Q q.Q W W E W W W Q E W E W Q E E W E W W Q W E W W ~ a.1X,X,X1XO @ O O C 5 3 3 3 1X<X<X<X< 5 1 S 1X1X1X1XX.8 4 C D w.R R I 1X1X1X<X1XZ Z C S <X<X1X1XH 5 5 4 5 ~ E E U 1X1X1X1XT W ~ W 1X1X1X1XX.1 1 1 * 1 < 5 3 1X1X,X1XC N Z C #X1X1X1X1X< 5 1 1 ] ~ ] ] ~ W U E W W E E E W W Q q.W W W W E E q.E W W W W W r.W W E W U I D D T * & & # 1X<X1X1X1 1 1 I 1X1X1X1X@.+ + + + 5 8 r 8 U U T ~ T E E E 1X<X,X<X<X3 5 N A t.t.y.[ 1X1X1X1X1XW q.R u.-X<X<X1XA M N C E w.e.w.L 1X1X1X1X' S D U 1X<X,X1X1X& $ & & 5 5 3 4 <X1X1X1X<XR T T U Y R R 1X1X1Xv e S E w.w.w.w.W w.w.w.w.-X1X1X1X1XA C Z C U E E T E E E E W E W E E W 5 V N C D Q Y E E U E W W W E W E q.W E W W W E W W Q W W W w.w.w.w.].1X1X1X1X< 1 < 1 < & & & # >X1X1X1XA.1 1 1 1X1X,X<X1X* = * * W W ] ] 1X1X1X1X1X5 4 4 ,X1X1X1X1X1 * * < 4 4 5 1 D #X1X,X1X1XS S D M 1X1X1X1X<X1 1 < 3 1X,X<X1XP.S V S D E R E E <X1X1X1XH 5 5 5 %X1X1X1X1X< 1 5 9 V W W W E R I I I I 4 1 * 1 1X1X1X1X,XY W w.w.w.w.W W P 1X<X1X1X1XZ Z S D W W W E Q L <X<X<X1X+ # $ $ * < 1 < < 1X1X1X1X4 S D Y 1X1X1X1X1X1 & & & 1 4 4 5 1X1X<X<X1XF S Z C E T T W I 1X1X1X1X<.5 8 8 S W W W W W W W 1X1X<X<X1X1 1 * * s.1X1X1X1X9 C A A _ r.W W U.1X1X,X<XN S Z Z 1X1X1X1X1X4 1 1 * W W E W ,X1X1X1X1XT U U F E W E W W W E Q W W W W W W W W W W W W W W W W W W W W W W W W W W W W W E W W W W W W W W W W W E W W W W ! W W W W W W E W E E W W E Q E E W W W Q W W W W Q W W E W W Q W E E q.Q E E W E W W Q W Q W W E W W E U U U T >X;X,X,X!.*.*.k.*.$.$.$.$.p i y i                                                                                                                                                                                                                                                                                                                                                 ,X,X,X,Xk.%.k.%.%.%.%.k.%.k.%.%.%.k.k.%.%.k.k.%.%.%.%.%.k.#.k.#.k.k.k.v.l.z.v.v.T.T.E.v.G.G.v.p > > > > ",
",X;X:X,Xk.k.k.k.k.k.k.k.k.k.k.k.k.k.%.k.%.k.%.%.%.k.%.6.k.%.%.1.k.#.$.k.k.k.k.#.k.#.#.#.k.#.#.#.+.#.#.i p i i r U T T U U U U F U D U U U U &X1X1X1X1XN D U U T T T U T E E T E E Y 1X1X1X1X1X1X1X1X1X1X1X<X1X1XF S I D D S S 1X1X<X1X<X1X1X1XW ~ 4 & < Z E E E U U <X1X1X1X1X<X1X1X=X4 1 = * * 2 1 Y.1X,X,X:X3 N C 5 W W W w.1X<X<X1X1X5 5 4 1X<X<X1XV U U U E U E U U U U U U Q Q U E U E E T 1X<X1X1X1X1X1X1X1X1X1X1X:.1 = * * 5 T U U U D U F D U U D F U D S =X;X-X;Xk.k.l.k.l.k.k.k.k.c i y y y U U U U D Q I U D Q D U D I U U I I U D I U U U U U U U U I D U U Q U U U U U I U U U U U D U U U U U U U U U U U U D U U U U U U U U U U Q I U U U U U U U U U U U U U U U U U U Q U U U U U U U U U U U U U U U U U U U U U U U U I U i.1X1X1X1X1X1X1X1X1X<X<X1X<X4 5 8 4 N 8 8 S T E T E <X1X1X1X1X1X1X<X1X< * * = 1 S S D D E T E I <X1X<X<X1X1X1X1X1X1X1X1XI.Z Z S F 1X1X1X1X..Z Z C C E E E P 1X<X1X1X1 1 1 1 @X1X1X1X1X1X1X1X1X1X1X1X1X1X1X1XW U T E U E U U U U E E U E U U U U U E T E E 1X1X<X1X1X1X1X1X1X1X1X1X1X1XD S S C C C C 4 1X1X1X1X1X1X1X1X1X1X1X1X1X1X1X1X1Xh.I I I I U U D V 1X1X1X<X1X1X1X1X,X;X*X[ E R E E E T T T E 1X1X1X1X1X1X1X1X1XN 5 2 1 4 C D I ,X<X<X1X1XM S S S W W W W <X1X1X1X1X3 5 N U 1X1X1X1X1X1X1X1Xh.i.' E U U U U U U U %X1X1X1X1XZ C C 8 D U T U E U E T E E E W W E 1X1X1X1X<X< 1 U Y E E U E U E U U U E I Q E E U E E E E U E E T T I _.1X<X1X1XM N S S D W W q.Y 1X1X1X1XA.8 N C 1X1X1X1X1X1X1X1X1X1X1X1X<X3 1 1 1 * C S S <X1X1X1X1XN 4 4 N R E E E R ,X<X,X<X1X5 1 1 < 1X1X1X1X<XN 5 4 M <X,X1X1XI.S S V S R U Q T 1X<X1X1XG 5 1 1 *X1X1X<X1XS S Z Z M 1X1X1X1X1X1X1X1X1X1X1X1X1XV F 9 1 1 6 6 E E E T E T L 1X<X1X1X1X1 1 1 2 I U D U U B <X<X<X1X< V C C D U U E L 1X1X1X1X& * * 6 1X1X1X1X1XE U U D T E E E 1X1X<X<X1XC 5 8 5 U U U U L 1X1X1X1X..8 5 8 C R E E E Y E W 1X1X<X<X1X2 1 1 1 W T T T U 1X1X1X1X1X<X1X1X&X1 * $ $ S S S D 1X1X1X1X1X1 1 1 & I U I I -X1X1X1X1XT D D D U U U U U U U U E U U U U U U Y U U U Q U U U U U Q U Q U U U U U I L Q I Q D U U U T Q U U U U U U U Q U U U U U U U U U D I Q D I U U U U U U U U I Q Q U U U U U U U U U U Q D L Q U D I U U U D Y U U Q U U U U D D U F 1X,X,X;X!.*.*.*.*.$.$.%.$.s i i i                                                                                                                                                                                                                                                                                                                                                 ,X;X;X,X*.6.k.*.*.%.*.%.k.%.%.%.k.%.k.%.%.%.%.%.k.$.%.k.k.k.k.k.v.x.v.T.G.R.G.T.T.v.T.T.v.v.G.a > > > > ",
":X,X;X,Xk.k.k.k.k.k.k.k.k.k.k.k.1.k.k.%.k.%.k.%.*.%.1.%.%.%.k.%.%.k.k.k.k.#.k.k.#.$.#.k.O.O.#.#.#.#.#.i i i i i T T U T U U U U U D U D U U &X1X1X1X1XN D U U E E E E E E E E T E R 1X1X1X1X1X1X1X1X1X1X1X<X1X1XA 8 D D D F D 1X1X1X1X<X<X1X1XW F 1 & 1 S E T W E Y <X1X1X1X1X1X1X1X<X4 1 1 6 6 1 1 W.<X,X,X1X3 C C C w.w.e.e.1X<X<X<X1X5 2 1 [._.n.2.V D D D E E E E U E E U E E U E Q E Q E U 1X1X1X1X1X1X1X1X1X>X<X1Xo.1 * * * Z U U U U U U U U U U Y Y F Y S ;X;X;X;Xx.l.k.k.x.k.k.k.k.d y y i y I Y D U U D I U Q L Q I U D U U D U U U U L Q D U U U U U I U U I U U L Q U U D U D I U D I U D U U L U U U U U U U U U U U U U U U U Q U Q D U U U U U U U U U U I U U U U U U D I U I U U I U U U U U U U U U U U U I D U U U U U U U 4.1X<X1X1X1X1X1X1X1X1X1X1X1X1 1 1 1 9 5 4 Z T T Y I <X1X1X1X1X1X1X1X1X< 1 1 1 6 Z D D D E E U T <X1X1X1X1X1X1X1X1X1X<X4.D 1 9 4 S 1X1X1X1X( N C N C W W W E 1X1X<X1X5 6 6 2 #X1X1X1X1X1X1X1X1X1X1X1X1X1X1X1XU U U U U U U U U U U U U U E E E U E Y E E T <X1X1X1X1X1X1X1X1X1X1X1X1X1XV N 4 8 4 4 5 3 1X1X1X1X1X1X1X1X1X1X1X1X1X1X1X1X1X2.S D U I U U U V 1X1X<X1X1X1X1X1X-X%XU.U T W E W E E E E E 1X1X1X1X1X1X1X1X1X5 1 * * 8 C D I <X1X<X<X1XM S S S E W W W ,X1X1X1X1X< 4 Z F 1X1X1X<X<X1X1X<XF ! F T Y U U U U U U %X1X1X1X1X8 Z Z Z U E E E E E E E E T E E E R 1X1X<X1X>X1 < D T U E U E U E E E E U E L E U E U U E U Q L U T E E _.1X1X1X1XM D S S U W W W R 1X1X1X1X0.N 5 C 1X1X<X1X1X1X1X1X1X1X1X1X1X& 1 1 1 * S S I <X1X1X1X1X5 4 5 5 W W W E T ;X1X<X<X1X2 1 1 & 1X1X1X1X<X5 4 5 M <X<X<X1XI.C C C D E E L U 1X<X1X1X9 2 1 = &X1X1X1X1XZ Z S Z M 1X1X1X1X1X1X1X1X1X1X1X>X1XM Z 1 1 * 4 1 E Y E I E Y B <X1X1X1X1X1 1 1 4 E U E U Q V 1X1X1X1X< C C N D E E W L 1X1X1X1X# * 2 6 1X1X1X1X1XD V S S U U E R <X<X1X<X1XC 8 5 8 T T T T I 1X1X1X1X..8 5 4 8 Y T Y T E T T 1X1X<X<X1X1 1 1 1 Y U U U F 1X1X1X1X1X1X<X1X<X1 = * * Z S Z D 1X1X1X1X1X< * * * E R E E ,X1X1X1X1XT U D D T U U E U U U U U U U U U U U U U U U U U U U U U L Q Q U U U I Q Q D Q I U U U U U U U U U U U U Q U U U U U U U D I Q U L D I Q U U U D U U U I D U D I U U U U U U U U D D D U U S D U U D D U U U U U U U U U U U D D D >X,X;X:XQ.*.*.*.*.#.#.#.$.i i i i                                                                                                                                                                                                                                                                                                                                                 ,X,X;X,X%.*.%.*.%.k.*.*.%.*.k.%.%.%.%.%.%.k.k.%.%.$.%.k.k.k.k.k.x.v.x.T.G.G.T.G.G.T.T.v.v.G.v.d y y y > ",
",X,X:X,X1.k.k.k.k.k.k.k.k.k.k.k.k.k.%.k.*.k.k.%.6.%.*.*.%.k.%.6.k.%.k.#.k.$.#.k.#.#.O.k.#.O.O.O.+.#.+.i i y i i T T U U U U U U U U U U T U &X1X1X1X1XN U T U E E T E E T E E U E I 1X1X1X1X1X1X1X1X1X1X1X1X1X1Xr * D U U U T 1X1X1X<X1X1X1X1XD 2 * $ * N T U I D I ,X1X1X1X1X1X<X1X<X1 * * 1 8 C C '.<X<X<X1X3 C C 5 W E E W <X<X<X<X1X5 2 5 W W I S C N 5 5 U U I U U U L U U U E U E E T T U 1X1X<X1X1X1X1X1X1X1X1X1X$.1 1 1 1 U T T T U U U U U D U D F F Y S =X;X;X;Xl.k.k.k.k.%.k.k.k.d y y y y I I U D D U D D U U I I Q I U D U D U D U D U D U U U I U U U Q D D Q U U U U U U I U I I I U I U Q D U D I U U U U U U I U U U U U U U Q U U I U U U U U U U U U U D U L U I Q L D Q U U U U U U U U D I U Q D I U I U Q U Q Q U I I D p.1X<X1X1X1X1X1X1X1X1X1X1X1X1 1 6 5 8 8 C D E E E E <X1X1X1X1X1X1X1X1X& 1 * 6 1 D D S S Y E E E <X1X1X1X1X1X1X1X1X,XY S D * * 5 4 1X1X1X1XK C Z Z Z w.w.e.e.1X1X1X1X1 5 5 2 @X1X1X1X1X1X1X1X1X1X1X1X1X1X1X<XC S U U I U U I Q U E U E I E U E I E U E T T <X1X1X1X1X1X1X1X1X1X1X1X1X1XN C N 4 4 5 4 1 1X1X1X1X1X1X1X1X1X1X1X1X1X1X1X1X1X<.N S U U I I U V 1X1X1X<X1X1X1X1Xg.U 4 N S T I I U U D D U ,X1X1X1X1X1X<X1X1X6 1 1 1 U E I U <X<X<X<X1XM V S D Q W W E -X1X1X1X1X< < 1 S <X1X1X<X1X1X1X1XA ! ! W E E E E T I U =X1X1X1X1X8 Z Z Z U E E U T U U U U U U U U I 1X<X1X<X1X0 1 U R E E E E E E U E U I U U U E U E U E U E E T E E E '.1X1X1X1XC D U D I W W E R 1X1X1X1X5.1 4 1 1X1X1X1X1X1X1X1X1X1X1X1X1X* 2 1 1 1 D D D 1X1X1X1X1X4 1 3 5 w.W W E D &X<X<X<X<X1 < 1 & 1X1X1X1X1XN C C M 1X<X<X1XQ.C 5 C Z I I R I <X1X>X1X5 1 1 1 =X1X1X1X1XZ Z Z Z M 1X1X1X1X1X1X1X1X1X1X1X1X1X5 6 6 1 4 8 8 E E E T E I L <X1X1X1X1X1 1 * 1 I E U U Q V 1X,X1X1X3 Z C C D E E W L 1X1X1X1X+ * * 1 1X1X1X1X1XD D D D E E E E 1X1X<X<X1XZ C 9 5 W E E ! U 1X1X1X1X^ 8 5 4 N U E U U U I R <X<X<X<X<X1 * * * U U U U U 1X1X1X1X1X1X<X1X,X< * * * D D D Y 1X1X1X1X1X1 1 1 1 E E U I -X1X1X1X1XT D U D T I T U U I U U U U U U U U U U U U U U U U U U U U U U U U U U U U U U U U U U U U U U Q U U U U U U L Q D I I U I I I D I Q L D D U U U U U U U U U U I Q U U U U I D U U U D Q D U U D U I U U Y D U U U U U U I D D U D 1X,X,X:XQ.k.%.%.k.#.#.$.#.i > i >                                                                                                                                                                                                                                                                                                                                                 ,X,X,X:Xk.%.%.*.k.%.%.*.%.%.k.%.%.%.k.%.%.%.$.k.$.k.$.k.k.k.k.x.x.x.x.T.T.T.T.G.T.T.H.v.G.v.v.c y > y > ",
":X:X:X;Xk.k.k.k.k.k.k.k.k.k.k.k.k.k.k.%.*.k.*.k.%.k.%.6.*.*.1.*.#.k.k.#.k.k.#.k.#.#.#.$.#.#.O.O.#.$.$.y i i p i E U U U F U U F U F U U F U +X1X1X1X1XN Z U F U U U U U U T U U U L <X<X1X1X1X1X1X1X1X1X<X,X1X1Xr 1 N Y U U T 1X1X<X<X<X<X<X1X* $ * * 1 5 U U E U U ,X1X1X1X1X1X<X<X1X1 * & C Z S V '.,X,X,X,X3 C C C w.w.w.W <X<X,X,X1X5 1 1 I I S V 2 1 1 5 D D Q L U U Q I U U U U U U U U I <X<X<X1X1X1X1X1X<X<X<X>X| 1 1 1 2 F U U U U D U U D U D Y D S Y S -X;X;X-Xl.k.l.k.k.k.k.k.%.d y i y > I D U U U I U I D I D Q V D U U U U U Y I U U U U U D Q V Q U I I I I U D U I D U I D I D D I D U I U I Q D U U D D U U D U I D Q D I D L U U U U I I D U U U I D U U U D U U I U I L U U D U U U D U U U U L L Q D U I I U L V U D U I i.1X<X<X1X1X1X1X1X1X<X1X1X1X1 * 1 1 5 6 C S E U I I ;X1X1X1X<X,X1X<X<X& * 1 1 1 D D D D E U I R *X<X1X<X<X<X1X1X1XU D D U 1 4 Z Z 1X1X1X1XH C C N C Q E E E <X<X<X<X< 1 1 2 OX1X1X1X1X1X1X1X1X1X1X1X1X1X1X,XC C D D I D L Q L U U U U U U E U E U E U E Y ,X<X<X<X1X1X1X1X1X1X<X<X1X1XN 4 4 5 C 8 N 3 1X1X<X<X1X1X1X1X1X1X1X1X1X1X1X1X1X$.5 C U I U U T L 1X1X1X<X,X<X1X<X& < 2 1 N U U U U D U I I ;X1X<X1X1X<X<X<X1X8 5 1 8 E R E T 1X<X,X<X<XB C Z V U U U T @X1X<X1X>X& * 4 S <X<X<X<X<X<X1X1XC F T E W W E E E E W &X1X1X1X1X5 N 5 5 S D D U D U U U U U U E E R 1X1X<X,X<Xe 5 U E E U Y E U I U I U I E U E L U U U U U R Q E E W W ].1X1X1X1XN S S Z S E R Y L <X1X>X>X=.1 1 4 <X,X<X<X1X1X1X1X1X<X1X1X1X1 8 4 6 4 I I I ,X1X1X1X1X< 1 * 1 U U U I S @X,X;X<X1X5 1 1 < 1X1X1X1X<XC 5 5 M 1X,X,X,XF.5 3 5 C U I I I ,X,X1X1Xe 5 1 1 &X1X1X1X>XC N C C M <X1X1X<X1X1X1X1X1X<X<X>X>X< 1 2 * 1 D S U U U U U E B <X<X<X1X1X2 6 4 5 U U U U D B ,X,X,X,X& 5 4 5 C I I I B ,X1X1X1X& 2 5 8 1X1X<X<X1XU D D S E E T W 1X<X,X,X1XC 8 5 2 U U D D V 1X<X<X1XH 1 1 1 5 U U U U D U Y 1X,X,X,X1X1 1 1 1 T T Y U T 1X1X1X1X<X<X<X1X;X4 1 6 1 D D Z D 1X1X1X1X1X1 < * * I E E U &X1X1X1X1XU D D D U U U U U Q I U U U U U U D U U U D U U U U U U U U E U U U I U I U U U U I U U U U I U U U U U U U U D U D I D I D D D I D U D Q D I U U D U U D I D U U D I U U Q D D U D L D I D D D U D D U D D Y U D U D D U Q V D D F >X;X,X:XR.%.%.@.%.#.#.#.O.i i > i                                                                                                                                                                                                                                                                                                                                                 ,X;X;X,X*.*.k.*.%.*.*.*.k.%.%.%.%.k.%.%.%.%.k.$.k.$.k.k.k.k.k.l.v.x.x.E.G.T.G.T.G.T.T.G.v.G.v.a y y > > ",
";X,X,X,Xk.k.k.k.%.%.@.%.%.#.$.$.O.#.%.k.k.k.%.k.*.%.*.*.%.*.%.1.#.#.#.#.#.#.#.#.#.#.k.O.#.k.$.#.%.%.%.i i q i i U T U U D D D D D S S S D S F A F Z S N N C C D D D U D D D U U U U U Q T T H e e e 7 7 0 : - - 1 1 U D S S S D D J J G 7 0 : M Z V U D U U I U Y Y _ ! / K H 7 0 0 : & * S S S S S Y T K J F V S S Z R Y I U K Q Q Q Q I S S V D V C C S S C D D D D V U D D D I D D U D U D L T T U Q e 0 0 : - : : - 2 4 8 S S D D S D D Z D S S Z Z S D S F C ;X;X;X;Xx.l.l.l.l.k.%.k.k.a y y y > U D U D I V Z V Z Z S Z V S S C C S S S S S S S S S S S S V S S S S S S S S S S S S Z S S V Z V Z Z S V Z S V Z S S S S S Z V C S S S S C S S S S Z S N S S S Z S N S S S C S S S C V S S S S S C S S S S S S V S S N S S S S S S S S S S D J J J 0 7 - 0 7 7 e 9 t S S D S U T U I Y Y Y U T F F G G 0 0 7 : 8 8 C C C D S D S D I D I U U J J G 0 0 7 0 N N C 8 E I U I Q T F Q S S S S S I I I V J Z J F Z S C C F F F D A = 0 : 0 7 0 0 0 q e 9 C C Z S D D V S D D D V S D S S S D I S S D S U Q D Q T - - - - - - - : = 1 * C S S D D I F K F J e e e 0 0 7 0 7 0 9 e e 9 8 Z C C D D I D S Z A 9 9 0 = = 2 < 1 4 S D S I D U I U I E T T F J J 0 : 7 : C 8 Z D I I I D J J G Z G N 5 5 5 V D D I F F F J F I U U U W ~ T ! W e e e S S S I Y U I U U U U F Q J J J N C C C V S S D V D D D D U I I I I e G 9 e e N I I I U I U D D S I S D D V S S J D D L D D I D D D D D D J G Z Z N C N C C V S S V Z 9 9 G C Z C S K F Q K Q 0 9 0 e : : : - 1 2 Z F U D S V F F Z Z G V 5 4 N S D I D D F T J F T I D S D ! T Q J F C S N N A J J C G V C S S D L U L J K H J D N Z N ! J F Z G V S S S D Q Q T ! ! 9 0 0 7 - - : : 5 1 D F U U U U U U I E I I J J J F K C C C 4 C S S C S V G F G D V Z Z N C V V D V A G e G S S D I _ ~ ! Q Q D U D S I I D L G G e G G V Z Z C S S S S V D G F D Z D S Z S Y Y Y I U U U J K J K K U D D D Y R Y I Y A J K H H : - - % 8 8 Z C D D D I K J D Q J S Z Z Z L D D V A 9 e 9 9 D D D D S D S D S D D S S D D S S S Z S S S S Z S S S S S S S S S D Z J S S S S S S Z V S Z S S S S V S S S S S S N C S C C S Z S S Z S S S S S S S Z S S N S S C S S S S C S Z S S S V C S C C S S S C S S Z S S Z S C S S Z Z C S <X,X;X<XE.k.k.$.k.$.$.#.#.i i i >                                                                                                                                                                                                                                                                                                                                                 :X;X;X:X*.*.%.*.*.*.*.%.*.*.%.6.k.%.%.k.k.%.%.k.k.k.1.v.v.T.v.E.T.T.T.T.T.G.T.v.v.v.T.v.v.T.v.d y y > y ",
":X,X:X:Xk.k.k.k.k.%.%.$.%.#.#.$.#.O.%.k.%.%.%.%.*.6.6.%.%.*.6.%.%.#.#.#.#.#.#.#.#.#.#.O.#.#.k.k.1.1.1.i p p p q Q U U U D S S Z Z S Z D S Z D S S S Z C C C C D U U D U U Y U D D Y I D I D 4 5 1 1 1 * * & $ # & & D D D I D D D U D C < 1 1 U D D U I D I D I D D S D S Z 8 & # & & * 1 I I U U U D D D D S S C C C I I D D D D S S D D U D I D S C S S S S S S D D D D D D S S D D D D D D D D D D U C * * & & & * $ 1 8 C S S S D S S D D S S S S D S D Z F C ;X;X;X;Xk.k.l.k.l.%.k.%.k.a y y y y U U D U D Z Z S S Z Z Z S Z Z S S C S Z C Z Z S C Z Z Z S C S S Z S S S Z S S S Z S C C S Z Z S C Z S C Z S Z Z S S Z S Z S C S S S C C S C S C S S C S C Z N S S S C C C C C C Z C S C C C C S S C S N S S Z Z S S S S S S S S S S C S Z V S S N 1 1 1 < 1 1 6 * 1 S S Z Z U U U U U U D D D S Z S N 1 1 1 1 D D D Z S D U U U U D U U D D C C 4 * & & $ 1 1 1 1 D S S S D S S V Z Z Z C C S D V I D S V S S D S S D D S D S < * 1 & * * * & & * 1 8 8 9 C S D D S S S S D D V S D D V D S D D S S D S S S # $ $ & & * & & & 1 1 S I Y I U U S Z S S 1 1 * 1 * 1 * * 1 4 5 4 4 C C Z Z D I D S D N N 1 1 & & * & * 1 8 Y Y U U U D D D I D D S N N C & & $ # 8 8 C D D D D S S S S S S C C N N I U I U D D S S Z E U U U I U I D D 4 4 1 8 C C S D S D D D S D S D S S S S S S S D D D D U D D D D S D D S D 4 4 4 1 1 4 S D D D D D I D D D D D D D S S V D S J D S S S S S D L S S V S S C N 5 C C S I I S N C N 4 N C S C S S D S D 1 1 < * $ # # @ * 1 C D D U U U D D D S S Z V Z Z S S V D D V V D S S S S S S C C Z S N C C C Z S V V C S D I L D I D S D N Z C 8 S S S S S D S S S U U I U D U I D S D * * & * * & & & 8 8 U T I U U U D D U D D I S Z V C C C C C C C S S S S S S S S S Z S Z Z S D D D D S C N C S S S D D I S D S Z Z Z Z D D D D Z N C N 5 D S S S D D U D D D D D D D D D D D D S S S D I D S S Z C V D D U D D D D D D C 8 8 8 8 & * $ * S Z D S U U U Y D D S S S C C N C S S S S N 5 8 5 8 D D S D D D D D S S Z S S S S Z S S S C S S Z S S C S C Z S Z Z V Z V V C C C S Z C S Z C S S S C C S Z Z Z Z C S S S C S S S V C Z V N S Z Z N Z Z S Z Z S S S S C S C C S Z S C C C G C S C S Z C C Z C C S C C C C S Z C C C C Z 1X<X;X;XE.k.%.k.$.O.#.#.$.i i i i                                                                                                                                                                                                                                                                                                                                                 ;X;X;X;X%.*.*.*.*.%.%.*.%.*.*.%.%.%.%.%.%.%.k.k.k.1.k.S.T.T.T.T.T.T.T.T.G.T.T.v.v.T.T.v.T.v.v.n y y > y ",
":X:X;X;X%.%.k.k.%.%.%.%.%.$.$.$.$.$.k.%.k.%.k.%.%.%.*.%.*.*.%.*.k.#.#.#.#.#.#.#.#.#.#.#.#.k.k.#.%.%.1.i i i i p T T U U Z S S Z S D S S S Z S D Z S C C C 8 4 S U D U D U D D U U D D S S S 6 1 1 1 * * * * & $ & & U U I I D I U D I C < * * S S V D D D D I D I D S D D Z C & & & & 1 1 U D U U U Y S D S S N C C C S D S I S D D U D U D D D D S V S S S S D S S S S S S D S S S D D D S S D D D I I C < * * * * * * 8 C C C Z D D S D S Z S Z S S Z Z S F S C -X;X;X;Xl.k.l.k.l.%.k.k.%.d y i y > U U D U D S V Z Z Z S S Z S S Z S S C S S S Z Z S Z S Z Z S Z Z S Z S S Z S Z Z Z S S C S S V Z S C Z S C S C Z S Z S Z Z S S Z C S S S C C S Z Z C N S S Z V N Z Z S C S S V S S C S S Z S S S Z S C S S Z Z Z Z Z S S Z S C Z S S S Z S S S S S 6 1 1 1 6 1 1 1 1 Z Z Z S U D U U U U I U S Z Z C C 1 1 * * C S Z Z Z I D D I I D I D D S C 8 4 * $ & & 1 4 8 S I U I D D D S S S Z Z Z C D I D D S S C S S S S S S S S S C * * * 1 * * 1 * 1 * 2 8 8 8 C S S S S V S S V Z D S S S S S S S S D D D D D D * & * * & * & & * * 1 Z U I I U I Z S Z S 1 < 1 * * * * 1 * 1 1 4 1 C C C C D I S S S C C 4 4 1 & & $ * 1 8 S I D I D D I D D S D S C C C & * & * 8 C S I D U I D S Z S V S N C C C D I I D D S S S S U I U U U D U D D 4 5 4 C C C D D D D D D D D D S S D S S S Z S S D D D D S S S S S S S S V 4 5 1 4 4 1 D D D D S D S S S D S S D S S S S S V D S S S S S S S S S S S V S N C C Z V D V S I C 8 5 4 C C C C Z S Z S S * * 1 1 # $ # # 1 1 C U U U U I S D V D S V Z N Z V D V S D D V S S V S S S S C S S N S C C C C S S Z Z C D I D D D I D S Z N Z N Z S C C S S S S S U D D I D D I D I S 1 < * < & & & * 8 5 D U D U U I D D I D I S S S S S S C C C C C S S Z S S Z S Z Z C Z Z Z S S S D D C C 5 C S S S D S D D D S Z N N Z D V S D C C C 5 N S S S Z D D D D D S S Z Z S D S Z S S D S D D D S Z Z N Z S D D I D Y D D I U C C C C C & * & * C Z Z C U U D D D D S S D C S C Z S I D I C 4 8 8 8 D D D S D D D S D S S Z S S Z Z S Z S Z C S S C S C S S S Z S Z V Z Z Z V S C C C Z Z Z C S Z C C C C C C C S C Z Z C C C C N C C C C S C Z Z Z Z Z Z Z S Z Z C C S C S C Z S Z C S S S C C Z Z Z C Z Z C S Z Z Z C S C Z Z C Z C Z 1X,X<X<X!.@.k.$.k.$.#.$.#.s i i >                                                                                                                                                                                                                                                                                                                                                 ,X;X;X;X%.*.%.*.-.%.*.%.*.%.%.%.%.%.%.%.%.%.k.1.1.k.k.v.T.v.v.T.T.T.T.T.v.T.G.v.v.v.v.T.G.v.v.a y y y > ",
",X,X,X:Xk.k.k.k.k.%.%.%.@.#.$.$.$.$.%.k.%.k.%.k.k.*.6.k.*.%.6.%.#.#.#.#.#.#.#.#.#.#.#.#.O.k.#.k.%.%.%.i i p p i U U U U D S S D Z D Z Z D D D S S S S 8 C 8 C S D I D D D U D D D D S S S S 1 1 1 3 1 * * * & & & # U U D I D D S D S N * 1 * Z S S D D I D D I I I D D D S C & * * * 1 1 I D I I D D D D D D S C C C D I I D S D I V D I D S D S S S S S S D V S C S S S S S D D D V D D D D S D I D D C * * * * $ * * 8 C C C D D D D D Z D D S S Z Z S Z Z Z C ;X,X;X;Xl.l.x.l.l.%.%.%.k.d u i y u D D I D D Z S Z Z Z Z Z Z C S S S S S S S Z S S Z S Z D Z S S Z S S Z S S S S S S C S S C Z Z S C C Z V S C S S Z V Z S S S Z S S C C S S S S S S S S Z S Z C S C C S S Z C C C C S C D C C Z Z Z C S C Z S N S N S Z Z Z S S S S C S S S Z Z Z Z 1 * 1 1 1 * 1 1 1 C Z S S D U U U U D U U D C C C C * * 1 * Z Z Z Z Z D D I D D I D D I S C N 4 & & & * 4 4 Z S D D D D D D S S Z C V Z C D D D S S S C S S S S S S S C C C * * & & * * * * * & 8 C 8 C C D S S S S S S S S S S Z S S S S S S V V D D D D # $ * * $ * $ & * 1 6 U I U U D I S S S S 1 * < * 1 & 1 * 1 1 1 1 1 C C C C S D D I Y Z C C 4 1 & $ & * 4 C D D D D S S S S S D S C C 8 8 & * * 1 Z D Y Y I I U I S S S S S 5 5 N 5 S S D D D S S Z Z D I U U U I U I I C C C C C Z D D I D I L D D S S S S C C S Z C S S S D S S S S D V S S D I N 5 4 4 4 5 D I I D I D D S D V S S D V S S J Z S S S S S S S D S S S S S D S C C C C S D D S S 4 4 4 5 C C N C Z Z Z C C < 1 * 1 * $ & & 1 5 D U I U U D S D D S S Z Z N Z S S S S S S D S D D S S S S S S S S C S C C C S Z S S C D U V D D L D D S C Z C N Z S C S D D D S D U U U D I U I I I 1 1 1 * * * & $ 8 4 D D U U U D I I D I D D S S S S S C C C C N S S D S S S S S S Z C Z Z Z S S S S C N 5 8 S S S S D D D D S Z S N Z D D D D C 4 C 5 5 S Z Z V D U D D D S S S Z Z Z S Z Z Y D Y D I D D S Z S S S D D D D I I Y U D C N C 4 8 * & $ $ C C C C F D I I D S D D D C C C N S S S S C 5 1 4 5 S D D D D D D D S D D D S S S S Z S Z S S C Z Z C Z S C C S Z S Z Z Z S Z Z C S C S C Z S N Z C S C S S S C C C S Z C V C S C S V Z Z Z Z S Z V Z Z V C S Z Z C S C C S S Z S S Z Z Z Z C S Z Z Z Z Z Z S Z C Z Z Z Z Z C Z Z C Z Z <X;X:X,X!.k.$.k.$.#.$.#.#.i i i i                                                                                                                                                                                                                                                                                                                                                 ,X;X;X;X*.*.*.*.*.*.%.*.%.6.%.*.k.%.%.%.%.%.1.k.1.k.k.S.v.T.v.T.v.T.T.v.T.T.v.T.T.G.T.v.v.G.v.p y y y y ",
",X:X:X;Xk.k.k.k.k.$.%.%.%.$.%.%.%.%.%.k.k.%.k.%.%.k.%.%.%.%.%.%.%.#.#.#.#.#.#.#.k.O.O.#.#.k.k.#.1.%.k.i p i p p U U U U Z C C Z Z Z Z Z Z Z Z Z Z Z Z C C C C S S D S Z S S S Z S S Z Z Z S 8 8 8 8 8 8 8 8 4 1 4 1 S D S D Z S S S S N 5 5 4 Z S S S S S S S S S S S S Z S C 4 1 4 6 8 8 S D D D D D D S S S C C C C S S S S S S S S S S S Z S S Z Z Z C N Z C Z N Z Z Z Z Z C C S C S Z Z S S S S S S Z 4 1 4 8 6 8 8 C C C Z Z Z D Z Z Z Z S A C Z Z Z Z Z Z C ;X;X;X;Xx.l.k.k.l.%.%.*.%.d y y y y D U D U D Z Z Z Z V C C C C C C C Z C Z Z C C C C C Z C Z C C Z C C C C C Z N C C C C 8 C C C C C C C C C C C C C C C C Z C C C C C C C C Z Z C Z C Z Z C C C C C C C 8 C C C C C C C C C Z C C C C C C C Z Z C Z C Z Z C C C Z Z Z Z C C Z C C Z 8 8 8 4 8 8 4 8 8 S Z S Z D D D D D D D S S S C C C 4 4 8 8 S Z Z S S S S S S S S S S S S C C 4 4 1 1 4 C C S S S S S S V S Z S Z N Z N C S S S Z V Z Z Z Z Z Z C Z S C C C 8 4 1 4 4 8 8 4 1 6 8 C 8 C C Z C Z Z C C Z Z C Z C C C C C C C Z Z S Z S D Z 6 6 1 6 8 6 8 8 8 S S S D S S S S C Z C C 4 4 4 1 4 4 8 8 8 8 8 8 8 C Z C C S S S S S C C C C 8 1 1 6 C C S S D S S S S S S S S S S S C C 4 4 4 C S S D D D D S S Z Z C C C Z 5 C C Z S S S S S Z S S S D D D I D D D S Z C C C C Z Z Z D S D Z S Z S Z Z C Z C C C C C C Z C V Z Z C Z Z S S S S C N N N N C S S S S S Z Z Z S C C C C C Z C C C Z C Z C Z Z Z V C S S C C C C 4 C C C Z Z V S C C C C 8 C C C C Z Z S Z S 4 8 8 8 6 4 8 6 8 C S D D D D S S S S S Z C Z C N C Z V Z C S S S S S S Z S C S S Z C Z C C C C Z Z S S C S S S S S S S Z C C C S S Z Z Z Z S S S S S S S S D V S S S S 4 4 4 6 8 4 4 8 C C S D S D D S S S S S S S V C C S C C C C C C C C Z C C C C Z Z C Z Z C Z S Z C S C C N C Z S S C S Z S S S C Z C Z S S V S C C 5 N C C Z N N S D S S Z Z S Z Z Z S Z S Z S S Z S Z S Z C S Z Z C S D S S S D S S S C C C C C 4 8 8 8 S S S S D U D D S S S Z S C C C C S S C S C C 8 C 8 S S Z Z Z D Z Z Z Z C Z C C C C Z Z C C Z C Z C C C C Z Z C C C Z C C C C C C C C C C C Z C C C Z N Z C C C C C C C C C C C C C C C Z C C C C C C Z C C C Z Z C C C C Z Z Z Z Z Z Z Z C C C C A C C C C C C C C C C C Z C Z Z C 9 Z >X,X,X,XE.%.%.$.k.O.O.$.#.p i i i                                                                                                                                                                                                                                                                                                                                                 ;X;X;X;X%.*.%.*.*.%.%.*.%.*.*.%.%.*.%.%.%.1.x.k.x.x.k.S.m.T.T.E.v.R.v.R.G.G.G.v.v.v.v.v.k.k.k.p y > > > ",
":X,X,X,X%.k.k.k.k.$.#.$.#.k.%.%.%.k.%.%.%.k.k.1.6.%.6.%.k.%.k.%.#.#.#.#.#.#.O.#.#.k.k.#.#.k.k.#.%.%.%.i p p p s U T Q U C C C C C C Z C Z C C C Z N N Z C C C Z S S 8 8 C C C C C Z Z Z Z C Z Z C S S Z C S S C C Z C N Z Z N Z V Z Z Z C C C S Z Z Z V C S S Z Z Z Z Z Z C C C S C C S Z Z S Z Z Z Z C C Z C C C C C Z C Z C C N Z C C C Z C C C N C N C C C C C Z Z C C C C Z C C C C C C C C C C C Z C S C C Z Z C C Z Z Z C Z C C Z Z N C C C C C C Z C Z Z 8 ;X;X,X;Xv.k.l.l.k.*.%.%.%.d y > i i S D D D S C 8 N 8 C 5 5 C C 8 8 C 8 8 8 C C 8 8 C 8 8 8 8 C 5 8 8 8 5 8 8 8 8 8 6 8 4 8 8 8 8 8 8 C 5 5 5 8 8 8 8 C 8 8 8 8 8 8 8 5 N C 5 8 8 8 8 C 8 N 8 N C 8 4 8 8 4 8 4 5 5 C 5 5 5 N 8 C 8 9 8 5 8 C N C N 5 8 C C C C N C C C C C C 8 C C C C C C C C S C C C Z Z Z Z C Z Z Z S S Z Z S Z Z Z Z Z Z Z C C C C Z C Z C Z C C C Z N Z C C C C C Z C Z S C C C C C C C N C N Z Z Z Z Z V Z C C C C Z C N C N C N C C C C C C C C C C C C C C C C C Z C C C C C 5 C 5 C C N 8 C N C 8 C C C C C Z N C C C C C C C C C C C Z Z S Z Z Z S C C C C C C C C C C C C C C C C C C C S Z S S C S Z C S S C C Z C C C S C S C S S C C C C C C C C C C C C S C C Z Z C Z S Z Z Z V Z S C C C C N C C C C C Z Z Z S Z Z Z S Z S S Z Z V Z C Z C C C C C C C C C C Z Z C C Z N C C C C C C C C C N C 8 C N N C C C C N 8 C Z C C C C Z C C N C Z C C C C C C C C C C N C C C C 9 C C Z C C C C C C C C C 4 N C C C C C C N C S C Z S Z S S Z S S Z Z S S C Z Z S S Z S Z S Z S S S C Z N Z C N C C Z 8 C 8 N C C Z C V Z Z Z Z C C Z Z Z C Z C Z Z C C C Z C S C C V Z Z Z S S Z Z S Z Z S S S Z Z Z S Z S C C Z Z C S C C C S C C S C S C Z Z C Z C C S C C C C C C C C C C C 8 C C C 8 C C C C C C C N C N Z Z N C Z N Z Z C Z Z Z Z Z Z C S Z Z N S N S C C N Z C Z C C C C C Z Z Z C C C C C C C C Z C Z Z C C C C Z C C Z C Z C C Z Z S C S Z S Z Z S Z Z Z Z C C C Z Z C C C Z C C S Z Z S Z S C C C S S C C C C C C C C C C C C C Z Z C C C C C C C C C C C C C C 8 C 8 C C C C C 4 8 C 8 8 5 8 8 C C 5 C 5 8 C C 8 N 8 8 C 8 8 C C C C 5 C C 8 C C N C 8 C N 5 C 8 C 5 C 8 C 8 8 C C 8 8 8 C C 8 C 8 C C 8 C 8 9 C C 5 C 5 8 C 8 C 8 C 9 C C C C 8 C 8 8 8 8 Z A <X,X,X<X!.k.%.k.$.+.O.#.#.p p i p                                                                                                                                                                                                                                                                                                                                                 ;X=X;X;X%.-.*.*.*.*.*.%.*.%.%.%.%.k.*.k.k.k.x.v.x.v.v.S.T.v.v.v.v.v.T.v.v.T.v.v.v.v.v.x.k.k.k.i y y y y ",
",X:X:X:X%.k.k.k.k.#.$.$.$.k.1.k.*.k.1.k.k.%.%.1.%.k.*.*.%.%.k.%.%.#.#.#.#.#.#.#.#.k.#.k.k.k.k.k.%.%.%.i p p p p U Q U U C 5 C C C C C Z C C C Z C Z Z Z Z S S S S D 5 C 8 C C C C C C C C C C C C C Z Z Z Z C C Z Z Z N N Z Z Z Z C Z Z C C C C C C C C S C C Z Z Z Z Z Z S Z Z C C S C Z C C C Z Z Z C Z C Z Z Z C C C C C C C C C C C 9 C C C 8 C C 8 C 5 C 5 C 8 C 9 C C C 8 C C C C C C C C C C C Z Z Z Z Z Z Z Z S Z Z Z Z C Z Z 9 8 C 8 C 8 C 8 A 8 C 8 A 8 ;X;X,X;Xx.x.l.k.k.%.%.@.@.d y i > > D D D D S 5 C 8 C C 8 C C 9 C 8 8 8 C 8 8 C 8 8 8 8 8 8 8 5 C 5 8 8 8 8 8 5 8 6 4 6 6 8 8 8 6 8 9 8 C 4 5 8 8 8 8 8 8 8 8 8 8 8 8 C 8 5 5 8 8 8 8 8 8 8 8 8 8 8 8 8 8 8 8 8 8 8 8 8 8 C 5 8 8 8 C C 8 C 9 8 8 8 9 C 8 8 C 8 C 8 C Z 8 C C C C 8 C Z C C C Z Z Z C C Z Z Z C C Z S C Z Z C Z Z S Z Z Z Z Z Z C S Z Z Z Z C C C C C C S Z Z C Z C Z C C Z C C C C C C C C C Z N Z C Z Z Z Z C C C C Z C C C Z C 5 C N 5 C C C C C C Z Z C Z Z Z C C C C C C C C 5 C C 5 5 C 8 C 5 8 9 C 8 C C 8 C 8 9 C 8 C 9 C C C C C Z Z Z Z Z Z C Z C C C C C C C C C C C C C C C C C C C Z C Z Z Z C C C C Z C C S Z S C S S S S S Z C C C C Z C C Z C C C Z Z Z Z Z Z Z Z Z Z Z C Z N C C N C N C C C C C C C C Z Z Z Z Z C S C S Z Z S C Z Z Z Z Z Z C Z Z C C C C C C Z C Z Z Z C C C C C C N C 5 C 8 C C 8 C 8 C C C 8 8 C C C 9 C 9 C C C Z C N C C N C C 8 8 8 C C C 5 C C C C C C Z C C C Z C C C C C C C C C C C C C C C C Z Z Z C S C Z Z Z Z C S Z S Z Z Z S S Z Z C C Z C C Z S C C C C C C C C C C C C C C C C C C C C C C Z C C C Z Z C Z Z V C C C C C C C C Z Z C C Z Z S Z S Z Z Z Z Z Z C Z Z C C Z S C S Z C Z S S S S C S C C C S C C C C C C C C C C C C 8 C C C C C C C C C C C C C C C C Z Z Z Z C C Z Z C C Z Z Z Z Z Z C Z C C C C Z Z C C C Z Z C C C C C C C C N Z C C C C Z C Z C Z Z C C C Z C A C C Z Z C Z C Z C C C Z Z Z Z C Z C C Z C C Z Z S S Z Z Z Z Z C Z C Z Z Z Z Z C S C S C S C S C C Z Z C C C C Z C C C Z 8 C C C C 8 C 5 C C 9 8 C 8 8 C 8 C 8 8 C 8 8 8 8 8 C C 9 8 C 5 N C 9 C 8 9 C C 8 C 8 C 8 8 C N C C C C 8 8 C C 8 C 5 C C C C 8 C 8 C 8 8 8 8 C C C 8 8 8 C 8 C 8 8 8 8 8 8 9 5 C 8 8 C 9 A 8 9 C 9 8 8 C 8 A C 8 9 9 C <X,X;X<X!.$.k.$.k.#.#.$.#.p p p p                                                                                                                                                                                                                                                                                                                                                 ;X;X;X;X%.*.%.%.%.*.*.*.%.*.%.%.%.%.k.%.1.k.v.v.x.v.v.S.v.T.v.T.R.v.G.G.T.v.T.v.l.v.v.k.k.k.k.a y y y y ",
";X,X:X:X%.k.k.k.%.%.$.#.O.k.k.%.k.%.1.k.%.6.1.6.k.%.*.*.%.%.%.%.%.#.#.#.#.#.#.#.k.#.k.#.#.#.O.#.%.$.%.i p p p s U U U D C C C 5 8 Z 8 9 C C C 8 C C Z Z Z C C S Z D N 8 8 C 8 C C C 9 Z C C Z Z Z Z Z C Z C S Z N Z Z Z Z Z C C C Z C Z C C C C C C C C C C C C C C C C Z C Z Z C Z Z Z C Z C Z C Z C Z Z C C C C C C C C C C C C C C C C C 8 C 8 8 8 C 5 Z 5 C C 5 C C C C C C 9 Z 9 C Z C C C C C C Z Z Z Z Z Z Z Z Z Z C C C Z C 8 Z C Z 9 C C 8 C 8 C 9 C 8 8 ;X;X;X;Xx.k.k.k.l.%.%.%.%.d u i y i D D D D S C 8 8 C 9 C 5 5 8 C 9 8 8 8 8 8 8 8 8 8 8 8 8 8 5 5 5 8 8 8 5 6 6 5 8 8 8 8 8 8 8 8 8 4 9 4 5 5 6 8 8 8 6 8 8 8 8 8 9 8 8 8 8 8 8 8 8 8 8 8 8 8 8 8 8 8 8 8 8 8 8 8 8 8 8 5 C 5 8 8 8 8 8 8 8 8 8 8 8 C 8 8 8 C 8 8 8 8 8 C 8 9 C 8 C C C C C C C C C Z Z C Z C Z C C C Z Z C C C C C Z C C Z Z C Z C Z Z C Z Z C C C C C C C Z Z C Z C C C C C C C C C C C C C Z C Z C C N Z N C C C C C C C C Z C C C Z C C C 8 C C C C C C C C C C C Z 9 C C 5 C C 5 5 C C 5 9 8 C 8 8 8 C 9 C 8 8 C 8 8 C 8 C C C C C C C S Z C Z C C C C C C C N C C C C C C C C C Z C Z C C S C C S C C S C C S Z C C Z C C C S C Z Z C C C C C C C C C C C C C C Z C Z C Z Z Z Z C Z Z C Z Z C C C C C C C C C Z C C Z Z Z C C Z Z C Z C C C Z C C C C C C C C C C Z C C C C C 8 C C C C C C 5 C C C C 5 C 8 8 C C 8 8 8 C C C C 8 C C Z C C C C C 8 Z 9 C 5 C 5 C 8 C C 5 C C 5 5 C 9 C C 5 5 C N C C 5 C C C C 5 C C 5 C C C C C C C C C Z Z Z Z Z C Z Z S Z Z Z Z Z Z Z Z Z C C C C C C C C C C C Z 9 C C 8 C C C C C C C C C C Z C C Z C Z C 9 Z Z C Z Z Z Z C Z Z V C C C C C Z Z Z C Z Z C C C S C Z Z C C Z C Z N C Z Z S Z Z C S Z Z Z Z S Z Z C C C C C C C C C C C C C N C C C 8 C 8 C 8 C 4 C 8 C C C C Z N C C Z N Z C C Z C C C C C C C C C C C C C C Z C N C C C C C C C C C C Z Z C C C C C C C C Z Z Z C C 8 C C C C C C Z C C C Z Z Z C Z C C C C C C Z Z Z Z C S Z Z Z C S S C Z Z C C C Z C C C C C C C C C C C C C C Z C C C Z 8 Z C C 8 9 C C 8 C 5 8 8 C 9 C 8 8 8 9 8 8 8 8 8 8 8 8 8 8 8 8 8 9 C 8 C 8 8 C 8 8 8 8 C 9 C 8 C 5 C 8 8 C C 8 8 8 C 5 C 5 C 8 8 8 8 8 8 8 8 8 8 8 8 8 8 C 8 8 8 9 8 8 8 8 8 8 8 C 9 8 A 8 C 8 C C 9 Z Z C 9 C 9 8 8 9 C A :X;X:X;XE.%.%.k.$.O.O.+.#.s i i i                                                                                                                                                                                                                                                                                                                                                 ;X;X;X;X%.%.%.*.%.%.%.%.%.%.%.%.%.k.*.k.k.1.v.v.v.v.v.S.v.E.v.v.T.v.v.G.m.T.v.l.v.v.x.k.k.k.k.p > y y y ",
":X,X;X:X*.k.k.k.6.$.$.#.#.*.*.k.k.k.%.k.k.%.%.k.%.k.1.%.k.%.%.%.%.$.O.$.O.O.$.$.%.%.%.%.%.%.%.%.%.%.%.u p p p i S S S S 4 4 4 4 4 3 4 4 4 4 N 4 N N N N N V C C C S 3 4 3 4 4 4 N 4 4 N 4 4 N N C C 4 N C N N N N N N N 4 N N N C N N N N 4 N 4 N 4 N 4 4 N 4 N N N N N N 4 N N 8 8 4 N N 4 C N N N N 4 N N 4 N 4 N 4 N 4 N N 4 4 4 4 4 4 4 3 4 4 4 4 4 4 3 4 N 4 N N 4 N C 4 N 4 N 4 N 4 4 N 3 N 4 4 M N N N 4 N N 4 N 4 N 4 N N 4 N N 4 N N C N 4 N 8 4 4 4 8 3 ;X;X;X;Xl.k.6.*.k.+.m +.+.a > ; y y N C V V S 4 N N N 4 4 4 4 8 4 4 1 4 1 4 4 4 4 4 3 8 4 1 4 1 4 4 1 1 1 3 1 1 1 1 4 1 1 4 6 1 4 1 3 1 4 1 3 1 4 4 1 3 4 4 1 4 4 4 3 1 4 4 4 4 4 4 1 4 4 1 4 4 4 1 4 4 4 1 4 4 4 4 4 4 1 4 4 4 1 4 4 4 4 4 3 4 4 4 4 4 4 4 4 4 4 4 4 4 4 4 4 8 8 8 N 8 4 C 4 N 4 C 4 N C N N 8 C 8 C 4 N 8 N N N N N C N N 4 N C C C 4 N N C C C 4 N 4 N N N N C N N N 4 N N N N N N 4 N 4 C N 4 N 4 N 4 N N M 4 3 N N 4 N N 4 N C 4 4 N 4 4 8 4 4 4 4 4 4 4 4 4 N 4 C 4 4 N 4 4 4 4 4 4 4 4 4 4 4 4 4 4 4 4 4 4 4 3 8 4 4 4 4 N 8 4 N 4 4 N 8 N 4 N 4 N 8 4 N N N 4 C 4 N 4 4 4 8 N 4 N N 4 8 N 8 C C N C C N 8 C N N N N N C C N C N N C N N N C C 4 N 4 N C N N C N 4 C N N 4 C 4 N N 4 N N 4 4 N 4 N N 4 3 4 N N N N N N N N C C N N N N C N N N N N C 4 N N N 4 8 4 N N 4 4 4 8 4 C 4 8 N 4 4 4 4 4 4 4 4 3 4 3 4 4 4 N 4 N N N N N N N C 4 N N N N 8 4 4 C 4 4 4 4 4 4 4 4 4 4 4 N 4 8 N 4 3 4 4 N 4 4 3 3 4 3 8 4 N 4 N N N 4 N N 4 N C 4 N N N N C N N C N N C N C N C N C N N N 4 N N N N 4 N N 4 N 4 4 N 4 N N 4 4 4 4 N 4 4 N 4 N 4 N C 4 N C 4 N 4 N 4 N N N N N 4 N C 4 N 4 N N C 4 4 4 N N C 4 N N N N C 4 N N C N C N N N N N C C C C N 8 C C 4 N N 4 N 4 N N N N 4 C 4 C 4 8 N 4 N N N 4 4 8 4 4 N 4 C 4 4 C 4 N C 4 4 N N 4 8 N 4 C 4 4 N N 4 C 4 N 4 4 N 4 4 N 4 N N 4 N 4 4 N 4 3 4 4 4 4 4 N N 4 4 8 4 C 4 4 N 4 4 C 4 N C 4 N C 4 4 N 4 N 4 4 N C N 4 N N 4 N N N N 4 N C 4 N N N N N N N N C N N 4 4 N N N N N 4 N N N 8 N 4 N N 8 N 4 8 4 N 4 4 4 4 4 4 4 4 4 4 4 4 4 8 4 4 4 4 1 4 4 4 4 4 4 8 4 4 4 4 4 4 4 4 4 4 4 8 4 4 4 4 4 4 4 4 4 4 4 4 4 4 4 4 4 4 4 4 4 4 4 4 4 4 4 4 4 4 4 4 4 4 4 4 4 4 4 4 1 4 4 4 4 4 4 4 4 4 4 4 4 4 4 4 4 4 4 8 8 N N 4 8 8 1X<X<X:X!.%.%.%.@.O.O.O.O.i i p p                                                                                                                                                                                                                                                                                                                                                 ;X;X;X;X%.%.%.%.k.@.%.%.$.k.%.%.%.k.k.k.%.k.x.v.x.x.v.S.S.S.S.S.S.T.S.S.v.v.G.l.l.v.z.k.k.k.k.p y y y y ",
":X,X:X,X6.k.k.k.k.k.l.k.k.x.x.k.k.k.1.%.1.%.k.$.#.#.#.#.$.#.+.O.O.$.%.$.%.%.$.$.%.%.%.k.%.%.k.k.#.#.$.O.O.O.n K.;X=X=X=X=X=X=X=X=X=X=X=X;X=X=X;X;X=X;X=X;X=X=X=X=X=X=X=X=X=X=X;X=X;X=X=X=X;X=X=X=X=X=X=X=X=X=X=X=X=X=X=X=X=X=X=X=X=X=X=X=X=X=X=X#X=X#X#X=X=X=X=X=X=X=X=X=X=X=X=X=X=X=X=X=X=X=X=X=X=X=X=X=X=X=X=X=X=X=X=X=X=X=X=X=X=X=X;X-X;X=X;X;X=X=X;X=X;X;X=X;X=X=X;X=X=X=X=X=X=X=X=X;X=X=X=X;X=X;X=X=X=X=X;X=X=X=X=X=X=X=X=X;X=X=X;X;X=X=X=X=X=X=X=X=X=X=X=X;X;X;X;X;X*.*.*.*.*.l.l.l.k.%.n ^ a !.=X=X=X=X=X=X=X=X=X=X=X#X=X=X=X=X=X=X=X=X=X=X=X;X=X=X-X=X=X=X=X=X-X=X;X=X=X=X=X=X=X=X=X=X=X=X=X=X=X=X=X=X=X=X=X=X=X=X=X=X=X=X=X=X=X=X=X=X=X=X=X=X=X=X=X=X=X;X=X=X=X=X=X=X=X=X=X=X=X=X=X=X=X=X=X=X=X=X=X=X=X=X=X=X=X=X=X=X=X=X=X=X=X=X=X=X=X=X=X=X=X=X=X=X=X=X=X=X=X=X=X;X=X-X-X=X=X=X=X=X=X=X=X=X=X=X=X=X=X=X=X=X=X=X=X=X=X=X=X=X=X=X=X=X=X=X=X=X=X=X=X=X=X=X=X=X=X=X=X=X=X=X=X=X=X=X=X=X=X;X*X=X;X=X=X=X=X;X=X=X=X=X=X=X=X=X=X=X-X-X=X=X=X=X=X=X=X=X=X=X=X=X=X=X;X=X=X=X;X=X=X=X=X=X=X=X=X=X=X=X=X=X-X=X=X=X=X=X-X=X=X;X=X-X=X=X=X=X=X-X=X=X=X=X=X=X=X=X=X=X=X=X;X=X=X=X=X-X=X=X=X=X=X=X=X=X=X;X=X=X;X=X;X;X=X=X=X=X=X=X=X=X=X=X=X=X=X=X=X=X=X=X=X=X=X=X=X=X=X=X=X=X=X;X=X=X;X=X=X;X=X-X=X;X;X;X=X=X=X=X;X=X;X=X-X=X=X;X=X;X=X=X=X;X=X=X=X=X=X;X=X;X;X=X=X=X-X=X=X=X=X=X=X=X=X=X-X=X-X=X=X;X;X;X=X=X-X=X=X=X=X=X=X=X=X;X=X=X-X=X=X;X=X=X=X=X=X=X=X=X=X=X=X=X-X=X=X=X=X=X=X=X=X=X=X=X=X=X=X;X*X=X;X=X=X=X=X=X=X=X=X=X=X=X=X-X=X=X=X=X=X=X=X=X=X=X=X;X-X=X=X=X=X;X=X=X=X;X=X;X=X=X;X=X;X=X;X=X;X=X;X=X=X=X=X;X;X=X;X=X;X;X=X=X=X-X;X=X=X;X=X;X;X=X=X;X=X;X=X;X=X=X=X=X;X;X=X;X-X=X-X;X=X;X-X=X;X;X=X;X-X=X=X;X=X=X-X=X;X;X=X=X-X=X=X=X=X=X;X=X=X=X=X=X=X=X=X=X=X=X=X=X=X=X=X=X=X=X=X=X=X=X=X=X=X=X=X=X=X=X=X=X=X=X=X=X=X=X=X=X=X=X=X=X=X=X-X=X=X=X=X=X;X=X=X=X=X=X=X=X=X=X=X=X=X=X=X#X;X&X=X=X=X=X=X;X=X=X=X=X=X=X=X=X=X=X=X=X=X=X=X=X=X=X;X=X;X;X=X=X=X=X=X=X=X=X=X=X=X=X=X=X=X=X=X;X=X=X=X;X=X=X=X=X;X=X=X=X=X=X=X=X=X=X=X=X=X=X=X=X=X=X=X=X=X=X;X=X=X=X;X;X=X;X-X=X=X;X#X=X=X=X=X=X=X=X=X=X=X=X#X=X=X=X=X=X=X=X=X=X=X=X=X;X=X=X=X=X=X=X=X=X=X=X=X=X=X=X=X=X=X=X=X=X=X=X=X=X=X=X=X=X=X=X=X=X=X=X=X=X=X=X=X=X#X=X=X=X=X=X=X#X;X=X#X=X=X=X=X=X=X=X=X=X=X=X=X=X=X=X;X<X:X<X~.*.*.*.*.+.$.+.$.^ n c c G.=X;X=X=X=X=X=X=X;X;X=X=X=X;X=X=X=X=X=X=X;X;X=X=X=X;X=X=X;X;X=X;X=X=X;X=X=X=X;X;X=X=X=X;X=X;X=X=X=X;X=X=X=X=X;X;X=X=X=X=X=X=X=X=X;X;X=X=X=X;X=X;X=X=X=X=X=X=X=X=X=X=X=X=X=X=X=X=X;X=X;X;X=X=X;X=X=X=X;X=X;X=X=X;X=X=X;X=X;X;X=X=X;X=X;X;X=X=X;X=X;X;X=X;X=X=X=X=X=X=X=X=X=X=X=X=X;X=X=X=X=X=X=X=X=X=X=X=X=X=X=X=X;X=X;X=X=X=X=X;X=X=X=X=X=X=X;X;X;X=X;X%.%.%.%.%.%.%.%.k.k.k.k.k.v.v.v.v.S.G.S.T.S.T.S.S.S.T.v.v.v.x.x.l.k.l.k.#.k.$.#.#.$.$.p y y y y ",
",X,X,X,X*.k.l.k.x.k.k.k.k.k.k.k.k.k.%.%.%.k.%.$.$.$.$.$.$.#.#.#.$.%.%.$.$.%.$.%.%.%.%.%.%.%.k.%.+.+.+.+.+.m |.E.;X;X;X;X;X=X=X;X;X;X;X;X;X;X;X;X;X;X;X;X;X;X;X;X=X;X;X;X;X;X;X;X;X;X;X;X;X;X;X;X-X;X;X;X;X;X;X-X;X-X;X;X;X=X;X=X;X;X;X=X=X=X=X;X=X=X=X=X=X=X=X;X=X=X;X=X;X;X;X;X=X;X;X=X;X=X;X;X=X=X;X=X;X=X;X;X;X;X;X;X;X;X;X;X;X;X;X;X,X;X;X,X,X;X;X,X;X;X;X;X;X;X;X;X;X;X;X;X;X;X;X;X;X=X;X;X;X=X;X;X=X;X;X;X;X;X;X;X;X;X;X;X;X;X;X;X;X;X;X;X=X;X;X;X=X;X;X;X;X;X;X;X;X*.%.%.@.%.k.k.k.k.@.O.d |.}.:X;X;X;X;X;X;X=X;X;X=X;X=X;X;X-X;X;X;X=X;X=X;X;X;X;X;X;X;X;X;X,X;X;X;X;X;X;X;X=X;X=X;X;X;X;X;X=X;X;X=X=X;X=X;X;X;X=X;X=X-X=X;X;X=X=X=X;X;X;X=X;X;X;X;X;X;X;X;X;X;X;X;X;X;X;X;X;X;X;X;X;X;X;X;X;X;X;X;X;X;X;X;X;X;X;X;X;X;X;X;X;X;X=X;X-X;X;X;X;X;X;X;X,X;X,X=X,X;X;X=X;X;X;X;X;X;X;X;X-X;X;X;X=X=X;X=X=X=X=X;X=X;X;X;X=X,X,X;X;X:X;X;X;X;X;X;X;X;X;X;X;X;X;X;X;X;X;X;X;X;X;X;X;X,X;X;X;X;X;X;X;X;X;X;X;X;X;X;X=X;X;X;X;X;X-X:X;X;X;X;X;X;X;X;X;X;X,X;X,X;X;X,X;X,X;X;X;X,X;X;X;X;X;X;X;X;X;X;X;X;X;X;X;X;X;X;X;X;X;X;X;X;X;X;X;X;X,X;X,X;X,X;X;X;X-X;X;X;X;X,X;X-X;X;X,X;X;X,X;X;X,X;X;X,X,X;X;X,X,X,X,X;X;X,X;X,X,X,X,X,X,X;X;X;X;X;X;X;X;X;X;X;X;X;X;X;X,X;X;X;X;X;X;X;X;X;X;X;X;X;X;X;X;X;X;X;X;X;X;X;X;X;X;X;X;X=X;X;X;X-X,X-X;X;X;X;X;X;X;X;X,X-X;X;X,X,X,X;X;X,X;X,X;X,X;X;X;X;X;X;X;X;X;X;X;X;X;X;X;X;X;X;X;X;X;X;X;X;X;X;X;X;X,X,X,X;X;X;X;X,X;X;X;X;X;X;X;X;X;X;X;X;X;X;X;X;X;X=X=X;X;X=X;X;X;X;X;X;X=X;X;X;X,X;X;X-X;X;X,X;X=X;X,X;X,X;X;X;X;X;X;X;X;X;X;X;X;X;X;X,X,X-X;X,X;X,X,X;X,X;X,X;X,X;X;X;X;X,X;X;X;X,X,X;X;X;X;X;X;X;X;X,X;X;X;X;X;X;X;X,X,X,X,X,X;X;X;X;X<X-X,X;X;X;X;X;X;X;X;X;X,X;X;X;X;X;X,X;X;X;X;X;X-X;X;X;X,X-X;X;X;X,X;X;X;X;X;X;X;X;X;X;X;X;X;X;X=X;X;X;X;X;X;X;X;X;X;X,X,X,X,X;X,X:X,X;X,X,X;X,X;X,X,X;X;X;X;X,X;X;X;X;X;X;X,X;X;X;X;X;X;X;X;X;X;X=X;X;X;X;X=X;X,X;X;X-X;X;X;X;X-X;X;X;X;X;X;X,X;X;X,X;X;X;X;X;X;X;X;X;X;X;X;X;X;X;X;X;X;X;X=X,X;X;X;X;X;X;X;X;X;X,X;X;X;X;X;X;X;X;X;X;X;X;X;X;X;X;X;X;X,X,X;X,X;X;X,X;X,X;X;X,X,X;X;X;X;X;X;X-X;X;X;X-X;X=X=X;X;X;X-X;X;X=X;X=X;X=X;X;X;X;X-X,X;X;X;X;X-X;X;X;X;X;X;X;X;X;X;X-X;X-X;X=X;X;X;X;X;X,X;X;X;X;X;X-X;X;X=X;X;X;X;X;X;X;X;X;X;X;X;X;X;X;X;X;X=X;X;X=X=X;X;X=X;X;X=X;X;X;X,X,X:X!.@.%.%.%.O.#.O.O.c c c |.H.;X=X;X:X;X;X;X;X;X;X;X;X;X;X;X;X;X;X;X;X;X;X=X;X;X;X-X;X;X;X;X;X;X;X;X;X-X;X;X;X;X;X;X;X;X;X=X;X;X;X;X;X=X;X;X;X;X;X;X;X;X;X;X=X;X;X;X;X;X=X;X;X;X=X;X;X;X=X=X-X=X;X=X;X;X;X;X;X=X;X=X;X=X;X;X;X;X;X;X;X=X;X;X;X;X;X;X;X,X;X;X;X;X;X;X;X;X;X;X;X;X;X;X;X;X;X;X;X;X;X;X;X;X;X;X;X;X;X;X=X;X;X;X;X;X=X;X;X;X;X;X;X;X;X;X=X;X;X;X;X;X=X;X=X;X;X;X;X=X=X=X@.%.%.%.%.%.%.%.k.k.k.k.k.x.T.m.S.S.G.S.T.S.S.T.T.S.T.v.v.v.v.x.l.l.k.#.$.k.#.k.$.#.k.y y y y y ",
":X:X;X,Xk.k.k.k.l.k.x.k.k.x.k.k.k.k.k.k.k.%.%.#.$.#.$.#.$.#.$.#.$.$.%.$.%.$.%.$.%.%.%.%.%.k.%.k.O.+.+.O.+.H.E.E.=X;X=X;X;X;X=X;X;X;X;X;X;X;X;X;X;X;X;X;X;X;X;X;X;X;X;X;X;X;X;X;X;X;X;X;X;X;X;X;X;X;X;X;X;X;X;X;X;X;X;X;X;X;X;X;X=X;X;X;X;X;X;X=X=X=X=X=X=X=X=X=X;X;X;X;X;X=X;X;X;X;X;X;X=X;X=X=X=X;X=X;X;X;X=X;X;X;X;X:X:X;X;X;X;X,X;X;X;X;X;X,X;X,X;X;X;X,X,X;X;X;X;X;X;X;X,X;X;X;X;X;X;X;X;X;X;X;X;X;X;X;X;X;X;X;X;X;X;X;X;X;X;X;X;X;X;X;X;X;X;X;X;X;X;X;X;X;X;X=X;X;X;X*.*.*.*.*.l.l.z.l.@.n |.|.|.;X;X;X;X;X;X=X;X=X=X=X;X;X;X=X;X;X;X;X,X;X;X;X;X;X;X;X;X,X;X;X-X;X;X;X;X;X;X-X;X;X;X;X;X;X;X=X;X;X=X;X;X;X;X;X=X;X;X=X;X;X=X;X=X=X;X=X;X=X;X;X;X;X;X;X;X;X;X;X;X;X;X;X;X;X;X;X;X;X;X;X;X;X;X;X;X;X;X;X;X,X;X,X;X;X;X;X;X,X;X;X;X;X;X;X;X;X;X-X;X;X;X;X-X;X;X,X;X;X;X;X;X;X;X;X;X;X;X;X;X;X=X=X;X=X=X=X;X;X=X;X,X;X;X;X;X;X;X;X;X;X;X,X;X,X;X;X;X;X;X;X;X;X;X;X;X;X;X;X;X;X,X;X;X;X;X;X;X;X;X;X;X;X;X;X;X,X;X;X;X;X;X;X;X;X;X;X;X;X;X;X;X;X;X;X;X;X;X;X:X;X,X;X,X,X;X;X;X:X;X;X;X;X;X;X;X:X;X;X;X;X;X;X;X;X;X;X;X;X,X;X;X;X;X;X;X;X;X;X;X;X;X;X,X;X;X;X;X;X;X;X;X;X;X;X;X;X;X,X;X,X,X,X,X,X,X,X,X,X;X,X:X,X,X,X,X;X:X;X;X;X:X;X;X,X;X,X;X,X;X;X,X:X,X;X,X;X,X;X;X;X,X,X;X;X;X,X;X,X;X;X;X;X;X;X;X;X;X;X;X;X;X;X;X;X;X;X;X;X;X;X;X;X;X;X;X,X,X;X,X,X;X;X,X;X,X;X;X;X;X;X;X;X;X;X;X,X;X;X;X;X=X;X;X;X;X;X;X;X;X;X;X;X;X;X;X;X;X,X;X;X;X;X;X;X;X;X;X;X;X;X;X;X;X;X;X;X;X;X;X;X;X;X;X;X;X;X;X;X;X=X;X;X;X-X;X;X;X;X;X;X;X;X=X;X;X;X;X;X;X,X;X;X-X;X;X;X;X,X;X,X,X;X,X;X,X;X;X;X;X;X:X;X,X;X:X;X;X,X;X<X;X,X,X;X;X;X,X,X;X,X,X;X;X,X;X;X,X;X;X;X;X,X,X:X;X:X,X,X,X;X;X;X;X;X,X;X;X,X;X,X,X;X,X;X,X,X;X;X;X,X;X,X;X,X;X,X;X,X;X,X:X;X:X;X;X;X;X;X;X;X;X;X;X;X;X;X;X;X;X;X;X;X;X=X;X;X;X;X;X;X;X;X;X;X;X;X;X;X;X;X;X,X;X;X;X,X;X,X,X;X:X;X;X;X,X;X;X;X;X;X;X;X;X;X;X;X:X;X;X;X;X;X;X;X;X;X;X;X;X;X;X;X;X;X;X;X;X;X;X;X;X;X;X;X;X;X;X:X;X;X;X;X;X,X;X;X;X;X;X;X;X;X;X;X;X;X;X;X;X;X;X;X;X;X;X;X;X;X;X;X;X;X;X;X;X;X;X;X;X;X;X;X;X;X;X;X;X;X;X;X;X;X;X:X;X;X,X;X,X;X;X;X;X;X;X;X;X;X;X;X;X;X;X;X;X;X;X=X;X;X;X;X;X;X;X;X;X;X;X;X;X;X;X;X;X;X;X;X,X;X;X;X-X;X;X=X;X;X;X;X;X;X;X;X;X;X;X;X;X;X;X;X;X;X;X;X;X;X;X;X;X;X,X;X;X;X;X;X,X;X,X;X;X;X;X;X;X;X;X;X;X;X;X;X=X=X=X;X;X;X;X;X,X!.%.*.*.%.$.$.@.+.O.n R.R.H.;X;X;X;X;X;X;X=X;X;X;X;X;X=X;X;X;X;X=X;X;X;X;X;X;X;X;X;X;X;X;X;X;X;X;X;X;X;X;X;X;X;X;X;X;X;X;X;X;X=X;X;X;X=X;X;X;X=X;X;X;X;X;X;X;X;X;X;X;X;X;X;X;X;X;X;X=X;X=X;X;X;X;X;X-X;X;X;X;X;X;X;X;X;X;X=X;X;X;X;X;X;X;X;X;X;X;X;X;X;X,X;X;X,X;X;X;X;X;X;X;X;X;X;X;X;X;X;X;X;X;X;X;X;X;X;X;X;X;X;X;X;X;X;X;X;X=X;X=X=X;X;X=X;X;X;X;X;X;X;X;X;X;X;X;X;X=X;X=X;X;X%.%.@.$.k.%.%.$.%.k.k.k.k.l.v.T.S.v.T.S.S.S.S.v.v.S.v.v.v.v.v.x.k.l.x.k.k.#.$.$.k.#.k.p y y y y ",
";X:X:X,Xk.k.k.k.k.k.k.k.k.k.k.k.k.k.%.%.k.%.%.$.$.$.#.#.$.$.$.$.$.%.%.$.%.%.%.%.k.%.%.%.%.k.%.*.n O.n G.R.T.H.H.;X;X;X:X;X;X;X:X:X:X,X<X>X<X:X:X:X:X,X:X,X:X;X;X;X;X;X:X,X:X;X:X,X,X,X:X:X:X:X:X:X:X,X:X:X:X,X,X;X,X;X;X:X,X:X:X,X;X:X;X:X,X:X:X;X=X;X=X=X;X=X;X:X;X:X;X;X:X:X;X:X:X;X;X:X:X:X;X:X;X;X;X;X,X,X,X<X:X:X<X:X:X>X:X<X<X<X:X:X:X:X<X<X:X<X:X:X:X:X:X:X:X:X<X:X:X:X:X,X:X:X,X>X>X>X<X,X,X:X,X:X:X;X,X:X;X;X;X,X;X:X;X,X,X:X:X:X,X:X,X<X:X,X:X:X:X;X;X;X;X=X=X=X%.%.@.%.%.k.k.k.k.l./.|.|.}.;X;X:X:X:X:X:X,X,X,X;X,X:X:X:X:X:X:X>X:X>X:X:X<X<X:X:X1X,X,X,X,X,X<X<X:X:X:X,X:X,X:X;X:X;X;X;X;X;X;X;X:X;X;X,X;X;X;X,X,X;X,X;X,X;X;X;X;X,X;X;X:X:X;X:X,X:X:X:X<X,X,X,X:X:X,X,X:X,X,X<X:X<X<X<X,X,X:X:X:X;X,X;X,X<X<X:X:X:X<X<X<X<X:X;X;X:X;X,X,X;X,X,X:X;X,X<X,X<X:X<X<X<X<X<X<X;X:X:X:X:X:X;X;X;X;X;X;X;X:X,X,X,X<X<X:X:X:X<X<X<X:X<X:X>X<X:X<X:X<X:X<X:X:X<X<X:X;X:X;X:X:X,X:X:X,X:X:X,X<X:X:X:X:X:X:X:X<X<X>X<X<X;X,X,X:X:X:X:X:X:X:X:X,X,X<X<X:X<X<X<X:X,X:X<X:X<X<X<X:X:X:X:X>X>X:X>X:X:X=X,X;X;X:X;X;X;X;X-X,X,X,X,X:X:X:X,X<X:X>X:X<X<X:X,X<X:X,X:X;X;X:X;X,X;X;X:X,X<X:X<X:X:X:X,X<X<X<X<X<X:X<X<X<X<X<X<X>X<X:X:X<X<X,X<X<X<X<X,X:X:X:X<X>X>X>X>X:X;X;X;X:X:X<X<X<X:X:X:X:X:X:X:X,X,X:X,X:X:X,X,X;X,X,X,X<X<X:X:X<X,X<X<X:X<X:X:X:X<X<X<X,X,X<X<X:X:X:X:X<X:X:X<X:X;X:X:X,X,X:X;X:X:X,X:X,X,X;X,X,X,X:X,X<X<X<X<X<X<X<X<X<X<X:X:X:X,X:X:X;X:X,X;X,X;X:X:X,X;X:X,X:X,X,X:X<X,X:X;X:X;X=X,X:X;X;X;X=X=X=X-X,X;X;X;X:X:X:X,X:X:X:X:X<X<X,X<X<X:X<X<X>X<X,X<X<X<X<X<X-X:X:X,X:X,X<X,X<X<X<X<X<X<X<X<X<X<X<X<X<X<X:X,X<X<X<X<X:X:X:X:X,X<X<X<X<X,X:X:X:X:X:X,X<X,X:X<X,X<X<X<X:X,X<X<X<X<X:X:X<X<X:X:X:X,X,X,X<X,X:X:X;X<X<X:X<X,X<X<X<X<X,X:X:X:X;X:X:X:X;X:X;X;X:X;X:X;X:X:X:X:X:X:X<X<X<X<X<X<X<X<X,X;X,X,X:X:X:X:X:X:X,X<X:X:X>X>X<X<X>X>X>X>X:X:X:X:X:X:X:X:X;X:X;X,X:X,X,X:X:X,X:X:X:X:X:X:X,X:X:X:X;X=X,X;X:X:X,X:X:X;X:X;X:X,X,X,X,X,X:X:X<X:X:X;X,X,X:X,X:X:X:X:X:X:X<X<X:X:X:X,X:X:X<X,X:X;X,X;X:X:X,X:X:X:X:X,X:X:X<X<X:X:X;X:X:X:X:X:X,X:X,X,X:X<X,X,X:X:X,X:X,X,X:X:X:X:X;X;X:X:X;X:X,X:X:X,X:X:X;X;X,X,X;X,X,X<X<X>X<X<X,X:X<X<X<X:X<X:X:X:X:X,X<X,X,X<X<X,X,X:X<X<X:X<X:X:X:X,X,X,X,X:X,X:X;X,X:X:X,X:X;X:X:X;X<X,X<X,X<X,X<X:X:X:X:X:X:X;X:X:X;X,X;XR.$.@.$.%.O.O.+.O.O.R.G.v.E.:X;X;X:X:X>X<X<X,X:X,X;X:X:X;X:X>X;X:X;X;X<X:X:X:X;X,X:X:X:X<X,X,X:X:X:X:X:X:X:X:X;X:X:X:X;X;X;X,X;X:X,X;X:X;X:X:X:X>X:X,X:X:X,X,X;X;X:X;X:X;X:X:X;X;X;X;X;X;X:X:X;X:X,X:X:X,X:X;X:X;X;X,X:X:X:X,X,X:X:X<X;X:X<X,X,X:X:X:X:X:X>X<X>X>X:X:X:X,X:X:X,X:X,X,X:X:X:X:X:X:X,X:X:X:X,X:X;X:X,X,X;X;X;X;X;X;X;X,X,X,X;X,X,X:X<X:X:X:X,X:X:X:X;X;X;X;X;X;X;X;X%.$.%.%.k.k.$.k.k.k.k.k.k.v.v.v.S.S.T.S.S.T.T.T.S.S.T.v.v.v.v.x.k.l.k.$.%.$.$.%.O.$.O.p y y y i ",
":X,X;X,X%.k.l.k.k.k.k.%.k.k.%.k.k.*.%.%.%.%.%.O.O.#.#.#.$.$.$.#.$.%.%.%.%.%.%.@.%.%.k.%.%.z.x.v.z.z.z.*.k.k.@.k.z.v.z.c.%.%.*.%.%.%.$.%.%.%.%.1.%.%.%.%.%.$.%.%.%.%.%.%.%.$.$.%.%.%.%.%.1.%.1.1.1.%.1.1.%.%.$.%.%.%.1.1.%.%.%.%.1.%.%.%.%.%.%.%.1.%.1.%.%.$.%.$.$.$.$.#.#.$.$.#.$.$.$.%.$.$.$.%.$.$.%.%.$.$.$.%.%.6.%.%.%.%.%.%.%.$.%.$.%.$.%.1.%.1.%.%.1.%.%.%.%.%.%.%.%.%.%.%.%.$.$.%.%.$.$.$.%.1.1.%.1.k.k.k.k.k.k.k.k.k.k.k.k.6.6.1.1.6.6.6.%.k.1.%.1.%.%.k.*.l.l.l.x.G.S.S.Z.z.G.G.G.G.S.v.v.v.G.v.v.v.v.z.v.v.x.v.x.G.S.T.m.T.T.T.T.T.v.m.G.S.v.G.T.v.v.v.v.v.v.x.k.x.k.x.k.x.k.x.x.x.l.l.l.l.v.x.k.l.k.k.k.k.k.k.k.k.k.k.k.k.k.x.l.k.l.x.x.l.l.x.k.k.k.k.*.*.*.1.1.%.%.%.%.%.%.$.%.%.$.$.$.$.$.$.$.%.%.$.%.$.$.$.$.$.$.$.$.$.$.$.%.%.%.%.$.k.k.$.%.$.%.%.%.$.$.$.$.$.%.$.$.$.%.$.$.$.$.$.%.%.%.%.%.%.%.%.%.$.%.$.%.$.$.%.$.#.$.#.k.*.%.%.%.%.%.%.%.%.%.%.%.%.%.k.1.k.k.k.k.k.k.k.1.k.k.%.1.1.%.1.%.1.1.%.%.%.%.%.1.1.1.1.1.%.1.%.%.1.%.%.1.%.%.%.%.%.%.%.%.%.%.%.%.%.%.1.%.6.*.*.%.6.1.%.k.%.k.k.x.k.x.k.k.k.k.k.k.k.k.k.1.k.1.k.6.6.%.*.1.1.%.%.%.%.1.%.k.k.k.%.k.k.k.%.%.$.%.$.%.%.$.$.$.$.$.#.%.%.%.%.%.$.%.%.%.$.%.%.%.%.%.%.%.%.%.%.%.%.%.%.%.%.%.%.%.%.k.%.%.%.%.%.%.%.%.%.%.%.%.%.%.%.1.%.%.%.1.%.%.%.%.%.%.$.$.%.$.$.$.$.$.$.$.$.$.$.$.$.$.$.$.$.$.%.$.%.%.,.%.$.%.%.$.%.%.$.%.%.%.%.$.%.%.%.1.$.%.%.$.$.$.$.$.$.$.$.$.%.$.$.%.%.%.1.1.1.k.%.%.%.1.1.1.%.1.%.%.%.%.%.%.%.%.%.%.1.%.%.1.%.%.k.%.1.k.k.k.k.k.1.k.k.1.1.%.%.%.$.%.%.%.%.%.#.#.#.$.#.$.$.$.$.$.$.%.%.%.%.%.%.%.%.%.%.%.$.%.$.%.$.%.$.$.#.$.$.$.$.$.$.$.$.%.$.$.%.$.%.%.%.%.%.%.1.%.1.1.%.k.1.1.1.%.%.%.%.%.$.%.%.%.$.%.%.%.%.%.%.%.%.%.%.%.%.%.1.%.%.%.#.k.#.%.%.%.$.%.%.%.%.%.k.k.k.k.1.k.k.k.k.k.k.k.%.1.%.%.%.%.%.%.%.%.%.%.%.%.1.k.%.k.1.1.%.1.1.%.%.%.%.%.%.%.%.%.%.%.%.%.%.%.%.%.%.%.%.k.%.%.1.1.%.%.%.%.%.%.%.%.%.%.%.%.%.%.%.%.%.k.k.x.l.k.x.k.k.k.x.k.k.k.k.6.1.k.%.%.%.%.$.$.%.$.%.%.$.$.%.$.%.$.%.%.$.@.%.%.%.%.%.1.1.1.%.k.%.%.%.%.%.%.%.$.%.%.%.%.%.1.%.k.%.k.k.k.k.x.k.k.k.k.1.1.%.%.%.%.%.%.%.%.%.%.%.%.%.%.%.%.%.%.%.%.%.$.$.%.%.%.%.%.%.$.%.%.$.$.$.$.$.$.$.$.$.$.$.#.#.#.#.$.#.#.#.#.#.#.#.O.O.O.%.1.%.%.%.k.k.1.k.k.*.k.k.k.1.%.%.%.*.*.%.%.%.#.#.#.#.O.$.#.O.O.O.O.O.O.O.#.O.O.$.*.%.*.%.k.l.k.l.l.l.v.z.x.l.k.k.k.%.k.%.k.k.l.k.l.x.l.v.v.v.v.G.v.v.v.v.v.v.v.x.x.x.l.l.x.x.x.x.l.x.x.v.l.v.l.v.l.l.l.k.k.6.k.6.6.6.*.k.6.*.%.*.%.%.%.%.%.%.%.%.%.%.%.%.%.@.%.%.%.%.%.%.$.%.%.%.%.$.%.$.%.%.%.%.%.%.%.%.%.%.%.1.%.%.%.k.1.1.1.%.6.1.1.1.6.*.%.%.1.1.1.1.%.%.1.%.%.%.$.%.1.1.1.6.%.1.6.1.1.k.k.%.%.k.k.k.k.k.k.1.%.1.%.6.1.1.%.%.1.%.%.%.%.%.$.$.$.@.%.$.%.%.%.%.%.k.k.%.l.l.k.l.x.v.T.G.T.T.T.T.T.T.S.S.S.S.v.v.v.v.v.1.k.1.1.%.%.$.k.#.%.$.k.$.k.$.k.p i y y y ",
";X:X;X:Xk.k.x.l.%.k.%.k.%.k.k.k.k.*.%.%.%.%.$.#.O.#.O.#.$.$.$.$.$.$.%.%.%.%.%.%.*.%.%.%.%.z.l.z.l.l.l.k.k.k.%.k.z.v.z.z.%.%.%.%.%.%.%.%.%.%.%.%.1.%.6.%.%.%.%.1.%.%.%.%.%.%.%.$.%.%.6.*.%.k.*.6.1.1.%.%.1.%.%.%.%.%.%.%.%.$.%.%.%.%.%.%.%.%.%.%.%.%.k.k.$.$.%.%.$.%.$.%.%.$.%.$.$.%.$.%.%.$.%.$.$.%.$.$.$.@.$.%.%.%.%.%.%.%.%.$.$.%.$.%.%.%.%.1.1.%.%.%.%.%.%.%.%.%.*.%.%.%.%.%.%.%.%.$.%.%.$.%.%.%.k.k.6.k.k.k.k.k.1.k.k.k.k.k.k.k.k.k.k.k.6.k.k.k.%.k.k.k.%.%.-.l.l.l.k.S.S.S.v.v.S.S.G.S.S.S.v.G.v.G.G.G.v.G.v.v.v.v.v.v.T.P.T.T.T.T.T.T.T.T.T.T.m.G.v.v.v.T.v.v.v.v.c.l.l.l.l.k.k.x.k.k.x.l.l.l.l.k.k.k.x.x.x.k.l.x.k.x.x.x.k.x.k.x.x.k.x.k.l.c.z.k.k.k.k.k.*.%.6.6.1.%.%.%.1.%.%.$.$.%.$.%.%.$.$.%.%.$.%.$.%.$.%.$.%.$.$.%.%.$.$.%.$.%.$.%.%.$.%.$.%.%.%.$.$.%.$.%.$.%.$.%.%.%.%.$.$.$.#.$.%.%.%.%.$.$.$.$.$.$.$.%.%.$.%.$.$.%.$.$.%.k.%.*.k.%.%.%.%.%.k.1.%.%.%.%.1.k.k.%.k.k.k.1.k.%.k.%.1.1.1.6.1.%.1.%.%.%.%.%.%.k.%.%.%.k.%.%.%.1.*.%.%.1.%.%.%.%.%.%.%.1.1.1.%.*.%.6.6.*.*.1.*.%.*.%.%.%.k.k.k.k.k.k.k.k.k.k.k.k.k.k.k.1.k.6.k.1.*.k.1.1.1.k.%.%.k.k.k.k.k.k.k.%.%.$.$.%.$.%.$.%.%.%.%.%.%.%.%.1.k.%.%.%.k.%.%.$.%.$.$.%.%.$.$.$.%.$.%.%.%.%.*.%.%.%.%.k.%.k.%.k.k.%.6.%.%.1.%.1.%.%.%.%.1.%.%.%.%.%.%.%.%.$.%.$.%.%.$.%.$.%.%.%.%.$.%.%.%.%.%.$.%.%.%.%.1.%.1.$.%.%.$.%.%.%.%.%.%.$.$.%.$.%.%.%.%.%.%.%.%.$.$.%.%.%.$.%.$.$.%.%.%.6.%.k.%.k.%.1.%.%.%.k.%.%.%.%.%.%.%.%.%.%.%.%.%.%.k.%.1.k.%.k.%.1.k.$.k.%.$.k.%.k.6.1.%.%.%.%.%.%.%.%.%.$.%.$.%.$.%.%.%.$.$.%.$.$.$.%.$.$.$.%.%.$.%.%.%.%.$.%.%.$.$.%.$.%.%.$.$.%.$.%.$.$.$.%.%.%.%.%.%.%.%.%.%.1.1.1.1.1.1.%.$.%.%.$.$.$.%.%.%.%.%.%.%.1.%.%.%.%.%.%.%.%.%.%.%.%.#.k.%.%.%.%.$.%.%.%.%.%.%.k.1.%.k.%.1.1.k.%.k.k.%.k.%.%.%.%.%.%.1.1.%.%.%.%.%.%.$.%.$.1.%.%.%.%.%.k.%.*.%.%.*.%.%.%.%.%.%.*.%.%.%.%.%.%.%.%.%.*.%.%.%.k.6.1.6.%.%.%.1.%.%.%.%.%.%.k.%.k.k.k.l.k.k.k.k.k.k.k.k.1.6.6.1.6.k.*.%.%.%.%.%.%.1.%.%.%.%.%.%.%.%.%.%.%.%.%.k.%.%.%.%.1.k.%.*.*.%.%.*.%.%.%.k.%.%.k.k.%.%.k.k.%.k.k.k.k.k.x.k.k.k.1.%.%.%.%.1.%.1.%.%.%.%.%.%.%.%.k.%.%.%.%.%.%.%.%.%.%.%.$.%.$.$.%.$.%.%.%.$.$.$.$.$.#.$.#.#.#.#.$.$.$.$.$.#.$.$.$.+.*.%.%.k.%.k.k.k.k.*.k.k.1.6.k.%.1.%.*.%.*.%.%.#.O.#.#.$.#.#.#.$.$.$.$.$.$.$.#.$.$.%.%.%.$.k.k.k.k.x.l.l.l.l.l.k.k.k.%.%.k.k.x.x.k.k.k.v.v.v.v.v.v.v.v.v.v.v.v.v.v.v.v.v.x.x.v.l.l.l.x.v.l.x.v.l.x.l.x.k.k.k.1.1.%.%.k.*.*.%.6.*.*.1.6.k.%.%.k.*.%.%.%.%.%.%.$.%.%.%.$.$.%.%.$.$.%.%.%.%.%.%.%.%.%.%.%.%.1.%.%.1.%.%.k.1.%.%.1.%.1.1.1.6.%.%.6.*.%.%.%.%.%.6.%.%.1.%.%.%.1.%.k.k.1.6.6.6.6.k.1.6.k.k.%.k.k.k.k.k.1.%.%.%.%.%.%.%.1.%.%.%.%.%.%.%.%.%.%.%.%.*.*.%.*.k.%.%.%.z.l.l.v.v.T.G.G.T.v.T.T.S.T.S.S.T.S.v.v.v.v.v.k.k.1.k.%.%.%.%.%.%.%.$.#.O.$.$.i y y i i ",
",X;X,X;Xk.k.k.k.k.@.k.%.k.k.%.k.k.k.%.%.%.%.$.O.O.O.O.#.$.$.$.$.$.%.%.%.%.*.%.%.%.*.*.%.%.c.x.l.l.l.k.k.@.%.%.%.l.v.z.z.*.*.*.*.%.%.%.%.%.%.6.%.1.1.6.%.%.%.%.%.%.%.%.%.%.$.%.%.%.*.*.*.6.6.6.*.k.%.k.%.1.1.%.%.%.%.%.1.%.%.%.%.%.%.%.%.%.1.k.%.k.%.%.%.$.%.$.$.%.$.%.$.$.%.$.%.%.$.%.$.$.%.$.+.%.$.%.$.$.$.%.%.*.%.%.%.%.%.%.@.%.%.%.%.$.%.%.%.%.%.1.%.%.%.%.%.%.%.%.%.%.%.%.%.%.%.%.%.%.%.%.%.k.k.k.%.k.k.k.k.k.k.k.k.1.1.k.1.6.6.k.6.k.k.k.k.k.k.k.k.k.%.k.%.*.l.l.k.l.S.v.v.v.v.S.G.S.S.S.S.G.v.S.v.v.v.v.v.v.v.v.v.v.G.G.G.T.T.T.T.T.T.T.T.G.v.G.v.v.T.v.v.v.v.v.v.l.l.l.k.x.l.k.k.l.l.l.v.l.x.l.x.l.x.k.k.x.k.k.k.x.k.x.k.k.k.x.l.k.k.l.x.l.x.l.k.k.k.k.k.%.6.1.6.1.%.%.%.%.$.%.%.%.$.$.%.%.%.%.$.%.%.%.%.%.%.%.%.%.%.%.$.%.$.%.$.%.%.$.%.%.%.$.%.%.$.%.$.$.%.%.$.%.%.$.%.%.$.%.$.%.$.$.$.%.%.%.$.%.%.%.%.%.%.$.$.$.$.%.$.$.%.$.#.k.%.k.%.%.k.k.%.k.%.%.%.k.%.k.%.1.k.1.k.%.k.1.k.1.k.%.6.1.6.6.%.1.%.*.%.%.k.%.%.%.%.1.%.%.%.k.%.k.%.%.%.%.%.%.1.%.k.k.%.6.%.6.%.*.*.6.*.6.6.6.*.*.*.%.%.%.%.%.k.k.k.k.k.k.k.k.k.k.k.k.k.k.k.6.k.6.k.*.k.1.1.1.%.%.%.k.k.k.k.k.k.k.k.k.%.%.$.%.$.%.%.%.$.%.%.%.$.k.%.%.%.%.%.$.%.%.%.%.$.$.%.$.%.%.%.%.%.%.%.%.%.%.k.*.*.%.%.%.k.%.%.%.k.%.6.%.%.%.%.*.%.%.1.%.6.%.%.6.%.%.%.%.%.%.%.%.%.%.%.%.$.%.$.$.%.$.%.%.%.%.%.%.%.%.$.%.%.$.%.%.%.%.%.%.%.%.%.$.%.%.$.%.$.$.%.%.%.%.%.%.%.%.%.$.%.%.%.%.%.%.%.%.6.1.1.k.%.k.%.%.%.%.%.1.%.1.%.1.1.%.1.1.1.1.1.1.6.%.%.%.%.%.%.%.1.$.k.%.%.k.%.k.%.1.1.%.1.%.1.%.%.%.%.%.%.$.%.$.%.%.$.,.%.%.%.$.%.%.$.%.%.%.$.%.$.%.$.$.%.%.%.$.%.%.%.<.$.%.%.%.%.$.%.1.$.1.$.%.%.%.%.%.6.%.%.1.%.%.1.%.1.1.$.%.$.$.%.%.%.%.$.%.%.%.%.%.%.%.%.%.%.%.%.%.1.%.1.%.1.k.#.k.$.k.%.%.%.%.%.%.%.%.1.1.k.1.k.1.k.k.k.%.%.k.%.k.%.%.$.k.%.%.%.%.1.%.k.%.1.%.k.1.%.%.%.%.%.%.%.%.%.%.%.%.%.%.%.%.%.%.%.*.%.1.%.%.1.%.k.%.%.%.%.%.%.*.*.*.*.%.%.%.%.%.%.%.%.%.%.k.k.l.l.k.k.k.k.k.k.k.1.k.%.6.6.6.1.%.*.6.%.%.%.%.%.%.%.%.1.%.%.%.%.%.%.*.%.%.%.%.%.%.k.%.%.%.%.k.*.*.*.@.%.%.%.%.%.%.%.%.k.k.%.k.k.k.k.k.k.k.k.k.k.6.1.%.1.%.k.%.1.%.1.%.%.k.%.k.%.%.%.%.%.%.%.k.%.%.%.%.k.%.$.%.%.%.$.%.$.$.$.$.$.$.$.$.#.#.#.#.#.#.$.$.$.$.$.$.$.$.$.$.%.1.1.%.%.k.k.%.k.6.*.6.6.6.k.6.%.*.*.%.%.%.%.#.#.#.#.$.#.#.#.$.#.$.$.#.#.$.#.$.$.%.%.-.%.k.k.k.k.l.l.l.l.k.k.k.k.k.k.k.%.k.k.l.k.l.x.x.v.v.v.v.G.S.v.v.v.v.v.x.v.l.v.x.l.v.x.l.v.v.l.x.v.v.x.z.v.v.l.x.k.k.1.k.k.*.6.6.*.6.6.*.*.%.1.%.*.%.*.%.*.%.%.%.%.%.%.%.$.%.%.%.$.%.%.%.%.$.%.%.%.%.%.%.%.%.%.%.%.1.%.%.1.%.%.%.%.k.6.%.6.6.%.6.6.6.%.%.*.1.1.6.6.6.*.6.%.1.%.%.1.6.k.%.1.k.6.6.6.1.k.6.6.k.k.k.1.k.1.%.1.%.1.6.%.6.6.%.6.1.6.%.%.%.%.%.%.%.%.%.%.%.*.*.%.%.%.k.%.x.z.l.x.v.T.T.v.T.T.v.T.T.S.S.T.S.T.v.v.v.v.v.k.1.k.1.%.$.%.$.$.%.%.k.#.#.#.k.i p i i y ",
":X,X:X:Xk.k.k.k.%.%.k.%.k.k.k.%.k.k.-.%.@.%.@.O.O.O.+.+.@.$.@.@.$.*.*.%.*.*.%.%.-.%.%.%.%.z.z.l.l.l.k.k.k.-.*.-.v.x.z.c.%.%.%.*.%.%.%.%.@.%.1.*.1.%.%.%.%.%.%.%.%.$.%.%.%.%.$.%.$.*.*.6.6.6.*.6.1.1.6.%.%.%.%.-.%.%.$.%.%.%.%.%.-.%.%.%.%.%.%.*.k.%.%.%.$.$.$.$.$.$.%.$.@.%.$.$.@.$.%.$.+.%.$.%.%.%.@.$.@.$.@.%.%.*.%.%.-.@.%.%.$.%.%.$.%.%.%.%.@.%.%.%.@.%.*.@.1.%.%.%.*.-.%.%.%.%.@.$.@.@.%.%.*.6.6.6.6.k.k.k.k.k.k.k.%.k.k.k.k.k.k.k.k.k.k.k.k.k.k.k.%.k.%.k.*.z.l.l.k.S.S.S.v.v.G.G.G.S.S.v.S.S.v.Z.v.S.S.v.v.v.l.v.v.T.T.G.T.T.T.T.T.T.m.T.T.m.v.G.G.v.v.v.v.v.v.v.x.x.l.k.l.l.k.l.l.k.z.z.z.c.l.l.l.l.k.l.k.l.l.x.k.k.l.x.k.k.k.k.x.k.k.l.l.l.l.k.k.k.k.k.*.6.6.6.*.*.*.*.*.%.%.%.%.%.%.@.%.$.%.%.+.%.%.$.%.%.%.$.%.$.$.%.$.#.$.%.#.$.%.$.%.%.$.%.$.%.%.%.%.$.$.%.$.@.%.$.%.%.$.%.$.$.$.+.%.%.%.%.%.@.%.@.%.$.$.$.%.#.$.$.+.$.$.@.k.%.%.k.*.*.*.*.*.%.*.@.%.%.%.%.6.k.6.6.k.*.k.k.%.k.6.*.*.*.*.%.%.%.%.%.%.%.%.%.%.%.%.*.%.*.k.%.*.%.%.*.*.%.%.*.%.*.%.-.%.6.*.*.%.*.*.6.%.k.%.*.%.*.%.%.%.%.*.k.k.k.k.k.k.x.k.k.k.k.k.k.k.k.k.k.*.*.*.*.*.*.*.*.-.*.*.k.k.k.k.k.k.k.*.%.%.%.$.%.-.%.@.%.%.#.$.1.$.%.k.%.%.%.%.%.@.%.%.%.%.$.%.$.@.%.%.%.%.%.%.%.@.%.%.%.k.$.%.k.%.k.%.%.%.@.%.%.%.@.*.%.1.%.*.6.*.*.*.*.%.$.%.%.%.%.%.%.%.$.%.%.$.%.%.$.$.%.%.%.%.%.%.@.%.%.$.%.%.%.%.$.@.%.%.@.%.%.%.%.%.%.%.%.%.$.%.@.%.%.%.$.%.$.$.%.@.$.%.%.%.%.%.%.*.*.k.k.*.*.%.-.%.1.%.%.%.%.%.%.%.%.%.%.%.%.%.%.%.%.%.%.%.%.k.%.k.k.k.k.$.k.k.,.k.*.@.%.%.%.%.%.%.%.%.$.$.@.$.@.$.#.$.$.+.$.%.$.$.$.%.%.%.%.%.%.%.%.%.%.%.%.%.%.%.%.$.%.%.$.$.$.%.$.%.$.@.$.%.@.%.%.%.%.%.1.1.1.k.1.1.1.%.%.%.@.$.$.%.%.$.%.@.%.%.%.%.%.%.%.%.%.%.%.$.%.%.%.%.%.%.%.%.%.$.%.$.%.%.%.%.%.%.k.k.k.k.k.k.6.k.k.6.6.k.k.$.k.$.$.%.%.%.%.%.%.%.$.k.$.%.%.#.%.%.$.k.$.-.*.%.%.%.%.%.%.%.%.%.%.%.%.%.-.*.%.%.*.*.%.1.%.%.%.%.%.%.6.%.%.%.$.$.%.%.$.%.$.%.k.%.k.k.l.x.k.k.k.k.k.k.k.k.k.k.6.*.*.*.*.*.%.%.%.%.%.%.*.%.%.*.%.%.%.@.%.%.%.k.%.%.%.%.*.%.%.*.*.*.*.%.%.*.%.%.%.%.%.@.k.%.k.*.%.k.k.k.k.k.x.k.k.k.k.k.1.%.%.%.%.1.%.%.%.%.%.*.%.%.%.%.@.%.%.%.%.%.%.%.%.%.%.%.@.%.$.%.$.%.$.$.%.@.$.$.$.$.@.$.$.$.$.$.$.$.$.%.$.@.$.$.$.$.*.%.%.*.*.=.k.k.k.*.6.*.=.k.6.%.%.-.-.*.%.%.*.O.#.$.$.#.@.$.+.$.+.#.$.#.$.#.$.+.@.-.%.%.%.l.k.l.k.l.v.l.l.k.l.k.k.%.k.k.k.%.k.k.k.x.k.k.v.v.G.v.v.S.v.S.v.v.v.v.z.v.v.x.v.l.l.l.l.l.x.v.v.z.z.l.x.l.x.x.k.*.*.k.*.*.*.*.*.k.*.*.*.6.%.6.6.*.*.*.*.-.%.%.%.-.%.%.%.%.%.%.%.%.%.%.%.%.%.%.%.-.k.%.%.%.%.%.%.%.%.k.@.1.1.%.%.k.%.%.1.-.k.*.*.*.*.*.*.%.*.*.*.%.@.*.@.%.%.%.%.%.6.k.6.%.k.k.*.k.k.k.k.6.k.k.k.k.*.k.*.%.1.%.%.*.%.%.*.@.k.%.%.@.%.%.%.%.%.%.%.%.%.%.%.k.%.%.%.z.l.l.l.v.G.G.G.G.v.T.v.T.v.G.v.G.v.v.z.x.v.v.1.k.k.k.#.n @.@.#.%.k.k.O.#.O.k.a u p u u ",
",X:X:X>Xk.z.k.k.k.k.k.k.k.k.k.k.k.k.k.*.*.%.-.+.O.+.$.$.%.%.%.-.*.6.*.*.*.*.*.*.*.k.k.*.*.v.v.v.v.v.Z.l.k.k.k.k.S.S.S.Z.*.*.6.6.k.%.%.%.%.k.6.6.k.k.k.k.k.k.k.k.k.k.1.k.1.1.*.6.k.k.k.k.k.k.k.k.k.6.k.k.k.k.k.*.1.%.k.1.1.k.6.1.k.k.k.k.k.k.k.k.k.k.k.k.%.%.%.%.%.%.%.%.%.@.%.k.%.k.k.%.k.@.k.%.%.%.k.%.*.@.%.k.k.k.k.k.k.k.*.*.1.%.1.1.@.k.*.k.k.*.*.k.k.k.k.k.k.6.6.k.k.k.k.k.*.k.6.k.k.*.*.*.6.k.l.k.k.l.l.l.x.x.l.l.l.l.l.x.l.l.l.l.z.k.k.x.k.l.k.k.k.k.k.k.k.S.S.v.v.R.T.R.R.G.E.R.R.T.G.G.S.S.T.G.R.T.H.G.T.T.G.G.v.T.T.R.R.R.R.E.E.W.E.E.E.R.R.T.T.T.T.G.T.T.T.G.S.v.v.S.S.v.v.v.v.v.v.v.v.v.v.z.l.z.l.l.v.x.x.l.l.x.v.x.l.l.z.z.z.c.x.v.v.S.S.l.l.z.v.Z.k.k.k.l.l.k.6.k.k.*.*.*.*.*.*.*.k.%.$.k.k.%.%.k.%.%.%.k.*.%.*.%.k.%.%.k.k.@.k.%.k.%.k.%.%.k.%.%.k.%.%.k.k.%.%.k.k.%.%.1.%.%.k.%.%.k.6.k.k.k.*.k.k.k.%.%.%.k.k.%.k.-.%.%.k.k.k.k.*.k.*.*.*.k.k.k.k.k.6.k.l.k.x.k.l.l.l.k.k.k.k.k.k.k.k.k.k.k.k.k.k.k.k.k.k.k.k.k.k.k.k.k.k.k.k.k.k.k.k.k.x.k.k.k.k.k.k.k.6.k.k.6.k.k.k.k.k.k.k.k.k.k.x.v.v.l.z.l.x.x.l.x.x.x.v.x.l.z.l.k.l.l.k.l.k.k.k.k.k.*.l.z.k.x.l.k.l.l.l.6.*.%.6.*.*.*.%.k.k.k.k.k.k.k.k.k.k.k.k.k.@.k.k.%.k.%.%.k.%.@.k.%.k.%.k.k.k.k.k.k.k.k.k.k.@.k.k.k.k.k.k.k.k.k.k.6.k.7.6.6.6.k.6.*.k.%.k.%.%.*.*.*.%.k.%.*.6.%.%.k.k.6.*.k.*.*.k.*.1.k.k.%.%.k.6.%.*.*.*.k.k.1.1.6.k.%.k.%.k.k.k.k.%.k.%.k.k.%.%.k.k.%.%.%.%.6.*.k.k.*.k.k.k.k.k.k.k.k.k.k.k.*.k.k.k.k.k.k.k.k.k.k.x.k.k.k.k.k.k.k.k.k.k.k.k.k.k.k.l.k.k.*.*.k.k.k.k.k.k.%.1.%.%.%.k.k.k.k.k.%.%.k.k.%.%.k.*.*.%.*.1.1.1.1.%.*.%.*.%.6.6.%.*.*.*.*.1.1.1.1.*.*.*.%.%.6.6.k.k.k.k.k.k.k.k.k.k.%.%.*.%.k.%.%.k.%.%.k.k.*.*.k.*.k.*.k.1.k.k.k.k.1.1.k.%.k.k.k.k.k.k.k.1.k.k.k.k.k.k.l.x.k.x.l.l.l.l.l.l.k.k.k.k.k.k.k.k.k.k.k.k.k.k.k.k.k.k.k.k.k.k.k.k.k.k.k.k.k.k.k.*.k.*.k.k.k.k.k.k.k.6.k.k.k.6.k.k.k.k.k.k.k.k.k.k.k.k.k.k.k.k.k.k.k.k.l.v.v.v.v.z.l.z.l.k.x.x.l.k.l.k.l.k.k.k.k.k.%.k.k.*.k.k.*.*.k.k.*.*.k.k.*.k.%.k.k.*.*.k.k.k.k.k.k.k.k.*.k.k.k.k.k.k.k.k.k.l.l.l.l.l.l.l.v.v.v.v.x.l.k.x.k.k.k.k.k.k.k.k.k.k.6.k.k.k.*.k.%.%.k.%.%.k.k.k.k.@.k.*.*.k.*.*.*.1.6.%.*.%.%.%.@.@.%.%.@.$.%.%.%.-.-.%.%.%.%.%.k.k.k.k.k.l.z.k.l.k.k.k.k.k.x.k.k.k.k.k.*.*.*.@.@.%.$.%.@.%.%.%.@.$.$.%.$.$.$.$.%.k.k.k.k.l.z.z.l.v.v.v.v.z.l.l.z.k.k.k.x.x.v.v.v.v.z.x.v.G.G.G.m.G.S.S.v.T.G.G.G.T.T.T.G.G.G.G.G.v.G.v.v.S.z.v.v.v.v.x.k.k.k.k.k.k.*.k.k.k.k.k.k.k.k.k.k.k.k.k.k.l.k.*.k.k.k.k.k.6.6.6.*.*.-.*.*.*.*.*.6.-.k.%.k.k.k.k.k.k.k.k.k.k.k.k.k.k.k.k.k.k.k.k.k.k.k.k.k.k.k.k.k.k.k.k.k.6.k.6.k.k.k.k.k.x.l.k.x.l.x.x.l.l.l.l.l.l.l.l.k.6.k.6.6.k.k.6.k.k.k.k.k.1.k.*.k.*.*.k.k.k.k.k.k.k.k.k.k.v.v.v.v.G.H.H.R.R.E.R.R.E.E.E.G.E.H.H.v.S.S.S.k.k.x.k.%.k.k.k.k.%.k.k.%.k.k.#.d p u i i ",
"~./.!.H.; u y y y ; y ; y ; y y y ; ; y y > y > y ; ; y y ; ; y ; > > > > > y , y y y y y y y > y > y ; ; y ; y y y > > > > > y y y ; y u y u y y y y > > y y y y y i y y > > > y ; y ; y y > > y > > ; > ; ; ; > ; > ; > > > > ; ; ; y > > ; > ; ; y ; ; y ; y ; y y y y ; ; ; ; ; ; > ; ; ; ; ; ; > ; ; y ; y ; y ; y y ; ; ; y ; > > ; ; ; ; ; ; ; ; ; ; ; ; > ; ; > ; ; > ; > ; ; > ; > > > > > > > > > > y ; > > > > > > > ; ; y y y y u y u p p p p p u u > u > , u u i p u p u u p u y ; ; ; ; ; > ; ; y > ; ; ; ; > > > ; y > y y y y y y y y u u y y y y y y y y y u u u u u u u u u u u u y , > ; y ; > > ; ; > > > > ; y ; ; > > > ; > > > > > ; ; ; > > ; > > ; > > > > ; > y ; y ; > > > > y ; ; y y ; y ; ; y y ; > > > > ; y y ; > ; ; ; ; ; ; ; > ; ; ; ; ; ; ; ; > > ; ; ; y ; > > > > ; > ; y > > > > > ; ; > ; ; y ; y ; y > > > > y y y y u y y y > > > ; ; ; ; ; y y y > y y y > y ; > ; y ; > > > > ; ; > > ; ; ; ; > > ; > ; ; ; > ; y ; > > > > , > > > > > ; y y y y y y > y ; > > ; y > > > > y ; > > ; ; ; y ; > > > > > > > > ; y ; y ; y ; y ; ; y > > > > y ; ; ; > > ; ; y ; ; y y ; ; ; y ; ; y > > > > ; y y y y ; ; ; ; y ; y y ; ; ; ; y ; y ; ; ; ; ; > ; y ; > > > ; ; > ; ; ; > ; ; > ; > ; ; ; ; > > > > ; > ; > ; ; ; y ; ; > > > ; > > ; y ; ; ; ; ; ; ; ; ; > ; ; ; ; ; > > ; y ; y > ; y y ; y > ; ; ; ; ; > > > y ; > y > ; > > ; > ; ; y ; > > > ; y ; y > y ; ; ; ; ; ; > > ; ; > ; y ; y > > ; ; ; > ; ; y ; ; y ; > ; ; ; y ; ; ; ; ; ; ; ; ; ; ; > ; ; ; > y ; > > > > ; > y ; > > y > > > > ; > ; > > ; > ; > ; > ; > ; y ; ; ; ; y > ; y ; y ; ; ; y ; ; ; ; ; ; ; ; > ; > ; y ; y ; ; ; > ; > ; ; ; ; ; y ; ; > ; ; ; > ; > y ; ; ; y ; ; ; ; ; ; > ; ; ; ; ; > ; > ; ; ; ; ; ; ; ; ; ; > ; ; y ; y ; ; y ; ; > ; > > ; > ; ; ; ; y > ; > ; ; > ; ; y ; y ; ; ; > > > > > > ; y y ; > > ; ; ; > ; y > ; ; ; ; ; ; ; ; y > ; ; ; ; ; ; y y ; ; > > > y y y y y > y > y > y y > y > y ; y y y y y ; > y ; ; ; ; ; > > > ; ; ; ; > > > y ; y y > > y ; y ; y y y y y y ; y y ; y ; ; ; ; ; > ; > > ; ; y ; y ; ; ; > ; ; > ; > ; ; y ; y ; ; ; ; ; ; ; ; ; ; y > ; > > > > > > ; y y y y y y y y y y y y y y y y ; > ; > ; y > > > y ; y y > > y y ; y y y y y y y y y y y u y y y y u u u y y y y y y > ; ; y > ; > ; ; ; ; ; ; ; y y ; y ; ; > > y y y y ; y > > ; , y ; y y > > > > y ; ; ; > > ; ; y ; ; ; > ; ; > ; ; ; y > > ; > y ; ; ; ; y ; ; y ; ; y > > > y > > > > y ; y y ; ; y ; ; > > ; > ; y ; ; ; > > ; > > > ; ; ; ; ; ; ; ; ; ; ; > ; > ; y ; > > > > > ; > ; ; y ; > ; > > ; y y ; y ; y ; ; y ; ; y ; y y ; y y y y > y > y y y y y y y y y > > > ; y y ; y ; ; ; ; ; y y ; ; y u u u u i ",
"/./.H.-.; y y u y y y y y y y y y ; y y ; y > > ; y y ; y y ; y ; > ; > ; > > > ; y ; y y ; ; y > > ; y ; ; ; ; y y > y y y > > ; y y y y y y y y y > y > y y u i y y i y y > > ; y ; y > > > y y y y y y > ; y > > ; > ; ; > ; ; y ; ; ; ; > ; > > ; ; y ; y ; ; ; y y ; y y ; y ; y > y ; y ; y y ; > y ; ; ; ; ; ; ; ; ; y y ; ; y > y ; y ; y > ; y ; y y ; > > > > y ; ; ; > > ; > y ; > ; > ; > > > > y ; > > > > > y > > y ; y y y y u u u a a a a p u u u > > , > u u u u u u u y y y ; ; ; ; > > > ; > y > y y > > > > > > > > y > y y y y u y u y y y y y i y y u u u u u u u u u y u y u y y y > ; y y ; y > y > > > y y y y > > ; > ; > > > > > y ; ; ; > > ; > ; ; ; > ; > ; y ; y > > y > ; y y y ; y ; y ; y ; ; > > ; > ; y ; ; > > > ; y ; ; y > > > > ; y ; y > > ; > y ; ; ; ; > ; > > > ; y ; > > > y y > > y y ; y > > ; > > > > ; y y y u y y y > > y > > y y y y u y y u y y y > > > ; y y ; > ; > > ; > ; y ; ; > > > > > y y y > y ; y > > > > > > > > > > > ; > > > > > > ; > ; ; ; y > > > > ; y ; > y y ; ; ; > > ; ; ; > > > > ; ; ; ; ; y ; ; y ; y > > > ; y y y > > > > ; y ; ; ; y ; ; ; y ; y y > > > y y y y y y ; y ; y ; ; ; y ; ; y ; y ; ; y ; y ; > ; ; > ; ; > ; ; ; ; ; > ; y > > > > y ; y y > > > > > > > ; > > ; ; y > y > y y > > ; y y y > > > > ; > ; y ; ; ; ; > > ; y ; > > > ; y ; ; > > > > > ; > > ; y ; y y > > y y > > > y y ; ; > ; > > ; y ; > > y y ; ; ; ; ; ; ; > ; ; y ; ; ; > > > > > y > > y ; ; > ; > ; ; y ; ; y ; ; y ; y ; y ; ; ; > ; > ; > > > > > y ; y > y > y > y > y > > > > ; > ; > ; > ; ; > ; y y y y y > > ; y ; ; ; ; ; ; ; ; ; ; ; ; ; > ; ; > > ; ; ; ; ; > > > > > > > > ; ; ; ; > ; > ; ; ; ; ; ; ; ; ; ; ; ; ; > ; ; y ; y ; ; ; > > > > > > y ; y ; ; ; > > y ; y ; y ; ; ; > > > ; > > ; > y ; ; ; > > > > ; y y > > y ; ; ; > ; > ; > ; > y ; ; ; > ; > ; ; ; ; > ; y ; y > > ; > ; y ; ; > > > > ; y ; y y > y > ; y ; y > y > > ; y ; ; ; ; y ; y y ; ; ; ; y > ; y ; y ; > ; > ; y ; y > > > > ; y ; ; > > > y ; y ; y > > ; y y y ; y ; y y y > > > y y ; y ; y ; ; ; > ; ; y > ; > > ; y ; ; ; y y ; ; > ; y ; ; ; ; > ; > ; > > > > y ; y y y y y u y y y y y y y y y y y > y y > > y > y y > y > y y y y y y y y y u u u y y y y y y y u u y u u u y u y y ; > ; ; > > ; > ; y ; y y y ; y ; y y y > > > > ; y y ; > > > > ; y ; ; ; > > > ; ; y ; ; ; y > ; ; y y > > ; > f y ; y > , > > ; y ; y y ; y ; ; y y ; > y y ; y > y y y ; y ; > > ; y ; > > y ; > ; ; > ; ; ; > ; ; > ; y ; y ; > > > ; > ; > > > ; y ; > ; > ; > > > y ; y ; > > > ; y ; ; y ; y ; y y ; y y ; y y ; y ; y ; y > > > y y y y y y ; y y y > > y y ; y ; ; y y ; > y ; > ; y y u u u i ",
"E.!.@.@.; ; ; ; ; y ; y ; y ; y y y ; > y ; y y y y ; y ; y y ; y ; ; ; y ; y ; > y ; ; ; ; ; y ; ; > ; ; y ; ; y y y y > y > , y y y y y y y y y y y y y y u u u u u y u y > > ; > ; ; y ; > y > y y y y ; y ; > ; > ; ; ; > ; ; ; ; ; ; ; ; ; ; > ; > ; ; y ; y ; y y ; y y y ; y y y ; y y y ; ; y ; ; ; ; ; ; y ; ; ; y ; ; ; y y y y ; y y ; y ; ; y ; y y > > ; ; y ; ; ; > ; ; > > ; ; y ; > ; > y ; ; > ; y ; y > y > y y y y y u u u u u p a p p u u u y y > y > u u u u u u y y > ; ; ; ; ; ; > > ; y > > y y y > > > y ; y > y y y y y y y y y y y y y y y y u u y u u u u u u u u u u y y y y y y ; ; y ; y > ; y > y y ; y ; ; ; y > > > > > ; > ; > > > > > > > > > > > > > , y ; > > y y y y y y y ; y y ; y y y > ; ; y ; y ; y > ; y ; ; y ; ; ; > y ; y ; y ; > > y y ; y y ; > ; ; ; y y ; ; ; y y y ; y ; ; y ; y ; y ; y ; ; ; y ; y y y y y y y y > > , > y y y y u y u u y y > ; ; ; ; ; ; ; y y > ; > > y ; y y y ; > y y y > > y ; y ; ; y y y > > > > ; ; y ; ; y ; y > y ; > y ; ; ; y y y y y ; y ; y ; ; ; y ; ; ; > ; ; ; ; y ; ; ; y y ; ; y ; y > > y ; y ; y y > > y y y ; y y y ; y y y ; y y ; y y y y y y y y ; y y ; y y ; ; y ; y ; y y y y ; ; ; y ; y ; ; > > ; > ; ; ; ; ; > ; > ; ; y > y ; y y y ; y > ; > y y ; ; y ; y > > ; y ; y y y y y ; y ; ; > ; > > y ; y y y y y y y ; y ; y ; y ; ; ; y ; > > ; > ; ; y ; ; y y y > y > > y y ; y > ; ; > > ; > ; y y ; ; ; y y y > ; ; > ; y ; y y ; y y > > y ; y ; y y > ; y y ; ; y y ; ; ; ; > ; ; ; > ; > > ; > > > > y y y ; y y y > y > y > y > > ; > ; > ; ; ; ; ; > y ; > y y y > ; y ; y ; ; ; > ; y ; ; ; y ; ; ; ; ; ; ; y ; y y ; ; ; ; y ; ; ; ; > ; ; y ; y ; ; y > ; ; > y ; ; ; ; ; ; y > ; > ; y y y ; ; y y y > > > > > > > ; y ; y y ; ; y ; y ; ; y ; ; ; y ; > > ; y ; y ; y ; y y y y ; y ; y ; ; ; ; y ; > ; ; ; y ; y ; ; > > ; > ; > > > ; y ; > ; ; ; y ; ; y > ; ; y ; ; y ; > > y y y y y y y > y y y ; y y y y y y y y y y y y y y y ; ; ; > ; ; > > ; y ; > > ; y ; y y y > ; y ; y ; y ; y y y y ; y ; y y ; y ; ; ; ; ; > ; y ; ; ; y ; ; ; ; ; ; y ; y y ; ; ; ; ; y ; > ; y ; > ; ; ; ; ; ; y > > > y y y ; y y y y u y y y y u u u y y y y y > ; y > y y ; y y y y y ; y y y y y y y u u y y y y y y y y y u y y u y u y y y ; y ; y ; y y y y ; y y ; ; ; y ; y y ; ; y y y ; y y y ; > y ; y ; ; y y y y ; y ; y y > > ; y ; ; y ; > > ; y ; y y ; y ; y y ; y ; ; ; ; y ; ; ; y y y y ; y > ; y y y ; y y y y y ; > ; y ; > ; y ; ; ; ; ; ; ; > ; ; ; ; ; > ; ; > > ; > ; ; ; y ; ; ; ; ; > > > ; y y y y ; y y ; ; y ; y ; ; y ; ; y y ; y ; ; y y y ; y ; y y y y y ; y y y y y y y y ; ; y ; ; y y y ; ; y y y > > y y u u u u ",
"z.-.@.@.y u u u y u y u y y y y u u y y y y y y y y y y y y y y y y y y y y y y y y y y y y y y y y y y y y y y u u u y y y y y y y y y y u u y y y y i y u u u p i u u y y y y y y y y y y y u u y y y y ; y y y y y y y > y y y y y y y y y y y ; y y y ; y y y y y y y y y y y y y y y y y y y y y y y y y y y ; y ; ; y y y y y y u y y y y y y y y y y y y y y y y y y y y y y y y y y y u , > > y u u y y y y y u y u y y y u y u u u p u a a a a a u p u y u y y y p p i u a u u y u u ; ; ; ; ; > y y y y y y u y > y > y y y y y y y i i i u i p u u u u u u u u u u p p u p p u p u u u u u y u u y y y y y u y y y y u u y y y y y y , > > y y y y y > , y > y y y y > > > > > y y u y y y y y y y y y y y u y y y y > > y > y y y y y y y y y ; y y > > y y y y y y > y y y y y y y y y y y y u y y y y y y y y y y u u y y y y y y u y u u y y u u u y y u u y u y u u y u u u u u u u y y y y y y y y y u y y y y y u y ; y y y u y y y y y y y y y y y u u u y y y y y y y y u y y y y y y y y y y y y u y y y y u u u y y ; y u y y y y y y y y y ; y y y y > y y y y u y y u u > y y y y y y y y y y y y y y y y y y y y y y y y y y u y y y u > y y y ; y y y y y y y y y y u y > y y > u y y y y y y y y y y y y y y y y y y y y y y y u y y y y y y y y y y u u y y y y y y y > y y y y y ; y y y y y y y y y y y y y y y y y > y y y y y y y y y u y y y u y y y y y y y y y y y y y y y y y y y y > > > y y y y y y y y u y > y y y y y ; > > y y y y y y y y y y > > y ; > y y y y y y y y y y u y y y u y y y u y y > y u > y > y u y y > > y i y y y y y y y y y y y y y y y y y y y ; ; y y y y y y y y u y y y y y y y y y y y ; y ; y ; y y y ; y y y y y ; y ; y y y > y y y y y y y y y y > y > > y y ; y y ; y u y y y y y u y y y y y y y > y y y y y y y y y u y y y y y y y y y y ; y y y y y y u y y y ; y y > y ; y y y y ; > y y y y y y y y y y ; y y y y y y y u y y y y u u u u y y y y y y y y y y y y y y y y y y y y > > > y > y y y > > y y y y y u y y y y y y y y y y y y y y y y y y y y y y y y y y y y y y y y y y y y y y y y y ; y y y y y u y ; y y ; u y y y y y u y y y y u u u u y u u u y u u u u u u y y y y u y y y y y y y y y y y y u u u u y y u p p u u u y y y y y y y u u p u u u p u u y y y y y y y y y y y y y y y y ; y y y y y y u y y y y y u u u y y y y y y y y y y y u y y y y y y y u y y y y y y y y y y y y ; y y y y y y y y y y y y y y y y y y y u u y y y y y y u y y y y u y y y ; y ; > > > y y ; y y y y y ; y > y y y y y ; y y y y y y y y u u y y y y y y y y y y y y y y y y y y y y y y y y y y y y y y y y y y y y y y y y y ; y y y y y y y ; y ; y y y y y i u y i i ",
"            X     X .         X           X .         X X X X X       X X       X         X .     X     X   X     X   X X     . .       . X X X X .         X o o o X X . .           X X   X   X       . X .       X     X       X .     X   . X     X X X   X   X   X     X         X     X     X X     X   X X     X       X     X       X     X   X X   X       X                                 .             .                 X       X     X X . X X .       X   X                   X X     X o X                                                 X   X   X     . .     X X         X       X X         X     X     X     X X X X .   X     . X     X     X             X   X     X   .   X         X   X X       X   . X . X   X X X .   X     X X   .     .             .       X   .                     .               X       X   X X   X X   X X   X         .           X   X X X       X   X X             . X     X     X         X X     X         X     X X         X   X X         X                                 X         X .           .         X .   X             .   .     X X .   X       X       X       X       X               . X     X         X                               .                       .             X       X                         .           X   X         .         .           .           X     X   .   X             .                                 X       .                       X     . . .                           X                                                                             .                             X   .                               X   .       X             . X     X     X     X     X     X               X X X                               X       X         . X                 X       X   X X   X   X           X                 X X     X .     X           X   X   X   X     X         X     X     X   X   X   X   X X X       X     X   .     .     .   .   X       X   X                 X X   X     X   X X   X X . X X X       X   X X   X X   X       X X     X X         X X     X         X       X           .         . X           X         X X   X         X     X X X X X o o o o X   .       X X X X X X X X o o o o X   X   X X       X         X     X               X                 X     X       .     X   X X X       X   X   X X   X   X   X X   X   X     X X   X       X   X X . X   X         X   X X   X         X   X X X . X X X   X   X X X X       X         X   X X     X     X     X X .   X   X X X X     X   X X     X X     X         X         X   X X   X X X X o X X     X       X X     X   X X X "
};
