/* XPM */
static const char *enemy_floor3_blue_guard_death_f03[] = {
/* columns rows colors chars-per-pixel */
"64 64 34 1",
"! c None",
"# c #AC0C0C",
"$ c #C01010",
"% c #840404",
"& c #D86464",
"' c #5C0000",
"( c #700404",
") c #CC3838",
"* c #C42424",
"+ c #980808",
", c #000000",
"- c #3C6CA0",
". c #4C78A8",
"/ c #603814",
"0 c #2C5480",
"1 c #346090",
"2 c #142840",
"3 c #C42470",
"4 c #D8649C",
"5 c #CC3880",
"6 c #3C3C3C",
"7 c #2C2C2C",
"8 c #244870",
"9 c #980088",
": c #A4A814",
"; c #204060",
"< c #4C4C4C",
"= c #500024",
"> c #640030",
"? c #740438",
"@ c #880444",
"A c #D05090",
"B c #C01064",
"C c #AC0C58",
"!!!!!!!!!!!!!!!!!!!!!!!!!!!!!!!!!!!!!!!!!!!!!!!!!!!!!!!!!!!!!!!!",
"!!!!!!!!!!!!!!!!!!!!!!!!!!!!!!!!!!!!!!!!!!!!!!!!!!!!!!!!!!!!!!!!",
"!!!!!!!!!!!!!!!!!!!!!!!!!!!!!!!!!!!!!!!!!!!!!!!!!!!!!!!!!!!!!!!!",
"!!!!!!!!!!!!!!!!!!!!!!!!!!!!!!!!!!!!!!!!!!!!!!!!!!!!!!!!!!!!!!!!",
"!!!!!!!!!!!!!!!!!!!!!!!!!!!!!!!!!!!!!!!!!!!!!!!!!!!!!!!!!!!!!!!!",
"!!!!!!!!!!!!!!!!!!!!!!!!!!!!!!!!!!!!!!!!!!!!!!!!!!!!!!!!!!!!!!!!",
"!!!!!!!!!!!!!!!!!!!!!!!!!!!!!!!!!!!!!!!!!!!!!!!!!!!!!!!!!!!!!!!!",
"!!!!!!!!!!!!!!!!!!!!!!!!!!!!!!!!!!!!!!!!!!!!!!!!!!!!!!!!!!!!!!!!",
"!!!!!!!!!!!!!!!!!!!!!!!!!!!!!!!!!!!!!!!!!!!!!!!!!!!!!!!!!!!!!!!!",
"!!!!!!!!!!!!!!!!!!!!!!!!!!!!!!!!!!!!!!!!!!!!!!!!!!!!!!!!!!!!!!!!",
"!!!!!!!!!!!!!!!!!!!!!!!!!!!!!!!!!!!!!!!!!!!!!!!!!!!!!!!!!!!!!!!!",
"!!!!!!!!!!!!!!!!!!!!!!!!!!!!!!!!!!!!!!!!!!!!!!!!!!!!!!!!!!!!!!!!",
"!!!!!!!!!!!!!!!!!!!!!!!!!!!!!!!!!!!!!!!!!!!!!!!!!!!!!!!!!!!!!!!!",
"!!!!!!!!!!!!!!!!!!!!!!!!!!!!!!!!!!!!!!!!!!!!!!!!!!!!!!!!!!!!!!!!",
"!!!!!!!!!!!!!!!!!!!!!!!!!!!!!!!!!!!!!!!!!!!!!!!!!!!!!!!!!!!!!!!!",
"!!!!!!!!!!!!!!!!!!!!!!!!!!!!!!!!!!!!!!!!!!!!!!!!!!!!!!!!!!!!!!!!",
"!!!!!!!!!!!!!!!!!!!!!!!!!!!!!!!!!!!!!!!!!!!!!!!!!!!!!!!!!!!!!!!!",
"!!!!!!!!!!!!!!!!!!!!!!!!!!!!!!!!!!!!!!!!!!!!!!!!!!!!!!!!!!!!!!!!",
"!!!!!!!!!!!!!!!!!!!!!!!!!!!!!!!!!!!!!!!!!!!!!!!!!!!!!!!!!!!!!!!!",
"!!!!!!!!!!!!!!!!!!!!!!!!!!!!!!!!!!!!!!!!!!!!!!!!!!!!!!!!!!!!!!!!",
"!!!!!!!!!!!!!!!!!!!!!!!!!!!!!!!!!!!!!!!!!!!!!!!!!!!!!!!!!!!!!!!!",
"!!!!!!!!!!!!!!!!!!!!!!!!!!!!!!!!!!!!!!!!!!!!!!!!!!!!!!!!!!!!!!!!",
"!!!!!!!!!!!!!!!!!!!!!!!!!!!!!!!!!!!!!!!!!!!!!!!!!!!!!!!!!!!!!!!!",
"!!!!!!!!!!!!!!!!!!!!!!!!!!!!!!!!!!!!!!!!!!!!!!!!!!!!!!!!!!!!!!!!",
"!!!!!!!!!!!!!!!!!!!!!!!!!!!!!!!!!!!!!!!!!!!!!!!!!!!!!!!!!!!!!!!!",
"!!!!!!!!!!!!!!!!!!!!!!!!!#$!!!!!!!!!!!!!!!!!!!!!!!!!!!!!!!!!!!!!",
"!!!!!!!!!!!!!!!!!!!!!!!!!!%&!!!!!!!!!!!!!!!!!!!!!!!!!!!!!!!!!!!!",
"!!!!!!!!!!!!!!!!!!!!!!!!!!!'(!!!!!)!!!!!!!!!!!!!!!!!!!!!!!!!!!!!",
"!!!!!!!!!!!!!!!!!!!!!*!!!!!!'!!!!!+)!!!!*!!!!!!!!!!!!!!!!!!!!!!!",
"!!!!!!!!!!!!!!!!!!!!!!!!!!!!!!!!(!!+!!!!!!!!!!!!!!!!!!!!!!!!!!!!",
"!!!!!!!!!!!!!!!!!!!!!!!!!!!!!!!!!+!*!!!!!!!(%#!!!!!!!!!!!!!!!!!!",
"!!!!!!!!!!!!!!!!$++!!!!*!!!($&!!!!!+!!!!!!'!!!!!!!!!!!!!!!!!!!!!",
"!!!!!!!!!!!!!!&&((($$!!!!!!!(($$!+++!!,,!!!!!!!!!!!!!!!!!!!!!!!!",
"!!!!!!!!!!!!!!((!!!!++!!!-...-$&$$$+,//,,!!!!!!!!!!!!!!!!!!!!!!!",
"!!!!!!!!!!!!!!!!!!&&$++!-01-02-+$&/$34,,,!+#*!!!!!!!!!!!!!!!!!!!",
"!!!!!!!!!!!!!!!,,,,$222222222$+$+.$+&54//!!!!!!!!!!!!!!!!!!!!!!!",
"!!!!!!!!!!!!!!,67622011--10$082280-.$353&$&*!!!!!*!!!!!!!!!!!!!!",
"!!!!!!!!!!!!!,67,20111111-1081102201.++/,,(($!!!!!!!!!!!!!!!!!!!",
"!!!!!!!!!!!!!,6,7211--101010001-1020-.$+$$99(*!!!!!,,!!!!!!!!!!!",
"!!!!!!!!!!!&!!,,201----1010811101-120-:$,,$$!!!!,,76,,!!!!!!!!!!",
"!!!!!!!!!!*!!!!!20111--120080111---120$:$....!!,66,6,,!!!!!!!!!!",
"!!!!!!!!!!!!!!!!28011-1020828011111-1&+$-11-..!%67,7,,!!!!!!!!!!",
"!!!!!!!!!!!!!!!!2222222288;;2808801$10++$&211,,7**76,,!!!!!!!!!!",
"!!!!!!!!!!!!!!!%!,76667,;;22222001--112+&2$117667+*7,,!!!!!!!!!!",
"!!!!!!!!!!!!!!%!!,77677,222222811---0122$21+066667,,,!!!!!!!!!!!",
"!!!!!!!!!!!!!!!!!!,7777,,!!!2200111-1020&(2$87667,,!!!!!!!!!!!!!",
"!!!!!!!!!!!!!!!!!,76<7,,!!!!2811-1-112;82(011077,,!!!!!!!!!!!!!!",
"!!!!!!!!!!!!!!!!!,7777,,%!!!20801-0102822($8&08,,!!!!!!!!!!!!!!!",
"!!!!!!!!!!!!!!!!,77667,,!!!,288001102;22!($22222!!!!!!!!!!!!!!!!",
"!!!!!!!!!!!!!!!!,76<67,,!!!,72;88102222=!!($!!%!!!!!!!!!!!!!!!!!",
"!!!!!!!!!!!!!!!!,7667,,!!!!,7622;822!==>!!($!!!!!!!!!!!!!!!!!!!!",
"!!!!!!!!!!!!!!!!!,,,,,!!!!,76766222!!=?@!!($!!!!!!!!!!!!!!!!!!!!",
"!!!!!!!!!!!!!!!!!!!!!!!!!!,,7667,,!!@@?!!!!!!!!!!!!!!!!!!!!!!!!!",
"!!!!!!!!!!!!!!!!!!!!!%!!!,7,,77,,!!?@?!!!*!!!!!!!!!!!!!!!!!!!!!!",
"!!!!!!!!!!!!!!!!!!!!!!!!,76677,,!!!?A!!!!!!!!!!!!!!!!!!!!!!!!!!!",
"!!!!!!!!!!!!!!!!!!!!!!!,76767,,!!!!?BC!!!!!!!!!!!!!!!!!!!!!!!!!!",
"!!!!!!!!!!!!!!!!!!!!!!!,76<67,,!!!!!?@A!!!*!!!!!!!!!!!!!!!!!!!!!",
"!!!!!!!!!!!!!!!!!!!!!!!!,767,,!!!!!!!!!!!!!!!!!!!!!!!!!!!!!!!!!!",
"!!!!!!!!!!!!!!!!!!!!!!!!!!,,,!!!!!!!!!!!!!!!!!!!!!!!!!!!!!!!!!!!",
"!!!!!!!!!!!!!!!!!!!!!!!!!!!!!!!!!!!!!!!!!!!!!!!!!!!!!!!!!!!!!!!!",
"!!!!!!!!!!!!!!!!!!!!!!!!!!!!!!!!!!!!!!!!!!!!!!!!!!!!!!!!!!!!!!!!",
"!!!!!!!!!!!!!!!!!!!!!!!!!!!!!!!!!!!!!!!!!!!!!!!!!!!!!!!!!!!!!!!!",
"!!!!!!!!!!!!!!!!!!!!!!!!!!!!!!!!!!!!!!!!!!!!!!!!!!!!!!!!!!!!!!!!",
"!!!!!!!!!!!!!!!!!!!!!!!!!!!!!!!!!!!!!!!!!!!!!!!!!!!!!!!!!!!!!!!!"
};