/* XPM */
static const char *enemy_floor3_blue_guard_death_f02[] = {
/* columns rows colors chars-per-pixel */
"64 64 42 1",
"! c None",
"# c #000000",
"$ c #603814",
"% c #805424",
"& c #A06C3C",
"' c #A8784C",
"( c #B08458",
") c #C42424",
"* c #94602C",
"+ c #402810",
", c #C4A080",
"- c #AC0C0C",
". c #C01010",
"/ c #980808",
"0 c #743804",
"1 c #704820",
"2 c #80A0C4",
"3 c #4C78A8",
"4 c #142840",
"5 c #3C6CA0",
"6 c #5884B0",
"7 c #700404",
"8 c #346090",
"9 c #2C5480",
": c #480000",
"; c #200000",
"< c #7C7C7C",
"= c #244870",
"> c #D86464",
"? c #C42470",
"@ c #D05090",
"A c #98084C",
"B c #C4C824",
"C c #840404",
"D c #204060",
"E c #740438",
"F c #CC3838",
"G c #3C3C3C",
"H c #4C4C4C",
"I c #2C2C2C",
"J c #980088",
"K c #5C5C5C",
"!!!!!!!!!!!!!!!!!!!!!!!!!!!!!!!!!!!!!!!!!!!!!!!!!!!!!!!!!!!!!!!!",
"!!!!!!!!!!!!!!!!!!!!!!!!!!!!!!!!!!!!!!!!!!!!!!!!!!!!!!!!!!!!!!!!",
"!!!!!!!!!!!!!!!!!!!!!!!!!!!!!!!!!!!!!!!!!!!!!!!!!!!!!!!!!!!!!!!!",
"!!!!!!!!!!!!!!!!!!!!!!!!!!!!!!!!!!!!!!!!!!!!!!!!!!!!!!!!!!!!!!!!",
"!!!!!!!!!!!!!!!!!!!!!!!!!!!!!!!!!!!!!!!!!!!!!!!!!!!!!!!!!!!!!!!!",
"!!!!!!!!!!!!!!!!!!!!!!!!!!!!!!!!!!!!!!!!!!!!!!!!!!!!!!!!!!!!!!!!",
"!!!!!!!!!!!!!!!!!!!!!!!!!!!!!!!!!!!!!!!!!!!!!!!!!!!!!!!!!!!!!!!!",
"!!!!!!!!!!!!!!!!!!!!!!!!!!!!!!!!!!!!!!!!!!!!!!!!!!!!!!!!!!!!!!!!",
"!!!!!!!!!!!!!!!!!!!!!!!!!!!!!!!!!!!!!!!!!!!!!!!!!!!!!!!!!!!!!!!!",
"!!!!!!!!!!!!!!!!!!!!!!!!!!!!!!!!!!!!!!!!!!!!!!!!!!!!!!!!!!!!!!!!",
"!!!!!!!!!!!!!!!!!!!!!!!!!!!!!!!!!!!!!!!!!!!!!!!!!!!!!!!!!!!!!!!!",
"!!!!!!!!!!!!!!!!!!!!!!!!!!!!!!!!!!!!!!!!!!!!!!!!!!!!!!!!!!!!!!!!",
"!!!!!!!!!!!!!!!!!!!!!!!!!!!!!!!!!!!!!!!!!!!!!!!!!!!!!!!!!!!!!!!!",
"!!!!!!!!!!!!!!!!!!!!!!!!!!!!!!!!!!!!!!!!!!!!!!!!!!!!!!!!!!!!!!!!",
"!!!!!!!!!!!!!!!!!!!!!!!!!!!!!!!!!!!!!!!!!!!!!!!!!!!!!!!!!!!!!!!!",
"!!!!!!!!!!!!!!!!!!!!!!!!!!!!!!!!!!!!!!!!!!!!!!!!!!!!!!!!!!!!!!!!",
"!!!!!!!!!!!!!!!!!!!!!!!!!!!!!!!!!!!!!!!!!!!!!!!!!!!!!!!!!!!!!!!!",
"!!!!!!!!!!!!!!!!!!!!!!!!!!!!!!!!!!!!!!!!!!!!!!!!!!!!!!!!!!!!!!!!",
"!!!!!!!!!!!!!!!!!!!!!!!!!!!!!!!#!!!!!!!!!!!!!!!!!!!!!!!!!!!!!!!!",
"!!!!!!!!!!!!!!!!!!!!!!!!!!!!!##$##$#!!!!!!!!!!!!!!!!!!!!!!!!!!!!",
"!!!!!!!!!!!!!!!!!!!!!!!!!!!!#%&&#$&###!!!!!!!!!!!!!!!!!!!!!!!!!!",
"!!!!!!!!!!!!!!!!!!!!!!!!!!!#%&''#''&%$#!!!!!!!!!!!!!!!!!!!!!!!!!",
"!!!!!!!!!!!!!!!!!!!!!!!!!!!#&%#$($#%&$!!!!!!!!!!!!!!!!!!!!!!!!!!",
"!!!!!!!!!!!!!!!!!!!!!!)!!!#$*$+&,&+$*#$!!!!!!!!!!!!!!!!!!!!!!!!!",
"!!!!!!!!!!!!!!!!!!!!!!!-!!&#&($#%#$(&#&!!!!!!!!!!!!!!!!!!!!!!!!!",
"!!!!!!!!!!!!!!!!!!!!!!!!!./$%'%000%'%$1//.!!!!!!!!!!!!!!!!!!!!!!",
"!!!!!!!!!!!!!!!!!!!!!!!2222/1%.(((&%11/!!!!!!!!!!!!!!!!!!!!!!!!!",
"!!!!!!!!!!!!!!!!!-!!!2233.435/666-.7-/2!!!!!!!!!!!!!!!!!!!!!!!!!",
"!!!!!!!!!!!!!!!!!!!!23338945.3.:.;77.73222!!!-!!!!!!!!!!!!!!!!!!",
"!!!!!!!!!!!!!!!!!!!23)8894./97;7;;;77<.83322!!!!!!!!!!!!!!!!!!!!",
"!!!!!!!!!!!!77.!!!!4=444../>;;;;;?@A;:B4.88C2!!!!!!!!!!!!!!!!!!!",
"!!!!!!!!!!!!!!!7>!4=4D4D>//;;7E;?AE:7:DD444=82!!!!!!!!!!!!!!!!!!",
"!!!!!!!!!!!!!!!!7.8.894./5.>.F)F;;;:;.8=DDCD444!!!!!!!!!!!!!!!!!",
"!!!!!!!!!!!!!!!!//.>894/88>.///)/F)F/55.=D4DD=84!!!!!!!!!!!!!!!!",
"!!!!!!!!!!!!!!.GHH./9=498./48&9/)7/9.8.89=4988584!!!!!!!!!!!!!!!",
"!!!!!!!!!!IHGGHGGGG7=44=9>8==8:/7:788..>.44=998HHGG!!!!!!!!!!!!!",
"!!!!!!!!!HGI#HGGIGI74!4=7998498//88//..==4/4=9GGGGHGGHII!!!!!!!!",
"!!!!!!!!!I#JGI#GI##7!!477.=9=44/7999.=/=D4!!4=IGIGGH#IG!!!!!!!!!",
"!!!!!!!!!#!G##HI!!!7!!477####K#7#K####/.4!!!!4##IG#IGJ#!!!!!!!!!",
"!!!!!!!!!!!#!!I#!!!7!!!7#=998894988.9=#>4!!!!!!!!IH##G!!!!!!!!!!",
"!!!!!!!!!!!!!!#!!!!!!!!4=444444=444444=.!!!!!!!!!#I!!#!!!!!!!!!!",
"!!!!!!!!!!!!!!!!!!!!!!!44=99899889989=44!!!!!!!!!!#!!!!!!!!!!!!!",
"!!!!!!!!!!!!!!!!!!!!!!!49889=988589999=/!!!!!!!!!!!!!!!!!!!!!!!!",
"!!!!!!!!!!!!!!!!!!!!!!4985558=9889D8858=4!!!!!!!!!!!!!!!!!!!!!!!",
"!!!!!!!!!!!!!!!!!!!!!4=9988859D99D9888594!!!!!!!!!!!!!!!!!!!!!!!",
"!!!!!!!!!!!!!!!!!!!!!49858898=44448888584!!!!!!!!!!!!!!!!!!!!!!!",
"!!!!!!!!!!!!!!!!!!!!!4988888==44498898884!!!!!!!!!!!!!!!!!!!!!!!",
"!!!!!!!!!!!!!!!!!!!!!4988889944!4=9988894!!!!!!!!!!!!!!!!!!!!!!!",
"!!!!!!!!!!!!!!!!!!!!!4=98888=4!!4==8889=D4!!!!!!!!!!!!!!!!!!!!!!",
"!!!!!!!!!!!!!!!!!!!!!4D=99994!!!4=8889=9=4!!!!!!!!!!!!!!!!!!!!!!",
"!!!!!!!!!!!!!!!!!!!!!!444444#!!!4988985894!!!!!!!!!!!!!!!!!!!!!!",
"!!!!!!!!!!!!!!!!!!!!!!#IIGGI#!!!4=9=88884!!!!!!!!!!!!!!!!!!!!!!!",
"!!!!!!!!!!!!!!!!!!!!!!!#IIII#!!!4=D988894!!!!!!!!!!!!!!!!!!!!!!!",
"!!!!!!!!!!!!!!!!!!!!!!!#III#!!!!4D==9994!!!!!!!!!!!!!!!!!!!!!!!!",
"!!!!!!!!!!!!!!!!!!!!!!!#IGHI#!!!#444444!!!!!!!!!!!!!!!!!!!!!!!!!",
"!!!!!!!!!!!!!!!!!!!!!!!#GIII#!!!#IIGGI#!!!!!!!!!!!!!!!!!!!!!!!!!",
"!!!!!!!!!!!!!!!!!!!!!!#IGGGI#!!!#IIII#!!!!!!!!!!!!!!!!!!!!!!!!!!",
"!!!!!!!!!!!!!!!!!!!!!!#IIGHI#!!!!#III#!!!!!!!!!!!!!!!!!!!!!!!!!!",
"!!!!!!!!!!!!!!!!!!!!!!!#####!!!!#IGHG#!!!!!!!!!!!!!!!!!!!!!!!!!!",
"!!!!!!!!!!!!!!!!!!!!!!!!!!!!!!!!#GIGG#!!!!!!!!!!!!!!!!!!!!!!!!!!",
"!!!!!!!!!!!!!!!!!!!!!!!!!!!!!!!!#GGGII#!!!!!!!!!!!!!!!!!!!!!!!!!",
"!!!!!!!!!!!!!!!!!!!!!!!!!!!!!!!!#IGHHG#!!!!!!!!!!!!!!!!!!!!!!!!!",
"!!!!!!!!!!!!!!!!!!!!!!!!!!!!!!!!!#####!!!!!!!!!!!!!!!!!!!!!!!!!!",
"!!!!!!!!!!!!!!!!!!!!!!!!!!!!!!!!!!!!!!!!!!!!!!!!!!!!!!!!!!!!!!!!"
};