/* XPM */
static const char *enemy_floor3_blue_guard_death_f00[] = {
/* columns rows colors chars-per-pixel */
"64 64 30 1",
"! c None",
"# c #000000",
"$ c #5C340C",
"% c #805424",
"& c #A06C3C",
"' c #A8784C",
"( c #B08458",
") c #94602C",
"* c #402810",
"+ c #C4A080",
", c #684018",
"- c #301C0C",
". c #643000",
"/ c #884404",
"0 c #6C90BC",
"1 c #5884B0",
"2 c #3C6CA0",
"3 c #4C78A8",
"4 c #244870",
"5 c #346090",
"6 c #142840",
"7 c #2C5480",
"8 c #183450",
"9 c #C4C824",
": c #4C4C4C",
"; c #2C2C2C",
"< c #3C3C3C",
"= c #0C1C30",
"> c #7C7C7C",
"? c #5C5C5C",
"!!!!!!!!!!!!!!!!!!!!!!!!!!!!!!!!!!!!!!!!!!!!!!!!!!!!!!!!!!!!!!!!",
"!!!!!!!!!!!!!!!!!!!!!!!!!!!!!!!!!!!!!!!!!!!!!!!!!!!!!!!!!!!!!!!!",
"!!!!!!!!!!!!!!!!!!!!!!!!!!!!!!!!!!!!!!!!!!!!!!!!!!!!!!!!!!!!!!!!",
"!!!!!!!!!!!!!!!!!!!!!!!!!!!!!!!!!!!!!!!!!!!!!!!!!!!!!!!!!!!!!!!!",
"!!!!!!!!!!!!!!!!!!!!!!!!!!!!!!!!!!!!!!!!!!!!!!!!!!!!!!!!!!!!!!!!",
"!!!!!!!!!!!!!!!!!!!!!!!!!!!!!!!!!!!!!!!!!!!!!!!!!!!!!!!!!!!!!!!!",
"!!!!!!!!!!!!!!!!!!!!!!!!!!!!!!!!!!!!!!!!!!!!!!!!!!!!!!!!!!!!!!!!",
"!!!!!!!!!!!!!!!!!!!!!!!!!!!!!!!!!!!!!!!!!!!!!!!!!!!!!!!!!!!!!!!!",
"!!!!!!!!!!!!!!!!!!!!!!!!!!!!!!!!!!!!!!!!!!!!!!!!!!!!!!!!!!!!!!!!",
"!!!!!!!!!!!!!!!!!!!!!!!!!!!!!!!!!!!!!!!!!!!!!!!!!!!!!!!!!!!!!!!!",
"!!!!!!!!!!!!!!!!!!!!!!!!!!!!!!!!!!!!!!!!!!!!!!!!!!!!!!!!!!!!!!!!",
"!!!!!!!!!!!!!!!!!!!!!!!!!!!!!!!!!!!!!!!!!!!!!!!!!!!!!!!!!!!!!!!!",
"!!!!!!!!!!!!!!!!!!!!!!!!!!!!!!!!!!!!!!!!!!!!!!!!!!!!!!!!!!!!!!!!",
"!!!!!!!!!!!!!!!!!!!!!!!!!!!!!!!#!!!!!!!!!!!!!!!!!!!!!!!!!!!!!!!!",
"!!!!!!!!!!!!!!!!!!!!!!!!!!!!!##$##$#!!!!!!!!!!!!!!!!!!!!!!!!!!!!",
"!!!!!!!!!!!!!!!!!!!!!!!!!!!!##$##$####!!!!!!!!!!!!!!!!!!!!!!!!!!",
"!!!!!!!!!!!!!!!!!!!!!!!!!!!##%&&##&##$#!!!!!!!!!!!!!!!!!!!!!!!!!",
"!!!!!!!!!!!!!!!!!!!!!!!!!!!#%&'(#('&%#!!!!!!!!!!!!!!!!!!!!!!!!!!",
"!!!!!!!!!!!!!!!!!!!!!!!!!!##&$#$($#$&$#!!!!!!!!!!!!!!!!!!!!!!!!!",
"!!!!!!!!!!!!!!!!!!!!!!!!!!#$)*%*&*%*)#$!!!!!!!!!!!!!!!!!!!!!!!!!",
"!!!!!!!!!!!!!!!!!!!!!!!!!!&#'+(&+&(+'#&!!!!!!!!!!!!!!!!!!!!!!!!!",
"!!!!!!!!!!!!!!!!!!!!!!!!!!,$&($#%#$(&$,!!!!!!!!!!!!!!!!!!!!!!!!!",
"!!!!!!!!!!!!!!!!!!!!!!!!!!!,%',---,'%,!!!!!!!!!!!!!!!!!!!!!!!!!!",
"!!!!!!!!!!!!!!!!!!!!!!!!!!!!%'%./.%'%!!!!!!!!!!!!!!!!!!!!!!!!!!!",
"!!!!!!!!!!!!!!!!!!!!!!!!!!!!,%&'('&%,!!!!!!!!!!!!!!!!!!!!!!!!!!!",
"!!!!!!!!!!!!!!!!!!!!!!012!!23$,%)%,$32!!210!!!!!!!!!!!!!!!!!!!!!",
"!!!!!!!!!!!!!!!!!!!!0013245553333333235423100!!!!!!!!!!!!!!!!!!!",
"!!!!!!!!!!!!!!!!!!!013325657555555523556523310!!!!!!!!!!!!!!!!!!",
"!!!!!!!!!!!!!!!!!!13332576552333333357567523331!!!!!!!!!!!!!!!!!",
"!!!!!!!!!!!!!!!!!!47555464545555555777546455574!!!!!!!!!!!!!!!!!",
"!!!!!!!!!!!!!!!!!!!48664455654&474&47599946684!!!!!!!!!!!!!!!!!!",
"!!!!!!!!!!!!!!!!!!47476755465775222558999767474!!!!!!!!!!!!!!!!!",
"!!!!!!!!!!!!!!!!!!75766755465755555558885766757!!!!!!!!!!!!!!!!!",
"!!!!!!!!!!!!!!!!!4425467554654&454&4755557645244!!!!!!!!!!!!!!!!",
"!!!!!!!!!!!!!!!!!4757764554657555225555554677574!!!!!!!!!!!!!!!!",
"!!!!!!!!!!!!!!!!:;#22568754645555555555578652#;:!!!!!!!!!!!!!!!!",
"!!!!!!!!!!!!!!:;#5;#5268474464&454&475574862#;5#;:!!!!!!!!!!!!!!",
"!!!!!!!!!!!!!:#<<#:;576684446475555577448667;:#<<#:!!!!!!!!!!!!!",
"!!!!!!!!!!!!!;!;<<<<;:66688446444444448866:;<<<<;!;!!!!!!!!!!!!!",
"!!!!!!!!!!!!!!!!#;;;#6!!6##=66=666666=##6!6#;;;#!!!!!!!!!!!!!!!!",
"!!!!!!!!!!!!!!!!!6666!!!74####>###>####47!!6666!!!!!!!!!!!!!!!!!",
"!!!!!!!!!!!!!!!!!!!!!!!!7574##?###?##4757!!!!!!!!!!!!!!!!!!!!!!!",
"!!!!!!!!!!!!!!!!!!!!!!!!67522257675222576!!!!!!!!!!!!!!!!!!!!!!!",
"!!!!!!!!!!!!!!!!!!!!!!!8746755768675576478!!!!!!!!!!!!!!!!!!!!!!",
"!!!!!!!!!!!!!!!!!!!!!!!4755666844486665574!!!!!!!!!!!!!!!!!!!!!!",
"!!!!!!!!!!!!!!!!!!!!!!!4522748666668472254!!!!!!!!!!!!!!!!!!!!!!",
"!!!!!!!!!!!!!!!!!!!!!!!452555746!647555254!!!!!!!!!!!!!!!!!!!!!!",
"!!!!!!!!!!!!!!!!!!!!!!!475555576!675555574!!!!!!!!!!!!!!!!!!!!!!",
"!!!!!!!!!!!!!!!!!!!!!!!845755556!655557548!!!!!!!!!!!!!!!!!!!!!!",
"!!!!!!!!!!!!!!!!!!!!!!!67557576!!!67575576!!!!!!!!!!!!!!!!!!!!!!",
"!!!!!!!!!!!!!!!!!!!!!!!64525776!!!67752546!!!!!!!!!!!!!!!!!!!!!!",
"!!!!!!!!!!!!!!!!!!!!!!474752546!!!645257474!!!!!!!!!!!!!!!!!!!!!",
"!!!!!!!!!!!!!!!!!!!!!!455744756!!!657447554!!!!!!!!!!!!!!!!!!!!!",
"!!!!!!!!!!!!!!!!!!!!!!455755576!!!675557554!!!!!!!!!!!!!!!!!!!!!",
"!!!!!!!!!!!!!!!!!!!!!!875555746!!!647555578!!!!!!!!!!!!!!!!!!!!!",
"!!!!!!!!!!!!!!!!!!!!!!64754866!!!!!66845746!!!!!!!!!!!!!!!!!!!!!",
"!!!!!!!!!!!!!!!!!!!!!!!668:<;#!!!!!#;<:866!!!!!!!!!!!!!!!!!!!!!!",
"!!!!!!!!!!!!!!!!!!!!!!!!#<<<<;#!!!#;<<<<#!!!!!!!!!!!!!!!!!!!!!!!",
"!!!!!!!!!!!!!!!!!!!!!!!!#;<<;;#!!!#;;<<;#!!!!!!!!!!!!!!!!!!!!!!!",
"!!!!!!!!!!!!!!!!!!!!!!!!#<::<#!!!!!#<::<#!!!!!!!!!!!!!!!!!!!!!!!",
"!!!!!!!!!!!!!!!!!!!!!!!!##<<;;#!!!#;;<<##!!!!!!!!!!!!!!!!!!!!!!!",
"!!!!!!!!!!!!!!!!!!!!!!!!#:?:<;#!!!#;<:?:#!!!!!!!!!!!!!!!!!!!!!!!",
"!!!!!!!!!!!!!!!!!!!!!!!#;<<;;#!!!!!#;;<<;#!!!!!!!!!!!!!!!!!!!!!!",
"!!!!!!!!!!!!!!!!!!!!!!!######!!!!!!!######!!!!!!!!!!!!!!!!!!!!!!"
};