/* XPM */
static const char *enemy_floor3_blue_guard_death_sheet[] = {
/* columns rows colors chars-per-pixel */
"384 64 64 1",
"! c None",
"# c #000000",
"$ c #603814",
"% c #5C340C",
"& c #805424",
"' c #A06C3C",
"( c #A8784C",
") c #B08458",
"* c #94602C",
"+ c #402810",
", c #C4A080",
"- c #704820",
". c #684018",
"/ c #401C00",
"0 c #0C1400",
"1 c #301C0C",
"2 c #C42424",
"3 c #743804",
"4 c #884404",
"5 c #643000",
"6 c #3C6CA0",
"7 c #980808",
"8 c #80A0C4",
"9 c #5884B0",
": c #700404",
"; c #2C5480",
"< c #D86464",
"= c #AC0C0C",
"> c #6C90BC",
"? c #4C78A8",
"@ c #346090",
"A c #C01010",
"B c #244870",
"C c #D05090",
"D c #142840",
"E c #200000",
"F c #840404",
"G c #480000",
"H c #5C0000",
"I c #CC3838",
"J c #204060",
"K c #0C1C30",
"L c #980088",
"M c #C4C824",
"N c #7C7C7C",
"O c #183450",
"P c #340000",
"Q c #C42470",
"R c #98084C",
"S c #2C2C2C",
"T c #3C3C3C",
"U c #640030",
"V c #740438",
"W c #4C4C4C",
"X c #D8649C",
"Y c #CC3880",
"Z c #5C5C5C",
"[ c #848484",
"] c #A4A814",
"^ c #500024",
"_ c #880444",
"` c #C01064",
"a c #AC0C58",
"b c #1C1C1C",
"!!!!!!!!!!!!!!!!!!!!!!!!!!!!!!!!!!!!!!!!!!!!!!!!!!!!!!!!!!!!!!!!!!!!!!!!!!!!!!!!!!!!!!!!!!!!!!!!!!!!!!!!!!!!!!!!!!!!!!!!!!!!!!!!!!!!!!!!!!!!!!!!!!!!!!!!!!!!!!!!!!!!!!!!!!!!!!!!!!!!!!!!!!!!!!!!!!!!!!!!!!!!!!!!!!!!!!!!!!!!!!!!!!!!!!!!!!!!!!!!!!!!!!!!!!!!!!!!!!!!!!!!!!!!!!!!!!!!!!!!!!!!!!!!!!!!!!!!!!!!!!!!!!!!!!!!!!!!!!!!!!!!!!!!!!!!!!!!!!!!!!!!!!!!!!!!!!!!!!!!!!!!!!!!!!!!!!!!!!!!!!!!",
"!!!!!!!!!!!!!!!!!!!!!!!!!!!!!!!!!!!!!!!!!!!!!!!!!!!!!!!!!!!!!!!!!!!!!!!!!!!!!!!!!!!!!!!!!!!!!!!!!!!!!!!!!!!!!!!!!!!!!!!!!!!!!!!!!!!!!!!!!!!!!!!!!!!!!!!!!!!!!!!!!!!!!!!!!!!!!!!!!!!!!!!!!!!!!!!!!!!!!!!!!!!!!!!!!!!!!!!!!!!!!!!!!!!!!!!!!!!!!!!!!!!!!!!!!!!!!!!!!!!!!!!!!!!!!!!!!!!!!!!!!!!!!!!!!!!!!!!!!!!!!!!!!!!!!!!!!!!!!!!!!!!!!!!!!!!!!!!!!!!!!!!!!!!!!!!!!!!!!!!!!!!!!!!!!!!!!!!!!!!!!!!!",
"!!!!!!!!!!!!!!!!!!!!!!!!!!!!!!!!!!!!!!!!!!!!!!!!!!!!!!!!!!!!!!!!!!!!!!!!!!!!!!!!!!!!!!!!!!!!!!!!!!!!!!!!!!!!!!!!!!!!!!!!!!!!!!!!!!!!!!!!!!!!!!!!!!!!!!!!!!!!!!!!!!!!!!!!!!!!!!!!!!!!!!!!!!!!!!!!!!!!!!!!!!!!!!!!!!!!!!!!!!!!!!!!!!!!!!!!!!!!!!!!!!!!!!!!!!!!!!!!!!!!!!!!!!!!!!!!!!!!!!!!!!!!!!!!!!!!!!!!!!!!!!!!!!!!!!!!!!!!!!!!!!!!!!!!!!!!!!!!!!!!!!!!!!!!!!!!!!!!!!!!!!!!!!!!!!!!!!!!!!!!!!!!",
"!!!!!!!!!!!!!!!!!!!!!!!!!!!!!!!!!!!!!!!!!!!!!!!!!!!!!!!!!!!!!!!!!!!!!!!!!!!!!!!!!!!!!!!!!!!!!!!!!!!!!!!!!!!!!!!!!!!!!!!!!!!!!!!!!!!!!!!!!!!!!!!!!!!!!!!!!!!!!!!!!!!!!!!!!!!!!!!!!!!!!!!!!!!!!!!!!!!!!!!!!!!!!!!!!!!!!!!!!!!!!!!!!!!!!!!!!!!!!!!!!!!!!!!!!!!!!!!!!!!!!!!!!!!!!!!!!!!!!!!!!!!!!!!!!!!!!!!!!!!!!!!!!!!!!!!!!!!!!!!!!!!!!!!!!!!!!!!!!!!!!!!!!!!!!!!!!!!!!!!!!!!!!!!!!!!!!!!!!!!!!!!!",
"!!!!!!!!!!!!!!!!!!!!!!!!!!!!!!!!!!!!!!!!!!!!!!!!!!!!!!!!!!!!!!!!!!!!!!!!!!!!!!!!!!!!!!!!!!!!!!!!!!!!!!!!!!!!!!!!!!!!!!!!!!!!!!!!!!!!!!!!!!!!!!!!!!!!!!!!!!!!!!!!!!!!!!!!!!!!!!!!!!!!!!!!!!!!!!!!!!!!!!!!!!!!!!!!!!!!!!!!!!!!!!!!!!!!!!!!!!!!!!!!!!!!!!!!!!!!!!!!!!!!!!!!!!!!!!!!!!!!!!!!!!!!!!!!!!!!!!!!!!!!!!!!!!!!!!!!!!!!!!!!!!!!!!!!!!!!!!!!!!!!!!!!!!!!!!!!!!!!!!!!!!!!!!!!!!!!!!!!!!!!!!!!",
"!!!!!!!!!!!!!!!!!!!!!!!!!!!!!!!!!!!!!!!!!!!!!!!!!!!!!!!!!!!!!!!!!!!!!!!!!!!!!!!!!!!!!!!!!!!!!!!!!!!!!!!!!!!!!!!!!!!!!!!!!!!!!!!!!!!!!!!!!!!!!!!!!!!!!!!!!!!!!!!!!!!!!!!!!!!!!!!!!!!!!!!!!!!!!!!!!!!!!!!!!!!!!!!!!!!!!!!!!!!!!!!!!!!!!!!!!!!!!!!!!!!!!!!!!!!!!!!!!!!!!!!!!!!!!!!!!!!!!!!!!!!!!!!!!!!!!!!!!!!!!!!!!!!!!!!!!!!!!!!!!!!!!!!!!!!!!!!!!!!!!!!!!!!!!!!!!!!!!!!!!!!!!!!!!!!!!!!!!!!!!!!!",
"!!!!!!!!!!!!!!!!!!!!!!!!!!!!!!!!!!!!!!!!!!!!!!!!!!!!!!!!!!!!!!!!!!!!!!!!!!!!!!!!!!!!!!!!!!!!!!!!!!!!!!!!!!!!!!!!!!!!!!!!!!!!!!!!!!!!!!!!!!!!!!!!!!!!!!!!!!!!!!!!!!!!!!!!!!!!!!!!!!!!!!!!!!!!!!!!!!!!!!!!!!!!!!!!!!!!!!!!!!!!!!!!!!!!!!!!!!!!!!!!!!!!!!!!!!!!!!!!!!!!!!!!!!!!!!!!!!!!!!!!!!!!!!!!!!!!!!!!!!!!!!!!!!!!!!!!!!!!!!!!!!!!!!!!!!!!!!!!!!!!!!!!!!!!!!!!!!!!!!!!!!!!!!!!!!!!!!!!!!!!!!!!",
"!!!!!!!!!!!!!!!!!!!!!!!!!!!!!!!!!!!!!!!!!!!!!!!!!!!!!!!!!!!!!!!!!!!!!!!!!!!!!!!!!!!!!!!!!!!!!!!!!!!!!!!!!!!!!!!!!!!!!!!!!!!!!!!!!!!!!!!!!!!!!!!!!!!!!!!!!!!!!!!!!!!!!!!!!!!!!!!!!!!!!!!!!!!!!!!!!!!!!!!!!!!!!!!!!!!!!!!!!!!!!!!!!!!!!!!!!!!!!!!!!!!!!!!!!!!!!!!!!!!!!!!!!!!!!!!!!!!!!!!!!!!!!!!!!!!!!!!!!!!!!!!!!!!!!!!!!!!!!!!!!!!!!!!!!!!!!!!!!!!!!!!!!!!!!!!!!!!!!!!!!!!!!!!!!!!!!!!!!!!!!!!!",
"!!!!!!!!!!!!!!!!!!!!!!!!!!!!!!!!!!!!!!!!!!!!!!!!!!!!!!!!!!!!!!!!!!!!!!!!!!!!!!!!!!!!!!!!!!!!!!!!!!!!!!!!!!!!!!!!!!!!!!!!!!!!!!!!!!!!!!!!!!!!!!!!!!!!!!!!!!!!!!!!!!!!!!!!!!!!!!!!!!!!!!!!!!!!!!!!!!!!!!!!!!!!!!!!!!!!!!!!!!!!!!!!!!!!!!!!!!!!!!!!!!!!!!!!!!!!!!!!!!!!!!!!!!!!!!!!!!!!!!!!!!!!!!!!!!!!!!!!!!!!!!!!!!!!!!!!!!!!!!!!!!!!!!!!!!!!!!!!!!!!!!!!!!!!!!!!!!!!!!!!!!!!!!!!!!!!!!!!!!!!!!!!",
"!!!!!!!!!!!!!!!!!!!!!!!!!!!!!!!!!!!!!!!!!!!!!!!!!!!!!!!!!!!!!!!!!!!!!!!!!!!!!!!!!!!!!!!!!!!!!!!!!!!!!!!!!!!!!!!!!!!!!!!!!!!!!!!!!!!!!!!!!!!!!!!!!!!!!!!!!!!!!!!!!!!!!!!!!!!!!!!!!!!!!!!!!!!!!!!!!!!!!!!!!!!!!!!!!!!!!!!!!!!!!!!!!!!!!!!!!!!!!!!!!!!!!!!!!!!!!!!!!!!!!!!!!!!!!!!!!!!!!!!!!!!!!!!!!!!!!!!!!!!!!!!!!!!!!!!!!!!!!!!!!!!!!!!!!!!!!!!!!!!!!!!!!!!!!!!!!!!!!!!!!!!!!!!!!!!!!!!!!!!!!!!!",
"!!!!!!!!!!!!!!!!!!!!!!!!!!!!!!!!!!!!!!!!!!!!!!!!!!!!!!!!!!!!!!!!!!!!!!!!!!!!!!!!!!!!!!!!!!!!!!!!!!!!!!!!!!!!!!!!!!!!!!!!!!!!!!!!!!!!!!!!!!!!!!!!!!!!!!!!!!!!!!!!!!!!!!!!!!!!!!!!!!!!!!!!!!!!!!!!!!!!!!!!!!!!!!!!!!!!!!!!!!!!!!!!!!!!!!!!!!!!!!!!!!!!!!!!!!!!!!!!!!!!!!!!!!!!!!!!!!!!!!!!!!!!!!!!!!!!!!!!!!!!!!!!!!!!!!!!!!!!!!!!!!!!!!!!!!!!!!!!!!!!!!!!!!!!!!!!!!!!!!!!!!!!!!!!!!!!!!!!!!!!!!!!",
"!!!!!!!!!!!!!!!!!!!!!!!!!!!!!!!!!!!!!!!!!!!!!!!!!!!!!!!!!!!!!!!!!!!!!!!!!!!!!!!!!!!!!!!!!!!!!!!!!!!!!!!!!!!!!!!!!!!!!!!!!!!!!!!!!!!!!!!!!!!!!!!!!!!!!!!!!!!!!!!!!!!!!!!!!!!!!!!!!!!!!!!!!!!!!!!!!!!!!!!!!!!!!!!!!!!!!!!!!!!!!!!!!!!!!!!!!!!!!!!!!!!!!!!!!!!!!!!!!!!!!!!!!!!!!!!!!!!!!!!!!!!!!!!!!!!!!!!!!!!!!!!!!!!!!!!!!!!!!!!!!!!!!!!!!!!!!!!!!!!!!!!!!!!!!!!!!!!!!!!!!!!!!!!!!!!!!!!!!!!!!!!!",
"!!!!!!!!!!!!!!!!!!!!!!!!!!!!!!!!!!!!!!!!!!!!!!!!!!!!!!!!!!!!!!!!!!!!!!!!!!!!!!!!!!!!!!!!!!!!!!!#!!!!!!!!!!!!!!!!!!!!!!!!!!!!!!!!!!!!!!!!!!!!!!!!!!!!!!!!!!!!!!!!!!!!!!!!!!!!!!!!!!!!!!!!!!!!!!!!!!!!!!!!!!!!!!!!!!!!!!!!!!!!!!!!!!!!!!!!!!!!!!!!!!!!!!!!!!!!!!!!!!!!!!!!!!!!!!!!!!!!!!!!!!!!!!!!!!!!!!!!!!!!!!!!!!!!!!!!!!!!!!!!!!!!!!!!!!!!!!!!!!!!!!!!!!!!!!!!!!!!!!!!!!!!!!!!!!!!!!!!!!!!!!!!",
"!!!!!!!!!!!!!!!!!!!!!!!!!!!!!!!#!!!!!!!!!!!!!!!!!!!!!!!!!!!!!!!!!!!!!!!!!!!!!!!!!!!!!!!!!!!!!##$##$#!!!!!!!!!!!!!!!!!!!!!!!!!!!!!!!!!!!!!!!!!!!!!!!!!!!!!!!!!!!!!!!!!!!!!!!!!!!!!!!!!!!!!!!!!!!!!!!!!!!!!!!!!!!!!!!!!!!!!!!!!!!!!!!!!!!!!!!!!!!!!!!!!!!!!!!!!!!!!!!!!!!!!!!!!!!!!!!!!!!!!!!!!!!!!!!!!!!!!!!!!!!!!!!!!!!!!!!!!!!!!!!!!!!!!!!!!!!!!!!!!!!!!!!!!!!!!!!!!!!!!!!!!!!!!!!!!!!!!!!!!!!!",
"!!!!!!!!!!!!!!!!!!!!!!!!!!!!!##%##%#!!!!!!!!!!!!!!!!!!!!!!!!!!!!!!!!!!!!!!!!!!!!!!!!!!!!!!!!##$##$####!!!!!!!!!!!!!!!!!!!!!!!!!!!!!!!!!!!!!!!!!!!!!!!!!!!!!!!!!!!!!!!!!!!!!!!!!!!!!!!!!!!!!!!!!!!!!!!!!!!!!!!!!!!!!!!!!!!!!!!!!!!!!!!!!!!!!!!!!!!!!!!!!!!!!!!!!!!!!!!!!!!!!!!!!!!!!!!!!!!!!!!!!!!!!!!!!!!!!!!!!!!!!!!!!!!!!!!!!!!!!!!!!!!!!!!!!!!!!!!!!!!!!!!!!!!!!!!!!!!!!!!!!!!!!!!!!!!!!!!!!!",
"!!!!!!!!!!!!!!!!!!!!!!!!!!!!##%##%####!!!!!!!!!!!!!!!!!!!!!!!!!!!!!!!!!!!!!!!!!!!!!!!!!!!!!##&''##'##$#!!!!!!!!!!!!!!!!!!!!!!!!!!!!!!!!!!!!!!!!!!!!!!!!!!!!!!!!!!!!!!!!!!!!!!!!!!!!!!!!!!!!!!!!!!!!!!!!!!!!!!!!!!!!!!!!!!!!!!!!!!!!!!!!!!!!!!!!!!!!!!!!!!!!!!!!!!!!!!!!!!!!!!!!!!!!!!!!!!!!!!!!!!!!!!!!!!!!!!!!!!!!!!!!!!!!!!!!!!!!!!!!!!!!!!!!!!!!!!!!!!!!!!!!!!!!!!!!!!!!!!!!!!!!!!!!!!!!!!!!!",
"!!!!!!!!!!!!!!!!!!!!!!!!!!!##&''##'##%#!!!!!!!!!!!!!!!!!!!!!!!!!!!!!!!!!!!!!!!!!!!!!!!!!!!!#&'((#(('&#!!!!!!!!!!!!!!!!!!!!!!!!!!!!!!!!!!!!!!!!!!!!!!!!!!!!!!!!!!!!!!!!!!!!!!!!!!!!!!!!!!!!!!!!!!!!!!!!!!!!!!!!!!!!!!!!!!!!!!!!!!!!!!!!!!!!!!!!!!!!!!!!!!!!!!!!!!!!!!!!!!!!!!!!!!!!!!!!!!!!!!!!!!!!!!!!!!!!!!!!!!!!!!!!!!!!!!!!!!!!!!!!!!!!!!!!!!!!!!!!!!!!!!!!!!!!!!!!!!!!!!!!!!!!!!!!!!!!!!!!!!",
"!!!!!!!!!!!!!!!!!!!!!!!!!!!#&'()#)('&#!!!!!!!!!!!!!!!!!!!!!!!!!!!!!!!!!!!!!!!!!!!!!!!!!!!!##'$#()(#$'$#!!!!!!!!!!!!!!!!!!!!!!!!!!!!!!!!!!!!!!!!!!!!!!!!!!!!!!!!!!!!!!!!!!!!!!!!!!!!!!!!!!!!!!!!!!!!!!!!!!!!!!!!!!!!!!!!!!!!!!!!!!!!!!!!!!!!!!!!!!!!!!!!!!!!!!!!!!!!!!!!!!!!!!!!!!!!!!!!!!!!!!!!!!!!!!!!!!!!!!!!!!!!!!!!!!!!!!!!!!!!!!!!!!!!!!!!!!!!!!!!!!!!!!!!!!!!!!!!!!!!!!!!!!!!!!!!!!!!!!!!!",
"!!!!!!!!!!!!!!!!!!!!!!!!!!##'%#%)%#%'%#!!!!!!!!!!!!!!!!!!!!!!!!!!!!!!!!!!!!!!!!!!!!!!!!!!!#$*(+$'$+(*#$!!!!!!!!!!!!!!!!!!!!!!!!!!!!!!!!!!!!!!!!!!!!!!!!!!!!!!!!#!!!!!!!!!!!!!!!!!!!!!!!!!!!!!!!!!!!!!!!!!!!!!!!!!!!!!!!!!!!!!!!!!!!!!!!!!!!!!!!!!!!!!!!!!!!!!!!!!!!!!!!!!!!!!!!!!!!!!!!!!!!!!!!!!!!!!!!!!!!!!!!!!!!!!!!!!!!!!!!!!!!!!!!!!!!!!!!!!!!!!!!!!!!!!!!!!!!!!!!!!!!!!!!!!!!!!!!!!!!!!!!!",
"!!!!!!!!!!!!!!!!!!!!!!!!!!#%*+&+'+&+*#%!!!!!!!!!!!!!!!!!!!!!!!!!!!!!!!!!!!!!!!!!!!!!!!!!!!'#(,)','),(#'!!!!!!!!!!!!!!!!!!!!!!!!!!!!!!!!!!!!!!!!!!!!!!!!!!!!!!##$##$#!!!!!!!!!!!!!!!!!!!!!!!!!!!!!!!!!!!!!!!!!!!!!!!!!!!!!!!!!!!!!!!!!!!!!!!!!!!!!!!!!!!!!!!!!!!!!!!!!!!!!!!!!!!!!!!!!!!!!!!!!!!!!!!!!!!!!!!!!!!!!!!!!!!!!!!!!!!!!!!!!!!!!!!!!!!!!!!!!!!!!!!!!!!!!!!!!!!!!!!!!!!!!!!!!!!!!!!!!!!!",
"!!!!!!!!!!!!!!!!!!!!!!!!!!'#(,)','),(#'!!!!!!!!!!!!!!!!!!!!!!!!!!!!!!!!!!!!!!!!!!!!!!!!!!!-$')$#&#$)'$-!!!!!!!!!!!!!!!!!!!!!!!!!!!!!!!!!!!!!!!!!!!!!!!!!!!!!#&''#$'###!!!!!!!!!!!!!!!!!!!!!!!!!!!!!!!!!!!!!!!!!!!!!!!!!!!!!!!!!!!!!!!!!!!!!!!!!!!!!!!!!!!!!!!!!!!!!!!!!!!!!!!!!!!!!!!!!!!!!!!!!!!!!!!!!!!!!!!!!!!!!!!!!!!!!!!!!!!!!!!!!!!!!!!!!!!!!!!!!!!!!!!!!!!!!!!!!!!!!!!!!!!!!!!!!!!!!!!!!!",
"!!!!!!!!!!!!!!!!!!!!!!!!!!.%')%#&#%)'%.!!!!!!!!!!!!!!!!!!!!!!!!!!!!!!!!!!!!!!!!!!!!!!!!!!!!-&(&/0/&(&-!!!!!!!!!!!!!!!!!!!!!!!!!!!!!!!!!!!!!!!!!!!!!!!!!!!!!#&'((#(('&$#!!!!!!!!!!!!!!!!!!!!!!!!!!!!!!!!!!!!!!!!!!!!!!!!!!!!!!!!!!!!!!!!!!!!!!!!!!!!!!!!!!!!!!!!!!!!!!!!!!!!!!!!!!!!!!!!!!!!!!!!!!!!!!!!!!!!!!!!!!!!!!!!!!!!!!!!!!!!!!!!!!!!!!!!!!!!!!!!!!!!!!!!!!!!!!!!!!!!!!!!!!!!!!!!!!!!!!!!!",
"!!!!!!!!!!!!!!!!!!!!!!!!!!!.&(.111.(&.!!!!!!!!!!!!!!!!!!!!!!!!!!!!!!!!!!!!!!!!!!!!!!!!!!!!!!-&'234'&-!!!!!!!!!!!!!!!!!!!!!!!!!!!!!!!!!!!!!!!!!!!!!!!!!!!!!!#'&#$)$#&'$!!!!!!!!!!!!!!!!!!!!!!!!!!!!!!!!!!!!!!!!!!!!!!!!!!!!!!!!!!!!!!!!!!!!!!!!!!!!!!!!!!!!!!!!!!!!!!!!!!!!!!!!!!!!!!!!!!!!!!!!!!!!!!!!!!!!!!!!!!!!!!!!!!!!!!!!!!!!!!!!!!!!!!!!!!!!!!!!!!!!!!!!!!!!!!!!!!!!!!!!!!!!!!!!!!!!!!!!!!",
"!!!!!!!!!!!!!!!!!!!!!!!!!!!!&(&545&(&!!!!!!!!!!!!!!!!!!!!!!!!!!!!!!!!!!!!!!!!!!!!!!!!!!!!!!!!6-72&-$6!!!!!!!!!!!!!!!!!!!!!!!!!!!!!!!!!!!!!!!!!!!!!!!!!2!!!#$*$+','+$*#$!!!!!!!!!!!!!!!!!!!!!!!!!!!!!!!!!!!!!!!!!!!!!!!!!!!!!!!!!!!!!!!!!!!!!!!!!!!!!!!!!!!!!!!!!!!!!!!!!!!!!!!!!!!!!!!!!!!!!!!!!!!!!!!!!!!!!!!!!!!!!!!!!!!!!!!!!!!!!!!!!!!!!!!!!!!!!!!!!!!!!!!!!!!!!!!!!!!!!!!!!!!!!!!!!!!!!!!!!",
"!!!!!!!!!!!!!!!!!!!!!!!!!!!!.&'()('&.!!!!!!!!!!!!!!!!!!!!!!!!!!!!!!!!!!!!!!!!!!!!!!!!!896!!77:&77*&;<6!!698!!!!!!!!!!!!!!!!!!!!!!!!!!!!!!!!!!!!!!!!!!!!=!!'#')$#&#$)'#'!!!!!!!!!!!!!!!!!!!!!!!!!!!!!!!!!!!!!!!!!!!!!!!!!!!!!!!!!!!!!!!!!!!!!!!!!!!!!!!!!!!!!!!!!!!!!!!!!!!!!!!!!!!!!!!!!!!!!!!!!!!!!!!!!!!!!!!!!!!!!!!!!!!!!!!!!!!!!!!!!!!!!!!!!!!!!!!!!!!!!!!!!!!!!!!!!!!!!!!!!!!!!!!!!!!!!!!!!",
"!!!!!!!!!!!!!!!!!!!!!!>96!!6?%.&*&.%?6!!69>!!!!!!!!!!!!!!!!!!!!!!!!!!!!!!!!!!!!!!!!!889767@:@A??7??A:?@B6?988!!!!!!!!!!!!!!!!!!!!!!!!!!!!!!!!!!!!!!!!!!!!A7$&(&333&(&$-77A!!!!!!!!!!!!!!!!!!!!!!!!!!!!!!!!!!!!!!!!!!!!!!!=A!!!!!!!!!!!!!!!!!!!!!!!!!!!!!!!!!!!!!!!!!!!!!!!!!!!!!!!!!!!!!!!!!!!!!!!!!!!!!!!!!!!!!!!!!!!!!!!!!!!!!!!!!!!!!!!!!!!!!!!!!!!!!!!!!!!!!!!!!!!!!!!!!!!!!!!!!!!!!!!!!!!!!",
"!!!!!!!!!!!!!!!!!!!!>>9?6B@@@???????6?@B6?9>>!!!!!!!!!!!!!!!!!!!!!!!!!!!!!!!!!!!!!!89??6::C;:7@D2E2<:@7:;6??98!!!!!!!!!!!!!!!!!!!!!!!!!!!!!!!!!!!!!!!!!88887-&A)))'&--7!!!!!!!!!!!!!!!!!!!!!!!!!!!!!!!!!!!!!!!!!!!!!!!!!!!F<!!!!!!!!!!!!!!!!!!!!!!!!!!!!!!!!!!!!!!!!!!!!!!!!!!!!!!!!!!!!!!!!!!!!!!!!!!!!!!!!!!!!!!!!!!!!!!!!!!!!!!!!!!!!!!!!!!!!!!!!!!!!!!!!!!!!!!!!!!!!!!!!!!!!!!!!!!!!!!!!!!!!",
"!!!!!!!!!!!!!!!!!!!>9??6@D@;@@@@@@@6?@@D@6??9>!!!!!!!!!!!!!!!!!!!!!!!!!!!!!!!!!!!!B;@@@BDD:@6EEEEEEG=7:2DB@@@;B!!!!!!!!!!!!!!!!!!!!!!!!!!!!!!!!!!=!!!88??AD?67999=A:=78!!!!!!!!!!!!!!!!!!!!!!!!!!!!!!!!!!!!!!!!!!!!!!!!!!!!H:!!!!!I!!!!!!!!!!!!!!!!!!!!!!!!!!!!!!!!!!!!!!!!!!!!!!!!!!!!!!!!!!!!!!!!!!!!!!!!!!!!!!!!!!!!!!!!!!!!!!!!!!!!!!!!!!!!!!!!!!!!!!!!!!!!!!!!!!!!!!!!!!!!!!!!!!!!!!!!!!!!!",
"!!!!!!!!!!!!!!!!!!9???6@;D@@6???????@;@D;@6???9!!!!!!!!!!!!!!!!!!!!!!!!!!!!!!!!!!!DBJD:CDB@AEHEHHEEE2::BDKDDJBD!!!!!!!!!!!!!!!!!!!!!!!!!!!!!!!!!!!!!8???@;D6A?AGAE::A:?888!!!=!!!!!!!!!!!!!!!!!!!!!!!!!!!!!!!!!!!!!!!2!!!!!!H!!!!!7I!!!!2!!!!!!!!!!!!!!!!!!!!!!!!!!!!!!!!!!!!!!!!!!!!!!!!!!!!!!!!!!!!!!!!!!!!!!!!!!!!!!!!!!!!!!!!!!!!!!!!!!!!!!!!!!!!!!!!!!!!!!!!!!!!!!!!!!!!!!!!!!!!!!!!!!!!!!!",
"!!!!!!!!!!!!!!!!!!B;@@@BDB@B@@@@@@@;;;@BDB@@@;B!!!!!!!!!!!!!!!!!!!!!!!!!!!!!!!!!!!DBBD6:7@@DEIHEELEEEE2M6DKDBBD!!!!!!!!!!!!!!!!!!!!!!!!!!!!!!!!!!!!8?2@@;DA7;:E:EEE::NA@??88!!!!!!!!!!!!!!!!!!!!!!!!!!!!!!!!!!!!!!!!!!!!!!!!!!!!:!!7!!!!!!!!!!!!!!!!!!!!!!!!!!!!!!!!!!!!!!!!!!!!!!!!!!!!!!!!!!!!!!!!!!!!!!!!!!!!!!!!!!!!!!!!!!!!!!!!!!!!!!!!!!!!!!!!!!!!!!!!!!!!!!!!!!!!!!!!!!!!!!!!!!!!!!!!!!!!",
"!!!!!!!!!!!!!!!!!!!BODDBB@@D@B'B;B'B;@MMMBDDOB!!!!!!!!!!!!!!!!!!!!!!!!!!!!!!!!!!!D;A@;K;:7@D7APLLLEPE:M27;KB@@;D!!!!!!!!!!!!!!!!!!!!!!!!!!!!::A!!!!DBDDDAA7<EEEEEQCREGMDA@@F8!!!!!!!!!!!!!!!!!!!!!!!!!!!!!!!!!!!!!!!!!!!!!!!!!!!!7!2!!!!!!!:F=!!!!!!!!!!!!!!!!!!!!!!!!!!!!!!!!!!!!!!!!!!!!!!!!!!!!!!!!!!!!2!!!!!!!!!!!!!!!!!!!!!!!!!!!!!!!!!!!!!!!!!!!!!!!!!!!!!!!!!!!!!!!!!!!!!!!!!!!!!!!!!!!!!",
"!!!!!!!!!!!!!!!!!!B;B;D;@@BD@;;@666@@OMMM;D;B;B!!!!!!!!!!!!!!!!!!!!!!!!!!!!!!!!!STA:<BD;@@D7E:UELPGRUEJJ@;DB;@@TS!!!!!!!!!!!!!!!!!!!!!!!!!!!!!!:<!DBDJDJ<77EE:VEQRVG:GJJDDDB@8!!!!!!!!!!!!!!!!!!!!!!!!!!!!!!!!!!A77!!!!2!!!:A<!!!!!7!!!!!!H!!!!!!!!!!!!!!!!!!!!!!!!!!!!!!!!!!!!!!!!!!!!!!!!7!!!!!!!!!7!!!!7!!!!!!!!!!!!!!!!!!!!!!!!!!!!!!!!!!!!!!!!!!!!!!!!!!!!!!!!!!!!!!!!!!!!!!!!!!!!!!!!!!!!!",
"!!!!!!!!!!!!!!!!!!;@;DD;@@BD@;@@@@@@@OOO@;DD;@;!!!!!!!!!!!!!!!!!!!!!!!!!!!!!!!STTTT@7BD;277AEEEHEICVE:2@@;D;@@TTTTS!!!!!!!!!!!!!!!!!!!!!!!!!!!!!:A@A@;DA76A<AI2IEEEGEA@BJJFJDDD!!!!!!!!!!!!!!!!!!!!!!!!!!!!!!!<<:::AA!!!!!!!::AA!777!!##!!!!!!!!!!!!!!!!!!!!!!!!!!!!!!!!!!!!!!!!!!!!!!!!!!!!H!!!!!!!!!!2!!H!!!!!!!!!!!!!!!!!!!!!!!!!!!!!!!!!!!!!!!!!!!!!!!!!!!!!!!!!!!!!!!!!!!!!!!!!!!!!!!!!!!!!",
"!!!!!!!!!!!!!!!!!BB6@BD;@@BD@B'B@B'B;@@@@;DB@6BB!!!!!!!!!!!!!!!!!!!!!!!!!!!!TTTWTSSSBDD7@@B2RE:RCRGVE227CBDDBSSSTWTTT!!!!!!!!!!!!!!!!!!!!!!!!!!!77A<@;D7@@<A77727I2I766ABJDJJB@D!!!!!!!!!!!!!!!!!!!!!!!!!!!!!!::!!!!77!!!6???6A<AAA7#$$##!!!!!!!!!!!!!!!!!!!!!!!!!!!!!!!!!!!!!!!!!!!!!!!!!!!!!2!!2!!!!FF!!!!!!!!!!!!!!!!!!!!!!!!!!!!!!!!!!!!!!!!!!!!!!!!!!!!!!!!!!!!!!!!!!!!!!!!!!!!!!!!!!!!!!!!",
"!!!!!!!!!!!!!!!!!B;@;;DB@@BD@;@@@66@@@@@@BD;;@;B!!!!!!!!!!!!!!!!!!!!!!!!!!!WS#WTTTS#D!DJ;7CF2REEGGVE2==:7JD!D#STTTW#SW!!!!!!!!!!!!!!!!!!!!!!!!ATWWA7;BD;@A7D@';72:7;A@A@;BD;@@6@D!!!!!!!!!!!!!!!!!!!!!!!!!!!!!!!!!<<A77!6;@6;D67A<$AQX###!7=2!!!!!!!!!!!!!!!!!!!!!!!!!!!!!!!!!!!!!!!!!!2!!!!!!F!!7!!!!F!!!!!!!!!!!!!!!!!!!!!!!!!!!!!!!!!!!!!!!!!!!!!!!!!!!!!!!!!!!!!!!!!!!!!!!!!!!!!!!!!!!!!!!!!",
"!!!!!!!!!!!!!!!!WS#66@DO;@BDB@@@@@@@@@@@;OD@6#SW!!!!!!!!!!!!!!!!!!!!!!!!!!!S#LTSTT##!!D77:::=F2I72=2=@<=B:D!!##TTSTL#S!!!!!!!!!!!!!!!!!!!!SWTTWTTTT:BDDB;<@BB@G7:G:@@AA<ADDB;;@WWTT!!!!!!!!!!!!!!!!!!!!!!!!!!!!####ADDDDDDDDDA7A7?A7<YX$$!!!!!!!!!!!!!!!!!!!!!!!!!!!!!!!!!!!!!!!!7!!!!!F!!!!!!!!!H!!!!!7!!!!!!2!!!!!!!!!!!!!!!!!!!!!!!!!!!!!!!!!!!!!!!!!!!!!!!!!!!!!!!!!!!!!!!!!!!!!!!!!!!!!!!!!",
"!!!!!!!!!!!!!!WS#@S#@6DOB;BBDB'B@B'B;@@;BOD6#S@#SW!!!!!!!!!!!!!!!!!!!!!!!!!#!WS#WS!!!!!::BBB2B6I:26766:<JD!!!!!SW#SW!#!!!!!!!!!!!!!!!!!!!WTS#WTTSTS:D!DB:;;@D;@77@@77AABBD7DB;TTTTWTTWSS!!!!!!!!!!!!!!!!!!!!!!#TSTDD;@@66@;A;BDDB;6?AQYQ<A<2!!!!!2!!!!!!!!!!!!!!!!!!!!!!!!!!!!!!!!H!!!!!F!!!I!!!!!!!!!!!!!!!!F!!!!!!!!!!!!!!!!!!!!!!!!!!!!!!!!!!!!!!!!!!!!!!!!!!!!!!!!!!!!!!!!!!!!!!!!!!!!!!!!!!",
"!!!!!!!!!!!!!W#TT#WS@;DDOBBBDB;@@@@@;;BBODD;SW#TT#W!!!!!!!!!!!!!!!!!!!!!!!!!!#!!S#!!!!!!DJJ27DB7BB2BB:7JDA!!!!!#S!!#!!!!!!!!!!!!!!!!!!!!!S#LTS#TS##:!!D::AB;BDD7:;;;AB7BJD!!DBSTSTTW#ST!!!!!!!!!!!!!!!!!!!!!!#TS#D;@@@@@@6@;B@@;DD;@?77$##::A!!!!!!!!!!!!!!!!!!!!!!!!!!!!!!!!!!!!!!!!!!I!!!!!!!!!!!72!!7!!!!!!!7!!!!!!!!!!!!!!!!!!!!!!!!!!!!!!!!!!!!!!!!!!!!!!!!!!!!!!!!!!!!!!!!!!!!!!!!!!!!!!!!",
"!!!!!!!!!!!!!S!STTTTSWDDDOOBBDBBBBBBBBOODDWSTTTTS!S!!!!!!!!!!!!!!!!!!!!!!!!!!!!!#!!!!!!!!##7DDK:DDDD7KA#!!!!!!!!#!!!!!!!!!!!!!!!!!!!!!!!!#!T##WS!!!:!!D::####Z#:#Z####7AD!!!!D##ST#STL#!!!!!!!!!!!!!!!!!!!!!!#T#SD@@66@;@;@;;;@6@;D;6?A7AALL:2!!!!!##!!!!!!!!!!!!!!!!!!!!!!!!!!!!!!!<!!!!!2!!I!!!!7!!!!!!!!!!!!!!!!!!!!!!!!!!!!!!!!!!!!!!!!!!!!!!!!!!!!!!!!!!!!!!!!!!!!!!!!!!!!!!!!!!!!!!!!!!!!!",
"!!!!!!!!!!!!!!!!#SSS#D!!D##KDDKDDDDDDK##D!D#SSS#!!!!!!!!!!!!!!!!!!!!!!!!!!!!!!!!!!!!!!!!DB####[###[###:7D!!!!!!!!!!!!!!!!!!!!!!!!!!!!!!!!!!#!!S#!!!:!!!:#B;;@@;D;@@A;B#<D!!!!!!!!SW##T!!!!!!!!!!!!!!!!!!!!!<!!##D;@6666@;@;B@@@;@6@D;6]A##AA!!!!##ST##!!!!!!!!!!!!!!!!!!!!!!!!!!!!!!!!!!!!7H!!!!<!!!!!!!!!!72!!!F2!!!!!!!!!!!!!!!!!!!!!!!!!!!!!!!!!!!!!!!!!!!!!!!!!!!!!!!!!!!!!!!!!!!!!!!!!!!!!!",
"!!!!!!!!!!!!!!!!!DDDD!!!;B####N###N####B;!!DDDD!!!!!!!!!!!!!!!!!!!!!!!!!!!!!!!!!!!!!!!!!;@;B##Z###Z##B;@;!!!!!!!!!!!!!!!!!!!!!!!!!!!!!!!!!!!!!#!!!!!!!!DBDDDDDDBDDDDDDBA!!!!!!!!!#S!!#!!!!!!!!!!!!!!!!!!!!2!!!!!D;@@@66@D;;B;@@@666@D;A]A????!!#TT#T##!!!!!!!!!!!!!!!!!!!!!!!!!!#!!!!A!!!!!!!!!!7!!!!!H!!!7F!!!!!!!!!!!!!!!!!!!!!!!!!!!!!!!!!!!!!!!!!!!!!!!!!!!!!!!!!!!!!!!!!!!!!!!!!!!!!!!!!!!!",
"!!!!!!!!!!!!!!!!!!!!!!!!;@;B##Z###Z##B;@;!!!!!!!!!!!!!!!!!!!!!!!!!!!!!!!!!!!!!!!!!!!!!!!D;@666@;D;@666@;D!!!!!!!!!!!!!!!!!!!!!!!!!!!!!!!!!!!!!!!!!!!!!!DDB;;@;;@@;;@;BDD!!!!!!!!!!#!!!!!!!!!!!!!!!!!!!!!!!!!!!!!DB;@@6@;D;BDB;@@@@@6@<7A6@@6??!FTS#S##!!!!!!!!!!!!!!!!!!!!!!!#!!S#!!!7!!!!F!!!!!!!A!!!!!!F!!!!H!!!##!!!!!!!!!!!!!!!!!!!!!!!!!!!!!!!!!!!!!!!!!!!!!!!!!!!!!!!!!!!!!!!!!!!!!!!!!!!!",
"!!!!!!!!!!!!!!!!!!!!!!!!D;@666@;D;@666@;D!!!!!!!!!!!!!!!!!!!!!!!!!!!!!!!!!!!!!!!!!!!!!!!DBD;@@;DJD;@@;DBD!!!!!!!!!!!!!!!!!!!!!!!!!!!!!!!!!!!!!!!!!!!!!!D;@@;B;@@6@;;;;B7!!!!!!!!!!!!!!!!!!!!!!!!!!!!!!!!!!!!!!!!DDDDDDDDBBJJDB;BB;@A@;77A<D@@##S22ST##!!!!!!!!!!!!!!!!!!!!!!!####T#!!!!!!!HF!!???6L<!#!!!!!!!F!!#!#T#!!!!!!!!!!!!!!!!!!!!!!!!!!!!!!!!!!!!!!!!!!!!!!!!!!!!!!!!!!!!!!!!!!!!!!!!!!!",
"!!!!!!!!!!!!!!!!!!!!!!!O;BD;@@;DOD;@@;DB;O!!!!!!!!!!!!!!!!!!!!!!!!!!!!!!!!!!!!!!!!!!!!!!D;;DDDJBBBJDDD;;D!!!!!!!!!!!!!!!!!!!!!!!!!!!!!!!!!!!!!!!!!!!!!D;@666@B;@@;J@@6@BD!!!!!!!!!!!!!!!!!!!!!!!!!!!!!!!!!!!!!!F!#STTTS#JJDDDDD;;@66@@D7<DA@@STTS72S##!!!!!!!!!!!!!!!!!!!!!!!#T#S#W#!!<!!!!H!TTT66?A!!#!!!!F!!!!S#SS#!!!!!!!!!!!!!!!!!!!!!!!!!!!!!!!!!!!!!!!!!!!!!!!!!!!!!!!!!!!!!!!!!!!!!!!!!!!",
"!!!!!!!!!!!!!!!!!!!!!!!B;@@DDDOBBBODDD@@;B!!!!!!!!!!!!!!!!!!!!!!!!!!!!!!!!!!!!!!!!!!!!!DB;@@BJDDKDDJB@@;BD!!!!!!!!!!!!!!!!!!!!!!!!!!!!!!!!!!!!!!!!!!!DB;;@@@6;J;;J;@@@6;D!!!!!!!!!!!!!!!!!!!!!!!!!!!!!!!!!!!!!F!!#SSTSS#DDDDDDB@@666;@DDAD@7;TTTTS###!!!!!!!!!!!!!!!!!!!!!!!!#STSTTS#!7A!!!!T###T@6?##$#!!FH!!!#TSST#!!!!!!!!!!!!!!!!!!!!!!!!!!!!!!!!!!!!!!!!!!!!!!!!!!!!!!!!!!!!!!!!!!!!!!!!!!!",
"!!!!!!!!!!!!!!!!!!!!!!!B@66;BODDDDDOB;66@B!!!!!!!!!!!!!!!!!!!!!!!!!!!!!!!!!!!!!!!!!!!!!D;@6@@;BJKJB;@@6@;D!!!!!!!!!!!!!!!!!!!!!!!!!!!!!!!!!!!!!!!!!!!D;@6@@;@BDDDD@@@@6@D!!!!!!!!!!!!!!!!!!!!!!!!!!!!!!!!!!!!!!!!!#SSSS##!!!DD;;@@@6@;D;<:DABSTTS##!!!!!!!!!!!!!!!!!!!!!!!!!!!##TS#TSA7!!!!!#####@@6?A#A!!H!!!!#TSSS#!!!!!!!!!!!!!!!!!!!!!!!!!!!!!!!!!!!!!!!!!!!!!!!!!!!!!!!!!!!!!!!!!!!!!!!!!!!",
"!!!!!!!!!!!!!!!!!!!!!!!B@6@@@;BD!DB;@@@6@B!!!!!!!!!!!!!!!!!!!!!!!!!!!!!!!!!!!!!!!!!!!!!D@6@@@@BDDDB@@@@6@D!!!!!!!!!!!!!!!!!!!!!!!!!!!!!!!!!!!!!!!!!!!D;@@@@@BBDDD;@@;@@@D!!!!!!!!!!!!!!!!!!!!!!!!!!!!!!!!!!!!!!!!#STWS##!!!!DB@@6@6@@DJBD:;@@;SS##!!!!!!!!!!!!!!!!!!!!!!!!!!!!!!##ST<@A!!!!!#####;@@6?A##!!!!!#S#WT#!!!!!!!!!!!!!!!!!!!!!!!!!!!!!!!!!!!!!!!!!!!!!!!!!!!!!!!!!!!!!!!!!!!!!!!!!!!!",
"!!!!!!!!!!!!!!!!!!!!!!!B;@@@@@;D!D;@@@@@;B!!!!!!!!!!!!!!!!!!!!!!!!!!!!!!!!!!!!!!!!!!!!!D@6@@@@;D!D;@@@@6@D!!!!!!!!!!!!!!!!!!!!!!!!!!!!!!!!!!!!!!!!!!!D;@@@@;;DD!DB;;@@@;D!!!!!!!!!!!!!!!!!!!!!!!!!!!!!!!!!!!!!!!!#SSSS##F!!!D;B;@6;@;DBDD:AB<;B##!!!!!!!!!!!!!!!!!!!!!!!!!!!!!!!!#SST;??????#####S#@@67A<!!!6?STWSS#!!!!!!!!!!!!!!!!!!!!!!!!!!!!!!!!!!!!!!!!!!!!!!!!!!!!!!!!!!!!!!!!!!!!!!!!!!!!",
"!!!!!!!!!!!!!!!!!!!!!!!OB@;@@@@D!D@@@@;@BO!!!!!!!!!!!!!!!!!!!!!!!!!!!!!!!!!!!!!!!!!!!!!D;@@;@@;D!D;@@;@@;D!!!!!!!!!!!!!!!!!!!!!!!!!!!!!!!!!!!!!!!!!!!DB;@@@@BD!!DBB@@@;BJD!!!!!!!!!!!!!!!!!!!!!!!!!!!!!!!!!!!!!!#SSTTS##!!!#DBB;;@@;DJDD!:ADDDDD!!!!!!!!!!!!!!!!!!!!!!!!!!!!###!!!#JB?66;66#T###SS#@@@?7A7??@@TWTS#!!!!!!!!!!!!!!!!!!!!!!!!!!!!!!!!!!!!!!!!!!!!!!!!!!!!!!!!!!!!!!!!!!!!!!!!!!!!!",
"!!!!!!!!!!!!!!!!!!!!!!!D;@@;@;D!!!D;@;@@;D!!!!!!!!!!!!!!!!!!!!!!!!!!!!!!!!!!!!!!!!!!!!DBB@6@;;;D!D;;;@6@BBD!!!!!!!!!!!!!!!!!!!!!!!!!!!!!!!!!!!!!!!!!!DJB;;;;D!!!DB@@@;B;BD!!!!!!!!!!!!!!!!!!!!!!!!!!!!!!!!!!!!!!#STWTS##!!!#SDJBB@;DDDD^!!:A!!F!!!!!!!!!!!!!!!!!!!!!!!!!!!!##WT#!!###S;6;;;##T##T#D;@@6A@A@@6;;TS#!!!!!!!!!!!!!!!!!!!!!!!!!!!!!!!!!!!!!!!!!!!!!!!!!!!!!!!!!!!!!!!!!!!!!!!!!!!!!!",
"!!!!!!!!!!!!!!!!!!!!!!!DB@6@;;D!!!D;;@6@BD!!!!!!!!!!!!!!!!!!!!!!!!!!!!!!!!!!!!!!!!!!!!D;@B@6@;BD!DB;@6@B@;D!!!!!!!!!!!!!!!!!!!!!!!!!!!!!!!!!!!!!!!!!!!DDDDDD#!!!D;@@;@6@;D!!!!!!!!!!!!!!!!!!!!!!!!!!!!!!!!!!!!!!#STTS##!!!!#STDDJBDD!^^U!!:A!!!!!!!!!!!!!!!!!!!!!!!!!!!!!!!###T#!#ZSTWS;;;;####WS#D;;@@@D;<@@;B##!!!!!!!!!!!!!!!!!!!!!!!!!!!!!!!!!!!!!!!!!!!!!!!!!!!!!!!!!!!!!!!!!!!!!!!!!!!!!!!",
"!!!!!!!!!!!!!!!!!!!!!!B;B;@6@BD!!!DB@6@;B;B!!!!!!!!!!!!!!!!!!!!!!!!!!!!!!!!!!!!!!!!!!!D@6;@@@;BD!DB;@@@;6@D!!!!!!!!!!!!!!!!!!!!!!!!!!!!!!!!!!!!!!!!!!!#SSTTS#!!!DB;B@@@@D!!!!!!!!!!!!!!!!!!!!!!!!!!!!!!!!!!!!!!!!#####!!!!#STSTTDDD!!^V_!!:A!!!!!!!!!!!!!!!!!!!!!!!!!!!!!!!###TZ#ZTTT##J;;;;###T#BD;@@B7BDJ;;BDD!!!!!!!!!!!!!!!!!!!!!!!!!!!!!!!!!!!!!!!!!!!!!!!!!!!!!!!!!!!!!!!!!!!!!!!!!!!!!!!!",
"!!!!!!!!!!!!!!!!!!!!!!B@@;BB;@D!!!D@;BB;@@B!!!!!!!!!!!!!!!!!!!!!!!!!!!!!!!!!!!!!!!!!!!D@@@@@;;D!!!D;;@@@@@D!!!!!!!!!!!!!!!!!!!!!!!!!!!!!!!!!!!!!!!!!!!!#SSSS#!!!DBJ;@@@;D!!!!!!!!!!!!!!!!!!!!!!!!!!!!!!!!!!!!!!!!!!!!!!!!!##STTS##!!__V!!!!!!!!!!!!!!!!!!!!!!!!!!!!!!!!!!!!###TTZTWTS##JJJJ;;;BS#DB;;;D;;;BABDD!!!!!!!!!!!!!!!!!!!!!!!!!!!!!!!!!!!!!!!!!!!!!!!!!!!!!!!!!!!!!!!!!!!!!!!!!!!!!!!!!",
"!!!!!!!!!!!!!!!!!!!!!!B@@;@@@;D!!!D;@@@;@@B!!!!!!!!!!!!!!!!!!!!!!!!!!!!!!!!!!!!!!!!!!!D;@@;@;BD!!!DB;@;@@;D!!!!!!!!!!!!!!!!!!!!!!!!!!!!!!!!!!!!!!!!!!!!#SSS#!!!!DJBB;;;D!!!!!!!!!!!!!!!!!!!!!!!!!!!!!!!!!!!!!!!!!!!!!F!!!#S##SS##!!V_V!!!2!!!!!!!!!!!!!!!!!!!!!!!!!!!!!!!!!!###TSTTS###DDDDJJJJOOB;;BBDB;;B<D!!!!!!!!!!!!!!!!!!!!!!!!!!!!!!!!!!!!!!!!!!!!!!!!==F7FFF==2==2!!!!!!!!!!!!!!!!!!!!!!",
"!!!!!!!!!!!!!!!!!!!!!!O;@@@@;BD!!!DB;@@@@;O!!!!!!!!!!!!!!!!!!!!!!!!!!!!!!!!!!!!!!!!!!!DB;@@;BD!!!!!DB;@@;BD!!!!!!!!!!!!!!!!!!!!!!!!!!!!!!!!!!!!!!!!!!!!#STWS#!!!#DDDDDD!!!!!!!!!!!!!!!!!!!!!!!!!!!!!!!!!!!!!!!!!!!!!!!!!#STTSS##!!!VC!!!!!!!!!!!!!!!!!!!!!!!!!!!!!!!!!!!!!!!####SS##L7!!H!!DDDDDOJBBODDDDDD!!!!7!!!!!!!!!!!!!!!!!!!!!!!!!!!!!!!!!!!!!!!!!!!!F::::F:7F7=F===2!!!!!!!!!!!!!!!!!!!!",
"!!!!!!!!!!!!!!!!!!!!!!DB;@BODD!!!!!DDOB@;BD!!!!!!!!!!!!!!!!!!!!!!!!!!!!!!!!!!!!!!!!!!!!DDDDDD#!!!!!#DDDDDD!!!!!!!!!!!!!!!!!!!!!!!!!!!!!!!!!!!!!!!!!!!!!#TSSS#!!!#SSTTS#!!!!!!!!!!!!!!!!!!!!!!!!!!!!!!!!!!!!!!!!!!!!!!!!#STSTS##!!!!V`a!!!!!!!!!!!!!!!!!!!!!!!!!!!!!!!!!!!!!!!##S##!!7!!:H!!!!!DDDDDDD^U!!!!!!!!!!!!!!!!!!!!!!!!!!!!!!!!!!!!!!!SW!!!!!!!!!!!!6@J@@@@@;D=7FFF==2!!!!!!!!!!!!!!!!!!",
"!!!!!!!!!!!!!!!!!!!!!!!DDOWTS#!!!!!#STWODD!!!!!!!!!!!!!!!!!!!!!!!!!!!!!!!!!!!!!!!!!!!!!#STTTS#!!!!!#STTTS#!!!!!!!!!!!!!!!!!!!!!!!!!!!!!!!!!!!!!!!!!!!!#STTTS#!!!#SSSS#!!!!!!!!!!!!!!!!!!!!!!!!!!!!!!!!!!!!!!!!!!!!!!!!!#STWTS##!!!!!V_C!!!2!!!!!!!!!!!!!!!!!!!!!!!!!!!!!!!!!!###!!!!!!FH!!F!!!F!!!^^^V_!!7!!A!!!!!!!!!!!!!!!!!!!!!!!!!!!!!!WS!!SA!!!!!!!!F?@JJ;;;;:F@JB=6A<FFF2!!!!SS!W!!!!!!!!!",
"!!!!!!!!!!!!!!!!!!!!!!!!#TTTTS#!!!#STTTT#!!!!!!!!!!!!!!!!!!!!!!!!!!!!!!!!!!!!!!!!!!!!!!!#STSS#!!!!!#SSTS#!!!!!!!!!!!!!!!!!!!!!!!!!!!!!!!!!!!!!!!!!!!!!#SSTWS#!!!!#SSS#!!!!!!!!!!!!!!!!!!!!!!!!!!!!!!!!!!!!!!!!!!!!!!!!!!#STS##!!!!!!!!!!!!!!!!!!!!!!!!!!!!!!!!!!!!!!!!!!!!!!!!!!!!!!!!H!!:!!!!!!!!^VC!!!!F!!!!!!!!!!!!!!!!!!!!!!!!!!!!!!!!!#TS#T###!!!!!??6@#STJJJB@6;D@:;<7AF?2?#SS!!SW!!!!!!!!",
"!!!!!!!!!!!!!!!!!!!!!!!!#STTSS#!!!#SSTTS#!!!!!!!!!!!!!!!!!!!!!!!!!!!!!!!!!!!!!!!!!!!!!!!#TWT#!!!!!!!#TWT#!!!!!!!!!!!!!!!!!!!!!!!!!!!!!!!!!!!!!!!!!!!!!!#####!!!!#STWT#!!!!!!!!!!!!!!!!!!!!!!!!!!!!!!!!!!!!!!!!!!!!!!!!!!!!###!!!!!!!!!!!!!!!!!!!!!!!!!!!!!!!!!!!!!!!!!!!!!!!!!!!!!!!!!!!!H!!!!!!!!!V`aC!!!:!!!!!!!!!!!!!!!!!!!!!!!!!!!!!!!!#TSTS#TW#F###6@@A#TTTTT#@6@D@F;A7@7@6STSWS#T#!!!!!!!!",
"!!!!!!!!!!!!!!!!!!!!!!!!#TWWT#!!!!!#TWWT#!!!!!!!!!!!!!!!!!!!!!!!!!!!!!!!!!!!!!!!!!!!!!!!#STSS#!!!!!#SSTS#!!!!!!!!!!!!!!!!!!!!!!!!!!!!!!!!!!!!!!!!!!!!!!!!!!!!!!!#TSTT#!!!!!!!!!!!!!!!!!!!!!!!!!!!!!!!!!!!!!!!!!!!!!!!!!!!!!!!!!!!!!!!!!!!!!!!!!!!!!!!!!!!!!!!!!!!!!!!!!!!!!!!!!!!!!!!F!!!!!!!!7!!!!!!!!!!!H!!!!!!!!!!!!!!!!!!!!!!!!!!!!!!!!!#TTT#SSW#WSTS@@@DTTWW##@@@J@;;A;@A;@WTTS#TS#!!!!!!!!",
"!!!!!!!!!!!!!!!!!!!!!!!!##TTSS#!!!#SSTT##!!!!!!!!!!!!!!!!!!!!!!!!!!!!!!!!!!!!!!!!!!!!!!!#TTTS#!!!!!#STTT#!!!!!!!!!!!!!!!!!!!!!!!!!!!!!!!!!!!!!!!!!!!!!!!!!!!!!!!#TTTSS#!!!!!!!!!!!!!!!!!!!!!!!!!!!!!!!!!!!!!!!!!!!!!!!!!!!!!!!!!!!!!!!!!!!!!!!!!!!!!!!!!!!!!!!!!!!!!!!!!!!!!!!!!!!!!!!!!!!!!!!!!!!!!<!A!<!!!!!!!!!!!!!!!!!!!!!!!!!!!!!!!!!!!!####SSST#TWTS7;#T###T#@:;B;;BAB;B;BSST#T##!!!!!!!!!",
"!!!!!!!!!!!!!!!!!!!!!!!!#WZWTS#!!!#STWZW#!!!!!!!!!!!!!!!!!!!!!!!!!!!!!!!!!!!!!!!!!!!!!!#TWWTT#!!!!!#TTWWT#!!!!!!!!!!!!!!!!!!!!!!!!!!!!!!!!!!!!!!!!!!!!!!!!!!!!!!#STWWT#!!!!!!!!!!!!!!!!!!!!!!!!!!!!!!!!!!!!!!!!!!!!!!!!!!!!!!!!!!!!!!!!!!!!!!!!!!!!!!!!!!!!!!!!!!!!!!!!!!!!!!!!!!!!!!!!!!!!!!!!!!!!!!A<A!!!!!!!!!!!!!!!!!!!!!!!!!!7:!!!:7:!!!A!A7#TTWSTST#;B#######;;;;BJDADDDDDD####!!!!!!!!!!!",
"!!!!!!!!!!!!!!!!!!!!!!!#STTSS#!!!!!#SSTTS#!!!!!!!!!!!!!!!!!!!!!!!!!!!!!!!!!!!!!!!!!!!!!#STTTS#!!!!!#STTTS#!!!!!!!!!!!!!!!!!!!!!!!!!!!!!!!!!!!!!!!!!!!!!!!!!!!!!!!#####!!!!!!!!!!!!!!!!!!!!!!!!!!!!!!!!!!!!!!!!!!!!!!!!!!!!!!!!!!!!!!!!!!!!!!!!!!!!!!!!!!!!!!!!!!!!!!!!!!!!!!!!!!!!!!!!!!!!!!!!!!!!!!!!!!!!!!!!!!!!!!!!!!!!!!!!!!!!!!!!!!!!!!!!!!!#SST#SSS#BDD######BJDDDD7A7<<A7!A<!!7!!!!:7!:!!",
"!!!!!!!!!!!!!!!!!!!!!!!######!!!!!!!######!!!!!!!!!!!!!!!!!!!!!!!!!!!!!!!!!!!!!!!!!!!!!!#####!!!!!!!#####!!!!!!!!!!!!!!!!!!!!!!!!!!!!!!!!!!!!!!!!!!!!!!!!!!!!!!!!!!!!!!!!!!!!!!!!!!!!!!!!!!!!!!!!!!!!!!!!!!!!!!!!!!!!!!!!!!!!!!!!!!!!!!!!!!!!!!!!!!!!!!!!!!!!!!!!!!!!!!!!!!!!!!!!!!!!!!!!!!!!!!!!!!!!!!!!!!!!!!!!!!!!!!!!!!!!!!!!!!!!!!!!!::!!A!!7###b###DA<A#####DDDbbbA<<AAFF!!!!!!!!!!!!!!!!!"
};