/* XPM */
static const char *enemy_floor3_blue_guard_death_f04[] = {
/* columns rows colors chars-per-pixel */
"64 64 31 1",
"! c None",
"# c #C42424",
"$ c #980808",
"% c #5C0000",
"& c #840404",
"' c #CC3838",
"( c #D86464",
") c #000000",
"* c #C01010",
"+ c #2C2C2C",
", c #3C3C3C",
"- c #4C78A8",
". c #3C6CA0",
"/ c #980088",
"0 c #4C4C4C",
"1 c #346090",
"2 c #603814",
"3 c #2C5480",
"4 c #204060",
"5 c #244870",
"6 c #142840",
"7 c #5C5C5C",
"8 c #183450",
"9 c #700404",
": c #500024",
"; c #640030",
"< c #740438",
"= c #880444",
"> c #D05090",
"? c #C01064",
"@ c #AC0C58",
"!!!!!!!!!!!!!!!!!!!!!!!!!!!!!!!!!!!!!!!!!!!!!!!!!!!!!!!!!!!!!!!!",
"!!!!!!!!!!!!!!!!!!!!!!!!!!!!!!!!!!!!!!!!!!!!!!!!!!!!!!!!!!!!!!!!",
"!!!!!!!!!!!!!!!!!!!!!!!!!!!!!!!!!!!!!!!!!!!!!!!!!!!!!!!!!!!!!!!!",
"!!!!!!!!!!!!!!!!!!!!!!!!!!!!!!!!!!!!!!!!!!!!!!!!!!!!!!!!!!!!!!!!",
"!!!!!!!!!!!!!!!!!!!!!!!!!!!!!!!!!!!!!!!!!!!!!!!!!!!!!!!!!!!!!!!!",
"!!!!!!!!!!!!!!!!!!!!!!!!!!!!!!!!!!!!!!!!!!!!!!!!!!!!!!!!!!!!!!!!",
"!!!!!!!!!!!!!!!!!!!!!!!!!!!!!!!!!!!!!!!!!!!!!!!!!!!!!!!!!!!!!!!!",
"!!!!!!!!!!!!!!!!!!!!!!!!!!!!!!!!!!!!!!!!!!!!!!!!!!!!!!!!!!!!!!!!",
"!!!!!!!!!!!!!!!!!!!!!!!!!!!!!!!!!!!!!!!!!!!!!!!!!!!!!!!!!!!!!!!!",
"!!!!!!!!!!!!!!!!!!!!!!!!!!!!!!!!!!!!!!!!!!!!!!!!!!!!!!!!!!!!!!!!",
"!!!!!!!!!!!!!!!!!!!!!!!!!!!!!!!!!!!!!!!!!!!!!!!!!!!!!!!!!!!!!!!!",
"!!!!!!!!!!!!!!!!!!!!!!!!!!!!!!!!!!!!!!!!!!!!!!!!!!!!!!!!!!!!!!!!",
"!!!!!!!!!!!!!!!!!!!!!!!!!!!!!!!!!!!!!!!!!!!!!!!!!!!!!!!!!!!!!!!!",
"!!!!!!!!!!!!!!!!!!!!!!!!!!!!!!!!!!!!!!!!!!!!!!!!!!!!!!!!!!!!!!!!",
"!!!!!!!!!!!!!!!!!!!!!!!!!!!!!!!!!!!!!!!!!!!!!!!!!!!!!!!!!!!!!!!!",
"!!!!!!!!!!!!!!!!!!!!!!!!!!!!!!!!!!!!!!!!!!!!!!!!!!!!!!!!!!!!!!!!",
"!!!!!!!!!!!!!!!!!!!!!!!!!!!!!!!!!!!!!!!!!!!!!!!!!!!!!!!!!!!!!!!!",
"!!!!!!!!!!!!!!!!!!!!!!!!!!!!!!!!!!!!!!!!!!!!!!!!!!!!!!!!!!!!!!!!",
"!!!!!!!!!!!!!!!!!!!!!!!!!!!!!!!!!!!!!!!!!!!!!!!!!!!!!!!!!!!!!!!!",
"!!!!!!!!!!!!!!!!!!!!!!!!!!!!!!!!!!!!!!!!!!!!!!!!!!!!!!!!!!!!!!!!",
"!!!!!!!!!!!!!!!!!!!!!!!!!!!!!!!!!!!!!!!!!!!!!!!!!!!!!!!!!!!!!!!!",
"!!!!!!!!!!!!!!!!!!!!!!!!!!!!!!!!!!!!!!!!!!!!!!!!!!!!!!!!!!!!!!!!",
"!!!!!!!!!!!!!!!!!!!!!!!!!!!!!!!!!!!!!!!!!!!!!!!!!!!!!!!!!!!!!!!!",
"!!!!!!!!!!!!!!!!!!!!!!!!!!!!!!!!!!!!!!!!!!!!!!!!!!!!!!!!!!!!!!!!",
"!!!!!!!!!!!!!!!!!!!!!!!!!!!!!!!!!!!!!!!!!!!!!!!!!!!!!!!!!!!!!!!!",
"!!!!!!!!!!!!!!!!!!!!!!!!!!!!!!!!!!!!!!!!!!!!!!!!!!!!!!!!!!!!!!!!",
"!!!!!!!!!!!!!!!!!!!!!!!!!!!!!!!!!!!!!!!!!!!!!!!!!!!!!!!!!!!!!!!!",
"!!!!!!!!!!!!!!!!!!!!!!!!!!!!!!!!!!!!!!!!!!!!!!!!!!!!!!!!!!!!!!!!",
"!!!!!!!!!!!!!!!!!!!!!!!!!!!!!!!!!!!!!!!!!!!!!!!!!!!!!!!!!!!!!!!!",
"!!!!!!!!!!!!!!!!!!!!!!!!!!!!!!!!!!!!!!!!!!!!!!!!!!!!!!!!!!!!!!!!",
"!!!!!!!!!!!!!!!!!!!!!!!!!!!!!!!!!!!!!!!!!!#!!!!!!!!!!!!!!!!!!!!!",
"!!!!!!!!!!!!!!!!!!!!!!!!!!!$!!!!!!!!!$!!!!$!!!!!!!!!!!!!!!!!!!!!",
"!!!!!!!!!!!!!!!!!!!!!!!!!!!!%!!!!!!!!!!#!!%!!!!!!!!!!!!!!!!!!!!!",
"!!!!!!!!!!!!!!!!!!!!!!!!!!!!!!#!!#!!!!&&!!!!!!!!!!!!!!!!!!!!!!!!",
"!!!!!!!!!!!!!!!!!!!!!!!#!!!!!!&!!$!!!!&!!!!!!!!!!!!!!!!!!!!!!!!!",
"!!!!!!!!!!!!!!!!!$!!!!!&!!!!!!!!!%!!!!!$!!!!!!#!!!!!!!!!!!!!!!!!",
"!!!!!!!!!!!!!!!!!!%!!!!!&!!!'!!!!!!!!!!!!!!!!&!!!!!!!!!!!!!!!!!!",
"!!!!!!!!!!!!!!!!!!!!!!!'!!!!!!!!!!!$#!!$!!!!!!!$!!!!!!!!!!!!!!!!",
"!!!!!!!!!!!!!!!!!!!!(!!!!!#!!'!!!!$!!!!!!!!!!!!!!!!!!!!!!!!!!!!!",
"!!!!!!!!!!!!!!!!!!!!!!!!!!$%!!!!(!!!!!!!!!!$#!!!&#!!!!!!!!!!!!!!",
"!!!!!!!!!!!!!!!!)!!!!*!!!!!!!!!!$!!!!!%!!!$&!!!!!!!!!!!!!!!!!!!!",
"!!!!!!!!!!!!!)!!+)!!!$!!!!&!!!!!!!*!!!!!!&!!!!%!!!))!!!!!!!!!!!!",
"!!!!!!!!!!!!!)))),)!!!!!!!%&!!---./(!)!!!!!!!&!!)!),)!!!!!!!!!!!",
"!!!!!!!!!!!!!),)+)0)!!(!!!!%!,,,..-*!!)!!!!&!!!!+)++)!!!!!!!!!!!",
"!!!!!!!!!!!!!)+,+,,+)!$*!!!!,))),1.-))2)!!&%!!!),++,)!!!!!!!!!!!",
"!!!!!!!!!!!!!!)),+),+*$!!!!!)))))11.-*)*!!%!!!!),+++)!!!!!!!!!!!",
"!!!!!!!!!!!!!!!!))+,(1*!!!!!)))))311.-*))!!!!!)+)0,)!!!!!!!!!!!!",
"!!!!!!!!!!!!!!!!!)++,3------)))))+)11.$*(!!!.-+,0++)!!!!!!!!!!!!",
"!!!!!!!!!!!!)))!!!)45-..3..),)))++)111-$*$--11,0,+)!!!!!!!!!!!!!",
"!!!!!!!!!!!))0,)!!)))+3.333)),)),)6311.*1*11.33,+)!!!!!!!!!!!!!!",
"!!!!!!!!!!!))),)!)7+,0+3333))))0+)63311163(1135))!!!!!!!!!!!!!!!",
"!!!!!!!!!!!))),7)7,,,))43333))),)563115$56433566!!!!!!!!!!!!!!!!",
"!!!!!!!!!!!))),,7,0,+))44443335+)6533363335*566!!!!!!!!!!!!!!!!!",
"!!!!!!!!!!!!))),+,,+)))66664444885335565335(6!!!!!!!!!!!!!!!!!!!",
"!!!!!!!!!!!!))))++))/$!!%!!6666684558666666!!!!$!!!!!!!!!!!!!!!!",
"!!!!!!!!!!!!!))+))!!$!!9%!!!!!6666666:;!!!!!!!!!!!!!!!!!!!!!!!!!",
"!!!!!!!!!!!!!)))!!!!!!&%!!&!!!&!!!:::<=!!$!!*!!!!!!!!!!!!!!!!!!!",
"!!!!!!!!!!!!!!!!!!!!!!%!!9!!!!!!!!:<>!!!!&!!!!!!!!!!!!!!!!!!!!!!",
"!!!!!!!!!!!!!!!!!!!!!!!!!%!!!!!!!!!<?@>!!!9!!!!!!!!!!!!!!!!!!!!!",
"!!!!!!!!!!!!!!!!!!!!!&!!!!!!!!$!!!!!!!!!!!%!!!!!!!!!!!!!!!!!!!!!",
"!!!!!!!!!!!!!!!!!!!!!!!!!!!!!!!!!!!!(!*!(!!!!!!!!!!!!!!!!!!!!!!!",
"!!!!!!!!!!!!!!!!!!!!!!!!!!!!!!!!!!!!!*(*!!!!!!!!!!!!!!!!!!!!!!!!",
"!!!!!!!!!!!!!!!!!!!!!!!!!!!!!!!!!!!!!!!!!!!!!!!!!!!!!!!!!!!!!!!!",
"!!!!!!!!!!!!!!!!!!!!!!!!!!!!!!!!!!!!!!!!!!!!!!!!!!!!!!!!!!!!!!!!"
};