/* XPM */
static const char *enemy_floor3_blue_guard_death_f01[] = {
/* columns rows colors chars-per-pixel */
"64 64 48 1",
"! c None",
"# c #000000",
"$ c #603814",
"% c #805424",
"& c #A06C3C",
"' c #A8784C",
"( c #B08458",
") c #94602C",
"* c #402810",
"+ c #C4A080",
", c #704820",
"- c #401C00",
". c #0C1400",
"/ c #C42424",
"0 c #743804",
"1 c #884404",
"2 c #3C6CA0",
"3 c #980808",
"4 c #80A0C4",
"5 c #5884B0",
"6 c #700404",
"7 c #2C5480",
"8 c #D86464",
"9 c #346090",
": c #C01010",
"; c #4C78A8",
"< c #244870",
"= c #D05090",
"> c #142840",
"? c #200000",
"@ c #480000",
"A c #AC0C0C",
"B c #204060",
"C c #5C0000",
"D c #0C1C30",
"E c #CC3838",
"F c #980088",
"G c #C4C824",
"H c #340000",
"I c #2C2C2C",
"J c #3C3C3C",
"K c #640030",
"L c #98084C",
"M c #740438",
"N c #4C4C4C",
"O c #840404",
"P c #848484",
"Q c #5C5C5C",
"!!!!!!!!!!!!!!!!!!!!!!!!!!!!!!!!!!!!!!!!!!!!!!!!!!!!!!!!!!!!!!!!",
"!!!!!!!!!!!!!!!!!!!!!!!!!!!!!!!!!!!!!!!!!!!!!!!!!!!!!!!!!!!!!!!!",
"!!!!!!!!!!!!!!!!!!!!!!!!!!!!!!!!!!!!!!!!!!!!!!!!!!!!!!!!!!!!!!!!",
"!!!!!!!!!!!!!!!!!!!!!!!!!!!!!!!!!!!!!!!!!!!!!!!!!!!!!!!!!!!!!!!!",
"!!!!!!!!!!!!!!!!!!!!!!!!!!!!!!!!!!!!!!!!!!!!!!!!!!!!!!!!!!!!!!!!",
"!!!!!!!!!!!!!!!!!!!!!!!!!!!!!!!!!!!!!!!!!!!!!!!!!!!!!!!!!!!!!!!!",
"!!!!!!!!!!!!!!!!!!!!!!!!!!!!!!!!!!!!!!!!!!!!!!!!!!!!!!!!!!!!!!!!",
"!!!!!!!!!!!!!!!!!!!!!!!!!!!!!!!!!!!!!!!!!!!!!!!!!!!!!!!!!!!!!!!!",
"!!!!!!!!!!!!!!!!!!!!!!!!!!!!!!!!!!!!!!!!!!!!!!!!!!!!!!!!!!!!!!!!",
"!!!!!!!!!!!!!!!!!!!!!!!!!!!!!!!!!!!!!!!!!!!!!!!!!!!!!!!!!!!!!!!!",
"!!!!!!!!!!!!!!!!!!!!!!!!!!!!!!!!!!!!!!!!!!!!!!!!!!!!!!!!!!!!!!!!",
"!!!!!!!!!!!!!!!!!!!!!!!!!!!!!!!!!!!!!!!!!!!!!!!!!!!!!!!!!!!!!!!!",
"!!!!!!!!!!!!!!!!!!!!!!!!!!!!!!!#!!!!!!!!!!!!!!!!!!!!!!!!!!!!!!!!",
"!!!!!!!!!!!!!!!!!!!!!!!!!!!!!##$##$#!!!!!!!!!!!!!!!!!!!!!!!!!!!!",
"!!!!!!!!!!!!!!!!!!!!!!!!!!!!##$##$####!!!!!!!!!!!!!!!!!!!!!!!!!!",
"!!!!!!!!!!!!!!!!!!!!!!!!!!!##%&&##&##$#!!!!!!!!!!!!!!!!!!!!!!!!!",
"!!!!!!!!!!!!!!!!!!!!!!!!!!!#%&''#''&%#!!!!!!!!!!!!!!!!!!!!!!!!!!",
"!!!!!!!!!!!!!!!!!!!!!!!!!!##&$#'('#$&$#!!!!!!!!!!!!!!!!!!!!!!!!!",
"!!!!!!!!!!!!!!!!!!!!!!!!!!#$)'*$&$*')#$!!!!!!!!!!!!!!!!!!!!!!!!!",
"!!!!!!!!!!!!!!!!!!!!!!!!!!&#'+(&+&(+'#&!!!!!!!!!!!!!!!!!!!!!!!!!",
"!!!!!!!!!!!!!!!!!!!!!!!!!!,$&($#%#$(&$,!!!!!!!!!!!!!!!!!!!!!!!!!",
"!!!!!!!!!!!!!!!!!!!!!!!!!!!,%'%-.-%'%,!!!!!!!!!!!!!!!!!!!!!!!!!!",
"!!!!!!!!!!!!!!!!!!!!!!!!!!!!,%&/01&%,!!!!!!!!!!!!!!!!!!!!!!!!!!!",
"!!!!!!!!!!!!!!!!!!!!!!!!!!!!!2,3/%,$2!!!!!!!!!!!!!!!!!!!!!!!!!!!",
"!!!!!!!!!!!!!!!!!!!!!!452!!336%33)%782!!254!!!!!!!!!!!!!!!!!!!!!",
"!!!!!!!!!!!!!!!!!!!!445323969:;;3;;:6;9<2;544!!!!!!!!!!!!!!!!!!!",
"!!!!!!!!!!!!!!!!!!!45;;266=7639>/?/8693672;;54!!!!!!!!!!!!!!!!!!",
"!!!!!!!!!!!!!!!!!!<7999<>>692??????@A36/><9997<!!!!!!!!!!!!!!!!!",
"!!!!!!!!!!!!!!!!!!><B>6=><9:?C?CC???/66<>D>>B<>!!!!!!!!!!!!!!!!!",
"!!!!!!!!!!!!!!!!!!><<>26399>?EC??F????/G2>D><<>!!!!!!!!!!!!!!!!!",
"!!!!!!!!!!!!!!!!!>7:97D7639>3:HFFF?H?6G/37D<997>!!!!!!!!!!!!!!!!",
"!!!!!!!!!!!!!!!!IJ:68<>799>3?6K?FH@LK?BB97><799JI!!!!!!!!!!!!!!!",
"!!!!!!!!!!!!!!IJJJJ93<>7/33:???C?E=M?6/997>799JJJJI!!!!!!!!!!!!!",
"!!!!!!!!!!!!JJJNJIII<>>399</L?6L=L@M?//3=<>><IIIJNJJJ!!!!!!!!!!!",
"!!!!!!!!!!!NI#NJJJI#>!>B73=O/L??@@M?/AA63B>!>#IJJJN#IN!!!!!!!!!!",
"!!!!!!!!!!!I#FJIJJ##!!>33666AO/E3/A/A98A<6>!!##JJIJF#I!!!!!!!!!!",
"!!!!!!!!!!!#!NI#NI!!!!!66<<</<2E6/232268B>!!!!!IN#IN!#!!!!!!!!!!",
"!!!!!!!!!!!!!#!!I#!!!!!!>BB/3><3<</<<63B>:!!!!!#I!!#!!!!!!!!!!!!",
"!!!!!!!!!!!!!!!!#!!!!!!!!##3>>D6>>>>3D:#!!!!!!!!#!!!!!!!!!!!!!!!",
"!!!!!!!!!!!!!!!!!!!!!!!!><####P###P###63>!!!!!!!!!!!!!!!!!!!!!!!",
"!!!!!!!!!!!!!!!!!!!!!!!!797<##Q###Q##<797!!!!!!!!!!!!!!!!!!!!!!!",
"!!!!!!!!!!!!!!!!!!!!!!!!>7922297>7922297>!!!!!!!!!!!!!!!!!!!!!!!",
"!!!!!!!!!!!!!!!!!!!!!!!!><>7997>B>7997><>!!!!!!!!!!!!!!!!!!!!!!!",
"!!!!!!!!!!!!!!!!!!!!!!!!>77>>>B<<<B>>>77>!!!!!!!!!!!!!!!!!!!!!!!",
"!!!!!!!!!!!!!!!!!!!!!!!><799<B>>D>>B<997<>!!!!!!!!!!!!!!!!!!!!!!",
"!!!!!!!!!!!!!!!!!!!!!!!>792997<BDB<799297>!!!!!!!!!!!!!!!!!!!!!!",
"!!!!!!!!!!!!!!!!!!!!!!!>929999<>>><999929>!!!!!!!!!!!!!!!!!!!!!!",
"!!!!!!!!!!!!!!!!!!!!!!!>9299997>!>7999929>!!!!!!!!!!!!!!!!!!!!!!",
"!!!!!!!!!!!!!!!!!!!!!!!>7997997>!>7997997>!!!!!!!!!!!!!!!!!!!!!!",
"!!!!!!!!!!!!!!!!!!!!!!><<929777>!>777929<<>!!!!!!!!!!!!!!!!!!!!!",
"!!!!!!!!!!!!!!!!!!!!!!>79<9297<>!><7929<97>!!!!!!!!!!!!!!!!!!!!!",
"!!!!!!!!!!!!!!!!!!!!!!>9279997<>!><7999729>!!!!!!!!!!!!!!!!!!!!!",
"!!!!!!!!!!!!!!!!!!!!!!>9999977>!!!>7799999>!!!!!!!!!!!!!!!!!!!!!",
"!!!!!!!!!!!!!!!!!!!!!!>799797<>!!!><797997>!!!!!!!!!!!!!!!!!!!!!",
"!!!!!!!!!!!!!!!!!!!!!!><7997<>!!!!!><7997<>!!!!!!!!!!!!!!!!!!!!!",
"!!!!!!!!!!!!!!!!!!!!!!!>>>>>>#!!!!!#>>>>>>!!!!!!!!!!!!!!!!!!!!!!",
"!!!!!!!!!!!!!!!!!!!!!!!#IJJJI#!!!!!#IJJJI#!!!!!!!!!!!!!!!!!!!!!!",
"!!!!!!!!!!!!!!!!!!!!!!!!#IJII#!!!!!#IIJI#!!!!!!!!!!!!!!!!!!!!!!!",
"!!!!!!!!!!!!!!!!!!!!!!!!#JNJ#!!!!!!!#JNJ#!!!!!!!!!!!!!!!!!!!!!!!",
"!!!!!!!!!!!!!!!!!!!!!!!!#IJII#!!!!!#IIJI#!!!!!!!!!!!!!!!!!!!!!!!",
"!!!!!!!!!!!!!!!!!!!!!!!!#JJJI#!!!!!#IJJJ#!!!!!!!!!!!!!!!!!!!!!!!",
"!!!!!!!!!!!!!!!!!!!!!!!#JNNJJ#!!!!!#JJNNJ#!!!!!!!!!!!!!!!!!!!!!!",
"!!!!!!!!!!!!!!!!!!!!!!!#IJJJI#!!!!!#IJJJI#!!!!!!!!!!!!!!!!!!!!!!",
"!!!!!!!!!!!!!!!!!!!!!!!!#####!!!!!!!#####!!!!!!!!!!!!!!!!!!!!!!!"
};