/* XPM */
static char *health_meat[] = {
/* columns rows colors chars-per-pixel */
"128 85 124 2 ",
"   c #020201",
".  c #170702",
"X  c #041505",
"o  c #171716",
"O  c #2C0B02",
"+  c #340D02",
"@  c #3C1004",
"#  c #0A250B",
"$  c #10280D",
"%  c #1E201D",
"&  c #20211F",
"*  c #232424",
"=  c #440E04",
"-  c #4B1105",
";  c #591407",
":  c #4A1C11",
">  c #750E04",
",  c #681608",
"<  c #781A0A",
"1  c #53200D",
"2  c #4F372C",
"3  c #583F34",
"4  c #55413A",
"5  c #644739",
"6  c #704D3D",
"7  c #675536",
"8  c #71583A",
"9  c #7A673E",
"0  c #474847",
"q  c #5A5B5A",
"w  c #765442",
"e  c #5F605F",
"r  c #7D6B43",
"t  c #5F5F60",
"y  c #6A6B6A",
"u  c #6F706E",
"i  c #871D0D",
"p  c #931E0D",
"a  c #8A200E",
"s  c #98210E",
"d  c #872210",
"f  c #9C2411",
"g  c #A1250F",
"h  c #AA2914",
"j  c #B32C16",
"k  c #AE311E",
"l  c #B8321E",
"z  c #BD3621",
"x  c #C3331D",
"c  c #C53823",
"v  c #D23C27",
"b  c #BE4A35",
"n  c #816C3D",
"m  c #CA422B",
"M  c #D9432D",
"N  c #C04D36",
"B  c #DD4631",
"V  c #E54D38",
"C  c #E9523C",
"Z  c #836E46",
"A  c #89744A",
"S  c #91794E",
"D  c #8F7850",
"F  c #957D53",
"G  c #937E6C",
"H  c #EB5741",
"J  c #F05A42",
"K  c #9D8358",
"L  c #A4895C",
"P  c #AE915E",
"I  c #97806E",
"U  c #9B8877",
"Y  c #A88D62",
"T  c #AD9162",
"R  c #B69868",
"E  c #B89C71",
"W  c #BEA06F",
"Q  c #BEA173",
"!  c #DD836A",
"~  c #E28970",
"^  c #EE9776",
"/  c #C3A36F",
"(  c #C7A775",
")  c #D4B27D",
"_  c #888686",
"`  c #969795",
"'  c #A9A7A6",
"]  c #BABBB9",
"[  c #D59C82",
"{  c #E29D82",
"}  c #CCAE81",
"|  c #DBA78D",
" . c #DABA86",
".. c #EBA789",
"X. c #F3AC8C",
"o. c #E0BF8A",
"O. c #F7B18F",
"+. c #EDAF93",
"@. c #F4AF91",
"#. c #ECB497",
"$. c #F5B396",
"%. c #FABEA2",
"&. c #DFC08D",
"*. c #E2C28C",
"=. c #E7C996",
"-. c #EED29D",
";. c #F0D49E",
":. c #C0C3BF",
">. c #FCC9AC",
",. c #EED3A2",
"<. c #F4D9A7",
"1. c #E9CCB1",
"2. c #FDCEB2",
"3. c #FDD2B7",
"4. c #F9E1AE",
"5. c #FCE8B9",
"6. c #C5C6C4",
"7. c #D7D6D7",
"8. c #FCDCC4",
"9. c #FEECC2",
"0. c #FEF4CC",
"q. c #FEF6D6",
"w. c #FDFCE9",
"e. c None",
/* pixels */
"e.e.e.e.e.e.e.e.e.e.e.e.e.e.e.e.e.e.e.e.e.e.e.e.e.e.e.e.e.e.e.e.e.e.e.e.e.e.e.e.e.e.e.e.e.e.e.e.e.e.e.e.e.e.e.e.e.e.e.e.e.e.e.e.e.e.e.                                                    0 e.e.e.e.e.e.e.e.e.e.e.e.e.e.e.e.e.e.e.e.e.e.e.e.e.e.e.e.e.e.e.e.e.e.",
"e.e.e.e.e.e.e.e.e.e.e.e.e.e.e.e.e.e.e.e.e.e.e.e.e.e.e.e.e.e.e.e.e.e.e.e.e.e.e.e.e.e.e.e.e.e.e.e.e.e.e.e.e.e.e.e.e.e.e.e.e.e.e.e.e.e.e.                                                    0 e.e.e.e.e.e.e.e.e.e.e.e.e.e.e.e.e.e.e.e.e.e.e.e.e.e.e.e.e.e.e.e.e.e.",
"e.e.e.e.e.e.e.e.e.e.e.e.e.e.e.e.e.e.e.e.e.e.e.e.e.e.e.e.e.e.e.e.e.e.e.e.e.e.e.e.e.e.e.e.e.e.e.e.e.e.e.e.e.e.e.e.e.e.e.e.e.e.e.e.e.e.e.                                                    0 e.e.e.e.e.e.e.e.e.e.e.e.e.e.e.e.e.e.e.e.e.e.e.e.e.e.e.e.e.e.e.e.e.e.",
"e.e.e.e.e.e.e.e.e.e.e.e.e.e.e.e.e.e.e.e.e.e.e.e.e.e.e.e.e.e.e.e.e.e.e.e.e.e.e.e.e.e.e.e.e.e.e.e.e.e.e.e.e.e.e.e.e.e.e.e.e.e.e.e.e.e.e.                                .                   0 e.e.e.e.e.e.e.e.e.e.e.e.e.e.e.e.e.e.e.e.e.e.e.e.e.e.e.e.e.e.e.e.e.e.",
"e.e.e.e.e.e.e.e.e.e.e.e.e.e.e.e.e.e.e.e.e.e.e.e.e.e.e.e.e.e.e.e.e.e.e.e.e.e.e.e.e.e.e.e.e.e.e.e.e.e.e.e.e.e.e.e.e.e.e.e.e.      X .   i i p g h h h j h h j j h h j j j h j j j j j p p g ; .               X o   e.e.e.e.e.e.e.e.e.e.e.e.e.e.e.e.e.e.e.e.e.e.e.",
"e.e.e.e.e.e.e.e.e.e.e.e.e.e.e.e.e.e.e.e.e.e.e.e.e.e.e.e.e.e.e.e.e.e.e.e.e.e.e.e.e.e.e.e.e.e.e.e.e.e.e.e.e.e.e.e.e.e.e.e.e.            i i i h h h j h h j h j j j h h j j j j j j j g g p =                       e.e.e.e.e.e.e.e.e.e.e.e.e.e.e.e.e.e.e.e.e.e.e.",
"e.e.e.e.e.e.e.e.e.e.e.e.e.e.e.e.e.e.e.e.e.e.e.e.e.e.e.e.e.e.e.e.e.e.e.e.e.e.e.e.e.e.e.e.e.e.e.e.e.e.e.e.e.e.e.e.e.e.e.e.e.            a i i h h h h h j j h h j j j j h j j j j j x p p p =                       e.e.e.e.e.e.e.e.e.e.e.e.e.e.e.e.e.e.e.e.e.e.e.",
"e.e.e.e.e.e.e.e.e.e.e.e.e.e.e.e.e.e.e.e.e.e.e.e.e.e.e.e.e.e.e.e.e.e.e.e.e.e.e.e.e.e.e.e.e.e.e.e.e.e.e.e.e.e.e.e.e.e.e.e.e.            i i i j h h j j j j j j j h j j j j j j j j j g p p -                     . e.e.e.e.e.e.e.e.e.e.e.e.e.e.e.e.e.e.e.e.e.e.e.",
"e.e.e.e.e.e.e.e.e.e.e.e.e.e.e.e.e.e.e.e.e.e.e.e.e.e.e.e.e.e.e.e.e.e.e.e.e.e.e.e.e.e.e.e.e.e.e.e.e.e.q         X . X       i i i p p j h j j j h j j g g g g j j j j j j j j j j j j v v c M C C J C C C C p i i i         e.e.e.e.e.e.e.e.e.e.e.e.e.e.e.e.e.e.e.",
"e.e.e.e.e.e.e.e.e.e.e.e.e.e.e.e.e.e.e.e.e.e.e.e.e.e.e.e.e.e.e.e.e.e.e.e.e.e.e.e.e.e.e.e.e.e.e.e.e.e.y                     i i i i p j h j j j j j j g p g g j j j j j j j j j j j j x v v B C C H C C C V i i i i         e.e.e.e.e.e.e.e.e.e.e.e.e.e.e.e.e.e.e.",
"e.e.e.e.e.e.e.e.e.e.e.e.e.e.e.e.e.e.e.e.e.e.e.e.e.e.e.e.e.e.e.e.e.e.e.e.e.e.e.e.e.e.e.e.e.e.e.e.e.e.q                     i i i i i j j j j j j j j g g g g j j j j j j j j j x j j v v v V C C C C H C V i i p p         e.e.e.e.e.e.e.e.e.e.e.e.e.e.e.e.e.e.e.",
"e.e.e.e.e.e.e.e.e.e.e.e.e.e.e.e.e.e.e.e.e.e.e.e.e.e.e.e.e.e.e.e.e.e.e.e.e.e.e.e.e.e.e.e.e.e.e.e.e.e.q                     > i p i i h j h j j j j j g g g g j j j j j j j j j j x x x v c M C C C C C C V > p p a         e.e.e.e.e.e.e.e.e.e.e.e.e.e.e.e.e.e.e.",
"e.e.e.e.e.e.e.e.e.e.e.e.e.e.e.e.e.e.e.e.e.e.e.e.e.e.e.e.e.e.e.e.e.e.e.e.e.e.e.e.e.e.t .   X   X X   ; i p s j h k j j j j j g g p g g h h j j j j j j j j j j j j j v v v v V V C C C C C C C C C C B B C c v v x g g j x .   X X o       e.e.e.e.e.e.e.e.e.e.e.",
"e.e.e.e.e.e.e.e.e.e.e.e.e.e.e.e.e.e.e.e.e.e.e.e.e.e.e.e.e.e.e.e.e.e.e.e.e.e.e.e.e.e.t               , i a p h h h h j j h j g g g g g h h j j j j j j j j j j j j j v v v v V C V V C C C C C C C C C V V c x x c h h h h                 e.e.e.e.e.e.e.e.e.e.e.",
"e.e.e.e.e.e.e.e.e.e.e.e.e.e.e.e.e.e.e.e.e.e.e.e.e.e.e.e.e.e.e.e.e.e.e.e.e.e.e.e.e.e.t               < p i p h h j j h h j j g g g h h h h j j j j j j x j j j j j j v v v v C V C C C C C C C C C V V B V x x x x h h h h                 e.e.e.e.e.e.e.e.e.e.e.",
"e.e.e.e.e.e.e.e.e.e.e.e.e.e.e.e.e.e.e.e.e.e.e.e.e.e.e.e.e.e.e.e.e.e.e.e.e.e.e.e.e.e.q               , a i i h j j j j h h h g g h g h h j j j j x j j j j j j j j j v x v M C C C C C C C C C C V B V V V l x v c j j h h                 e.e.e.e.e.e.e.e.e.e.e.",
"e.e.e.e.e.e.e.e.e.e.e.e.e.e.e.e.e.e.e.e.e.e.e.e.e.e.e.e.e.e.e.e.e.e.e.e.e.e.e.  X   w @.@.O.@.O.O.X.X.X.X.X.+ - - - p g p p j x j j x j j j x x x x v M M B C J J H C V V C C C C C C C C C v v c j j j j h h j j j h j h j j j h - - - =       e.e.e.e.e.e.e.e.",
"e.e.e.e.e.e.e.e.e.e.e.e.e.e.e.e.e.e.e.e.e.e.e.e.e.e.e.e.e.e.e.e.e.e.e.e.e.e.e.      5 @.X.O.O.@.@.X.X.X.X.X.+ = = ; s s s s j j j j j j j j x x x x M B B B C C H V C C C C V C C C C C C B x c v j j h h j h h j h h h j j h h h - - - =       e.e.e.e.e.e.e.e.",
"e.e.e.e.e.e.e.e.e.e.e.e.e.e.e.e.e.e.e.e.e.e.e.e.e.e.e.e.e.e.e.e.e.e.e.e.e.e.e.      w @.X.@.@.@.@.@.@.@.X.$.+ = = - s s s g j j j x j j j j x x x j B V B B V C V C H H C C C C C C C C C V x x x j j h h j j h h j h j j h h j x - - - ;       e.e.e.e.e.e.e.e.",
"e.e.e.e.e.e.e.e.e.e.e.e.e.e.e.e.e.e.e.e.e.e.e.e.e.e.e.e.e.e.e.e.e.e.e.e.e.e.e.      w @.O.@.@.$.O.@.O.@.@.@.O = - - p s p p j j j j j j x j x j x x B V V V C V V C V V J C C V C C C C C C m x x h j h h h h h h j j j j h j j j - - - -       e.e.e.e.e.e.e.e.",
"e.e.e.e.e.e.e.e.e.e.e.e.e.e.e.e.e.e.e.e.e.e.e.e.e.e.e.e.e.e.e.e.e.e.e.        $.X...$.3.3.3.3.3.2.3.3.2.2.>...@.$.@.- - - - h g h g v v v v B V V V C C C C C V V H V V V V x j j j j j l l j l h f h h h s g g g p p p h p i p i h h h j       e.e.e.e.e.e.e.e.",
"e.e.e.e.e.e.e.e.e.e.e.e.e.e.e.e.e.e.e.e.e.e.e.e.e.e.e.e.e.e.e.e.e.e.e.        @.$.$.%.2.3.3.3.3.3.3.3.2.2.2.X.$.O.O.- - - ; h f g j v v v v V V C C C C C C C C H V V V V V j j j k j l j j h j j g f h h g g g g p p h g i i i i h h j j       e.e.e.e.e.e.e.e.",
"e.e.e.e.e.e.e.e.e.e.e.e.e.e.e.e.e.e.e.e.e.e.e.e.e.e.e.e.e.e.e.e.e.e.e.        $.$.$.>.2.3.3.3.3.3.3.3.3.2.2.$.$.$.$.; - - ; g g g h v v v v V V C C C V C V V C V V V V V V j j j j j j j j h h h h h h h g g g g h g h h i i a i h h h x       e.e.e.e.e.e.e.e.",
"e.e.e.e.e.e.e.e.e.e.e.e.e.e.e.e.e.e.e.e.e.e.e.e.e.e.e.e.e.e.e.e.e.e.e.        $.$.$.$.2.3.2.2.3.3.3.2.3.8.3.$.@.%.%.: = ; - g h g g v M M v V V C C V V V C V C V H V V V B j j j k j j j j h h h h h h h h g h h j g g h p i a p h g h j     . e.e.e.e.e.e.e.e.",
"e.e.e.e.e.e.e.e.e.e.e.e.e.e.e.e.e.e.e.e.e.e.e.e.e.e.e.e.e.e.e.e.e.e.e.        2.%.8.G z c z z z z z z z z z 2.2.3.8.$.$.$.%.= = = = h h h g V C C J x x x x j j j j j j j j j j h j k j j h h h h h k h j j h j j p i i a i i i p i i i i , , <         e.e.e.e.",
"e.e.e.e.e.e.e.e.e.e.e.e.e.e.e.e.e.e.e.e.e.e.e.e.e.e.e.e.e.e.e.e.e.e.e.        2.8.2.^ z z z l z z z z z c z 2.2.3.3.$.$.$.X.- = - - h h h h C C C C v v v x j j j j j j j j j k j j j j j h h h h h j h h h h h h i a a a i i a i i i i p < < <         e.e.e.e.",
"e.e.e.e.e.e.e.e.e.e.e.e.e.e.e.e.e.e.e.e.e.e.e.e.e.e.e.e.e.e.e.e.e.e.e.        >.%.3.[ z z z z c z z z z z z 8.2.3.3.$.$.$.$.- = - - j h h j H C V V v x x v j j j j j j k j j j j j j j j h h h f h j h h h h h h d i i i i i a i i i i i < < <         e.e.e.e.",
"e.e.e.e.e.e.e.e.e.e.e.e.e.e.e.e.e.e.e.e.e.e.e.e.e.e.e.e.e.e.e.e.e.e.e.        2.3.3.J c z z c z c c c z z z 9.8.9.9.O.@.$.$.O O = + x j h x J C V V x v x x j h j j j j j j j j j h j j l f s s f j h j h j j h h i i i d i d i i a a a d > > i         e.e.e.e.",
"e.e.e.e.e.e.e.e.e.e.e.e.e.e.e.e.e.e.e.e.e.e.e.e.e.e.e.e.e.e.e.        %.2.2.>.2.3.>.J b z c v c v v c c c z c c c z 3.2.2.3.$.X.X.$.- ; ; , j h x j j j h j j j j h j j h j j j j h h s i i i i i i i i p i i i i d i d i i a a a a a i i h h h         e.e.e.e.",
"e.e.e.e.e.e.e.e.e.e.e.e.e.e.e.e.e.e.e.e.e.e.e.e.e.e.e.e.e.e.e.      X 8.2.2.2.2.2.2.{ z z c c v v m z z c z z c c z >.2.3.2.O.$.$.X.= ; ; ; h j j j j h j j j j j j h h j j j h k h i i i i i i i i i i i i i i i i i d d i i i a a a i i h j h         e.e.e.e.",
"e.e.e.e.e.e.e.e.e.e.e.e.e.e.e.e.e.e.e.e.e.e.e.e.e.e.e.e.e.e.e.        3.>.2.8.2.2.8.J b z c c v v v z c z z c z c m 2.2.2.>.$.$.$.X.- - ; ; h j j h h j h j j j j h j j j l h h j h i i d < i i i i i i i i i i i i i i i i a a a a a a p j h h         e.e.e.e.",
"e.e.e.e.e.e.e.e.e.e.e.e.e.e.e.e.e.e.e.e.e.e.e.e.e.e.e.e.e.e.e.        2.2.2.8.j h k k z c z z z z z c z c z B c z z >.>.>.>.3.3.>.2.; - - - < i p i h j j j h h h j f p i i p f h g k j j h i i i i i i i i i i i i d a i d i i a a s f h h h h         e.e.e.e.",
"e.e.e.e.e.e.e.e.e.e.e.e.e.e.e.e.e.e.e.e.e.e.e.e.e.e.e.e.e.e.e.        8.2.2.9.l l l l c z z z c z z c z c z M M B B l c z z 3.3.2.3.; - = - < i i > j j j j j h j j g p i i j h h h j h h h i i < i d i d i i d i a i i d i i a a a k h h h h j         e.e.e.e.",
"e.e.e.e.e.e.e.e.e.e.e.e.e.e.e.e.e.e.e.e.e.e.e.e.e.e.e.e.e.e.e.        3.3.2.8.l l l z z z c z z z c z c z z M B B M l z z l 3.3.3.3.- = - ; i i i i j h j j h j j j i i i i h h h g j l h h i i i i i d i i i d i i d i i i i i p f h h j j h h         e.e.e.e.",
"e.e.e.e.e.e.e.e.e.e.e.e.e.e.e.e.e.e.e.e.e.e.e.e.e.e.e.e.e.e.e..       8.3.2.8.k k l z z z c c z c z c z z c M M B M z z z m 3.3.3.3.= - ; ; i i < < j j h j j k h g i i p a h h h p h j j h i i i i d i i i i i i i i i i d i d p s h j h h h j         e.e.e.e.",
"e.e.e.e.e.e.e.e.e.e.e.e.e.e.e.e.e.e.e.e.e.e.e.e.e.e.e.e.e.e.e.        3.3.2.8.l l l z c c z x z l z c c c c B B M B z z z c 3.3.3.3.{ ....[ ; , , , i < i i a a a < h j j j p i i i i d i d i i i i i i < i i i i i i i i i i i i i i i < , , ,         e.e.e.e.",
"e.e.e.e.e.e.e.e.e.e.e.e.e.e.e.e.e.e.e.e.e.e.e.e.e.e.e.e.e.e.e.X       8.2.2.8.l l l z x z c l c c z c z x x B B M m c z z z 3.3.3.2.@.@.$..., , , < i i i i < d a i j j h j i i i i i i i i i i i d i i d i i i i i i i i i i i i i i i i ; ; ;         e.e.e.e.",
"e.e.e.e.e.e.e.e.e.e.e.e.e.e.e.e.e.e.e.e.e.e.e.e.e.e.e.e.e.e.e.        3.3.2.8.z l l z z c l x l x z z c m x B M v m x c z z 3.3.3.8.$.@.@...; , , , < i i i i i i i j h j j i i i i d i i i d i i < i i d i d i i i i i i i i i i i i i i , ; ;         e.e.e.e.",
"e.e.e.e.e.e.e.e.                              e.e.e.e.e.e.e.e.        2.2.2.9.z l l z z l c x c l l c x v x M M M M l l z l 3.3.2.8.%.@.X.+., , , , i i i i < d d p j k j j i i i i i i i i i i i d i i i i i i i i i i i i i i i i i i < ; ; ;         e.e.e.e.",
"e.e.e.e.e.e.e.e.                              e.e.e.e.e.e.e.e.        3.2.2.8.z l z k f f f < = = = - = = @ k j l l v v m M c c z z 3.>.>.2.= = = = i i i i d i i i i i i < i i i i d i d a i d d i d i i i d i i i i i i i i i i i < , , ; , ; ; ; ; ,         ",
"e.e.e.e.e.e.e.e.                              e.e.e.e.e.e.e.e.        2.2.2.8.z l l k f f f d = = = = @ = = l k l l v v v m z z x l 2.2.2.8.= @ - = i i i i d i i < i < i i i i i i i i i p i i i i d i i i i i i i i i p i i i a < < , , ; ; ; ; ; ; ;         ",
"e.e.e.e.e.e.e.e.                              e.e.e.e.e.e.e.e.        3.2.>.2.l l l k h f f , = = = = = = = x j k z M v M M z c c z 2.2.3.2.= = - = i < i i i i i i i i i i i i i i i i i i a a i i i i d i a a a a i i i i i i p ; ; ; ; ; ; ; ; ; ; ;         ",
"e.e.e.e.  X     -.<.,.9.q.w.w.w.w.w.w.,.-.,.<.X       e.e.e.e.o       9.3.1.3.z c c f f g a , : 1 ; : : 1 1 l l k h v M M v c l z z 3.2.8.%.= - - = i i i i i i i i i i i i i i i i i i i i a i i i i d i i i d a d i i i i i i i , , ; ; ; ; ; ; ; ; ;         ",
"e.e.e.e.        <.<.<.q.w.w.w.w.w.w.w.<.<.<.<.        e.e.e.e.e.e.                    . .   w } ( / / / / ( , < < < l l c z l c z x 8.2.2.2.$.X.+.$., , , , i i i i i i i i i i i i i i i a a i p i i i i i d i i ; ; > > i i i i i a i i , , ; ; ; ; ;         ",
"e.e.e.e.        <.<.1.w.w.w.w.w.w.w.w.4.<.<.<.        e.e.e.e.e.e.X                     . O w ( ( ( ( ( ( / > < < < l c x c l z c c 3.2.3.2.$.@.$.%., , , , i i i i i i < i i i i i i i i i i i d d i i d a i i < ; ; ; ; i i i i i p i i > < , , ; ; ;         ",
"e.e.e.e.        <.<.,.w.w.w.w.w.w.w.w.3.3.<.<.o       e.e.e.e.e.e.                .     . . 8 / ( ( ( ( / / > i i i c l l l x c c c 2.>.3.8.$.$.$.$., , , ; i i i i i i i i i i i i i i i i i i i i i i a i i i a ; ; ; - i i i i i i i i i i , , ; ; ;         ",
"X       4.4.<.<.w.w.w.w.w.w.w.w.w.w.w.4.4.<.<.F F K K X               ,.=.=.=.<.<.;.4.q.9.9.0.0.5.9.5.4.<.4.P R R R < i d < z c c z { X.$.$.$.$.$.%., , ; ; i i i < i i i < i d i i i p i i i i i i p i i i i i p ; ; ; ; i i p p i i i p i i , ; ; ; ;         ",
"        5.4.<.<.w.w.w.w.w.w.w.w.w.w.w.<.4.<.<.K F F F                 -.=.=.*.;.<.<.4.9.9.5.9.9.9.5.4.<.4.4.P R R R < < < d z z c z z c c c 2.3.8.8.- - - = i i i i i i i i i i i i i i i i i i i , , , , ; ; - ; i i p i ; ; ; ; ; ; ; ; ; ; ; ; ; ; ;         ",
"        5.4.4.4.w.w.w.w.w.w.w.w.w.w.w.<.<.4.<.K K S S                 ,.=.=.=.<.<.<.5.9.5.9.5.9.9.5.4.4.4.4.P R R R < < i i c z c z c z c m 3.3.8.8.- = - = i i i i i i i i i i i i i i i i p i a , ; ; ; ; ; ; ; p i i i ; ; ; ; ; ; ; , ; ; ; ; ; ; ;         ",
"        3.5.4.4.w.w.w.w.w.w.w.w.w.w.w.4.3.4.,.K K K K                 =.=.=.=.<.4.<.5.9.5.0.0.9.0.5.4.4.4.5.P P R R < < < i c x z c c c z z 8.3.3.8.= = = - i i i i i i i i i i i i i i i i i i i - ; ; - ; ; ; ; i i i i ; ; ; ; ; ; ; ; ; ; ; ; ; ; ;         ",
"o       4.5.5.<.4.4.5.q.w.w.w.q.w.q.q.w.w.w.w.w.w.q.q.,.-.;.;.<.<.,.-.9.0.0.0.q.q.0.5.5.5.5.4.=.&.&.W W W W 9 9 r r , < < < x c c v c c c m 3.3.3.8.= = = - i i i i i a i i i i i i i < i i p i i - ; ; ; ; ; ; ; i a p i ; ; ; ; ; ; ; ; ; ; ; ; ; ; ;         ",
"        4.4.4.5.5.4.3.0.w.w.w.0.q.q.w.w.w.w.w.q.q.q.q.<.,.,.,.;.,.<.,.0.0.q.0.0.0.0.0.5.5.5.<.&.&.*.W W R W r Z Z 9 < < > , m v v m c z c c 3.8.3.8.= - = - i i i i i i d i i i i < ; ; - ; ; - ; ; , , , i i i p ; ; ; ; ; ; ; ; ; ; ; ; ; ; ; ; ; ; ;       . ",
"        5.4.4.5.4.4.5.q.w.w.w.0.q.q.w.w.w.w.w.w.q.q.5.,.<.,.,.;.-.<.,.q.0.0.q.q.0.0.9.5.5.5.<.*.*.*.W W W R n Z Z A < , , , c m m c c c c m 3.3.2.8.- - - - i i i i i i i i i i i < ; ; - ; - ; ; ; , , < i i i p ; ; ; , ; ; ; ; , ; ; ; ; ; ; ; ; ; ;         ",
"        <.9.5.4.4.4.4.w.w.w.q.0.q.q.q.w.w.w.w.<.4.4.4.,.;.<.;.,.<.<.,.0.0.0.0.q.q.0.9.9.5.5.-.&.=.&.P W W W 9 9 Z Z , , < < v v m v c c c m 3.3.3.8.- - - = i i a i i i i i d i i i ; ; ; ; ; ; ; ; , , , p i i i ; , ; 1 ; ; ; ; ; , ; ; ; ; ; ; ; , ,         ",
"X       F K K F =.=.*.=.=.*.=.0.9.9.0.5.9.5.9.0.0.5.9.0.5.5.9.9.9.0.0.4.4.5.3. . . .) T T R K A A r A A K A X $ # # < i i i c l z z c c c v 8.3.3.8.- - - = i i a i < , , ; ; ; ; ; ; ; ; - ; - ; , < > < i p p i ; ; ; ; ; ; ; ; ; ; ; ; = @ +         e.e.e.e.",
"        K K K F =.*.=.=.=.=.=.5.5.0.5.9.9.5.9.9.5.0.5.5.9.9.9.9.9.5.5.5.4.4.5.&. . .} R R R K A A A r A n A # # # # < < i i z l z z c c v c 3.3.3.8.- - - = i i i i < < , , ; ; ; - i i i i i p a ; ; ; ; ; ; ; , ; ; ; ; ; , ; ; ; ; ; , @ @ +         e.e.e.e.",
"        L K K K =.=.=.*.=.=.=.5.5.5.5.0.5.5.0.0.5.5.5.0.9.5.9.5.5.5.4.5.5.3.5.&.&. .( R R R K Z A A A A A A # # # # < d i i l z z z c v c v 2.3.3.8.; - - - i i i i < < < ; ; ; ; ; i i i i i i a - ; ; ; ; ; ; ; ; ; ; , ; ; ; ; ; ; ; ; @ @ +         e.e.e.e.",
"o X   o K G S S *.=.=.=.*.*.&.5.5.0.0.5.0.5.5.5.5.0.0.5.9.9.5.5.5.<.4.3.5.<.4.&.&. .Q R R R P r 9 9 A 9 r r # # # $ d d i p l z z z c c c v 3.2.3.8.- - - - i p i i i < < , ; ; ; - i > i i i i a - ; ; ; ; ; ; ; ; ; ; ; ; ; , ; ; ; ; ; = = @         e.e.e.e.",
"e.e.e.e.        *.=.=.Y S A A 0.5.5.5.5.0.5.5.0.5.5.5.;.-.-.-.E W R R A A Z Z A D A A A A A S X X   X X     , < < < x x c c B M B N z k l z 3.3.3.8.- - - - i i p s , ; ; ; ; ; ; ; i i i i i i i ; ; ; ; ; ; ; ; ; ; ; , 1 ; ; ; + + + + O + +         e.e.e.e.",
"e.e.e.e.        =.*.=.Y A A K q.0.5.0.5.5.0.5.5.0.5.0.-.=.=.=.R W W W A A Z A A D A D A A A S X X X X X X X < , < < x c c c M M B v z z z z 2.3.3.8.- - - - i i i p ; ; - ; < i p i ; ; ; ; ; ; ; ; ; ; ; ; ; ; ; ; , ; ; ; ; ; ; + + + O + + O         e.e.e.e.",
"e.e.e.e.        =.=.=.Y D D D q.5.5.5.0.5.5.5.5.5.5.9.=.=.-.=.E W / / Z A A A A A D A A A A S X X X   X X X < < < < c c m x M B B B z z z c 8.2.2.8.- - - - p p i i ; ; ; ; i i i i ; ; ; ; ; ; ; ; , 1 ; ; ; ; ; , ; ; ; ; ; ; ; + + O O + O O         e.e.e.e.",
"e.e.e.e.X       =.=.*.K D A D 0.5.0.5.0.5.0.5.5.5.5.5.=.=.*.=./ W W Q A Z Z A A A A A A A Z n X X X X X X X d < , < x m c m M M B v z z z z 8.2.2.8.- - - - i p p i ; ; ; ; i i i i ; ; ; ; ; ; ; ; ; ; ; ; ; , ; ; ; ; ; ; ; ; ; O O + + + O O   . X   e.e.e.e.",
"e.e.e.e.e.e.e.e.      7 Z Z Z 0.5.0.5.5.5.5.0.-.;.-.=.T R T R R T R R                         < i i g h h k z l l x l z x z m m M B z c z c 2.3.3.8.- - - - ; ; ; ; ; ; ; ; p p i i ; ; ; ; ; ; ; ; ; ; ; ; ; ; ; ; ; ; ; ; ; = @ O O O +       e.e.e.e.e.e.e.e.",
"e.e.e.e.e.e.e.e.      7 Z Z Z 0.0.5.0.5.0.5.5.-.-.=.=.T R R T R R R P                         i < i h g h f z z b l x x c z c m M B c c c v 2.2.3.8.; - - = ; ; ; ; ; ; ; ; ; ; ; ; ; ; ; ; ; ; ; ; ; ; ; ; ; ; ; ; ; ; , ; ; - - + + + +       e.e.e.e.e.e.e.e.",
"e.e.e.e.e.e.e.e.      8 Z Z A 0.5.5.5.0.9.9.9.=.=.-.=.P R T T R R R P                         i < d h h f h x z c z z z z z c m B v c c c c 3.3.3.3.- - - - ; ; ; , ; 1 ; ; ; ; ; 1 ; ; ; ; ; , 1 ; ; ; ; ; ; , ; ; ; ; , ; ; ; ; O O O +       e.e.e.e.e.e.e.e.",
"e.e.e.e.e.e.e.e.      4 Z A D q.0.5.5.5.9.9.9.,.=.=.=.P T R R Y R R R o X o o         . . . O i d d f h k h c z z z z z c c m c N M z m c m 8.3.>.8.- - - - ; ; ; ; ; ; ; ; ; ; ; ; ; ; ; ; ; ; ; ; ; , ; ; ; ; ; ; ; ; ; ; - ; = O O O O o o o e.e.e.e.e.e.e.e.",
"e.e.e.e.e.e.e.e.      E  . . .,.;.-.-.9.9.9.9. . .}  . .}  . .      X e.e.e.e.      5 +.+.+.%.i d d h k k z z z z z v v c m z b z z 2.3.2.2.+.$.$.$.- - - - ; ; 1 ; ; ; ; ; ; ; 1 ; ; , ; ; ; ; ; ; ; ; ; ; ; ; ; + O O O                 e.e.e.e.e.e.e.e.e.e.e.",
"e.e.e.e.e.e.e.e.      R  . . .-.-.-.,.9.0.5.5.}  . .} ) )  . .        e.e.e.e.      3 +.X...@.i i i h k k k z z z z v v m v z c z z 3.2.2.>.@.$.$.>.- - - - ; ; ; ; ; ; ; ; ; ; ; ; ; ; , ; ; ; ; ; , ; ; ; ; ; ; O O O O                 e.e.e.e.e.e.e.e.e.e.e.",
"e.e.e.e.e.e.e.e.      E &. . .-.-.-.-.9.5.5.9. .) }  . .)  .)         e.e.e.e.      2 X.@.X...i i i k k l l l l z z c m m c z z z m 3.3.2.2.#.$.$.%.- - - - ; ; ; ; ; ; ; ; ; ; ; ; ; ; ; ; ; ; ; ; ; ; ; ; ; ; ; O O O O                 e.e.e.e.e.e.e.e.e.e.e.",
"e.e.e.e.e.e.e.e.      E  . . .=.*.=.=.4.5.9.9.) ( ) ) }  . .)         e.e.e.e.o o o 4 | | | ( a d d h k k l z z z z v v c m z z z z 3.3.2.8.#...+.+.- = - - ; ; ; ; ; ; ; ; ; ; ; ; ; ; ; ; ; - ; ; ; : : ; , - - . O O . o o o o o % * o e.e.e.e.e.e.e.e.e.e.e.",
"e.e.e.e.e.e.e.e.      E  .&. . . .&. . . . . .Y L Y L )  . . .      X e.e.e.e.e.e.e.'         $.+.$.b l l l z z z c z z z z z z z z 3.3.3.3.@ = = = ; ; ; ; ; ; ; ; ; ; ; ; ; ; ; ; ; - @ + + + O O O + O                 e.e.e.e.e.e.e.e.e.e.e.e.e.e.e.e.e.e.e.",
"e.e.e.e.e.e.e.e.      Q  . .*. . . . . . . . .L Y L Y  . . .*.      . e.e.e.e.e.e.e.`         $.$.$.b l k l l z c z z z z z z z z z 3.3.2.1.@ = @ = ; ; ; ; ; ; ; ; ; ; ; ; ; ; ; ; ; ; - + + + O O O O O                 e.e.e.e.e.e.e.e.e.e.e.e.e.e.e.e.e.e.e.",
"e.e.e.e.e.e.e.e.      ( &. . . . . .&. . . . .I Y Y Y  . . .&.        e.e.e.e.e.e.e.`         $.%.@.b l l k x l z z z z z z z c l z 8.2.2.2.= = = = - ; ; ; ; ; ; ; ; ; ; ; ; ; ; ; - ; ; + O + + O O + O                 e.e.e.e.e.e.e.e.e.e.e.e.e.e.e.e.e.e.e.",
"e.e.e.e.e.e.e.e.] 6.] &       Y K K K K K K S &.#.o.&.        6.7.6.] e.e.e.e.e.e.e.e.6.] 6.]       U 8.8.9.j l k z l z z c 9.3.8.9.@.X.X.+.- = - - ; ; ; - = = = @ O O O O + + O @ . .     .     .     . ' 6.6.6.6.:.:.6.e.e.e.e.e.e.e.e.e.e.e.e.e.e.e.e.e.e.e.",
"e.e.e.e.e.e.e.e.e.e.e.0       Y K L K K K K K  . . . .        e.e.e.e.e.e.e.e.e.e.e.e.e.e.e.e.      G >.2.2.j l l l l z z z 2.2.8.3.$.+.$.#.- - - - ; ; ; ; + + @ @ O O O O O O O +                       e.e.e.e.e.e.e.e.e.e.e.e.e.e.e.e.e.e.e.e.e.e.e.e.e.e.e.",
"e.e.e.e.e.e.e.e.e.e.e.0       R K K L K K L K  . . . .        e.e.e.e.e.e.e.e.e.e.e.e.e.e.e.e.      U 2.2.%.j l l k z l z k 2.2.2.2.X.$.$...- - ; - ; - - ; + + @ @ O + O + O O O O                       e.e.e.e.e.e.e.e.e.e.e.e.e.e.e.e.e.e.e.e.e.e.e.e.e.e.e.",
"e.e.e.e.e.e.e.e.e.e.e.0       T L L L K L L K ) o.o. .        e.e.e.e.e.e.e.e.e.e.e.e.e.e.e.e.      I >.2.3.k k l l l z z k 3.3.2.2.@.$.@...- - ; - ; ; ; ; + + + + + O + O O O + .                       e.e.e.e.e.e.e.e.e.e.e.e.e.e.e.e.e.e.e.e.e.e.e.e.e.e.e.",
"e.e.e.e.e.e.e.e.e.e.e.e.e.e.e.              .     . X e.e.e.e.e.e.e.e.e.e.e.e.e.e.e.e.e.e.e.e.e.e.e.u     . 8.2.3.3.2.2.2.3.$.$.$.$.- - @ - + + O O O O O =                       _ e.e.e.e.e.e.e.e.e.e.e.e.e.e.e.e.e.e.e.e.e.e.e.e.e.e.e.e.e.e.e.e.e.e.e.e.e.e.",
"e.e.e.e.e.e.e.e.e.e.e.e.e.e.e.                        e.e.e.e.e.e.e.e.e.e.e.e.e.e.e.e.e.e.e.e.e.e.e.y       2.3.3.3.3.3.2.3.$.$.+.%.; - = = O O O O O + O @                       ` e.e.e.e.e.e.e.e.e.e.e.e.e.e.e.e.e.e.e.e.e.e.e.e.e.e.e.e.e.e.e.e.e.e.e.e.e.e.",
"e.e.e.e.e.e.e.e.e.e.e.e.e.e.e.                      X e.e.e.e.e.e.e.e.e.e.e.e.e.e.e.e.e.e.e.e.e.e.e.q       8.8.3.3.3.3.3.3.$.$.$.+.= = = = O O O O O + O O                       _ e.e.e.e.e.e.e.e.e.e.e.e.e.e.e.e.e.e.e.e.e.e.e.e.e.e.e.e.e.e.e.e.e.e.e.e.e.e.",
"e.e.e.e.e.e.e.e.e.e.e.e.e.e.e.                        e.e.e.e.e.e.e.e.e.e.e.e.e.e.e.e.e.e.e.e.e.e.e.e       1.2.3.3.8.3.3.>.$.$.$.X.@ - - = O O O O O O O O                       _ e.e.e.e.e.e.e.e.e.e.e.e.e.e.e.e.e.e.e.e.e.e.e.e.e.e.e.e.e.e.e.e.e.e.e.e.e.e.",
"e.e.e.e.e.e.e.e.e.e.e.e.e.e.e.e.e.e.e.e.e.e.e.e.e.e.e.e.e.e.e.e.e.e.e.e.e.e.e.e.e.e.e.e.e.e.e.e.e.e.e.e.e.e.e                                             7.e.e.e.e.e.e.e.e.e.e.e.e.e.e.e.e.e.e.e.e.e.e.e.e.e.e.e.e.e.e.e.e.e.e.e.e.e.e.e.e.e.e.e.e.e.e.e.e.e.e.",
"e.e.e.e.e.e.e.e.e.e.e.e.e.e.e.e.e.e.e.e.e.e.e.e.e.e.e.e.e.e.e.e.e.e.e.e.e.e.e.e.e.e.e.e.e.e.e.e.e.e.e.e.e.e.e                                             7.e.e.e.e.e.e.e.e.e.e.e.e.e.e.e.e.e.e.e.e.e.e.e.e.e.e.e.e.e.e.e.e.e.e.e.e.e.e.e.e.e.e.e.e.e.e.e.e.e.e.",
"e.e.e.e.e.e.e.e.e.e.e.e.e.e.e.e.e.e.e.e.e.e.e.e.e.e.e.e.e.e.e.e.e.e.e.e.e.e.e.e.e.e.e.e.e.e.e.e.e.e.e.e.e.e.q                                             7.e.e.e.e.e.e.e.e.e.e.e.e.e.e.e.e.e.e.e.e.e.e.e.e.e.e.e.e.e.e.e.e.e.e.e.e.e.e.e.e.e.e.e.e.e.e.e.e.e.e.",
"e.e.e.e.e.e.e.e.e.e.e.e.e.e.e.e.e.e.e.e.e.e.e.e.e.e.e.e.e.e.e.e.e.e.e.e.e.e.e.e.e.e.e.e.e.e.e.e.e.e.e.e.e.e.q                   X                         7.e.e.e.e.e.e.e.e.e.e.e.e.e.e.e.e.e.e.e.e.e.e.e.e.e.e.e.e.e.e.e.e.e.e.e.e.e.e.e.e.e.e.e.e.e.e.e.e.e.e."
};
