/* XPM */
static char *_0a963e4163841bc857814091fb38c6aGuu9xC3u81fo4yuB[] = {
/* columns rows colors chars-per-pixel */
"16 16 10 1 ",
"  c None",
". c black",
"X c #777700",
"o c #878700",
"O c #939300",
"+ c #9F9F00",
"@ c #AFAF00",
"# c #BBBB00",
"$ c #C7C700",
"% c #E3E300",
/* pixels */
"      .....     ",
"   ....#%#.     ",
"   .%%%%%#.     ",
"   .O+#%%#.     ",
"   .%%%%%#.     ",
"   ....#%#.     ",
"      .#%#.     ",
"      .#%#.     ",
"      .#$#.     ",
"     .+$%$+.    ",
"    .+@oXo@+.   ",
"    .#+...+#.   ",
"    .#+...+@.   ",
"    .+@oXo@+.   ",
"     .+@#@+.    ",
"      .....     "
};
