/* XPM */
static char *money_bag[] = {
/* columns rows colors chars-per-pixel */
"128 149 196 2 ",
"   c #040302",
".  c #130A03",
"X  c #0F100E",
"o  c #18130A",
"O  c #171614",
"+  c #241A0C",
"@  c #341B03",
"#  c #271E12",
"$  c #1F2B08",
"%  c #242C09",
"&  c #3C2609",
"*  c #2A340D",
"=  c #30390F",
"-  c #2B2214",
";  c #382B17",
":  c #2E3811",
">  c #353B14",
",  c #2C2B25",
"<  c #302F27",
"1  c #34342A",
"2  c #3D3C34",
"3  c #411E00",
"4  c #452B09",
"5  c #522C02",
"6  c #4D310A",
"7  c #59370A",
"8  c #46361D",
"9  c #513D1E",
"0  c #663C09",
"q  c #733D00",
"w  c #4C3B21",
"e  c #513E22",
"r  c #403F36",
"t  c #384215",
"y  c #45491C",
"u  c #54401F",
"i  c #6B4109",
"p  c #774809",
"a  c #7C4510",
"s  c #4D4A21",
"d  c #574426",
"f  c #565427",
"g  c #47463A",
"h  c #634D2B",
"j  c #69522E",
"k  c #6C5532",
"l  c #745C35",
"z  c #7D633B",
"x  c #484841",
"c  c #514E41",
"v  c #585547",
"b  c #5C5C5B",
"n  c #615E4D",
"m  c #605D51",
"M  c #64614F",
"N  c #686555",
"B  c #726D5B",
"V  c #75705F",
"C  c #666766",
"Z  c #7A7663",
"A  c #787878",
"S  c #834C08",
"D  c #8C5508",
"F  c #985B07",
"G  c #885010",
"H  c #A35E06",
"J  c #9E6107",
"K  c #A86507",
"L  c #B56D05",
"P  c #AC7508",
"I  c #BB7405",
"U  c #82673E",
"Y  c #C16D05",
"T  c #C57A05",
"R  c #D07F04",
"E  c #876C42",
"W  c #8D7246",
"Q  c #94784A",
"!  c #9B7F50",
"~  c #817D69",
"^  c #CC8205",
"/  c #D78904",
"(  c #DB9505",
")  c #E28B02",
"_  c #E69805",
"`  c #F09E01",
"'  c #E19513",
"]  c #DCA205",
"[  c #EDA306",
"{  c #F3A807",
"}  c #E8BA04",
"|  c #F7B809",
" . c #F9BB10",
".. c #D9C714",
"X. c #EEC709",
"o. c #FACA0C",
"O. c #FAD40C",
"+. c #FBCD12",
"@. c #EAD718",
"#. c #FDD513",
"$. c #E9CC13",
"%. c #FBE50D",
"&. c #FDF20F",
"*. c #EDE612",
"=. c #FCE718",
"-. c #FEF319",
";. c #E3C43F",
":. c #F3D421",
">. c #F9ED23",
",. c #FDF528",
"<. c #FEF933",
"1. c #9E814E",
"2. c #9D8352",
"3. c #A2824E",
"4. c #A98C59",
"5. c #B08F58",
"6. c #AE915E",
"7. c #B2935E",
"8. c #86826C",
"9. c #8C8774",
"0. c #938D78",
"q. c #99937C",
"w. c #AE9361",
"e. c #B79864",
"r. c #BEA06A",
"t. c #BFA470",
"y. c #C09E65",
"u. c #C3A46C",
"i. c #C8AA72",
"p. c #D0AF75",
"a. c #CFB078",
"s. c #D7B67B",
"d. c #E2BE7F",
"f. c #E7CB48",
"g. c #EED550",
"h. c #F4DA54",
"j. c #FEF945",
"k. c #FDF958",
"l. c #DEC17D",
"z. c #E4C27D",
"x. c #F1EE66",
"c. c #FEFA66",
"v. c #FEFA7B",
"b. c #898989",
"n. c #9E9982",
"m. c #989898",
"M. c #A39C85",
"N. c #AAA38A",
"B. c #B0A98E",
"V. c #AEA792",
"C. c #B3AC93",
"Z. c #B7B197",
"A. c #A4A4A2",
"S. c #B1ADAC",
"D. c #BAB9BA",
"F. c #B7B3AF",
"G. c #DCBD81",
"H. c #C2BC9F",
"J. c #E0BF82",
"K. c #C5BEA3",
"L. c #DFC085",
"P. c #E5C689",
"I. c #EFD18C",
"U. c #F2D48E",
"Y. c #EACD91",
"T. c #EED195",
"R. c #F6D896",
"E. c #F1CC8A",
"W. c #FDFB88",
"Q. c #FDE19F",
"!. c #FFFF9D",
"~. c #CCC5A8",
"^. c #D2CBAD",
"/. c #C7C4B8",
"(. c #D4CDB2",
"). c #DBD4B7",
"_. c #E2DBBE",
"`. c #FFE5A3",
"'. c #FEF9AA",
"]. c #E7E6B9",
"[. c #FCF9B8",
"{. c #CBCCCB",
"}. c #D0CFCF",
"|. c #CFD1CE",
" X c #DAD6C6",
".X c #D8DAD7",
"XX c #E3DCC3",
"oX c #ECE9C7",
"OX c #FCFAC8",
"+X c #E0E2DF",
"@X c #F1EED3",
"#X c #FDFCDA",
"$X c #E1E0E1",
"%X c #FDFDE7",
"&X c #FDFFF5",
"*X c None",
/* pixels */
"*X*X*X*X*X*X*X*X*X*X*X*X*X*X*X*X*X*X*X*X*X*X*X*X*X*X*X*X*X*X*X*X*X*X*X*X*X*X*X*X*X*X*X*X*X*X*X*X*X*X*X*X*X*X*X*X  . .   . .   . . . .             .   . .     *X*X*X*X*X*X*X*X*X*X*X*X*X*X*X*X*X*X*X*X*X*X*X*X*X*X*X*X*X*X*X*X*X*X*X*X*X*X*X*X*X*X*X*X*X*X*X*X*X",
"*X*X*X*X*X*X*X*X*X*X*X*X*X*X*X*X*X*X*X*X*X*X*X*X*X*X*X*X*X*X*X*X*X*X*X*X*X*X*X*X*X*X*X*X*X*X*X*X*X*X*X*X*X*X*X*X  . . . . . . . . . . . . . . . . .   . . . . *X*X*X*X*X*X*X*X*X*X*X*X*X*X*X*X*X*X*X*X*X*X*X*X*X*X*X*X*X*X*X*X*X*X*X*X*X*X*X*X*X*X*X*X*X*X*X*X*X",
"*X*X*X*X*X*X*X*X*X*X*X*X*X*X*X*X*X*X*X*X*X*X*X*X*X*X*X*X*X*X*X*X*X*X*X*X*X*X*X*X*X*X*X*X*X*X*X*X*X*X*X*X*X*X*X*XX . . . . . . . . . . . . .   .     . . .   . *X*X*X*X*X*X*X*X*X*X*X*X*X*X*X*X*X*X*X*X*X*X*X*X*X*X*X*X*X*X*X*X*X*X*X*X*X*X*X*X*X*X*X*X*X*X*X*X*X",
"*X*X*X*X*X*X*X*X*X*X*X*X*X*X*X*X*X*X*X*X*X*X*X*X*X*X*X*X*X*X*X*X*X*X*X*X*X*X*X*X*X*X*X*X*X*X*X*X*X*X*X*X*X      &.#.%.&X%X%X&X%X%X&X%X%X%X&X%X%X%X%X%X%X&.=.-.    . *X*X*X*X*X*X*X*X*X*X*X*X*X*X*X*X*X*X*X*X*X*X*X*X*X*X*X*X*X*X*X*X*X*X*X*X*X*X*X*X*X*X*X*X*X*X",
"*X*X*X*X*X*X*X*X*X*X*X*X*X*X*X*X*X*X*X*X*X*X*X*X*X*X*X*X*X*X*X*X*X*X*X*X*X*X*X*X*X*X*X*X*X*X*X*X*X*X*X*X*X. . . %.O.=.#X#XOX#X%X#X%X%X#X#X#X%X#X#X#X#XOX=.=.=.. . . *X*X*X*X*X*X*X*X*X*X*X*X*X*X*X*X*X*X*X*X*X*X*X*X*X*X*X*X*X*X*X*X*X*X*X*X*X*X*X*X*X*X*X*X*X*X",
"*X*X*X*X*X*X*X*X*X*X*X*X*X*X*X*X*X*X*X*X*X*X*X*X*X*X*X*X*X*X*X*X*X*X*X*X*X*X*X*X*X*X*X*X*X*X*X*X*X*X*X*X*Xo .   %.#.=.#X#X#X#X%X#X#X#X%X#X%X#X#X#X#X#XOX=.-.>.. . . .   O *X*X*X*X*X*X*X*X*X*X*X*X*X*X*X*X*X*X*X*X*X*X*X*X*X*X*X*X*X*X*X*X*X*X*X*X*X*X*X*X*X*X*X",
"*X*X*X*X*X*X*X*X*X*X*X*X*X*X*X*X*X*X*X*X*X*X*X*X*X*X*X*X*X*X*X*X*X*X*X*X*X*X*X*X*X*X*X*X*X*X*X*X*X*Xo . X #.#.O.Y R T _ _ ` { { { ` { ` [ ` _ _ _ ) _ _ Y Y L o.| } .   X *X*X*X*X*X*X*X*X*X*X*X*X*X*X*X*X*X*X*X*X*X*X*X*X*X*X*X*X*X*X*X*X*X*X*X*X*X*X*X*X*X*X*X",
"*X*X*X*X*X*X*X*X*X*X*X*X*X*X*X*X*X*X*X*X*X*X*X*X*X*X*X*X*X*X*X*X*X*X*X*X*X*X*X*X*X*X*X*X*X*X*X*X*X*Xo .   @.=.=.Y T T ` _ [ { { { { { { [ [ ` _ _ _ _ ` L L K o.o.X..   X *X*X*X*X*X*X*X*X*X*X*X*X*X*X*X*X*X*X*X*X*X*X*X*X*X*X*X*X*X*X*X*X*X*X*X*X*X*X*X*X*X*X*X",
"*X*X*X*X*X*X*X*X*X*X*X*X*X*X*X*X*X*X*X*X*X*X*X*X*X*X*X*X*X*X*X*X*X*X*X*X*X*X*XO X X X X . X X X X X     . O.=.=.Y T I _ _ ` { { { { { [ { [ _ ( _ ` _ _ K L K o.+.} .   X *X*X*X*X*X*X*X*X*X*X*X*X*X*X*X*X*X*X*X*X*X*X*X*X*X*X*X*X*X*X*X*X*X*X*X*X*X*X*X*X*X*X*X",
"*X*X*X*X*X*X*X*X*X*X*X*X*X*X*X*X*X*X*X*X*X*X*X*X*X*X*X*X*X*X*X*X*X*X*X*X*X*X*X            .               ` _ _ &X&X&X&X&X&X&X&X&X&X&X&X&X&X%X%X%X!.!.W.&.&.-.4 ; &     X *X*X*X*X*X*X*X*X*X*X*X*X*X*X*X*X*X*X*X*X*X*X*X*X*X*X*X*X*X*X*X*X*X*X*X*X*X*X*X*X*X*X*X",
"*X*X*X*X*X*X*X*X*X*X*X*X*X*X*X*X*X*X*X*X*X*X*X*X*X*X*X*X*X*X*X*X*X*X*X*X# . . . . X       . .   .         [ [ _ %X%X%X#X%X#X%X%X%X#X%X#X#X#X#X%X%XW.W.v.%.=.=.6 6 6     X *X*X*X*X*X*X*X*X*X*X*X*X*X*X*X*X*X*X*X*X*X*X*X*X*X*X*X*X*X*X*X*X*X*X*X*X*X*X*X*X*X*X*X",
"*X*X*X*X*X*X*X*X*X*X*X*X*X*X*X*X*X*X*X*X*X*X*X*X*X*X*X*X*X*X*X*X*X*X*X*X4 & 4 @X@XoXx.x.<.*.*.] [ | .     _ [ ` %X%X%X%X%X#X%X%X%X%X#X%X%X%X#X%X#Xv.v.v.=.=.*.4 4 5 .   X *X*X*X*X*X*X*X*X*X*X*X*X*X*X*X*X*X*X*X*X*X*X*X*X*X*X*X*X*X*X*X*X*X*X*X*X*X*X*X*X*X*X*X",
"*X*X*X*X*X*X*X*X*X*X*X*X*X*X*X*X*X*X*X*X*X*X*X*X*X*X*X*X*X*X*X*X*X*X*X*X5 4 4 #X#XOXc.c.<.,.,.| | X..     ( [ { =.%.%.o.| | q q q 5 4 3 5 5 5 @ @ Y Y R 0 0 7 4 4 6             . . . . . . . .     . . *X*X*X*X*X*X*X*X*X*X*X*X*X*X*X*X*X*X*X*X*X*X*X*X*X*X*X*X",
"*X*X*X*X*X*X*X*X*X*X*X*X*X*X*X*X*X*X*X*X*X*X*X*X*X*X*X*X*X*X*X*X*XS.F.A.4 4 & @X#XOXk.k.<.,.,. .| |       ) [ { =.=.=. .o.+.G S p 0 0 7 0 7 7 7 7 R R / p p q 4 6 4       .     . .   .   .   . . . . . *X*X*X*X*X*X*X*X*X*X*X*X*X*X*X*X*X*X*X*X*X*X*X*X*X*X*X*X",
"*X*X*X*X*X*X*X*X*X*X*X*X*X*X*X*X*X*X*X*X*X*X*X*X*X*X*X*X*X*X*X*X*X  . . OXOXOX_ _ ' / ' R R / H F F       _ _ [ =.=.=.+.o.+.G S G 7 7 0 0 7 7 7 0 / T / p p p 4 6 6                                     *X*X*X*X*X*X*X*X*X*X*X*X*X*X*X*X*X*X*X*X*X*X*X*X*X*X*X*X",
"*X*X*X*X*X*X*X*X*X*X*X*X*X*X*X*X*X*X*X*X*X*X*X*X*X*X*X*X*X*X*X*X*X      [.OXOX) _ _ ) / R R R F F F     . { [ ( =.-.=.+.o.o.G G G 0 0 7 7 7 0 7 0 ) / ^ 0 p p       f.;.f.k.k.k.#X%X%X%X%X%X%X%XOX,.>.>.. .   *X*X*X*X*X*X*X*X*X*X*X*X*X*X*X*X*X*X*X*X*X*X*X*X*X",
"*X*X*X*X*X*X*X*X*X*X*X*X*X*X*X*X*X*X*X*X*X*X*X*X*X*X*X*X*X*X*X*X*X  X X [.[.[.) ` _ _ / ^ ^ ^ F H K     . [ _ ( *.:.>.$.$.X.a a D i 7 7 7 0 7 7 0 ) ^ T 0 p p       g.f.f.k.k.k.#X%X%X%X%X%X%X%XOX,.<.>.. .   *X*X*X*X*X*X*X*X*X*X*X*X*X*X*X*X*X*X*X*X*X*X*X*X*X",
"*X*X*X*X*X*X*X*X*X*X*X*X*X*X*X*X*X*X*X*X*X*X*X*X*X*X*X*X*X*XO   X ].@XOX' _ ' [.OX[.j.<.-.-.&.o.o.o.7 7 7 .     . . .   . .                           .   .         h.f.f.j.k.k.&X&X%X%X%X%X%X%XOX<.,.>.. . . . o   *X*X*X*X*X*X*X*X*X*X*X*X*X*X*X*X*X*X*X*X*X*X",
"*X*X*X*X*X*X*X*X*X*X*X*X*X*X*X*X*X*X*X*X*X*X*X*X*X*X*X*X*X*XO     oX#XOX_ _ _ OXOX[.j.j.-.-.-.o.o.o.7 5 5                                                       . H K L L / ) _ { { _ { ` [ ' ' _ I P K #.:.O.. .   *X*X*X*X*X*X*X*X*X*X*X*X*X*X*X*X*X*X*X*X*X*X",
"*X*X*X*X*X*X*X*X*X*X*X*X*X*X*X*X*X*X*X*X*X*X*X*X*X*X*X*X*X*XX     ].OXOX{ { { %XOXOX<.j.<.,.-.X.o.o.0 7 5                                                       @ L K L L ( _ _ ` { { ` _ _ ` [ / P L L :.#.#.. .   *X*X*X*X*X*X*X*X*X*X*X*X*X*X*X*X*X*X*X*X*X*X",
"*X*X*X*X*X*X*X*X*X*X*X*X*X*X*X*X*X*X*X*X*X*X*X*X*X*X*X*X*X*XX     @.%.%.^ ^ ^ =.=.%.%.=.|  .| _ ) [ .     X.#.#.,.,.<.<.<.<.<.<.<.<.<.<.,.<.,.,.,.,.,.>.[ | o.      F K K ) _ _ ` ` ` ` ` _ ` _ / L L L o.O.O.. . .     *X*X*X*X*X*X*X*X*X*X*X*X*X*X*X*X*X*X*X*X",
"*X*X*X*X*X*X*X*X*X*X*X*X*X*X*X*X*X*X*X*X*X*X*X*X*X*X*X*X*X*XX     @.=.=.I T T #.=.=.=.%.{ | | _ _ _       +.#.#.,.<.<.<.<.<.<.<.<.<.<.<.<.<.<.,.,.,.,.>.{ | |       =.>.-.k.k.k.%X%X%X%X%X%X%X%X#X'.'.[.OX[.!.=.=...    *X*X*X*X*X*X*X*X*X*X*X*X*X*X*X*X*X*X*X*X",
"*X*X*X*X*X*X*X*X*X*X*X*X*X*X*X*X*X*X*X*X*X*X*X*X*X*X*X*X*X*XX     *.-.-.T ^ T =.=.%.%.=.| |  .{ _ _     . +.#.#.<.<.<.<.<.<.<.<.<.<.<.,.<.,.,.,.,.-.-.,.| | |     . &.-.,.k.k.k.#X%X&X%X%X&X&X&X#X'.'.[.OXOX[.=.=.@..   *X*X*X*X*X*X*X*X*X*X*X*X*X*X*X*X*X*X*X*X",
"*X*X*X*X*X*X*X*X*X*X*X*X*X*X*X*X*X*X*X*X*X*X                            +.:.o.R / ^ / ^ R T ^ .     } o.$.<.<.,.{ { | L K L K K K K K K J K K J F [ [ { =.#.#.) ( / .   o c.c.k.&X&X%X&X&X%X&X&X%X[.[.'.OX@X[.,.-...    }.*X*X*X*X*X*X*X*X*X*X*X*X*X*X*X*X*X*X*X",
"*X*X*X*X*X*X*X*X*X*X*X*X*X*X*X*X*X*X*X*X*X*X.                           o.X.o.T ^ ^ ^ ^ ^ T I       X.o.+.<.,.<.{ { [ J K K K H J J F H F F H F K { [ { =.#.#._ _ (       T ^ ^ { { [ [ [ _ { { _ I L K +.+.:.4 & +     {.*X*X*X*X*X*X*X*X*X*X*X*X*X*X*X*X*X*X*X",
"*X*X*X*X*X*X*X*X*X*X*X*X*X*X*X*X*X*X*X*X*X*XX     .       .             o.+.+.^ ^ ^ / / I I ^       o.o.o.>.,.<.| { { J F K K H K K K F H H F K K { { { =.#.%._ [ ( .     ^ ^ ^ _ { { ' [ [ ' [ _ I I L +.+.O.& & &   . }.*X*X*X*X*X*X*X*X*X*X*X*X*X*X*X*X*X*X*X",
"*X*X*X*X*X*X*X*X*X*X*X*X*X*X*X*X*X*X*XO X X P.L.d.P.P.z.u.i..           { | | #.$.@.=.#.} | |       o.o.o.o.+.+.F F D o.+.#.#.#.O.o.o.o.o.O.+.o.+.D K F #.#.#.( _ (       / ^ ^ ` { [ _ [ ` ` _ ` T T P o.o.X.    . 3.Q d X X   *X*X*X*X*X*X*X*X*X*X*X*X*X*X*X*X",
"*X*X*X*X*X*X*X*X*X*X*X*X*X*X*X*X*X*X*XX     I.P.P.P.P.P.p.i.            { { { K D G %.#.| | |       o.o. .o.+.+.F F D o.+.+.+.#.+.#.O.o.+.+.O.+.+.G F D =.#.#.' _ (     . | | { -.>.-.,.>.-.-.-.,.>.>.>.4 4 4     . Q ! w       *X*X*X*X*X*X*X*X*X*X*X*X*X*X*X*X",
"*X*X*X*X*X*X*X*X*X*X*X*X*X*X*X*X*X*X*XX     I.I.P.z.P.P.i.y..           [ [ | J J D ( ( # 4 4       X.o.o.o.+.+.F F F +.+.+.+.#.#.+.#.+.+.#.o.O.+.S D D =.#.#.) ( (     . } | | =.,.,.,.>.,.,.>.>.,.>.,.4 4 &       1.3.h .     *X*X*X*X*X*X*X*X*X*X*X*X*X*X*X*X",
"*X*X*X*X*X*X*X*X*X*X*X*X*X*X*X*XX   X R.I.P.i.Q U o   X .               / ( [ J F F a i 4 6 7       _ [ [ +.+.o.T T T +.O.O.+.#.#.K K ] +.+.+.+.+.Y I T #.#.#.R T ^     . |  .| &.>.,.>.>.,.,.>.-.>.-.-.4 4 4           k 3.5.y.X     *X*X*X*X*X*X*X*X*X*X*X*X*X",
"*X*X*X*X*X*X*X*X*X*X*X*X*X*X*X*XX     R.P.z.r.U z +                     ( ( ' D D D a p 4 4 7       ( [ { +.+.o.L T T +.#.+.O.+.#.K K ( +.+.+.+.+.Y T T #.#.#.R T I       & 6 6 & 4 4 4 4 & 4 & 4 p G D 4 4 4           h 1.! 4.      *X*X*X*X*X*X*X*X*X*X*X*X*X",
"*X*X*X*X*X*X*X*X*X*X*X*X*X*X*X*XX     U.P.Y.r.z z ;                     _ _ ] D J D p p 7 7 6       _ { | +.O.o.I Y T #.+.#.+.O.#.P L ] #.+.+.#.+.Y T I #.#.#.R ^ T       4 6 6 6 6 6 6 6 4 6 4 6 G D D 6 4 &           z 3.! 3.      *X*X*X*X*X*X*X*X*X*X*X*X*X",
"*X*X*X*X*X*X*X*X*X*X*X*X*X*X*X*XX     5.4.4.E.z.P.Y.P.I.P.I.            p i 7 ) _ ^ L T p p p       ( _ _ o.o.O.T Y I +.#.+.+.+.#.T T } +.O.+.O.+.I I I #.O.O.T T T       4 6 6 6 6 6 7 6 4 4 4 7 D D F           o l U U k l U   .   *X*X*X*X*X*X*X*X*X*X*X*X*X",
"*X*X*X*X*X*X*X*X*X*X*X*X*X*X*X*X      e.4.4.P.P.P.E.E.P.I.z.            i 0 7 ( ) / I T p i 0       _ _ ( o.+.#.T T I +.+.#.O.+.#.Y T [ +.+.+.+.+.L Y T #.+.o.T ^ I       6 6 7 6 4 4 6 7 6 4 4 6 D D S           + U l l l l U       *X*X*X*X*X*X*X*X*X*X*X*X*X",
"*X*X*X*X*X*X*X*X*X*X*X*X*X*X*X*X      7.3.3.E.Y.U.z.z.I.I.P..           p i 7 ( ( ^ T T 0 i 0       _ _ / o.o.o.Y T T o.+.#.#.#.+.T I ] #.#.O.+.+.I Y I +.+.o.T T I       G F F ^ I P G D 7 4 4 6 S S p         . + U U U l U U       *X*X*X*X*X*X*X*X*X*X*X*X*X",
"*X*X*X*X*X*X*X*X*X*X*X*X*X*X*X*XX       h h E U U U u.u.s.s.T.Y.E.P.P.P.                6 7 7       I T ^ O.o.o.I I T | | | K J J T T K K K ( X.+.I I I O.+.o.Y I L     . F F F I T T D D 6 4 4 4           . W U U U U 7 9 9 .   *X*X*X*X*X*X*X*X*X*X*X*X*X*X*X",
"*X*X*X*X*X*X*X*X*X*X*X*X*X*X*X*XX       h j U U U U u.u.s.z.I.I.I.I.P.U.                6 6 6       I T ^ O.O.X.L T I | o. .K F F T T K J K ( o.+.L I L +.+.o.L L K       F D D T ^ R D S 4 4 4 &           . W U U U U 9 8 8     *X*X*X*X*X*X*X*X*X*X*X*X*X*X*X",
"*X*X*X*X*X*X*X*X*X*X*X*X*X*X*X*X*X*X*X*X. . U z U U i.y.p.p.z.I.E.P.I.I.                7 6 6       ^ ^ ^ o.o.O.Y I I | | | F D D T T K H F ^ X. .K L L O.o.o.L L P .     4 4 ; 9 i p p 0 4 & & @             Q Q U U U 8 8 8 C *X*X*X*X*X*X*X*X*X*X*X*X*X*X*X*X",
"*X*X*X*X*X*X*X*X*X*X*X*X*X*X*X*X*X*X*X*X      z U U l U G l U I.P.P.P.P.I.I.Y.I.E.I.Y.P.                      . T T I J F F o.O.X.F K ( o.o.P D G L L L o.o.o.K L K       & ; 4 4                     . U U W U U j e 9     X *X*X*X*X*X*X*X*X*X*X*X*X*X*X*X*X*X",
"*X*X*X*X*X*X*X*X*X*X*X*X*X*X*X*X*X*X*X*X    . l z l l l z z 3.I.P.I.I.P.P.I.I.P.P.Y.Y.P.                        T I I F F D o.O.O.F J ] +.+.P D D I L L o.o.o.K K F       & 4 & &                   . o 3.Q U z z d e 9       *X*X*X*X*X*X*X*X*X*X*X*X*X*X*X*X*X",
"*X*X*X*X*X*X*X*X*X*X*X*X*X*X*X*X*X*X*X*X      z l l l l U U 3.P.E.z.z.U.P.U.Y.Y.I.P.P.P.            .       . . I L L F F J o.O.O.K K ( o.o.P D D L L I #.o.X.K F D       4 4 4 &                     . Q Q Q U l u 9 9       *X*X*X*X*X*X*X*X*X*X*X*X*X*X*X*X*X",
"*X*X*X*X*X*X*X*X*X*X*X*X*X*X*X*X*X*X*X*X      j j k l l 9 d u Q Q U ! U W U E U.I.P.E.P.E.I.T.I.I.I.I.P.z.y.y.y..   . T / / ) / / ( ) _ _ ( L I L _ ( [ [ [ | .                   ! Q Q W 3.5.5.4.4.3.3.U l U 9 9 8 ; 8       *X*X*X*X*X*X*X*X*X*X*X*X*X*X*X*X*X",
"*X*X*X*X*X*X*X*X*X*X*X*X*X*X*X*X*X*X*X*X      j j k l U 9 u 9 W Q U U Q W U U E.Y.I.Y.I.P.P.P.I.P.P.P.I.I.7.y.y..     T ^ ^ ( / / ) ( ( / ( I I I _ _ ` ` [ [                     ! W W W 3.5.5.5.3.4.3.l l l e w 8 8 ;       *X*X*X*X*X*X*X*X*X*X*X*X*X*X*X*X*X",
"*X*X*X*X*X*X*X*X*X*X*X*X*X*X*X*X*X*X*X*X      d h j l l u 9 9 Q U Q Q Q U U U E.P.P.P.P.I.P.I.P.I.I.z.z.z.u.y.y.      ^ / ^ / / ( ( / ^ ^ ( L I T [ ( ( _ _ ( . . X     X .     . ! W W Q 5.5.5.5.5.4.5.l j k s d 8 ; & X   X *X*X*X*X*X*X*X*X*X*X*X*X*X*X*X*X*X",
"*X*X*X*X*X*X*X*X*X*X*X*X*X*X*X*X*X*X*X*X*X*X*X      j j d 9 e U U Q U U w s w ! 3.Q U 1.u.u.r.7.y.7.y.7.e.Y.P.z.d h h                                       o s.P.L.p.p.i.4.3.4.3.U U l U d w w u l l z 8 6 8 9 8 -     *X*X*X*X*X*X*X*X*X*X*X*X*X*X*X*X*X*X*X*X",
"*X*X*X*X*X*X*X*X*X*X*X*X*X*X*X*X*X*X*X*X*X*X*X{.,   j h e e d U U U U U 8 8 w ! Q Q 3.3.u.u.u.u.y.y.y.u.u.Y.E.P.f h j                                         L.s.s.p.s.a.4.4.4.3.U U l l d w w d l l l 8 8 8 8 9 -     *X*X*X*X*X*X*X*X*X*X*X*X*X*X*X*X*X*X*X*X",
"*X*X*X*X*X*X*X*X*X*X*X*X*X*X*X*X*X*X*X*X*X*X*X*XA.C ; & 9 e e E U U U U u 8 8 W Q 1.Q Q u.i.y.y.u.u.7.u.u.P.P.P.d j j                                       . P.P.s.s.p.i.4.4.4.! l U l z e 9 9 u z k l 8 u 8 ; & - X O *X*X*X*X*X*X*X*X*X*X*X*X*X*X*X*X*X*X*X*X",
"*X*X*X*X*X*X*X*X*X*X*X*X*X*X*X*X*X*X*X*X*X*X*X*X*X}.    8 d e w i U U U 8 9 9 u h j 1.U U U U z U U k d h h h h T.E.E.U.U.U.U.U.I.I.I.I.I.I.I.E.I.I.I.E.3.7.e.l k j j k k l l l l l l h h 8 ; ; ; h d d 8 8 8     X *X*X*X*X*X*X*X*X*X*X*X*X*X*X*X*X*X*X*X*X*X*X",
"*X*X*X*X*X*X*X*X*X*X*X*X*X*X*X*X*X*X*X*X*X*X*X*X*X.X    8 e d w 9 j z U e e 9 d f h Q W E U U W U U l h h k k j I.l.P.P.P.I.I.z.P.P.I.P.P.P.I.P.I.L.P.l.4.4.6.l l k l l l l l l z z U j h ; ; ; ; h d h w 8 w       *X*X*X*X*X*X*X*X*X*X*X*X*X*X*X*X*X*X*X*X*X*X",
"*X*X*X*X*X*X*X*X*X*X*X*X*X*X*X*X*X*X*X*X*X*X*X*X*X*X{.D.- . X w w h z U d 9 8 8 8 8 E E U W U W Q U l h u j j l I.I.P.P.P.I.I.z.P.P.I.P.I.z.z.P.P.P.P.z.4.6.5.l k j l l l l l l l l U h d ; - ; & h h j o o + C A A *X*X*X*X*X*X*X*X*X*X*X*X*X*X*X*X*X*X*X*X*X*X",
"*X*X*X*X*X*X*X*X*X*X*X*X*X*X*X*X*X*X*X*X*X*X*X*X*X*X*X*XO     e w 8 z z z z z 8 8 ; h h U E U U U Q l u d 8 9 9 s.i.i.i.i.i.i.u.i.a.p.i.i.i.i.i.i.7.7.7.k z z > 8 8 h j d j k k l l l ; - 8 e 8 e h h k     X *X*X*X*X*X*X*X*X*X*X*X*X*X*X*X*X*X*X*X*X*X*X*X*X*X",
"*X*X*X*X*X*X*X*X*X*X*X*X*X*X*X*X*X*X*X*X*X*X*X*X*X*X*X*X,     w 8 w z z l l z 8 8 ; h h E U W U U U k h f ; 4 8 5.5.3.5.4.4.5.5.6.5.5.5.7.7.6.6.4.z U U d d h ; ; ; d d u l z l z l z & ; 8 9 e d h h j       *X*X*X*X*X*X*X*X*X*X*X*X*X*X*X*X*X*X*X*X*X*X*X*X*X",
"*X*X*X*X*X*X*X*X*X*X*X*X*X*X*X*X*X*X*X*X*X*X*X*X*X*X*X*XX     d w d U U U z z 8 8 ; h j W U W U U E l h k 8 8 ; 5.3.3.3.3.5.5.5.4.4.5.4.5.5.7.5.7.U U W h d f ; ; ; e d h l l U l k k - ; ; w w d d d h       *X*X*X*X*X*X*X*X*X*X*X*X*X*X*X*X*X*X*X*X*X*X*X*X*X",
"*X*X*X*X*X*X*X*X*X*X*X*X*X*X*X*X*X*X*X*X*X*X*X*X*X      g x x       .   8 e 9 h d 9 ; ; l l l U E E U E U 8 ; 8 1.U U 1.U 3.U Q U Q 1.U U 1.U W Q U U U u u 8 ; ; 8 l l l U l l 8 9 9 - ; 8 w w 8       , < 1     X *X*X*X*X*X*X*X*X*X*X*X*X*X*X*X*X*X*X*X*X*X*X",
"*X*X*X*X*X*X*X*X*X*X*X*X*X*X*X*X*X*X*X*X*X*X*X*X*X    X c c c           ; 9 8 h h 9 ; ; l l l U W U z l l ; 8 8 U 1.U 1.U U l j k k j k k j z l U U U U w ; ; ; ; ; U U U l l l u 9 8 ; ; u u e ;       1 1 2           *X*X*X*X*X*X*X*X*X*X*X*X*X*X*X*X*X*X*X*X",
"*X*X*X*X*X*X*X*X*X*X*X*X*X*X*X*X*X*X*X*X*X*X*X*X*X      g x v       .   8 u 9 h l u 8 4 U U z E Q U E z E 8 8 ; 1.3.3.U U U l l k k k k k j z z U U E E ; ; ; 4 ; 4 l l l l l U 9 8 8 ; ; u f d 8       2 2 1   X       *X*X*X*X*X*X*X*X*X*X*X*X*X*X*X*X*X*X*X*X",
"*X*X*X*X*X*X*X*X*X*X*X*X*X*X*X*X*X*X*X*X*X*X*X*Xm.      Z ~ ~ ).).^.N.N.                      k l U U U U 9 e 9 ; 8 8 W U U Q U U U z z U U U U U l l l - ; ; d d h l l l 9 d d ; - - ; -         , , < g c g c x X   X *X*X*X*X*X*X*X*X*X*X*X*X*X*X*X*X*X*X*X*X",
"*X*X*X*X*X*X*X*X*X*X*X*X*X*X*X*X*X*X*X*X*X*X*X*XA.      ~ Z ~ XX).).N.N.                      k l l U l U e e 9 8 ; 8 W U Q U U U U z U U U U U U l l l & ; ; h h f U l l e d d - - ; ; -       . 1 < , c c g c c X     *X*X*X*X*X*X*X*X*X*X*X*X*X*X*X*X*X*X*X*X",
"*X*X*X*X*X*X*X*X*X*X*X*X*X*X*X*X*X*X*X*X*X*X*X*XA.      8.~ Z XX).^.B.C.                      z U l U U W d e w ; 8 8 Q W U W E U U U U U U U U U d d h ; ; ; . .           .                     1 , 1 c g g n v     X *X*X*X*X*X*X*X*X*X*X*X*X*X*X*X*X*X*X*X*X",
"*X*X*X*X*X*X*X*X*X*X*X*X*X*X*X*X*X*X*X*X*X*X*X*XA.      1   X ~ Z V Z Z c v v _.).).Z.C.1 2 g .       .         - - ; l j k j j k l k j k k k j j & ; ; ; ; ;                             2 c v v v v v 1 < 1 - #     X *X*X*X*X*X*X*X*X*X*X*X*X*X*X*X*X*X*X*X*X",
"*X*X*X*X*X*X*X*X*X*X*X*X*X*X*X*X*X*X*X*X*X*X*X*X*X{.          Z V V V Z v c x _.).).Z.C.2 2 r                   ; ; ; h j j j j k j j j j j j j j ; ; - ; ; ;                             g c v v v v v 1 1 1 $ #   *X*X*X*X*X*X*X*X*X*X*X*X*X*X*X*X*X*X*X*X*X*X",
"*X*X*X*X*X*X*X*X*X*X*X*X*X*X*X*X*X*X*X*X*X*X*X*X*X.X          Z V ~ Z V c g g oX).).C.C.r r r .     X           ; - - d h j j h j j j j h h j h k ; ; ;       B C N XXoXXXM v v           g c v v v v c 2 1 2 O O   *X*X*X*X*X*X*X*X*X*X*X*X*X*X*X*X*X*X*X*X*X*X",
"*X*X*X*X*X*X*X*X*X*X*X*X*X*X*X*X*X*X*X*X*X*X*X*X*X$X      d d     .     , , 1 Z Z B N B g r r q.N.C.Z.C.V.g v v   .                 .             .           M N N (.(.~.v v v v c g c c 1 , < 1 1 , <           *X*X*X*X*X*X*X*X*X*X*X*X*X*X*X*X*X*X*X*X*X*X*X",
"*X*X*X*X*X*X*X*X*X*X*X*X*X*X*X*X*X*X*X*X*X*X# , , O e.w.2.d d           - < 1 Z N N B B 2 2 2 N.C.C.C.Z.C.c v M                                               M N N ^.(.~.M v n c c g c c < < < 1 < < 1           *X*X*X*X*X*X*X*X*X*X*X*X*X*X*X*X*X*X*X*X*X*X*X",
"*X*X*X*X*X*X*X*X*X*X*X*X*X*X*X*X*X*X*X*X*X*X        p.i.4.h h           , 1 1 B N B B B g 1 2 B.Z.Z.Z.C.C.v m M               .                               m M N /.^.(.M n v c r g g g < 2 1 < , , 1           *X*X*X*X*X*X*X*X*X*X*X*X*X*X*X*X*X*X*X*X*X*X*X",
"*X*X*X*X*X*X*X*X*X*X*X*X*X*X*X*X*X*X*X*X*X*X      . i.p.u.U U E U h j k X                     v v v v v v 2 1 1 M.q.q._._._.N.B.N.M.n.q.^.).q.M.0., < 1 m v m     X M M B C.C.N.X     , ,               ; ; w d 8   X X *X*X*X*X*X*X*X*X*X*X*X*X*X*X*X*X*X*X*X*X",
"*X*X*X*X*X*X*X*X*X*X*X*X*X*X*X*X*X*X*X*X*X*XX       p.p.u.E E E U j j j .                     v v M M v b 1 2 2 n.9.9.^.(.~.q.q.n.M.n.q.~.^.q.0.8., < < v v m       M N N V.C.N.      , < X             ; ; w w w       *X*X*X*X*X*X*X*X*X*X*X*X*X*X*X*X*X*X*X*X",
"*X*X*X*X*X*X*X*X*X*X*X*X*X*X*X*X*X*X*X  X X U.P.z.d.y.u.e.W E E U l j h .                   . v v v v v M 1 1 < 9.9.0.(.^.^.q.N.M.n.M.n.~.^.9.9.9.< 1 , M v b c g g M B V C.C.N.      , 1 .             ; ; w w w       *X*X*X*X*X*X*X*X*X*X*X*X*X*X*X*X*X*X*X*X",
"*X*X*X*X*X*X*X*X*X*X*X*X*X*X*X*X*X*X*X      R.P.P.P.u.y.e.! 4.y.u.e.4.3.E W W U z z l l d h h .                 g g c M v v v g g g c c g c v v x , , ,   .             X ^.~.~.g g g     ; ; ; ; ; 8 ; ; 1 8 9 w e d w   . . }.*X*X*X*X*X*X*X*X*X*X*X*X*X*X*X*X",
"*X*X*X*X*X*X*X*X*X*X*X*X*X*X*X*X*X*X*X  .   R.P.P.P.y.u.e.! 4.i.u.e.5.4.W Q ! E U z z z h h h                   g x c M n b g v g c c c c c c c c - , <                 . ~.~.~.c g g     - ; ; 8 ; ; ; ; ; ; w w e d d       D.*X*X*X*X*X*X*X*X*X*X*X*X*X*X*X*X",
"*X*X*X*X*X*X*X*X*X*X*X*X*X*X*X*X}.}..Xo o X Y.P.Y.G.y.u.r.! w.i.u.5.4.4.Q ! ! W z z z z j h f                   v c g v v n c c v c c c c c c c v , , ,                   ~.^.^.g g g     + ; ; ; 8 ; ; ; ; 8 w e d d d       D.*X*X*X*X*X*X*X*X*X*X*X*X*X*X*X*X",
"*X*X*X*X*X*X*X*X*X*X*X*X*X*X*X*XX     `.Y.P.i.a.a.u.e.e.r.J.J.J.d.i.u.i.i.i.i.r.6.4.5.e.Q W U k k k j k k h d d                                         g 2 2 g g 2       c v g     X g g       . w w 8 8 8 8 k k j h j d h h # X X   *X*X*X*X*X*X*X*X*X*X*X*X*X",
"*X*X*X*X*X*X*X*X*X*X*X*X*X*X*X*XX     `.Y.P.s.i.u.u.w.e.e.J.J.J.d.u.u.i.i.i.u.y.4.6.6.7.W E W k k k k k k h h u                                         g r 2 v f c       v v c       g 2         8 w 8 8 8 8 j j j h h h h d +       *X*X*X*X*X*X*X*X*X*X*X*X*X",
"*X*X*X*X*X*X*X*X*X*X*X*X*X*X*X*XX     R.Y.Y.a.i.G.i.w.e.e.J.J.J.z.i.i.i.u.i.i.e.6.6.7.6.E E U l k k l k j h h h                                         r 2 2 8.8.8.      v b v       g 2         w w e 8 8 8 j h h h j h h h -       *X*X*X*X*X*X*X*X*X*X*X*X*X",
"*X*X*X*X*X*X*X*X*X*X*X*X*XX   . `.P.P.d.P.P.e.e.e.w.J.G.J.J.J.Y.P.p.i.u.i.u.u.u.r.r.r.e.7.e.r.r.7.7.u.7.7.Q U U l l j j k k k k k k k k k k k j f       g 2 1 oX).).2 2 g             2 2 ).(.(.C.    . h h e 8 ; d h h h h j @       *X*X*X*X*X*X*X*X*X*X*X*X*X",
"*X*X*X*X*X*X*X*X*X*X*X*X*XX     `.P.P.P.L.L.e.e.e.e.G.G.J.J.J.J.d.i.i.i.i.i.u.y.e.r.r.e.e.7.7.7.7.7.7.7.7.U Q U j k j j j k j k j j k k j j h h j             ~.~.~.g r 2             2 g ).).(.C.      d d w ; 8 l U U l k l h d d k X   X *X*X*X*X*X*X*X*X*X*X",
"*X*X*X*X*X*X*X*X*X*X*X*X*XX     `.Y.P.P.P.L.w.w.e.e.G.G.J.J.J.G.z.i.u.i.i.i.i.u.r.e.r.r.r.7.7.7.6.7.e.7.7.Q U Q j j k j k k j j k j k j j j h j h             Z Z 9.g 2 2             g g ).^.(.C.      d d e 8 8 l U U l k k h h d k     X *X*X*X*X*X*X*X*X*X*X",
"*X*X*X*X*X*X*X*X*X*X*X*X*XX     R.P.Y.P.L.P.e.w.w.4.G.G.G.J.J.G.P.u.i.u.u.i.i.e.e.r.r.r.r.7.r.6.6.r.e.6.7.U 1.U l l k l k k k j j k k j j j j h h .           Z 8.~ 2 2 g           X c r _.).).V.      d d d 8 8 j U U l l k h h h j     X *X*X*X*X*X*X*X*X*X*X",
"*X*X*X*X*X*X*X*X*X*X*X*X*X      R.P.P.a.r.u.u.e.e.G.J.J.J.G.u.u.u.u.i.i.i.i.i.u.r.w.r.6.t t t = t t Y.Y.Y.4.5.5.Q U U Q W W W W W W W E E W W E W z z l             ~.^.(.X X O           C.M.N.8.      9 9 w w 9 h l l U l U l l l z       *X*X*X*X*X*X*X*X*X*X",
"*X*X*X*X*X*X*X*X*X*X*X*X*XX   . R.P.P.a.u.r.u.r.t.G.J.J.G.i.u.u.u.u.u.u.i.i.i.i.r.r.r.4.= t t t t t P.P.Y.5.4.4.W U Q Q Q U W W W W W W W W E E W z l l 9 9 8     X  X).(.Z Z Z           Z.M.q.A       w w w 9 8 h l k U U U k k l U     X *X*X*X*X*X*X*X*X*X*X",
"*X*X*X*X*X*X*X*X*X*X*X*X*Xo   X Q.J.Y.a.y.u.B.u.u.G.J.J.J.G.u.e.u.i.u.u.i.i.i.i.e.r.r.6.t = t t t t L.P.T.w.w.4.B U U ! W Q W W W W W W E W W W W M U U e 8 8     X ).).).Z Z 8.          V.N.N.9.      w w w 8 9 h k l l U U l l k U     . *X*X*X*X*X*X*X*X*X*X",
"*X*X*X*X*X*X*X*X*X*XX X X p.s.P.Y.K.J.u.u.e.J.Y.J.J.J.J.J.J.G.G.a.i.u.i.u.r.i.t t > t t t > t t t t t t t : : : = = y 5.6.e.w.e.7.7.e.7.e.7.! Q Q Q Q Q W W Q       n.n.n.x c c       . . g g g c B.B.M.      w 9 u l l U U U U U z z h j d X X X *X*X*X*X*X*X*X",
"*X*X*X*X*X*X*X*X*X*X    . s.P.P.J.Y.J.t.u.u.J.J.J.J.Y.J.K.J.G.G.G.i.i.u.i.t.i.t t t t t t = t t t t t t t : : : > = * 5.w.w.6.e.e.7.w.e.7.e.! Q Q Q Q Q Q Q Q       ~ ~ Z g g g       d w g 2 2 g N.N.N.      8 8 h l k U U U l U z z d j h       *X*X*X*X*X*X*X",
"*X*X*X*X*X*X*X*X*X*XX   . s.P.P.J.Y.J.t.r.u.Y.J.Y.Y.Y.J.G.G.G.G.G.a.i.u.u.r.t.t t t t t t t t t t t t t t t t : = > > 5.e.w.e.w.e.e.e.e.e.e.Q Q Q Q Q ! Q Q ! .     Z Z Z g g x       d w r 2 2 g N.N.C.      8 9 j l l l U U U z z U j h h       *X*X*X*X*X*X*X",
"*X*X*X*X*X*X*X*X*X*X      P.P.Y.J.Y.G.t.r.t.Y.J.J.Y.J.Y.J.Y.G.G.a.G.G.G.r.r.r.: t t t t t t t t t t t t t * t * > = : 4.6.6.w.6.e.e.e.e.e.7.! Q Q ! Q Q Q W !       N M N 2 2 2       d d 1 1 2 g N.N.Z.      8 9 d l l U U l U U E U h j j       *X*X*X*X*X*X*X",
"*X*X*X*X*X*X*X*X*X*X      e.i.u.Y.J.J.J.J.Y.J.J.J.J.Y.J.J.K.J.Y.G.s t t > : : > t t t t t t t : t t t t t t t t > t : * * t = : = e.e.e.e.e.e.7.e.e.e.e.4.6.6.l z z     X  X_._.q.0.q..         - N.N.M.g r g     . f d B z U U U z U j j h     X *X*X*X*X*X*X*X",
"*X*X*X*X*X*X*X*X*X*XX     u.t.u.Y.J.J.J.J.J.J.Y.Y.J.J.Y.J.J.Y.J.G.f > t t t > t t t t t t t t t t t t t t t t t t t = : : : : t t e.e.e.e.e.e.e.e.y.e.e.6.4.4.E E z     X oXXX).0.q.q.          O N.n.n.r g c       e d z U z E z U U j h h       *X*X*X*X*X*X*X",
"*X*X*X*X*X*X*X*X*X*X    . e.u.t.Y.J.Y.Y.J.Y.Y.J.J.Y.T.J.Y.J.J.Y.P.s > t t t t t t t t t t t t t t t t t t t t t t t t : : : t : t e.e.e.e.e.e.e.e.e.e.e.4.6.4.E U z        X_.).0.q.q.          O M.N.M.r g g m v O . . E z U z B U U j j h       *X*X*X*X*X*X*X",
"*X*X*X*X*X*X*X*X*X*X  .   e.t.u.Y.J.J.Y.J.J.J.Y.P.P.P.P.P.L.Y.L.Y.y t t t t t * : : t t t t t t > : t t : : t t t t t : : : : t > e.e.e.e.e.e.e.e.e.e.e.4.4.w.E z z       M.N.M.c n v           X v m v 2 1 g Z Z O     U z E z U M E h j j       *X*X*X*X*X*X*X",
"*X*X*X*X*X*X*X*X*X.X  + + e.e.r.Y.J.Y.J.J.Y.J.Y.P.L.P.P.P.Y.: : t t t t t t t Y.L.P.Y.T.t t t t L.L.L.L.L.e.e.r.t : t : : : : : > e.e.e.e.e.e.t.e.r.e.e.s.G.G.a.i.u.    X q.q.q.g v v     . d h d       V.B.C.Z ~ O     W z z z U U E h j k . . X *X*X*X*X*X*X*X",
"*X*X*X*X*X*X*X      y.t.u.e.r.e.J.J.P.J.Y.K.E.J.P.P.P.P.P.P.t t t t t t t t t Y.P.P.L.T.t : t t G.P.P.P.L.e.r.r.t t t : : t : : : w.e.e.e.e.e.e.e.e.e.e.J.G.G.i.i.t.      q.q.M.v c v       d d e       C.V.B.Z Z O     E U z z U U U U U U h h k       *X*X*X*X",
"*X*X*X*X*X*X*X      u.t.r.r.r.r.Y.Y.J.Y.J.Y.J.Y.~.P.P.P.Y.L.t t t t t t t t t Y.P.P.L.T.t t t t z.P.s.s.L.r.e.e.* = t : : : : : * e.e.e.r.e.e.e.e.e.e.r.J.G.G.p.i.u.      q.M.q.c c v     . d d s       C.C.C.Z V O     U U U U U U U U U U j j j       *X*X*X*X",
"*X*X*X*X*X*X*X      r.r.r.r.r.r.Y.Y.J.J.Y.J.J.Y.P.P.P.P.P.P., t t t t t t t t T.P.P.L.Y.t t t t L.L.P.P.L.r.e.r.t t : t t t : * : e.e.e.e.e.e.r.e.e.7.e.J.J.s.p.a.i.      N.N.N.x g g     X f h d       O O O           U U U E U U U U M U j k j       *X*X*X*X",
"*X*X*X*X*X*X*X      e.u.u.r.r.r.i.i.i.J.G.Y.J.J.P.P.P.P.P.P.t t t t t t t t t T.P.P.w.w.: t t t L.L.P.L.L.e.e.e.2.4.2.4.4.2.2.2.4.e.e.e.e.e.r.e.e.G.G.G.J.G.s.p.i.u.      r 2 1 B.C.Z.    o j h d - - -             + w l l U l U U U U z E l k j       *X*X*X*X",
"*X*X*X*X*X*X*X      r.r.u.y.r.r.i.i.H.Y.Y.G.P.Y.Y.J.P.Y.P.P.t t t t t t t t t T.P.P.e.t.t t t > l.P.L.P.P.e.r.e.4.4.6.4.4.4.2.4.4.e.e.e.r.e.t.r.e.G.G.G.G.s.s.i.a.r.    X r 2 2 C.Z.H.    o j h f - - ;             4 9 M U U U l U U U E z k k j       *X*X*X*X",
"*X*X*X*X*X*X*X      r.r.r.e.r.r.i.y.y.Y.G.G.J.P.P.P.P.P.P.Y.> t t t t y t t t P.P.P.e.r.t t t : s.L.P.L.L.r.e.r.4.4.6.6.6.4.4.4.4.6.w.e.r.e.e.e.t.G.G.s.G.G.s.i.u.r.      g g 2 C.Z.Z.    o k j h ; - ; .     . . + 8 8 U U U U U U U l z z k j j       *X*X*X*X",
"*X*X*X*X*X*X*X      w.w.6.e.u.u.t.t.e.u.r.u.J.J.Y.J.J.Y.J.T.1 8 t t t t t t : l.s.G.y y t t t t G.L.s.s.p.e.e.e.e.e.e.r.7.r.u.t.y.p.G.i.G.p.G.G.G.G.G.s.e.e.e.e.e.4.      N N N M M M     . l U z 8 w 1 ; ; ; ; 8 8 8 e E U U U U U U k U l d h h X     *X*X*X*X",
"*X*X*X*X*X*X*X      6.6.w.u.e.t.e.u.u.u.t.u.Y.J.Y.Y.Y.J.J.J.: t t t t > t t t P.s.s.t y t t t t L.L.s.a.a.7.e.e.e.7.e.e.e.e.u.r.e.p.i.G.i.p.G.G.s.G.G.G.w.e.e.e.e.6.      M N M M M N     . U U z w w ; ; 8 ; ; ; 8 9 e U U U M U U U U l U h h k       *X*X*X*X",
"*X*X*X*X*X*X*X      6.4.w.u.u.u.r.u.u.t.t.u.J.Y.G.J.Y.E.P.L.* t : t t t t t t T.P.J.t f t t t t T.Y.P.s.d.u.i.i.u.r.r.r.r.r.u.r.y.G.G.G.p.G.G.J.G.G.G.G.5.e.e.e.e.w.      v v v m m N     X l l l w w w ; ; 8 ; ; 8 8 8 U U U U U k U U U U h d j       *X*X*X*X",
"*X*X*X*X*X*X*X      Q ! Q e.y.y.r.u.u.e.t.u.Y.J.J.Y.K.J.Y.P.i.i.a.f t t t : t t t : t t t t t t t : : = = t t > = : t i.i.u.p.p.G.y.y.y.y.! 7.e.y.7.e.7.7.e.e.w.w.e.    X K.~.Z.q.q.M.    . U l l e w e d d d d w h U U U U U U U U U U U U w w w       *X*X*X*X",
"*X*X*X*X*X*X*X      ! ! Q e.u.r.r.u.r.u.r.t.J.Y.P.P.P.L.P.P.i.t.u.f t t t t t t t t t t t > > > t t t t > t > t = t t i.i.i.a.a.u.u.y.e.7.y.w.w.5.e.e.e.e.w.e.e.6.e.      q.n.n.0.9.0.    o U U l e e e d d d d u k U U U U U U U U U U n U w w e       *X*X*X*X",
"*X*X*X*X*X*X*X      ! Q Q r.r.t.t.r.u.y.r.u.J.Y.P.L.P.P.L.P.i.i.i.s > > > > t t t t t t t > t > t t : t > t t = t t t r.u.i.p.s.G.e.y.u.e.e.e.e.7.7.e.7.e.w.e.! 6.e.      Z ~ ~ ~ ~ 9.    o U l M e e w d h d d d l U U U U U U U U U U U G w 9 9       *X*X*X*X",
"*X*X*XC       ! 2.2.z l z w.e.e.u.u.u.t.r.r.G.J.J.P.P.P.L.P.i.i.u.i.a.a.* t t t t t t t t t t t t t t : > t > t t : : $ * $ 7.e.e.e.w.e.e.e.e.w.e.7.e.e.e.e.e.6.6.4.w 8                   h U U U 9 e 9 U B W E E E U U U U U U U U U k v U 8 9 8       *X*X*X*X",
"*X*X*XC       Q W Q z z z e.e.e.e.u.u.r.u.r.J.J.G.P.P.P.L.L.t.i.i.i.i.i.: t t t t > t > > t t t t t t = t t t = > t > = > : 7.e.w.e.w.e.7.e.e.e.e.e.e.e.e.7.w.6.4.4.; 8 .               4 9 U U U e 9 9 U z E E U U U M U U U U U U U j k k 8 8 8       *X*X*X*X",
"*X*X*XA       W Q Q z z U e.e.e.t.u.u.y.u.e.s.P.P.P.P.J.J.G.G.t.i.i.i.u.* t t t : t t t t t t t : t t t t : t t : t = t = : e.w.e.w.e.e.w.w.e.e.e.e.w.w.e.e.7.4.6.4.8 8 +             + 8 e U U l e d e E E l E E U U U U U U U E U U l l k w w w       *X*X*X*X",
"*X*X*XC       ! ! Q z z z 7.e.e.e.e.t.u.u.u.P.P.P.G.J.J.G.G.u.t.i.i.i.u.* t t t : t t t t t t * : > t : t t : t t : : : > : e.e.! e.e.e.e.e.w.e.e.e.e.e.e.w.e.w.w.6.w 6 8       . . . w w e M l l w w e E l E E M U U U U U U U z U U l l k 8 8 e       $X*X*X*X",
"*X*X*XC       4.5.4.U U U Q W Q i.u.u.u.u.e.L.P.P.s.u.u.i.t.i.i.i.i.i.i.i.i.i.i.t.t.t t t t t t u.i.i.e.e.: t = t > t : : t t t 8 e.e.e.e.e.e.e.e.w.e.e.e.e.e.w.w.6.l U z w 9 w 8 8 4 U l k k k j h j h E E U U U U U U U U U l l z U d d e w w w       A *X*X*X",
"*X*X*XC       4.6.7.U U U W Q Q e.u.e.u.u.e.P.P.J.H.u.u.u.i.i.t.u.i.i.u.i.i.i.i.i.t.* t t t t t i.i.r.e.e.: > > = t : t : t : : ; e.e.w.7.w.e.e.e.w.e.e.w.e.e.w.4.6.M U E e w 8 8 8 8 j l k k j k k k k E l E E U U U U U U U U z z U d e e w w w       A *X*X*X",
"*X*X*XC       4.4.7.W U W Q Q W y.e.e.e.r.r.P.L.L.s.i.r.u.u.i.i.u.i.i.i.i.i.i.i.i.t.: t t t t t i.i.e.e.e.: * > t : : t : = t : ; w.7.e.e.e.e.e.e.e.e.e.e.e.e.w.4.4.l B U e e w 6 8 8 U U l k j k l k l U U E U U E U U M U U U E l M u e e w 9 e       A *X*X*X",
"*X*X*Xb       W E W e.7.7.Q W Q ! Q Q t.e.e.Y.P.L.L.G.s.G.r.i.i.i.i.i.i.i.i.u.u.t.i.= t : t t t e.w.e.e.e.4.4.4.: = t : : t : : > e.e.e.e.w.7.e.w.w.w.e.w.e.e.Q ! Q ! ! Q l l z U U l M l k k k l ! Q Q U U U U U U U U U U U k e e 9 h d e ; 1 ; w w e ;     X ",
"*X*X*XC       W W W e.e.e.Q W Q Q Q ! e.e.e.Y.L.L.L.L.s.p.u.t.u.a.u.u.i.i.u.t.u.t.i.: t t t : t 7.e.e.e.w.4.7.4.* : t t : : t t > e.w.e.e.e.e.e.e.e.w.w.e.e.e.Q Q ! Q Q Q l l z U M U l U j k l U Q Q Q U U U U U U U U U U U j h e e e e d w ; ; d e d ;       ",
"*X*X*XC       E W E 7.e.e.Q W W Q Q ! e.7.7.P.L.L.G.s.s.6.> > 1 t t t > i.u.i.u.i.i.: t : t : : e.e.e.e.e.7.4.7.: t : = t t : = > w.e.e.w.e.e.e.e.e.e.e.e.e.e.Q Q ! Q Q W l z l l l U U U U Q ! Q Q Q Q U E U U U U U U U U U h e d e e e d ; 8 ; d d d ;       ",
"*X*X*XC       E W W e.7.7.W Q Q ! Q Q e.w.e.J.Y.J.G.G.G.4.> > > t t = : i.i.i.r.u.u.= t * t : t e.e.e.e.e.6.6.6.: t t : : t t : > w.e.e.e.e.7.w.e.e.w.e.e.e.7.! ! ! W W ~ U U U l U U l M Q ! ! Q W Q ! E U M U U U U U E E E k e e d e d d 8 < 8 d e d #       ",
"*X*X*XV       W Q Q E E W 7.e.7.W Q Q w.4.4.J.J.Y.J.J.G.w.t t t t : t : u.u.i.u.u.r.= t t t t t e.e.e.w.e.w.6.4.* t : > t : : t > e.e.w.e.w.e.e.e.e.7.e.e.e.e.W Q W Q W W Q Q Q W W E U U Q ! ! ! 5.5.7.W E U U U U U U e e e d d e d d e e 8 8 8 h j h ;       ",
"*X*X*XC       Q Q W E W W 7.7.7.Q Q Q 6.4.4.y.e.r.i.G.G.4.t t t = t t t % $ * r.e.r.* t * t * t 6.e.e.r.e.* % $ : t t : : t t : > e.e.w.e.e.w.e.e.e.e.e.W Q W W Q Q W Q Q ! Q Q e.y.y.y.u.t.e.e.7.7.e.y.W E E U U l U U e d d d e d d e e e 1 8 8 h h h ;       ",
"*X*X*XC       ! Q W E E E 7.7.5.Q Q Q 4.4.4.u.e.e.G.G.G.2.: t t t t t t t t t r.r.7.$ t t t t t 7.e.e.e.e.: : t : t t : t : : > > e.e.e.e.e.e.e.w.e.e.7.E W Q Q W Q Q Q Q Q Q Q y.u.u.e.y.e.y.e.y.7.7.5.E W E U U U M E h d d d d e d d e e 8 8 8 k j j 8       ",
"*X*X*XC       W Q Q W E E 5.e.y.! Q W 4.6.4.y.e.r.i.L.L.2.t t t t t t t t t t r.7.7.$ : t t t t e.r.r.7.e.* : : t : t : : t : : > e.e.e.w.e.e.e.e.r.e.e.E W Q Q Q Q Q W Q Q Q Q u.u.e.r.e.e.e.y.y.7.7.5.E E E U l U l U d e d e d d d d d e 8 8 w j k j 8       ",
"*X*X*XC       e.e.y.Q ! ! E U U Q Q Q w.w.w.7.7.6.r.r.t.2.t t t t t : = = t : s f f * t * t : t f f f f f t t t : t t t t > : * : e.e.e.w.e.w.e.e.! ! ! W Q Q W W Q Q Q Q w.e.e.u.u.u.u.u.e.e.e.7.Q Q W U E E U U U h d r d d d d e d e d e l l j l l E 8       ",
"*X*X*XC       e.y.u.! ! ! M U U Q Q ! r.w.w.7.7.6.7.e.t.e.w.* t = : = : = t = : : : : * : : : : = = t = t : t t t : : t > : 2.4.3.w.e.e.e.e.e.w.e.W Q W W Q W W W Q Q ! Q e.r.r.u.u.u.i.i.e.e.e.6.Q Q Q U l l U U U h h e d e d d d e d g e l l l l l l 4       ",
"*X*X*XC   X   u.e.u.3.! ! U U U ! Q W w.w.7.w.w.7.w.e.e.e.w.* t : t t = : : t > t * t = : t t : t = = t : t : : : t : t t > 2.2.4.w.e.e.e.e.e.e.w.W W W Q Q W Q Q Q Q Q Q e.r.r.u.i.i.u.u.e.e.e.4.Q Q ! U U U U U l j j e d d d d d d d d d l l l l l l ;       ",
"      n e.u.e.d.s.s.! 4.6.E U U E U U 4.w.7.7.6.7.e.e.e.7.w.* * $ : > > : > > > = > > : = : : = : : t : t : = t > > > : t t 6.4.! e.e.e.y.e.y.q.w.Q Q Q W W Q Q Q Q E Q ! u.y.u.u.i.i.i.y.Q Q ! ! E U U U U U l M k d h e d e d e d e d d d z l l h h d -       ",
"      k 7.7.5.s.s.G.5.7.w.E U U U U U 5.7.w.w.w.6.7.w.6.6.6.6.4.4.y : : : : : : : : : > : : : : : : = : * : : : = = : 3.4.6.e.e.y.e.e.e.e.e.W W Q W W Q W Q Q W Q W e.e.y.u.u.u.i.i.u.e.e.W Q Q W U U M U U U k k d d d d d d d d d d d d d z z l e d d -       ",
"      l 7.7.4.s.G.J.7.5.7.U U U U U E 6.7.7.w.7.w.6.w.6.6.6.6.6.4.w : : : : : : : : : : = : : : : : : : : : : : = = w ! 4.4.e.e.e.e.y.y.e.e.Q Q Q Q W W Q W Q Q Q Q e.e.e.u.i.i.u.u.y.e.e.Q Q W W U U E U U U k k h d d e d d d d d d d d d z l l w e e - .     ",
"      l e.7.5.s.J.J.5.5.5.U U U U E E ! w.w.w.7.w.e.6.e.6.w.6.4.6.s = : > * : : : * * : : : : : : : : : : : : = > ; 1 ! 6.w.w.e.e.y.y.B.! e.Q Q Q W ~ W W W Q W W ! u.e.r.u.i.i.i.i.i.e.e.Q W E W U U l U U U k k h d d d d d d d d h d d d z l l w w e ; o X   ",
"      h W W U U W U U U U h h d M l k E W E E W W E 6.w.w.w.W E W Q W W e.4.4.e.e.e.% > : : : : e.w.w.e.e.e.e.e.B.y.y.y.e.u.e.u.! e.e.e.E E B E E Q W W Q Q Q e.u.u.i.i.i.i.i.i.4.4.w.W W U U U U U U U l l k e e d d d d d d d d d h < 8 ; d e w       b.*X*X*X",
"      d W U W E E U U E U h d h U k l W W W W W E E 6.6.6.w.Q W W W E W w.6.4.w.e.e.* > > : : * 5.7.7.7.6.6.6.7.! u.y.! e.! e.! y.! ! w.W E U U E W Q Q Q ! W y.y.y.i.i.i.i.u.y.5.5.7.W U U U U l U U U l k l e d d d d d d d d e d h ; ; ; w e e       b.*X*X*X",
"      8 U U W U E E E U U h d d U l l W Q W W W W E w.6.6.w.W W E E W E 7.6.6.w.w.e.: : = : = = w.7.w.w.7.w.7.7.e.! e.e.! u.e.e.u.! e.e.W E E E E W W W W W ! y.y.y.i.i.p.u.i.u.7.7.7.W W U U U U U U U l k k e g d d d d d d d d d d ; ; ; d e d       b.*X*X*X",
"      9 W W W W E U E U U d e e U l U W W W W W E E 4.w.6.4.E E W W E E 4.6.6.w.w.e.: : * : = > 4.w.7.6.7.7.6.6.e.y.! y.! e.y.! e.e.e.! E E E E E E Q ! W W ! u.y.y.i.i.p.i.u.u.w.w.4.W E U l l U U U M k l l d d h d d d d d d d d e ; ; ; d e d       A *X*X*X",
"      8 k j k d d 8 Q ! ! Q E Q 8 9 w k l l l l l l W W W E E E W E E E E E E W Q Q % % * * * % U Q W W Q W W W W W W W W W E W W W W W W W W W W 4.w.w.y.u.y.e.y.e.e.e.e.W W W U U U U l U U U U h e e e h h U U k d d d d d g ; ; ; - ; ; w w 8       D.*X*X*X",
"      8 k k k d d d ! ! Q E W E 9 8 8 k l l l l l l W E E W E E E E E E E E E W Q Q W U Q U Q U Q Q Q W W W Q W W W W W W W W W W W W W W W W W W w.! 6.y.u.t.e.e.u.u.! w.W W W U B U l U l l U U e h e d h h U U k d d d d d d ; ; ; ; ; ; w w w       D.*X*X*X",
"      8 j k j w 9 d ! ! ! W E E 1 8 w l l l l l l l E E E E W E E E E E U W E Q U Q U U Q Q U Q W Q W W W W Q W W W W W W W W W W W W W W ~ W W W w.e.7.u.y.u.u.y.e.e.e.! U W E z z U z U U U U l h e e h u h U U k e d d d d d ; ; ; ; ; ; 8 8 8 X     D.*X*X*X",
"*X*X*XC       e e 9 j k k U U U k j k h e w 8 8 8 ; l l l l l l l h e e e e e U U U U U U Q Q Q W W W W W W W W W W W W W W W W W W Q W ! ! G.p.G.e.e.y.w.y.! W E U U W Q U M U z z z l h h u h h U U U U U U M U l e d d d d e ; ; 8             *X*X*X*X*X*X*X",
"*X*X*XC       e e 9 j k k U U U l j k d e e ; 8 8 ; l l l l l l l d e e e h e l M U U U W E W W W Q W W W W E W E W W W W W Q W W W W W ! ! p.p.G.e.e.e.w.w.! Q W W E E W U U U z z z k k h h d d U U U U l E z M l d d d d d d - ; ;             *X*X*X*X*X*X*X",
"*X*X*XC       w e 9 k k j U U U k l j d d d ; ; ; 8 l l l l l l l d d d e e e l l l l U W W W W W W W Q W W W E W W W W W W W W W W W Q 4.4.G.s.G.e.y.e.w.w.w.W W W E E E U U U z z z k k d h d d l l U U U l U U k d d d d d d ; ; ;             *X*X*X*X*X*X*X",
"*X*X*Xb       d d d U l l U U U l l l h h d ; ; 8 8 l l l U l l k d e e e e e U l z l E Q Q W W W W W W W E W W W W E W W W W W W Q E W ! 6.J.s.G.u.u.y.! y.e.W W E E E W U U U U z U l k h h h h l U U U U U W U k d d d d h h ; ; ;             *X*X*X*X*X*X*X",
"*X*X*X*X*X*X*X                                - - ; e e e e e e e d d e d e e e e e d e j j j z l U U l l E U z W W W W W W ~ W Q w.e.7.7.e.! ! W U E U W W E U U n k k k 8 8 ; w d h h d l z z l k j j 8 8 8 4 ; ; ; ; w ; ; O       *X*X*X*X*X*X*X*X*X*X*X*X*X",
"*X*X*X*X*X*X*X                                - - ; d w e e w d d d d e e e e e d e e w h h k z z z z z l U U U W W W W W W W W E w.e.e.7.e.! ! ! E E E E E E l U U h j k 8 8 8 8 h h h d l z l l k j h ; w 8 ; ; ; ; 8 ; ; ; .       *X*X*X*X*X*X*X*X*X*X*X*X*X",
"*X*X*X*X*X*X*X                                ; ; - d w w w d d e d d e s w e d e e w e h j j z z l z z U l U M E W W W W W W W W w.7.e.7.e.! ! Q E E E E E U M k U U k k ; 8 8 8 h h h h U z z z k k j w 8 8 ; ; ; 8 ; 8 ; ; X       *X*X*X*X*X*X*X*X*X*X*X*X*X",
"*X*X*X*X*X*X*X*X*X*X*X*X*X*X*X*X*X*X*X*X*X*X*XX           . 8 e e e e w d d d w d d d d f d d l k k k k l l l k W W Q Q W E E W W ! Q Q Q Q Q Q W E W W U l l k k j d h h 8 8 8 8 h x d h k k h j e d e ; - ; ; ; - ; ;       b.*X*X*X*X*X*X*X*X*X*X*X*X*X*X*X*X",
"*X*X*X*X*X*X*X*X*X*X*X*X*X*X*X*X*X*X*X*X*X*X*X                    # ; < d d d d s w d w d w w w w w d d w 9 e e M l l l l l k l l l l k k l l k l l l l d d d w 8 8 8 8 w w r w 8 w 8 8 1 w w w w 1 ; ; ; ; ;                 m.*X*X*X*X*X*X*X*X*X*X*X*X*X*X*X*X",
"*X*X*X*X*X*X*X*X*X*X*X*X*X*X*X*X*X*X*X*X*X*X*X                    # ; 8 d d e d e w e e e w w w w w e e e w e e l l k l k l k l l l k l l k l k l l k k d d h w 8 8 8 8 8 8 w 8 8 w w w 8 w w 8 8 8 ; 8 ; - ;                 A.*X*X*X*X*X*X*X*X*X*X*X*X*X*X*X*X",
"*X*X*X*X*X*X*X*X*X*X*X*X*X*X*X*X*X*X*X*X*X*X*XX X X   X X X       # ; 1 d e d e e e e e e w w w d s e e e w e d l k l k l l l k k l k k k l k k l k k k d d h w 8 8 8 8 8 w 8 8 w w w w 8 8 8 w 8 ; ; 8 ; - -           X   X A.*X*X*X*X*X*X*X*X*X*X*X*X*X*X*X*X",
"*X*X*X*X*X*X*X*X*X*X*X*X*X*X*X*X*X*X*X*X*X*X*X*X*X*X*X*X*X*X*X*X*X2                                 - < 8 ; 4 8 ; ; ; 8 ; 8 < 8 8 ; ; 8 8 8 8 8 8 ; < 8 w w 8 8 8 8 8 8 r w ; ; ;                             *X*X*X*X*X*X*X*X*X*X*X*X*X*X*X*X*X*X*X*X*X*X*X*X*X",
"*X*X*X*X*X*X*X*X*X*X*X*X*X*X*X*X*X*X*X*X*X*X*X*X*X*X*X*X*X*X*X*X*Xx                                 ; ; ; 8 1 1 ; ; ; ; 8 ; ; 8 ; 8 ; 8 ; 8 1 8 ; 8 ; 8 8 8 ; 8 8 8 8 8 8 w ; ; - X                           *X*X*X*X*X*X*X*X*X*X*X*X*X*X*X*X*X*X*X*X*X*X*X*X*X",
"*X*X*X*X*X*X*X*X*X*X*X*X*X*X*X*X*X*X*X*X*X*X*X*X*X*X*X*X*X*X*X*X*Xx                                 < ; ; ; ; ; 8 ; ; ; 8 ; 8 ; ; 8 ; 8 ; 8 ; 8 ; 8 ; 8 8 ; 8 8 8 8 8 8 w w ; ; ,                             *X*X*X*X*X*X*X*X*X*X*X*X*X*X*X*X*X*X*X*X*X*X*X*X*X",
"*X*X*X*X*X*X*X*X*X*X*X*X*X*X*X*X*X*X*X*X*X*X*X*X*X*X*X*X*X*X*X*X*XA 2 x x r r r x r r x x x x 2 r x # + + + - - - - # + + # # - # + - - # - # + - - - # - + - - # - - # # - + O # x x r x x x x x 2 r x r x x *X*X*X*X*X*X*X*X*X*X*X*X*X*X*X*X*X*X*X*X*X*X*X*X*X",
"*X*X*X*X*X*X*X*X*X*X*X*X*X*X*X*X*X*X*X*X*X*X*X*X*X*X*X*X*X*X*X*X*X*X*X*X*X*X*X*X*X*X*X*X*X*X*X*X*X*X                                                                              *X*X*X*X*X*X*X*X*X*X*X*X*X*X*X*X*X*X*X*X*X*X*X*X*X*X*X*X*X*X*X*X*X*X*X*X*X*X*X",
"*X*X*X*X*X*X*X*X*X*X*X*X*X*X*X*X*X*X*X*X*X*X*X*X*X*X*X*X*X*X*X*X*X*X*X*X*X*X*X*X*X*X*X*X*X*X*X*X*X*X                                                                              *X*X*X*X*X*X*X*X*X*X*X*X*X*X*X*X*X*X*X*X*X*X*X*X*X*X*X*X*X*X*X*X*X*X*X*X*X*X*X",
"*X*X*X*X*X*X*X*X*X*X*X*X*X*X*X*X*X*X*X*X*X*X*X*X*X*X*X*X*X*X*X*X*X*X*X*X*X*X*X*X*X*X*X*X*X*X*X*X*X*X    X                                                                   X     *X*X*X*X*X*X*X*X*X*X*X*X*X*X*X*X*X*X*X*X*X*X*X*X*X*X*X*X*X*X*X*X*X*X*X*X*X*X*X"
};
