/* XPM */
static const char *enemy_floor3_red_guard_death_f00[] = {
/* columns rows colors chars-per-pixel */
"64 64 56 1",
"! c None",
"# c #A0A0A0",
"$ c #5C5C5C",
"% c #000000",
"& c #6C6C6C",
"' c #7C7C7C",
"( c #201408",
") c #684018",
"* c #94602C",
"+ c #B08458",
", c #C4A080",
"- c #805424",
". c #5C340C",
"/ c #A8784C",
"0 c #A06C3C",
"1 c #8C8C8C",
"2 c #C01064",
"3 c #D0B094",
"4 c #CC3880",
"5 c #880444",
"6 c #C01010",
"7 c #AC0C58",
"8 c #98084C",
"9 c #C4C824",
": c #640030",
"; c #008C8C",
"< c #78E0E0",
"= c #005C5C",
"> c #500024",
"? c #007474",
"@ c #00A4A4",
"A c #00BCBC",
"B c #10C0C0",
"C c #40D0D0",
"D c #5CD8D8",
"E c #3C3C3C",
"F c #884404",
"G c #502400",
"H c #C06410",
"I c #CC3838",
"J c #AC0C0C",
"K c #980808",
"L c #700404",
"M c #5C0000",
"N c #200000",
"O c #4C4C4C",
"P c #2C2C2C",
"Q c #CC8038",
"R c #AC580C",
"S c #004444",
"T c #003064",
"U c #002850",
"V c #0C5CAC",
"W c #001C3C",
"X c #C42424",
"Y c #3C001C",
"!!!!!!!!!!!!!!!!!!!!!!!!!!!!!!!!!!!!!!!!!!!!!!!!!!!!!!!!!!!!!!!!",
"!!!!!!!!!!!!!!!!!!!!!!!!!!!!!!!!!!!!!!!!!!!!!!!!!!!!!!!!!!!!!!!!",
"!!!!!!!!!!!!!!!!!!!!!!!!!!!!!!!!!!!!!!!!!!!!!!!!!!!!!!!!!!!!!!!!",
"!!!!!!!!!!!!!!!!!!!!!!!!!!!!!!!!!!!!!!!!!!!!!!!!!!!!!!!!!!!!!!!!",
"!!!!!!!!!!!!!!!!!!!!!!!!!!!!!!!!!!!!!!!!!!!!!!!!!!!!!!!!!!!!!!!!",
"!!!!!!!!!!!!!!!!!!!!!!!!!!!!!!!!!!!!!!!!!!!!!!!!!!!!!!!!!!!!!!!!",
"!!!!!!!!!!!!!!!!!!!!!!!!!!!!!!!!!!!!!!!!!!!!!!!!!!!!!!!!!!!!!!!!",
"!!!!!!!!!!!!!!!!!!!!!!!!!!!!!!!!!!!!!!!!!!!!!!!!!!!!!!!!!!!!!!!!",
"!!!!!!!!!!!!!!!!!!!!!!!!!!!!!!!!#!!!!!!!!!!!!!!!!!!!!!!!!!!!!!!!",
"!!!!!!!!!!!!!!!!!!!!!!!!!!!!!!!!$!!!!!!!!!!!!!!!!!!!!!!!!!!!!!!!",
"!!!!!!!!!!!!!!!!!!!!!!!!!!%%%%%%&!!!!!!!!!!!!!!!!!!!!!!!!!!!!!!!",
"!!!!!!!!!!!!!!!!!!!!!!!!!%%%%%%%'%!!!!!!!!!!!!!!!!!!!!!!!!!!!!!!",
"!!!!!!!!!!!!!!!!!!!!!!!!()()**)%'%%!!!!!!!!!!!!!!!!!!!!!!!!!!!!!",
"!!!!!!!!!!!!!!!!!!!!!!!!)+,,,+*%'%%!!!!!!!!!!!!!!!!!!!!!!!!!!!!!",
"!!!!!!!!!!!!!!!!!!!!!!!!-./.%%+%'%%!!!!!!!!!!!!!!!!!!!!!!!!!!!!!",
"!!!!!!!!!!!!!!!!!!!!!!!!)**-.-*%%%%!!!!!!!!!!!!!!!!!!!!!!!!!!!!!",
"!!!!!!!!!!!!!!!!!!!!!!!!-/,/,,+$%&%!!!!!!!!!!!!!!!!!!!!!!!!!!!!!",
"!!!!!!!!!!!!!!!!!!!!!!!!-,+,0//%%%%!!!!!!!!!!!!!!!!!!!!!!!!!!!!!",
"!!!!!!!!!!!!!!!!!!!!!!!!0**0/0-(%%!!!!!!!!!!!!!!!!!!!!!!!!!!!!!!",
"!!!!!!!!!!!!!!!!!!!!!!!!/)1#./*)*-!!!!!!!!!!!!!!!!!!!!!!!!!!!!!!",
"!!!!!!!!!!!!!!!!!!!!!!!!*-%(-0-*/*!!!!!!!!!!!!!!!!!!!!!!!!!!!!!!",
"!!!!!!!!!!!!!!!!!!!!!!!!2+3+/0-//42!!!!!!!!!!!!!!!!!!!!!!!!!!!!!",
"!!!!!!!!!!!!!!!!!!!2442256-))-*+02522442!!!!!!!!!!!!!!!!!!!!!!!!",
"!!!!!!!!!!!!!!!!!!278727587600/*785727872!!!!!!!!!!!!!!!!!!!!!!!",
"!!!!!!!!!!!!!!!!!2788887858777778587888872!!!!!!!!!!!!!!!!!!!!!!",
"!!!!!!!!!!!!!!!!!2888858885587855999588882!!!!!!!!!!!!!!!!!!!!!!",
"!!!!!!!!!!!!!!!!4288558888888588:9998558824!!!!!!!!!!!!!!!!!!!!!",
"!!!!!!!!!!!!!!!2885:5:58;<===<88:::85:5:5882!!!!!!!!!!!!!!!!!!!!",
"!!!!!!!!!!!!!!!27885:>:588?8?8588885:5:58852!!!!!!!!!!!!!!!!!!!!",
"!!!!!!!!!!!!!!2888855>5:>@@@@@@ABCD<5>5588882!!!!!!!!!!!!!!!!!!!",
"!!!!!!!!!!!!!!27EE%%>>8:;AAFGFGFGF?;<H<<II6JKLMNCC!!!!!!!!!!!!!!",
"!!!!!!!!!!!!!27EOEP%%>58?;AQRQRQRQF?AQ;;II6JKLMN@@;!!!!!!!!!!!!!",
"!!!!!!!!!!!!!25EOOE%O%%SS?;@@@@@@SSTASSS%PPP5!!!!!!!!!!!!!!!!!!!",
"!!!!!!!!!!!!!!:%PE%EEOS=?SS;;>::>>=UA====PEP:!!!!!!!!!!!!!!!!!!!",
"!!!!!!!!!!!!!!!%@%EOPEO=SS::::5585:TVEO$OEP%!!!!!!!!!!!!!!!!!!!!",
"!!!!!!!!!!!!!!!!?%PEOP%S=:5::>::555WTOOOP%%!!!!!!!!!!!!!!!!!!!!!",
"!!!!!!!!!!!!!!!!S;%PP%>>:5855:58858WTPPEO%!!!!!!!!!!!!!!!!!!!!!!",
"!!!!!!!!!!!!!!!!!;@%%%%%%%%#%E%#%%%TVEOOE!!!!!!!!!!!!!!!!!!!!!!!",
"!!!!!!!!!!!!!!!!!=?!!X%%%%%'%%%'%%%%%P%%!!!!!!!!!!!!!!!!!!!!!!!!",
"!!!!!!!!!!!!!!!!!!!!!%%%%%%$%%%$%%%%%%%%!!!!!!!!!!!!!!!!!!!!!!!!",
"!!!!!!!!!!!!!!!!!!!!!%%%%>55888555:%%%%5!!!!!!!!!!!!!!!!!!!!!!!!",
"!!!!!!!!!!!!!!!!!!!!!!2885:55555:5588872!!!!!!!!!!!!!!!!!!!!!!!!",
"!!!!!!!!!!!!!!!!!!!!!277885>585>58887784!!!!!!!!!!!!!!!!!!!!!!!!",
"!!!!!!!!!!!!!!!!!!!!!47885::>>>::5888884!!!!!!!!!!!!!!!!!!!!!!!!",
"!!!!!!!!!!!!!!!!!!!!!4878885:Y:588888882!!!!!!!!!!!!!!!!!!!!!!!!",
"!!!!!!!!!!!!!!!!!!!!27855885:Y:558887772!!!!!!!!!!!!!!!!!!!!!!!!",
"!!!!!!!!!!!!!!!!!!!!47888855>Y>588788872!!!!!!!!!!!!!!!!!!!!!!!!",
"!!!!!!!!!!!!!!!!!!!!2878888:>Y>:888887872!!!!!!!!!!!!!!!!!!!!!!!",
"!!!!!!!!!!!!!!!!!!!28888888:Y!Y:588888882!!!!!!!!!!!!!!!!!!!!!!!",
"!!!!!!!!!!!!!!!!!!!47888885:Y!Y>:55888874!!!!!!!!!!!!!!!!!!!!!!!",
"!!!!!!!!!!!!!!!!!!!4855885::>!!Y588888872!!!!!!!!!!!!!!!!!!!!!!!",
"!!!!!!!!!!!!!!!!!!!28877885>!!!YY:5888882!!!!!!!!!!!!!!!!!!!!!!!",
"!!!!!!!!!!!!!!!!!!!288885:::>!!Y:58555872!!!!!!!!!!!!!!!!!!!!!!!",
"!!!!!!!!!!!!!!!!!!!!2888885:>!!Y>58888882!!!!!!!!!!!!!!!!!!!!!!!",
"!!!!!!!!!!!!!!!!!!!!585885:>%!!!Y:588858!!!!!!!!!!!!!!!!!!!!!!!!",
"!!!!!!!!!!!!!!!!!!!!%Y>:::>P%!!!%Y>:::>%!!!!!!!!!!!!!!!!!!!!!!!!",
"!!!!!!!!!!!!!!!!!!!!!%PPPPP%!!!!%PPPPPP%!!!!!!!!!!!!!!!!!!!!!!!!",
"!!!!!!!!!!!!!!!!!!!!!%PEOOE%!!!!%PPEEP%!!!!!!!!!!!!!!!!!!!!!!!!!",
"!!!!!!!!!!!!!!!!!!!!!!%PPPEP%!!!!%EOOE%!!!!!!!!!!!!!!!!!!!!!!!!!",
"!!!!!!!!!!!!!!!!!!!!!%EOOEPP%!!!!%PPPP%!!!!!!!!!!!!!!!!!!!!!!!!!",
"!!!!!!!!!!!!!!!!!!!!%PPEEEPP%!!!%PEEOEP%!!!!!!!!!!!!!!!!!!!!!!!!",
"!!!!!!!!!!!!!!!!!!!%PEEOOEP%!!!!%PPPEEE%!!!!!!!!!!!!!!!!!!!!!!!!",
"!!!!!!!!!!!!!!!!!!!%PPEEPP%!!!!!!%PEOOEP%!!!!!!!!!!!!!!!!!!!!!!!",
"!!!!!!!!!!!!!!!!!!!!%%%%%%!!!!!!!%%%%%%%%!!!!!!!!!!!!!!!!!!!!!!!"
};