/* XPM */
static const char *enemy_floor3_red_guard_death_f01[] = {
/* columns rows colors chars-per-pixel */
"64 64 57 1",
"! c None",
"# c #A0A0A0",
"$ c #5C5C5C",
"% c #000000",
"& c #6C6C6C",
"' c #7C7C7C",
"( c #684018",
") c #94602C",
"* c #A06C3C",
"+ c #B08458",
", c #C4A080",
"- c #A8784C",
". c #5C340C",
"/ c #00003C",
"0 c #E4C098",
"1 c #805424",
"2 c #BCBCBC",
"3 c #C01064",
"4 c #CC3880",
"5 c #D0B094",
"6 c #880444",
"7 c #AC0C58",
"8 c #98084C",
"9 c #C4C824",
": c #640030",
"; c #008C8C",
"< c #78E0E0",
"= c #005C5C",
"> c #500024",
"? c #007474",
"@ c #00A4A4",
"A c #00BCBC",
"B c #10C0C0",
"C c #40D0D0",
"D c #5CD8D8",
"E c #3C3C3C",
"F c #884404",
"G c #502400",
"H c #C06410",
"I c #CC3838",
"J c #C01010",
"K c #AC0C0C",
"L c #980808",
"M c #700404",
"N c #5C0000",
"O c #200000",
"P c #4C4C4C",
"Q c #2C2C2C",
"R c #CC8038",
"S c #AC580C",
"T c #004444",
"U c #003064",
"V c #002850",
"W c #0C5CAC",
"X c #001C3C",
"Y c #C42424",
"Z c #3C001C",
"!!!!!!!!!!!!!!!!!!!!!!!!!!!!!!!!!!!!!!!!!!!!!!!!!!!!!!!!!!!!!!!!",
"!!!!!!!!!!!!!!!!!!!!!!!!!!!!!!!!!!!!!!!!!!!!!!!!!!!!!!!!!!!!!!!!",
"!!!!!!!!!!!!!!!!!!!!!!!!!!!!!!!!!!!!!!!!!!!!!!!!!!!!!!!!!!!!!!!!",
"!!!!!!!!!!!!!!!!!!!!!!!!!!!!!!!!!!!!!!!!!!!!!!!!!!!!!!!!!!!!!!!!",
"!!!!!!!!!!!!!!!!!!!!!!!!!!!!!!!!!!!!!!!!!!!!!!!!!!!!!!!!!!!!!!!!",
"!!!!!!!!!!!!!!!!!!!!!!!!!!!!!!!!!!!!!!!!!!!!!!!!!!!!!!!!!!!!!!!!",
"!!!!!!!!!!!!!!!!!!!!!!!!!!!!!!!!!!!!!!!!!!!!!!!!!!!!!!!!!!!!!!!!",
"!!!!!!!!!!!!!!!!!!!!!!!!!!!!!!!!!!!!!!!!!!!!!!!!!!!!!!!!!!!!!!!!",
"!!!!!!!!!!!!!!!!!!!!!!!!!!!!!!!!!!!#!!!!!!!!!!!!!!!!!!!!!!!!!!!!",
"!!!!!!!!!!!!!!!!!!!!!!!!!!!!!!!!!!!$!!!!!!!!!!!!!!!!!!!!!!!!!!!!",
"!!!!!!!!!!!!!!!!!!!!!!!!!!%%%%%%%!!&!!!!!!!!!!!!!!!!!!!!!!!!!!!!",
"!!!!!!!!!!!!!!!!!!!!!!!!!%%%%%%%%%!'!!!!!!!!!!!!!!!!!!!!!!!!!!!!",
"!!!!!!!!!!!!!!!!!!!!!!!!%())(%())(%'!!!!!!!!!!!!!!!!!!!!!!!!!!!!",
"!!!!!!!!!!!!!!!!!!!!!!!!%*++,,,++*%'!!!!!!!!!!!!!!!!!!!!!!!!!!!!",
"!!!!!!!!!!!!!!!!!!!!!!!!%%()-)-)(%%'!!!!!!!!!!!!!!!!!!!!!!!!!!!!",
"!!!!!!!!!!!!!!!!!!!!!!!!%)./()(/.)%%!!!!!!!!!!!!!!!!!!!!!!!!!!!!",
"!!!!!!!!!!!!!!!!!!!!!!!!)+,,-,-,,+$&!!!!!!!!!!!!!!!!!!!!!!!!!!!!",
"!!!!!!!!!!!!!!!!!!!!!!!!.)-*,0,*-)%%!!!!!!!!!!!!!!!!!!!!!!!!!!!!",
"!!!!!!!!!!!!!!!!!!!!!!!!!-*-)1)-*-%%!!!!!!!!!!!!!!!!!!!!!!!!!!!!",
"!!!!!!!!!!!!!!!!!!!!!!!!!)-.#2#.-)!!!!!!!!!!!!!!!!!!!!!!!!!!!!!!",
"!!!!!!!!!!!!!!!!!!!!!!!!!1*1%%%1*1!!!!!!!!!!!!!!!!!!!!!!!!!!!!!!",
"!!!!!!!!!!!!!!!!!!!!!!!!34)-+5+-)43!!!!!!!!!!!!!!!!!!!!!!!!!!!!!",
"!!!!!!!!!!!!!!!!!!!3443363-1(((1-3633443!!!!!!!!!!!!!!!!!!!!!!!!",
"!!!!!!!!!!!!!!!!!!378737687-,-,-786737873!!!!!!!!!!!!!!!!!!!!!!!",
"!!!!!!!!!!!!!!!!!3788887868777778687888873!!!!!!!!!!!!!!!!!!!!!!",
"!!!!!!!!!!!!!!!!!3888868886687866999688883!!!!!!!!!!!!!!!!!!!!!!",
"!!!!!!!!!!!!!!!!4388668888888688:9998668834!!!!!!!!!!!!!!!!!!!!!",
"!!!!!!!!!!!!!!!3886:6:68;<===<88:::86:6:6883!!!!!!!!!!!!!!!!!!!!",
"!!!!!!!!!!!!!!!37886:>:688?8?8688886:6:68863!!!!!!!!!!!!!!!!!!!!",
"!!!!!!!!!!!!!!3888866>6:>@@@@@@ABCD<6>6688883!!!!!!!!!!!!!!!!!!!",
"!!!!!!!!!!!!!!37EE%%>>8:;AAFGFGFGF?;<H<<IIJKLMNOCC!!!!!!!!!!!!!!",
"!!!!!!!!!!!!!37EPEQ%%>68?;ARSRSRSRF?AR;;IIJKLMNO@@;!!!!!!!!!!!!!",
"!!!!!!!!!!!!!36EPPE%P%%TT?;@@@@@@TTUATTT%QQQ6!!!!!!!!!!!!!!!!!!!",
"!!!!!!!!!!!!!!:%QE%EEPT=?TT;;>::>>=VA====QEQ:!!!!!!!!!!!!!!!!!!!",
"!!!!!!!!!!!!!!!%@%EPQEP=TT::::6686:UWEP$PEQ%!!!!!!!!!!!!!!!!!!!!",
"!!!!!!!!!!!!!!!!?%QEPQ%T=:6::>::666XUPPPQ%%!!!!!!!!!!!!!!!!!!!!!",
"!!!!!!!!!!!!!!!!T;%QQ%>>:6866:68868XUQQEP%!!!!!!!!!!!!!!!!!!!!!!",
"!!!!!!!!!!!!!!!!!;@%%%%%%%%#%E%#%%%UWEPPE!!!!!!!!!!!!!!!!!!!!!!!",
"!!!!!!!!!!!!!!!!!=?!!Y%%%%%'%%%'%%%%%Q%%!!!!!!!!!!!!!!!!!!!!!!!!",
"!!!!!!!!!!!!!!!!!!!!!%%%%%%$%%%$%%%%%%%%!!!!!!!!!!!!!!!!!!!!!!!!",
"!!!!!!!!!!!!!!!!!!!!!%%%%>66888666:%%%%6!!!!!!!!!!!!!!!!!!!!!!!!",
"!!!!!!!!!!!!!!!!!!!!!!3886:66666:6688873!!!!!!!!!!!!!!!!!!!!!!!!",
"!!!!!!!!!!!!!!!!!!!!!377886>686>68887784!!!!!!!!!!!!!!!!!!!!!!!!",
"!!!!!!!!!!!!!!!!!!!!!47886::>>>::6888884!!!!!!!!!!!!!!!!!!!!!!!!",
"!!!!!!!!!!!!!!!!!!!!!4878886:Z:688888883!!!!!!!!!!!!!!!!!!!!!!!!",
"!!!!!!!!!!!!!!!!!!!!37866886:Z:668887773!!!!!!!!!!!!!!!!!!!!!!!!",
"!!!!!!!!!!!!!!!!!!!!47888866>Z>688788873!!!!!!!!!!!!!!!!!!!!!!!!",
"!!!!!!!!!!!!!!!!!!!!3878888:>Z>:888887873!!!!!!!!!!!!!!!!!!!!!!!",
"!!!!!!!!!!!!!!!!!!!38888888:Z!Z:688888883!!!!!!!!!!!!!!!!!!!!!!!",
"!!!!!!!!!!!!!!!!!!!47888886:Z!Z>:66888874!!!!!!!!!!!!!!!!!!!!!!!",
"!!!!!!!!!!!!!!!!!!!4866886::>!!Z688888873!!!!!!!!!!!!!!!!!!!!!!!",
"!!!!!!!!!!!!!!!!!!!38877886>!!!ZZ:6888883!!!!!!!!!!!!!!!!!!!!!!!",
"!!!!!!!!!!!!!!!!!!!388886:::>!!Z:68666873!!!!!!!!!!!!!!!!!!!!!!!",
"!!!!!!!!!!!!!!!!!!!!3888886:>!!Z>68888883!!!!!!!!!!!!!!!!!!!!!!!",
"!!!!!!!!!!!!!!!!!!!!686886:>%!!!Z:688868!!!!!!!!!!!!!!!!!!!!!!!!",
"!!!!!!!!!!!!!!!!!!!!%Z>:::>Q%!!!%Z>:::>%!!!!!!!!!!!!!!!!!!!!!!!!",
"!!!!!!!!!!!!!!!!!!!!!%QQQQQ%!!!!%QQQQQQ%!!!!!!!!!!!!!!!!!!!!!!!!",
"!!!!!!!!!!!!!!!!!!!!!%QEPPE%!!!!%QQEEQ%!!!!!!!!!!!!!!!!!!!!!!!!!",
"!!!!!!!!!!!!!!!!!!!!!!%QQQEQ%!!!!%EPPE%!!!!!!!!!!!!!!!!!!!!!!!!!",
"!!!!!!!!!!!!!!!!!!!!!%EPPEQQ%!!!!%QQQQ%!!!!!!!!!!!!!!!!!!!!!!!!!",
"!!!!!!!!!!!!!!!!!!!!%QQEEEQQ%!!!%QEEPEQ%!!!!!!!!!!!!!!!!!!!!!!!!",
"!!!!!!!!!!!!!!!!!!!%QEEPPEQ%!!!!%QQQEEE%!!!!!!!!!!!!!!!!!!!!!!!!",
"!!!!!!!!!!!!!!!!!!!%QQEEQQ%!!!!!%%QEPPEQ%!!!!!!!!!!!!!!!!!!!!!!!",
"!!!!!!!!!!!!!!!!!!!!%%%%%%!!!!!!!%%%%%%%%!!!!!!!!!!!!!!!!!!!!!!!"
};