/* XPM */
static const char *enemy_floor3_red_guard_death_f02[] = {
/* columns rows colors chars-per-pixel */
"64 64 62 1",
"! c None",
"# c #A0A0A0",
"$ c #5C5C5C",
"% c #000000",
"& c #747474",
"' c #848484",
"( c #94602C",
") c #704820",
"* c #A8784C",
"+ c #B08458",
", c #C4A080",
"- c #603814",
". c #805424",
"/ c #700404",
"0 c #980808",
"1 c #AC0C0C",
"2 c #840404",
"3 c #D8BCA8",
"4 c #A06C3C",
"5 c #D86464",
"6 c #989898",
"7 c #C01010",
"8 c #880444",
"9 c #5C0000",
": c #C01064",
"; c #D0B094",
"< c #CC3880",
"= c #480000",
"> c #200000",
"? c #98084C",
"@ c #AC0C58",
"A c #980088",
"B c #C4C824",
"C c #340000",
"D c #740438",
"E c #008C8C",
"F c #78E0E0",
"G c #005C5C",
"H c #500024",
"I c #007474",
"J c #005C00",
"K c #00A4A4",
"L c #00BCBC",
"M c #10C0C0",
"N c #40D0D0",
"O c #5CD8D8",
"P c #4C4C4C",
"Q c #3C3C3C",
"R c #2C2C2C",
"S c #884404",
"T c #502400",
"U c #C06410",
"V c #CC3838",
"W c #CC8038",
"X c #AC580C",
"Y c #004444",
"Z c #043C74",
"[ c #003064",
"] c #0C5CAC",
"^ c #001C3C",
"_ c #C42424",
"` c #3C001C",
"!!!!!!!!!!!!!!!!!!!!!!!!!!!!!!!!!!!!!!!!!!!!!!!!!!!!!!!!!!!!!!!!",
"!!!!!!!!!!!!!!!!!!!!!!!!!!!!!!!!!!!!!!!!!!!!!!!!!!!!!!!!!!!!!!!!",
"!!!!!!!!!!!!!!!!!!!!!!!!!!!!!!!!!!!!!!!!!!!!!!!!!!!!!!!!!!!!!!!!",
"!!!!!!!!!!!!!!!!!!!!!!!!!!!!!!!!!!!!!!!!!!!!!!!!!!!!!!!!!!!!!!!!",
"!!!!!!!!!!!!!!!!!!!!!!!!!!!!!!!!!!!!!!!!!!!!!!!!!!!!!!!!!!!!!!!!",
"!!!!!!!!!!!!!!!!!!!!!!!!!!!!!!!!!!!!!!!!!!!!!!!!!!!!!!!!!!!!!!!!",
"!!!!!!!!!!!!!!!!!!!!!!!!!!!!!!!!!!!!!!!!!!!!!!!!!!!!!!!!!!!!!!!!",
"!!!!!!!!!!!!!!!!!!!!!!!!!!!!!!!!!!!!!!!!!!!!!!!!!!!!!!!!!!!!!!!!",
"!!!!!!!!!!!!!!!!!!!!!!!!!!!!!!!!!!!!!!!!!!!!!!!!!!!!!!!!!!!!!!!!",
"!!!!!!!!!!!!!!!!!!!!!!!!!!!!!!!!!!#!!!!!!!!!!!!!!!!!!!!!!!!!!!!!",
"!!!!!!!!!!!!!!!!!!!!!!!!!!!!!!!!!!$!!!!!!!!!!!!!!!!!!!!!!!!!!!!!",
"!!!!!!!!!!!!!!!!!!!!!!!!!!!!%%%%%%&!!!!!!!!!!!!!!!!!!!!!!!!!!!!!",
"!!!!!!!!!!!!!!!!!!!!!!!!!!!%%%%%%%'%!!!!!!!!!!!!!!!!!!!!!!!!!!!!",
"!!!!!!!!!!!!!!!!!!!!!!!!!!()%)(()%'%%!!!!!!!!!!!!!!!!!!!!!!!!!!!",
"!!!!!!!!!!!!!!!!!!!!!!!!!!*+,,,+(%'%%!!!!!!!!!!!!!!!!!!!!!!!!!!!",
"!!!!!!!!!!!!!!!!!!!!!!!!!!(-*-%%+%'%%!!!!!!!!!!!!!!!!!!!!!!!!!!!",
"!!!!!!!!!!!!!!!!!!!!!!!!!!-((.-.(%%%%!!!!!!!!!!!!!!!!!!!!!!!!!!!",
"!!!!!!!!!!!!!!!!!!!/0!!!!!,*,*,,+$%&%!!!!!!!!!!!!!!!!!!!!!!!!!!!",
"!!!!!!!!!!!!!!!!1!!!20!!0!*3+,4**%%%%!!!!!!!!!!!!!!!!!!!!!!!!!!!",
"!!!!!!!!!!!!!!!!!!!!!2!!!!4((4*4.%%%!!!!!!!!!!!!!!!!!!!!!!!!!!!!",
"!!!!!!!!!!!!!!!!!!!!0!5!!0*-$6-*()(.!!!!!!!!!!!!!!!!!!!!!!!!!!!!",
"!!!!!!!!!!!!!!!!!!!!!!!7!147%8.4.(*(!!!!!!!!!!!!!!!!!!!!!!!!!!!!",
"!!!!!!!!!!!!!!!927!!!0!!!!:+;+*4.**<:!!!!!!!!!!!!!!!!!!!!!!!!!!!",
"!!!!!!!!!!!!!!!!!/9/!92<0787.)).(+4:8::<<:!!!!!!!!!!!!!!!!!!!!!!",
"!!!!!!!!!!!!0/!!!!!7/=>99/1?@744*(@?8@:@?@:!!!!!!!!!!!!!!!!!!!!!",
"!!!!!!!!!!!!!!!0!!!:/9A>=9/7?@@@@@?8?@????@:!!!!!!!!!!!!!!!!!!!!",
"!!!!!!!!!!!!!!!!!!!:19>A>=/088?@?88BBB8????:!!!!!!!!!!!!!!!!!!!!",
"!!!!!!!!!!!!!!920!77?=C>C9/7???8??DBBB?88??:<!!!!!!!!!!!!!!!!!!!",
"!!!!!!!!!!!!!!!!!:??8D0=>=90???8??DDD?8D8D8??:!!!!!!!!!!!!!!!!!!",
"!!!!!!!!!!!!!!!!!:@??7D/70EFGGGF8????8D8D8??8:!!!!!!!!!!!!!!!!!!",
"!!!!!!!!!!!!!0//:????88H87HHIJIDHDDHHD8H88????:!!!!!!!!!!!!!!!!!",
"!!!!!!!!!!!!0/!!:@??88HH?D8KKKKKKLMNOF8HD88??@:!!!!!!!!!!!!!!!!!",
"!!!!!!!!!!!!!!!:@?PQR%AH8?ELLSTSTSTSIEFUFFVV770/9CNN!!!!!!!!!!!!",
"!!!!!!!!!!!!!!!:8QP7Q7AA78IELWXWXWXWSILWEEVV770/9CKKE!!!!!!!!!!!",
"!!!!!!!!!!!!!!!!D%QPQRP%%YYIEKKKKKKYYZLYYY%%Q%D!!!!!!!!!!!!!!!!!",
"!!!!!!!!!!!!!!!!!%RG%QQPYGIYYEED8888G[LGGGG%%%!!!!!!!!!!!!!!!!!!",
"!!!!!!!!!!!!!!!!!!K%QPRQPGYY8DDDDD888Z]QQ$PQ%!!!!!!!!!!!!!!!!!!!",
"!!!!!!!!!!!!!!!!!!I%RQPR%YG8888D88888^ZPPP%%!!!!!!!!!!!!!!!!!!!!",
"!!!!!!!!!!!!!!!!!!YE%RR%%%%%%#%Q%#%%%^ZQQQP%!!!!!!!!!!!!!!!!!!!!",
"!!!!!!!!!!!!!!!!!!!EK%%_%%%%%'%%%'%%%Z]QPPQ!!!!!!!!!!!!!!!!!!!!!",
"!!!!!!!!!!!!!!!!!!!GI!!%%%%%%$%%%$%%%%%%%%!!!!!!!!!!!!!!!!!!!!!!",
"!!!!!!!!!!!!!!!!!!!!!!!%%%%H88???888D%%%%8!!!!!!!!!!!!!!!!!!!!!!",
"!!!!!!!!!!!!!!!!!!!!!!!!?DD8D88888D88?DDD?!!!!!!!!!!!!!!!!!!!!!!",
"!!!!!!!!!!!!!!!!!!!!!!!!@@@?8H8?8H8???@@@:!!!!!!!!!!!!!!!!!!!!!!",
"!!!!!!!!!!!!!!!!!!!!!!!<@??8DDHHHDD8?????<!!!!!!!!!!!!!!!!!!!!!!",
"!!!!!!!!!!!!!!!!!!!!!!!<?@???8D`D8???????:!!!!!!!!!!!!!!!!!!!!!!",
"!!!!!!!!!!!!!!!!!!!!!!:@?88??8D`D88???@@@:!!!!!!!!!!!!!!!!!!!!!!",
"!!!!!!!!!!!!!!!!!!!!!!<@????88H`H8??@???@:!!!!!!!!!!!!!!!!!!!!!!",
"!!!!!!!!!!!!!!!!!!!!!!:?@????DH`HD?????@?@:!!!!!!!!!!!!!!!!!!!!!",
"!!!!!!!!!!!!!!!!!!!!!:???????D`!`D8???????:!!!!!!!!!!!!!!!!!!!!!",
"!!!!!!!!!!!!!!!!!!!!!<@?????8D`!`HD88????@<!!!!!!!!!!!!!!!!!!!!!",
"!!!!!!!!!!!!!!!!!!!!!<?88??8DDH!!`8??????@:!!!!!!!!!!!!!!!!!!!!!",
"!!!!!!!!!!!!!!!!!!!!!:??@@??8H!!!``D8?????:!!!!!!!!!!!!!!!!!!!!!",
"!!!!!!!!!!!!!!!!!!!!!:????8DDDH!!`D8?888?@:!!!!!!!!!!!!!!!!!!!!!",
"!!!!!!!!!!!!!!!!!!!!!!:?????8DH!!`H8??????:!!!!!!!!!!!!!!!!!!!!!",
"!!!!!!!!!!!!!!!!!!!!!!8?8??8DH%!!!`D8???8?!!!!!!!!!!!!!!!!!!!!!!",
"!!!!!!!!!!!!!!!!!!!!!!!`HDDDH%!!!!%RHDDDH%!!!!!!!!!!!!!!!!!!!!!!",
"!!!!!!!!!!!!!!!!!!!!!!!%RQPPQ%!!!!%RRQQR%!!!!!!!!!!!!!!!!!!!!!!!",
"!!!!!!!!!!!!!!!!!!!!!!!!%RRRQR%!!!!%QPPQ%!!!!!!!!!!!!!!!!!!!!!!!",
"!!!!!!!!!!!!!!!!!!!!!!!%QPPQRR%!!!!%RRRR%!!!!!!!!!!!!!!!!!!!!!!!",
"!!!!!!!!!!!!!!!!!!!!!!%RRQQQRR%!!!%RQQPQR%!!!!!!!!!!!!!!!!!!!!!!",
"!!!!!!!!!!!!!!!!!!!!!%RQQPPQR%!!!!%RRRQQQ%!!!!!!!!!!!!!!!!!!!!!!",
"!!!!!!!!!!!!!!!!!!!!!%RRQQRR%!!!!!!%RQPPQR%!!!!!!!!!!!!!!!!!!!!!",
"!!!!!!!!!!!!!!!!!!!!!!%%%%%%!!!!!!!%%%%%%%%!!!!!!!!!!!!!!!!!!!!!"
};