/* XPM */
static const char *enemy_floor3_red_guard_death_f03[] = {
/* columns rows colors chars-per-pixel */
"64 64 60 1",
"! c None",
"# c #A0A0A0",
"$ c #5C5C5C",
"% c #000000",
"& c #747474",
"' c #980808",
"( c #848484",
") c #700404",
"* c #840404",
"+ c #94602C",
", c #704820",
"- c #D86464",
". c #C01010",
"/ c #C4A080",
"0 c #B08458",
"1 c #AC0C0C",
"2 c #603814",
"3 c #805424",
"4 c #A8784C",
"5 c #D0B094",
"6 c #3C3C3C",
"7 c #5C0000",
"8 c #A06C3C",
"9 c #989898",
": c #340000",
"; c #C01064",
"< c #CC3880",
"= c #480000",
"> c #880444",
"? c #AC0C58",
"@ c #98084C",
"A c #980088",
"B c #200000",
"C c #C4C824",
"D c #740438",
"E c #2C2C2C",
"F c #4C4C4C",
"G c #500024",
"H c #004444",
"I c #007474",
"J c #3C001C",
"K c #005C5C",
"L c #00BCBC",
"M c #008C8C",
"N c #00A4A4",
"O c #78E0E0",
"P c #402810",
"Q c #CC8038",
"R c #502400",
"S c #884404",
"T c #AC580C",
"U c #10C0C0",
"V c #5CD8D8",
"W c #043C74",
"X c #C06410",
"Y c #003064",
"Z c #001C3C",
"[ c #0C5CAC",
"] c #CC3838",
"^ c #40D0D0",
"!!!!!!!!!!!!!!!!!!!!!!!!!!!!!!!!!!!!!!!!!!!!!!!!!!!!!!!!!!!!!!!!",
"!!!!!!!!!!!!!!!!!!!!!!!!!!!!!!!!!!!!!!!!!!!!!!!!!!!!!!!!!!!!!!!!",
"!!!!!!!!!!!!!!!!!!!!!!!!!!!!!!!!!!!!!!!!!!!!!!!!!!!!!!!!!!!!!!!!",
"!!!!!!!!!!!!!!!!!!!!!!!!!!!!!!!!!!!!!!!!!!!!!!!!!!!!!!!!!!!!!!!!",
"!!!!!!!!!!!!!!!!!!!!!!!!!!!!!!!!!!!!!!!!!!!!!!!!!!!!!!!!!!!!!!!!",
"!!!!!!!!!!!!!!!!!!!!!!!!!!!!!!!!!!!!!!!!!!!!!!!!!!!!!!!!!!!!!!!!",
"!!!!!!!!!!!!!!!!!!!!!!!!!!!!!!!!!!!!!!!!!!!!!!!!!!!!!!!!!!!!!!!!",
"!!!!!!!!!!!!!!!!!!!!!!!!!!!!!!!!!!!!!!!!!!!!!!!!!!!!!!!!!!!!!!!!",
"!!!!!!!!!!!!!!!!!!!!!!!!!!!!!!!!!!!!!!!!!!!!!!!!!!!!!!!!!!!!!!!!",
"!!!!!!!!!!!!!!!!!!!!!!!!!!!!!!!!!!!!!!!!!!!!!!!!!!!!!!!!!!!!!!!!",
"!!!!!!!!!!!!!!!!!!!!!!!!!!!!!!!!!!!!!!!!!!!!!!!!!!!!!!!!!!!!!!!!",
"!!!!!!!!!!!!!!!!!!!!!!!!!!!!!!!!!!!!!!!!!!!!!!!!!!!!!!!!!!!!!!!!",
"!!!!!!!!!!!!!!!!!!!!!!!!!!!!!!!!!!!!!!!!!!!!!!!!!!!!!!!!!!!!!!!!",
"!!!!!!!!!!!!!!!!!!!!!!!!!!!!!!!!!!!!#!!!!!!!!!!!!!!!!!!!!!!!!!!!",
"!!!!!!!!!!!!!!!!!!!!!!!!!!!!!!!!!!!!$!!!!!!!!!!!!!!!!!!!!!!!!!!!",
"!!!!!!!!!!!!!!!!!!!!!!!!!!!!!!%%%%%%&%!!!!!!!!!!!!!!!!!!!!!!!!!!",
"!!!!!!!!!!!!!!!!!'!!!!!!!!!!!%%%%%%%(%%!!!!!!!!!!!!!!!!!!!!!!!!!",
"!!!!!!!!!!!!!!!!)*'!!!!!!!!!!%%++,%%(%%%!!!!!!!!!!!!!!!!!!!!!!!!",
"!!!!!!!!!!!!!!!!!!!!-.!!!!!'!+//0+%%(%%%!!!!!!!!!!!!!!!!!!!!!!!!",
"!!!!!!!!!!!!!!!!!!!!!!!!!!!1!+2%20,%(%%%!!!!!!!!!!!!!!!!!!!!!!!!",
"!!!!!!!!!!!!!!!!!!!!!!!-!!!!!2,23+$%%%$%!!!!!!!!!!!!!!!!!!!!!!!!",
"!!!!!!!!!!!!!!!!!!!!!!!!.!!!!0+4506%&%6%!!!!!!!!!!!!!!!!!!!!!!!!",
"!!!!!!!!!!!!!!!!7*.)7!!!!!!!!32,80+%%%%%!!!!!!!!!!!!!!!!!!!!!!!!",
"!!!!!!!!!!!!!!!!!!!!'.!!!!!!!!$924+2++3!!!!!!!!!!!!!!!!!!!!!!!!!",
"!!!!!!!!!!!!!!!!!!!!!!!!!!!-!!!::,4+,48!!!!!!!!!!!!!!!!!!!!!!!!!",
"!!!!!!!!!!!!!!!!!!!!!!!.!!!.!.!2384+,48+!!!!!!!!!!!!!!!!!!!!!!!!",
"!!!!!!!!!!!!!!!!!'!!!!!!!!!!'!!0/4+3+088;!;<<;!!!!!!!!!!!!!!!!!!",
"!!!!!!!!!!!!')!!!!!!!-!!!=.7'.>;,,3+483;>;;???;!!!!!!!!!!!!!!!!!",
"!!!!!!!!!!!!!!7*'!!!!!..!7=*.->@???????@>?@@@@?;!!!!!!!!!!!!!!!!",
"!!!!!!!!!!!!!!!!!!!!!!'7.A7=*?@>>@?@@>>>@?>@@@@;!!!!!!!!!!!!!!!!",
"!!!!!!!!!!!!!!!!!!!!!!!<*7AB=.@@@@@@@@CCC@@>>@@;<!!!!!!!!!!!!!!!",
"!!!!!!!!!!!!!!!!!!!!!!.;>*7=B-@@.@>@@DCCC@>D>D>@@;!!!!!!!!!!!!!!",
"!!!!!!!!!!!!!!!!!!!!-.;@->*7=*@@@>D@@DDD@@>DD>>@?>;!!!!!!!!!!!!!",
"!!!!!!!!!!!!!!!!!!!EFFF.'@@7=.@@@@.@@@@@@>DGG>>@@@@;!!!!!!!!!!!!",
"!!!!!!!!!!!!!!!HI,E%%EEF'@.-=DDDD>@>>DDDDD>DJD>>@@?;!!!!!!!!!!!!",
"!!!!!!!!!!!!!.!KL%%,E%%F;>.'7D>@@@@@@@@@>>DDGJDD>@@@!!!!!!!!!!!!",
"!!!!!!!!!!!''*!IM%.E%,E%DDG..@??@@@@@@@@@@@DGG!>@>??>!!!!!!!!!!!",
"!!!!!!!!!!'')!!MM33%0%%2MM.IIK@@@@>@@@@@@@>>GD!D%EEFD!!!!!!!!!!!",
"!!!!!!!!!!))!!KI32,,3%3HIL.N>IO@>DDD>@@@@>@DD!!%%EE6%!!!!!!!!!!!",
"!!!!!!!!!!!!!!KKPPP2,3IINLL.N>@@>@@D@@>>@@>DD!!%%%EE%!!!!!!!!!!!",
"!!!!!!!!!!!!!!!!!!!!PPPHHMQRSN>>>DDDDD>DD>DG%!!!%EE%%!!!!!!!!!!!",
"!!!!!!!!!!!!!!!!!!!!!.!!HMNQSRL%#%6%#%%%%%%%%!!!%%E6%!!!!!!!!!!!",
"!!!!!!!!!!!!!!!!!!!!!*!!!M!NTSSU(%%%(%%%%%6%%!!!!%%%%!!!!!!!!!!!",
"!!!!!!!!!!!!!!!!!!!!!.!!!!!%NQRSV%%%$%%%%%%%%@!!%EEF%!!!!!!!!!!!",
"!!!!!!!!!!!!!!!!!!!!*.!!!!!%%NQIIO>@>G>@%%%%?<!!6E%EE%!!!!!!!!!!",
"!!!!!!!!!!!!!!!!!!!!.!!*!!!;?@HSMOLGGDD>@;??@;!%E%%E6%!!!!!!!!!!",
"!!!!!!!!!!!!!!!!!!!!!!!.!!!;@KKWLOXJD>@@?@@@?;!%!!%E%!!!!!!!!!!!",
"!!!!!!!!!!!!!!!!!!!!!!!!!!;??@YLLQOODD>@@@;;@;!!!!!%%!!!!!!!!!!!",
"!!!!!!!!!!!!!!!!!!!!!!!!!!<?@Z[LKHMO]D@@>@@@?;!!!!!%!!!!!!!!!!!!",
"!!!!!!!!!!!!!!!!!!!!!!!!!!<@ZWW@KKH]].@@@@@@@;!!!!!!!!!!!!!!!!!!",
"!!!!!!!!!!!!!!!!!!!!!!!!!!;@[W@K@KKG...@@@@@@?;!!!!!!!!!!!!!!!!!",
"!!!!!!!!!!!!!!!!!!!!!!!!!;<?@@@@>>DG!.''@?@??<;!!!!!!!!!!!!!!!!!",
"!!!!!!!!!!!!!!!!!!!!!!!!!;@@@@>>DDDG!G')7@@@?<;!!!!!!!!!!!!!!!!!",
"!!!!!!!!!!!!!!!!!!!!!!!!!@?@@@@>>DG!!GD7::@@@?@!!!!!!!!!!!!!!!!!",
"!!!!!!!!!!!!!!!!!!!!!!!!!!D>>>>>GG!!!GD>:^^@@@>!!!!!!!!!!!!!!!!!",
"!!!!!!!!!!!!!!!!!!!!!!!!!!!GDDDGE%!!!!GD>N%>DG%!!!!!!!!!!!!!!!!!",
"!!!!!!!!!!!!!!!!!!!!!!!!!!!%EEEE%!!!!!%GDDDDG%!!!!!!!!!!!!!!!!!!",
"!!!!!!!!!!!!!!!!!!!!!!!!!!!!%E6FE%!!!!!%E666E%!!!!!!!!!!!!!!!!!!",
"!!!!!!!!!!!!!!!!!!!!!!!!!!!!%EEE6%!!!!!%EE6F6%!!!!!!!!!!!!!!!!!!",
"!!!!!!!!!!!!!!!!!!!!!!!!!!!%E666%%!!!!!!%EEEE%!!!!!!!!!!!!!!!!!!",
"!!!!!!!!!!!!!!!!!!!!!!!!!!%E6F6E%!!!!!!%EE6F6E%!!!!!!!!!!!!!!!!!",
"!!!!!!!!!!!!!!!!!!!!!!!!!!%%%%%%!!!!!!!%EE66EE%!!!!!!!!!!!!!!!!!",
"!!!!!!!!!!!!!!!!!!!!!!!!!!!!!!!!!!!!!!!%%EE6F6E%!!!!!!!!!!!!!!!!",
"!!!!!!!!!!!!!!!!!!!!!!!!!!!!!!!!!!!!!!!!%%%%%%%%!!!!!!!!!!!!!!!!"
};