/* XPM */
static const char *enemy_floor3_red_guard_death_sheet[] = {
/* columns rows colors chars-per-pixel */
"384 64 75 1",
"! c None",
"# c #A0A0A0",
"$ c #5C5C5C",
"% c #000000",
"& c #6C6C6C",
"' c #7C7C7C",
"( c #747474",
") c #201408",
"* c #684018",
"+ c #94602C",
", c #848484",
"- c #B08458",
". c #C4A080",
"/ c #A06C3C",
"0 c #704820",
"1 c #805424",
"2 c #5C340C",
"3 c #A8784C",
"4 c #00003C",
"5 c #603814",
"6 c #980808",
"7 c #E4C098",
"8 c #700404",
"9 c #840404",
": c #AC0C0C",
"; c #D8BCA8",
"< c #D86464",
"= c #C01010",
"> c #8C8C8C",
"? c #BCBCBC",
"@ c #989898",
"A c #C01064",
"B c #D0B094",
"C c #CC3880",
"D c #880444",
"E c #3C3C3C",
"F c #5C0000",
"G c #AC0C58",
"H c #98084C",
"I c #480000",
"J c #200000",
"K c #340000",
"L c #C4C824",
"M c #980088",
"N c #640030",
"O c #008C8C",
"P c #78E0E0",
"Q c #005C5C",
"R c #740438",
"S c #500024",
"T c #007474",
"U c #00A4A4",
"V c #00BCBC",
"W c #10C0C0",
"X c #40D0D0",
"Y c #5CD8D8",
"Z c #884404",
"[ c #502400",
"] c #C06410",
"^ c #CC3838",
"_ c #005C00",
"` c #4C4C4C",
"a c #2C2C2C",
"b c #CC8038",
"c c #AC580C",
"d c #004444",
"e c #003064",
"f c #C42470",
"g c #002850",
"h c #0C5CAC",
"i c #043C74",
"j c #3C001C",
"k c #001C3C",
"l c #C42424",
"m c #402810",
"!!!!!!!!!!!!!!!!!!!!!!!!!!!!!!!!!!!!!!!!!!!!!!!!!!!!!!!!!!!!!!!!!!!!!!!!!!!!!!!!!!!!!!!!!!!!!!!!!!!!!!!!!!!!!!!!!!!!!!!!!!!!!!!!!!!!!!!!!!!!!!!!!!!!!!!!!!!!!!!!!!!!!!!!!!!!!!!!!!!!!!!!!!!!!!!!!!!!!!!!!!!!!!!!!!!!!!!!!!!!!!!!!!!!!!!!!!!!!!!!!!!!!!!!!!!!!!!!!!!!!!!!!!!!!!!!!!!!!!!!!!!!!!!!!!!!!!!!!!!!!!!!!!!!!!!!!!!!!!!!!!!!!!!!!!!!!!!!!!!!!!!!!!!!!!!!!!!!!!!!!!!!!!!!!!!!!!!!!!!!!!!!",
"!!!!!!!!!!!!!!!!!!!!!!!!!!!!!!!!!!!!!!!!!!!!!!!!!!!!!!!!!!!!!!!!!!!!!!!!!!!!!!!!!!!!!!!!!!!!!!!!!!!!!!!!!!!!!!!!!!!!!!!!!!!!!!!!!!!!!!!!!!!!!!!!!!!!!!!!!!!!!!!!!!!!!!!!!!!!!!!!!!!!!!!!!!!!!!!!!!!!!!!!!!!!!!!!!!!!!!!!!!!!!!!!!!!!!!!!!!!!!!!!!!!!!!!!!!!!!!!!!!!!!!!!!!!!!!!!!!!!!!!!!!!!!!!!!!!!!!!!!!!!!!!!!!!!!!!!!!!!!!!!!!!!!!!!!!!!!!!!!!!!!!!!!!!!!!!!!!!!!!!!!!!!!!!!!!!!!!!!!!!!!!!!",
"!!!!!!!!!!!!!!!!!!!!!!!!!!!!!!!!!!!!!!!!!!!!!!!!!!!!!!!!!!!!!!!!!!!!!!!!!!!!!!!!!!!!!!!!!!!!!!!!!!!!!!!!!!!!!!!!!!!!!!!!!!!!!!!!!!!!!!!!!!!!!!!!!!!!!!!!!!!!!!!!!!!!!!!!!!!!!!!!!!!!!!!!!!!!!!!!!!!!!!!!!!!!!!!!!!!!!!!!!!!!!!!!!!!!!!!!!!!!!!!!!!!!!!!!!!!!!!!!!!!!!!!!!!!!!!!!!!!!!!!!!!!!!!!!!!!!!!!!!!!!!!!!!!!!!!!!!!!!!!!!!!!!!!!!!!!!!!!!!!!!!!!!!!!!!!!!!!!!!!!!!!!!!!!!!!!!!!!!!!!!!!!!",
"!!!!!!!!!!!!!!!!!!!!!!!!!!!!!!!!!!!!!!!!!!!!!!!!!!!!!!!!!!!!!!!!!!!!!!!!!!!!!!!!!!!!!!!!!!!!!!!!!!!!!!!!!!!!!!!!!!!!!!!!!!!!!!!!!!!!!!!!!!!!!!!!!!!!!!!!!!!!!!!!!!!!!!!!!!!!!!!!!!!!!!!!!!!!!!!!!!!!!!!!!!!!!!!!!!!!!!!!!!!!!!!!!!!!!!!!!!!!!!!!!!!!!!!!!!!!!!!!!!!!!!!!!!!!!!!!!!!!!!!!!!!!!!!!!!!!!!!!!!!!!!!!!!!!!!!!!!!!!!!!!!!!!!!!!!!!!!!!!!!!!!!!!!!!!!!!!!!!!!!!!!!!!!!!!!!!!!!!!!!!!!!!",
"!!!!!!!!!!!!!!!!!!!!!!!!!!!!!!!!!!!!!!!!!!!!!!!!!!!!!!!!!!!!!!!!!!!!!!!!!!!!!!!!!!!!!!!!!!!!!!!!!!!!!!!!!!!!!!!!!!!!!!!!!!!!!!!!!!!!!!!!!!!!!!!!!!!!!!!!!!!!!!!!!!!!!!!!!!!!!!!!!!!!!!!!!!!!!!!!!!!!!!!!!!!!!!!!!!!!!!!!!!!!!!!!!!!!!!!!!!!!!!!!!!!!!!!!!!!!!!!!!!!!!!!!!!!!!!!!!!!!!!!!!!!!!!!!!!!!!!!!!!!!!!!!!!!!!!!!!!!!!!!!!!!!!!!!!!!!!!!!!!!!!!!!!!!!!!!!!!!!!!!!!!!!!!!!!!!!!!!!!!!!!!!!",
"!!!!!!!!!!!!!!!!!!!!!!!!!!!!!!!!!!!!!!!!!!!!!!!!!!!!!!!!!!!!!!!!!!!!!!!!!!!!!!!!!!!!!!!!!!!!!!!!!!!!!!!!!!!!!!!!!!!!!!!!!!!!!!!!!!!!!!!!!!!!!!!!!!!!!!!!!!!!!!!!!!!!!!!!!!!!!!!!!!!!!!!!!!!!!!!!!!!!!!!!!!!!!!!!!!!!!!!!!!!!!!!!!!!!!!!!!!!!!!!!!!!!!!!!!!!!!!!!!!!!!!!!!!!!!!!!!!!!!!!!!!!!!!!!!!!!!!!!!!!!!!!!!!!!!!!!!!!!!!!!!!!!!!!!!!!!!!!!!!!!!!!!!!!!!!!!!!!!!!!!!!!!!!!!!!!!!!!!!!!!!!!!",
"!!!!!!!!!!!!!!!!!!!!!!!!!!!!!!!!!!!!!!!!!!!!!!!!!!!!!!!!!!!!!!!!!!!!!!!!!!!!!!!!!!!!!!!!!!!!!!!!!!!!!!!!!!!!!!!!!!!!!!!!!!!!!!!!!!!!!!!!!!!!!!!!!!!!!!!!!!!!!!!!!!!!!!!!!!!!!!!!!!!!!!!!!!!!!!!!!!!!!!!!!!!!!!!!!!!!!!!!!!!!!!!!!!!!!!!!!!!!!!!!!!!!!!!!!!!!!!!!!!!!!!!!!!!!!!!!!!!!!!!!!!!!!!!!!!!!!!!!!!!!!!!!!!!!!!!!!!!!!!!!!!!!!!!!!!!!!!!!!!!!!!!!!!!!!!!!!!!!!!!!!!!!!!!!!!!!!!!!!!!!!!!!",
"!!!!!!!!!!!!!!!!!!!!!!!!!!!!!!!!!!!!!!!!!!!!!!!!!!!!!!!!!!!!!!!!!!!!!!!!!!!!!!!!!!!!!!!!!!!!!!!!!!!!!!!!!!!!!!!!!!!!!!!!!!!!!!!!!!!!!!!!!!!!!!!!!!!!!!!!!!!!!!!!!!!!!!!!!!!!!!!!!!!!!!!!!!!!!!!!!!!!!!!!!!!!!!!!!!!!!!!!!!!!!!!!!!!!!!!!!!!!!!!!!!!!!!!!!!!!!!!!!!!!!!!!!!!!!!!!!!!!!!!!!!!!!!!!!!!!!!!!!!!!!!!!!!!!!!!!!!!!!!!!!!!!!!!!!!!!!!!!!!!!!!!!!!!!!!!!!!!!!!!!!!!!!!!!!!!!!!!!!!!!!!!!",
"!!!!!!!!!!!!!!!!!!!!!!!!!!!!!!!!#!!!!!!!!!!!!!!!!!!!!!!!!!!!!!!!!!!!!!!!!!!!!!!!!!!!!!!!!!!!!!!!!!!#!!!!!!!!!!!!!!!!!!!!!!!!!!!!!!!!!!!!!!!!!!!!!!!!!!!!!!!!!!!!!!!!!!!!!!!!!!!!!!!!!!!!!!!!!!!!!!!!!!!!!!!!!!!!!!!!!!!!!!!!!!!!!!!!!!!!!!!!!!!!!!!!!!!!!!!!!!!!!!!!!!!!!!!!!!!!!!!!!!!!!!!!!!!!!!!!!!!!!!!!!!!!!!!!!!!!!!!!!!!!!!!!!!!!!!!!!!!!!!!!!!!!!!!!!!!!!!!!!!!!!!!!!!!!!!!!!!!!!!!!!!!!",
"!!!!!!!!!!!!!!!!!!!!!!!!!!!!!!!!$!!!!!!!!!!!!!!!!!!!!!!!!!!!!!!!!!!!!!!!!!!!!!!!!!!!!!!!!!!!!!!!!!!$!!!!!!!!!!!!!!!!!!!!!!!!!!!!!!!!!!!!!!!!!!!!!!!!!!!!!!!!!!!!!!#!!!!!!!!!!!!!!!!!!!!!!!!!!!!!!!!!!!!!!!!!!!!!!!!!!!!!!!!!!!!!!!!!!!!!!!!!!!!!!!!!!!!!!!!!!!!!!!!!!!!!!!!!!!!!!!!!!!!!!!!!!!!!!!!!!!!!!!!!!!!!!!!!!!!!!!!!!!!!!!!!!!!!!!!!!!!!!!!!!!!!!!!!!!!!!!!!!!!!!!!!!!!!!!!!!!!!!!!!!!!!",
"!!!!!!!!!!!!!!!!!!!!!!!!!!%%%%%%&!!!!!!!!!!!!!!!!!!!!!!!!!!!!!!!!!!!!!!!!!!!!!!!!!!!!!!!!!%%%%%%%!!&!!!!!!!!!!!!!!!!!!!!!!!!!!!!!!!!!!!!!!!!!!!!!!!!!!!!!!!!!!!!!!$!!!!!!!!!!!!!!!!!!!!!!!!!!!!!!!!!!!!!!!!!!!!!!!!!!!!!!!!!!!!!!!!!!!!!!!!!!!!!!!!!!!!!!!!!!!!!!!!!!!!!!!!!!!!!!!!!!!!!!!!!!!!!!!!!!!!!!!!!!!!!!!!!!!!!!!!!!!!!!!!!!!!!!!!!!!!!!!!!!!!!!!!!!!!!!!!!!!!!!!!!!!!!!!!!!!!!!!!!!!!!",
"!!!!!!!!!!!!!!!!!!!!!!!!!%%%%%%%'%!!!!!!!!!!!!!!!!!!!!!!!!!!!!!!!!!!!!!!!!!!!!!!!!!!!!!!!%%%%%%%%%!'!!!!!!!!!!!!!!!!!!!!!!!!!!!!!!!!!!!!!!!!!!!!!!!!!!!!!!!!%%%%%%(!!!!!!!!!!!!!!!!!!!!!!!!!!!!!!!!!!!!!!!!!!!!!!!!!!!!!!!!!!!!!!!!!!!!!!!!!!!!!!!!!!!!!!!!!!!!!!!!!!!!!!!!!!!!!!!!!!!!!!!!!!!!!!!!!!!!!!!!!!!!!!!!!!!!!!!!!!!!!!!!!!!!!!!!!!!!!!!!!!!!!!!!!!!!!!!!!!!!!!!!!!!!!!!!!!!!!!!!!!!!!",
"!!!!!!!!!!!!!!!!!!!!!!!!)*)*++*%'%%!!!!!!!!!!!!!!!!!!!!!!!!!!!!!!!!!!!!!!!!!!!!!!!!!!!!!%*++*%*++*%'!!!!!!!!!!!!!!!!!!!!!!!!!!!!!!!!!!!!!!!!!!!!!!!!!!!!!!!%%%%%%%,%!!!!!!!!!!!!!!!!!!!!!!!!!!!!!!!!!!!!!!!!!!!!!!!!!!!!!!!!!!!!!!!!!!!!!!!!!!!!!!!!!!!!!!!!!!!!!!!!!!!!!!!!!!!!!!!!!!!!!!!!!!!!!!!!!!!!!!!!!!!!!!!!!!!!!!!!!!!!!!!!!!!!!!!!!!!!!!!!!!!!!!!!!!!!!!!!!!!!!!!!!!!!!!!!!!!!!!!!!!!!",
"!!!!!!!!!!!!!!!!!!!!!!!!*-...-+%'%%!!!!!!!!!!!!!!!!!!!!!!!!!!!!!!!!!!!!!!!!!!!!!!!!!!!!!%/--...--/%'!!!!!!!!!!!!!!!!!!!!!!!!!!!!!!!!!!!!!!!!!!!!!!!!!!!!!!+0%0++0%,%%!!!!!!!!!!!!!!!!!!!!!!!!!!!!!!!!!!!!!!!!!!!!!!!!!!!!!!!!!!!!!!!#!!!!!!!!!!!!!!!!!!!!!!!!!!!!!!!!!!!!!!!!!!!!!!!!!!!!!!!!!!!!!!!!!!!!!!!!!!!!!!!!!!!!!!!!!!!!!!!!!!!!!!!!!!!!!!!!!!!!!!!!!!!!!!!!!!!!!!!!!!!!!!!!!!!!!!!!!!!",
"!!!!!!!!!!!!!!!!!!!!!!!!1232%%-%'%%!!!!!!!!!!!!!!!!!!!!!!!!!!!!!!!!!!!!!!!!!!!!!!!!!!!!!%%*+3+3+*%%'!!!!!!!!!!!!!!!!!!!!!!!!!!!!!!!!!!!!!!!!!!!!!!!!!!!!!!3-...-+%,%%!!!!!!!!!!!!!!!!!!!!!!!!!!!!!!!!!!!!!!!!!!!!!!!!!!!!!!!!!!!!!!!$!!!!!!!!!!!!!!!!!!!!!!!!!!!!!!!!!!!!!!!!!!!!!!!!!!!!!!!!!!!!!!!!!!!!!!!!!!!!!!!!!!!!!!!!!!!!!!!!!!!!!!!!!!!!!!!!!!!!!!!!!!!!!!!!!!!!!!!!!!!!!!!!!!!!!!!!!!!",
"!!!!!!!!!!!!!!!!!!!!!!!!*++121+%%%%!!!!!!!!!!!!!!!!!!!!!!!!!!!!!!!!!!!!!!!!!!!!!!!!!!!!!%+24*+*42+%%!!!!!!!!!!!!!!!!!!!!!!!!!!!!!!!!!!!!!!!!!!!!!!!!!!!!!!+535%%-%,%%!!!!!!!!!!!!!!!!!!!!!!!!!!!!!!!!!!!!!!!!!!!!!!!!!!!!!!!!!%%%%%%(%!!!!!!!!!!!!!!!!!!!!!!!!!!!!!!!!!!!!!!!!!!!!!!!!!!!!!!!!!!!!!!!!!!!!!!!!!!!!!!!!!!!!!!!!!!!!!!!!!!!!!!!!!!!!!!!!!!!!!!!!!!!!!!!!!!!!!!!!!!!!!!!!!!!!!!!!!!",
"!!!!!!!!!!!!!!!!!!!!!!!!13.3..-$%&%!!!!!!!!!!!!!!!!!!!!!!!!!!!!!!!!!!!!!!!!!!!!!!!!!!!!!+-..3.3..-$&!!!!!!!!!!!!!!!!!!!!!!!!!!!!!!!!!!!!!!!!!!!!!!!!!!!!!!5++151+%%%%!!!!!!!!!!!!!!!!!!!!!!!!!!!!!!!!!!!!!!!!!!!!6!!!!!!!!!!!%%%%%%%,%%!!!!!!!!!!!!!!!!!!!!!!!!!!!!!!!!!!!!!!!!!!!!!!!!!!!!!!!!!!!!!!!!!!!!!!!!!!!!!!!!!!!!!!!!!!!!!!!!!!!!!!!!!!!!!!!!!!!!!!!!!!!!!!!!!!!!!!!!!!!!!!!!!!!!!!!!!",
"!!!!!!!!!!!!!!!!!!!!!!!!1.-./33%%%%!!!!!!!!!!!!!!!!!!!!!!!!!!!!!!!!!!!!!!!!!!!!!!!!!!!!!2+3/.7./3+%%!!!!!!!!!!!!!!!!!!!!!!!!!!!!!!!!!!!!!!!!!!!!!!!86!!!!!.3.3..-$%(%!!!!!!!!!!!!!!!!!!!!!!!!!!!!!!!!!!!!!!!!!!!896!!!!!!!!!!%%++0%%,%%%!!!!!!!!!!!!!!!!!!!!!!!!!!!!!!!!!!!!!!!!!!!!!!!!!!!!!!!!!!!!!!!!!!!!!!!!!!!!!!!!!!!!!!!!!!!!!!!!!!!!!!!!!!!!!!!!!!!!!!!!!!!!!!!!!!!!!!!!!!!!!!!!!!!!!!!!",
"!!!!!!!!!!!!!!!!!!!!!!!!/++/3/1)%%!!!!!!!!!!!!!!!!!!!!!!!!!!!!!!!!!!!!!!!!!!!!!!!!!!!!!!!3/3+1+3/3%%!!!!!!!!!!!!!!!!!!!!!!!!!!!!!!!!!!!!!!!!!!!!:!!!96!!6!3;-./33%%%%!!!!!!!!!!!!!!!!!!!!!!!!!!!!!!!!!!!!!!!!!!!!!!!<=!!!!!6!+..-+%%,%%%!!!!!!!!!!!!!!!!!!!!!!!!!!!!!!!!!!!!!!!!!!!!!!!!!!!!!!!!!!!!!!!!!!!!!!!!!!!!!!!!!!!!!!!!!!!!!!!!!!!!!!!!!!!!!!!!!!!!!!!!!!!!!!!!!!!!!!!!!!!!!!!!!!!!!!!!",
"!!!!!!!!!!!!!!!!!!!!!!!!3*>#23+*+1!!!!!!!!!!!!!!!!!!!!!!!!!!!!!!!!!!!!!!!!!!!!!!!!!!!!!!!+32#?#23+!!!!!!!!!!!!!!!!!!!!!!!!!!!!!!!!!!!!!!!!!!!!!!!!!!!9!!!!/++/3/1%%%!!!!!!!!!!!!!!!!!!!!!!!!!!!!!!!!!!!!!!!!!!!!!!!!!!!!!!!:!+5%5-0%,%%%!!!!!!!!!!!!!!!!!!!!!!!!!!!!!!!!!!!!!!!!!!!!!!!!!!!!!!!!!!!!!!!!!!!!!!!!!!!!!!!!!!!!!!!!!!!!!!!!!!!!!!!!!!!!!!!!!!!!!!!!!!!!!!!!!!!!!!!!!!!!!!!!!!!!!!!!",
"!!!!!!!!!!!!!!!!!!!!!!!!+1%)1/1+3+!!!!!!!!!!!!!!!!!!!!!!!!!!!!!!!!!!!!!!!!!!!!!!!!!!!!!!!1/1%%%1/1!!!!!!!!!!!!!!!!!!!!!!!!!!!!!!!!!!!!!!!!!!!!!!!!!!6!<!!635$@53+0+1!!!!!!!!!!!!!!!!!!!!!!!!!!!!!!!!!!!!!!!!!!!!!!!!!!!<!!!!!5051+$%%%$%!!!!!!!!!!!!!!!!!!!!!!!!!!!!!!!!!!!!!!!!!89!!!!!!!!!!!!!!!!!!!!!!!!!!!!!!!!!!!!!!!!!!!!!!!!!!!!!!!!!!!!!!!!!!!!!!!!!!!!!!!!!!!!!!!!!!!!!!!!!!!!!!!!!!!!!",
"!!!!!!!!!!!!!!!!!!!!!!!!A-B-3/133CA!!!!!!!!!!!!!!!!!!!!!!!!!!!!!!!!!!!!!!!!!!!!!!!!!!!!!AC+3-B-3+CA!!!!!!!!!!!!!!!!!!!!!!!!!!!!!!!!!!!!!!!!!!!!!!!!!!!!=!:/=%D1/1+3+!!!!!!!!!!!!!!!!!!!!!!!!!!!!!!!!!!!!!!!!!!!!!!!!!!!!=!!!!-+3B-E%(%E%!!!!!!!!!!!!!!!!!!!!!!!!!!!!!!!!!!!!!!!!!!!!!!:=!!!!!!!!!!!!!!!!!!!!!!!!!!!!!!!!!!!!!!!!!!!!!!!!!!!!!!!!!!!!!!!!!!!!!!!!!!!!!!!!!!!!!!!!!!!!!!!!!!!!!!!!",
"!!!!!!!!!!!!!!!!!!!ACCAAD=1**1+-/ADAACCA!!!!!!!!!!!!!!!!!!!!!!!!!!!!!!!!!!!!!!!!!!!ACCAADA31***13ADAACCA!!!!!!!!!!!!!!!!!!!!!!!!!!!!!!!!!!!!!!!F9=!!!6!!!!A-B-3/133CA!!!!!!!!!!!!!!!!!!!!!!!!!!!!!!!!!!!!!!!!!!!F9=8F!!!!!!!!150/-+%%%%%!!!!!!!!!!!!!!!!!!!!!!!!!!!!!!!!!!!!!!!!!!!!!!!!!!!!!!!6!!$!!!!!!!!!!!!!!!!!!!!!!!!!!!!!!!!!!!!!!!!!!!!!!!!!!!!!!!!!!!!!!!!!!!!!!!!!!!!!!!!!!!!!!!!!!!!!",
"!!!!!!!!!!!!!!!!!!AGHGAGDHG=//3+GHDGAGHGA!!!!!!!!!!!!!!!!!!!!!!!!!!!!!!!!!!!!!!!!!AGHGAGDHG3.3.3GHDGAGHGA!!!!!!!!!!!!!!!!!!!!!!!!!!!!!!!!!!!!!!!!8F8!F9C6=D=1001+-/ADAACCA!!!!!!!!!!!!!!!!!!!!!!!!!!!!!!!!!!!!!!!!!!6=!!!!!!!!$@53+5++1!!!!!!!!!!!!!!!!!!!!!!!!!!!!!!!!!!!!!!!!!!!!!!=!!!!!!!!!!!!(%!!!!!!!!!!!!!!!!!!!!!!!!!!!!!!!!!!!!!!!!!!!!!!!!!!!!!!!!!!!!!!!!!!!!!!!!!!!!!!!!!!!!!!!!!!!!",
"!!!!!!!!!!!!!!!!!AGHHHHGHDHGGGGGHDHGHHHHGA!!!!!!!!!!!!!!!!!!!!!!!!!!!!!!!!!!!!!!!AGHHHHGHDHGGGGGHDHGHHHHGA!!!!!!!!!!!!!!!!!!!!!!!!!!!!!!!!!!68!!!!!=8IJFF8:HG=//3+GHDGAGHGA!!!!!!!!!!!!!!!!!!!!!!!!!!!!!!!!!!!!!!!!!!!!!!!!<!!!KK03+03/!!!!!!!!!!!!!!!!!!!!!!!!!!!!!!!!!!!!!!!!!!!!!!!!!6!!!!!!!%%%,%%!!!!!!!!!!!!!!!!!!!!!!!!!!!!!!!!!!!!!!!!!!!!!!!!!!!!!!!!!!!!!!!!!!!!!!!!!!!!!!!!!!!!!!!!!!",
"!!!!!!!!!!!!!!!!!AHHHHDHHHDDHGHDDLLLDHHHHA!!!!!!!!!!!!!!!!!!!!!!!!!!!!!!!!!!!!!!!AHHHHDHHHDDHGHDDLLLDHHHHA!!!!!!!!!!!!!!!!!!!!!!!!!!!!!!!!!!!!!6!!!A8FMJIF8=HGGGGGHDHGHHHHGA!!!!!!!!!!!!!!!!!!!!!!!!!!!!!!!!!!!!!!!!!!!=!!!=!=!51/3+03/+!!!!!!!!!!!!!!!!!!!!!!!!!!!!!!!!!!!!!!!!!9!!!!!!!!<!!!%%%%%,%%%!!!!!!!!!!!!!!!!!!!!!!!!!!!!!!!!!!!!!!!!!!!!!!!!!!!!!!!!!!!!!!!!!!!!!!!!!!!!!!!!!!!!!!!!!",
"!!!!!!!!!!!!!!!!CAHHDDHHHHHHHDHHNLLLHDDHHAC!!!!!!!!!!!!!!!!!!!!!!!!!!!!!!!!!!!!!CAHHDDHHHHHHHDHHNLLLHDDHHAC!!!!!!!!!!!!!!!!!!!!!!!!!!!!!!!!!!!!!!!!A:FJMJI86DDHGHDDLLLDHHHHA!!!!!!!!!!!!!!!!!!!!!!!!!!!!!!!!!!!!!6!!!!!!!!!!6!!-.3+1+-//A!ACCA!!!!!!!!!!!!!!!!!!!!!!!!!!!!!!!!!!F!!!!!!!!!!!!%%%0%%%,%%%!!!!!!!!!!!!!!!!!!!!!!!!!!!!!!!!!!!!!!!!!!!!!!!!!!!!!!!!!!!!!!!!!!!!!!!!!!!!!!!!!!!!!!!!",
"!!!!!!!!!!!!!!!AHHDNDNDHOPQQQPHHNNNHDNDNDHHA!!!!!!!!!!!!!!!!!!!!!!!!!!!!!!!!!!!AHHDNDNDHOPQQQPHHNNNHDNDNDHHA!!!!!!!!!!!!!!!!!!!!!!!!!!!!!!!!!!F96!==HIKJKF8=HHHDHHRLLLHDDHHAC!!!!!!!!!!!!!!!!!!!!!!!!!!!!!!!68!!!!!!!<!!!I=F6=DA001+3/1ADAAGGGA!!!!!!!!!!!!!!!!!!!!!!!!!!!!!!!!!!!!!!!!!!!!!!%%+-+%%,%$%!!!!!!!!!!!!!!!!!!!!!!!!!!!!!!!!!!!!!9!!=!!!!!!!!!!!!!!!!!!!!!!!!!!!!!!!!!!!!!!!!!!!!!!!",
"!!!!!!!!!!!!!!!AGHHDNSNDHHTHTHDHHHHDNDNDHHDA!!!!!!!!!!!!!!!!!!!!!!!!!!!!!!!!!!!AGHHDNSNDHHTHTHDHHHHDNDNDHHDA!!!!!!!!!!!!!!!!!!!!!!!!!!!!!!!!!!!!!AHHDR6IJIF6HHHDHHRRRHDRDRDHHA!!!!!!!!!!!!!!!!!!!!!!!!!!!!!!!!F96!!!!!==!FI9=<DHGGGGGGGHDGHHHHGA!!!!!!!!!!!!!!!!!!!!!!!!!!!!!!!!!!!!!!!!!!!!!%..+-0%%%%%%!!!!!!!!!!!!!!!!!!!!!!!!!!!!!!!!!!!8!!!!!!!!!!!!!!!!!!!!!!!!!!!!!!!!!!!!!!!!!!!!!!!!!!!",
"!!!!!!!!!!!!!!AHHHHDDSDNSUUUUUUVWXYPDSDDHHHHA!!!!!!!!!!!!!!!!!!!!!!!!!!!!!!!!!AHHHHDDSDNSUUUUUUVWXYPDSDDHHHHA!!!!!!!!!!!!!!!!!!!!!!!!!!!!!!!!!!!!AGHH=R8=6OPQQQPDHHHHDRDRDHHDA!!!!!!!!!!!!!!!!!!!!!!!!!!!!!!!!!!!!!!!!6F=MFI9GHDDHGHHDDDHGDHHHHA!!!!!!!!!!!!!!!!!!!!!!!!!!!!!!!!!!!!!!!!!!!!!!+5%1+E%%%%!!!!!!!!!!!!!!!!!!!!!!!!!!!!!!!!!!!!!!!!!!!!!!!!!!!!!!!!!!!!!!!!!!!!!!!!!!!!!!!!!!!!!!!!",
"!!!!!!!!!!!!!!AGEE%%SSHNOVVZ[Z[Z[ZTOP]PP^^=:68FJXX!!!!!!!!!!!!!!!!!!!!!!!!!!!!AGEE%%SSHNOVVZ[Z[Z[ZTOP]PP^^=:68FJXX!!!!!!!!!!!!!!!!!!!!!!!!!!!688AHHHHDDSD=SST_TRSRRSSRDSDDHHHHA!!!!!!!!!!!!!!!!!!!!!!!!!!!!!!!!!!!!!!!!C9FMJI=HHHHHHHHLLLHHDDHHAC!!!!!!!!!!!!!!!!!!!!!!!!!!!!!!!!6!!!<!!!!!!!!505B-+%%+1!!!!!!!!!!!!!!!!!!!!!!!!!!!!!!!!!!!!!!!!!!!!!!!!!!!!!!6!!!!!!!!!!!!!!!!!!!!!!!!!!!!!!!!!",
"!!!!!!!!!!!!!AGE`Ea%%SDHTOVbcbcbcbZTVbOO^^=:68FJUUO!!!!!!!!!!!!!!!!!!!!!!!!!!AGE`Ea%%SDHTOVbcbcbcbZTVbOO^^=:68FJUUO!!!!!!!!!!!!!!!!!!!!!!!!!68!!AGHHDDSSHRDUUUUUUVWXYPDSRDDHHGA!!!!!!!!!!!!!!!!!!!!!!!!!!!!!!!!!!!!!!!=AD9FIJ<HH=HDHHRLLLHDRDRDHHA!!!!!!!!!!!!!!!!!!!!!!!!!!!!!!!!!!!!!!!!!!!!-++3/3+03/G!!AAAA!!!!!!!!!!!!!!!!!!!!!!!!!!!!!!!!!!!!!!!!!!!!!!!!!!!!!!!!!!!!!!!!!!!!!!!!!!!!!!!!!",
"!!!!!!!!!!!!!ADE``E%`%%ddTOUUUUUUddeVddd%aaaD!!!!!!!!!!!!!!!!!!!!!!!!!!!!!!!!ADE``E%`%%ddTOUUUUUUddeVddd%aaaD!!!!!!!!!!!!!!!!!!!!!!!!!!!!!!!!!!AGH`Ea%MSDHOVVZ[Z[Z[ZTOP]PP^^==68FKXX!!!!!!!!!!!!!!!!!!!!!!!!!!!!!!!!<=AH<D9FI9HHHDRHHRRRHHDRRDDHGDA!!!!!!!!!!!!!!!!!!!!!!!!!!!!!!!!!!!!!!!<!!!!15%+3+0-GRAAGGGGfA!!!!!!!!!!!!!!!!!!!!!!!!!!!!!!!!!!!!!!!!!!!!!!!!!!!!!!!!!!!!!!!!!!!!!!!!!!!!!!!",
"!!!!!!!!!!!!!!N%aE%EE`dQTddOOSNNSSQgVQQQQaEaN!!!!!!!!!!!!!!!!!!!!!!!!!!!!!!!!!N%aE%EE`dQTddOOSNNSSQgVQQQQaEaN!!!!!!!!!!!!!!!!!!!!!!!!!!!!!!!!!!ADE`=E=MM=DTOVbcbcbcbZTVbOO^^==68FKUUO!!!!!!!!!!!!!!!!!!!!!!!!!!!!!!a```=6HHFI=HHHH=HHHHHHDRSSDDHHHHA!!!!!!!!!!!!!!!!!!!!!!!!!!96!!!!!!!!!!!=!!!!@1/3+13GRDGGHHHGfA!!!!!!!!!!!!!!!!!!!!!!!!!!!!!!!!!!!!!!!!!!!!!!!!!!!!!!!!!!!!!!!!!!!!!!!!!!!!!!",
"!!!!!!!!!!!!!!!%U%E`aE`QddNNNNDDHDNehE`$`Ea%!!!!!!!!!!!!!!!!!!!!!!!!!!!!!!!!!!!%U%E`aE`QddNNNNDDHDNehE`$`Ea%!!!!!!!!!!!!!!!!!!!!!!!!!!!!!!!!!!!!R%E`Ea`%%ddTOUUUUUUddiVddd%%E%R!!!!!!!!!!!!!!!!!!!!!!!!!!!!!!!!dT0a%%aa`6H=<IRRRRDHDDRRRRRDRjRDDHHGA!!!!!!!!!!!!!!!!!!!!!!!!!F!!!!!!!!!=!!!=!!!<M-.01+GLLDHRHHGHHHGf!!!!!!!!!!!!!!!!!!!!!!!!!!!!!!!!!!!!!!!!!!!!!!!!!!!!!!!!!!!!!!!!!!!!!!!!!!!!",
"!!!!!!!!!!!!!!!!T%aE`a%dQNDNNSNNDDDke```a%%!!!!!!!!!!!!!!!!!!!!!!!!!!!!!!!!!!!!!T%aE`a%dQNDNNSNNDDDke```a%%!!!!!!!!!!!!!!!!!!!!!!!!!!!!!!!!!!!!!!%aQ%EE`dQTddOORDDDDQeVQQQQ%%%!!!!!!!!!!!!!!!!!!!!!!!!!!!!!!!=!QV%%0a%%`AD=6FRDHHHHHHHHHDDRRSjRRDHHH!!!!!!!!!!!!!!!!!!!!!!!!!!!!!!!!!!!!!!=!=!!=9=00GHLLHHDSSDHHHGGHf!!!!!!!!!!!!!!!!!!!!!!!!!!!!!!!!!!!!!!!!!!!!!!!!!!!!!!!!!!!!!!!!!!!!!!!!!!!",
"!!!!!!!!!!!!!!!!dO%aa%SSNDHDDNDHHDHkeaaE`%!!!!!!!!!!!!!!!!!!!!!!!!!!!!!!!!!!!!!!dO%aa%SSNDHDDNDHHDHkeaaE`%!!!!!!!!!!!!!!!!!!!!!!!!!!!!!!!!!!!!!!!!U%E`aE`QddDRRRRRDDDihEE$`E%!!!!!!!!!!!!!!!!!!!!!!!!!!!!!!669!TO%=a%0a%RRS==HGGHHHHHHHHHHHRSS!DHDGGD!!!!!!!!!!!!!!!!!!!!!!!!!!!!!!!!!!!!!!!!!!9<AG=HHHHDRRDDSDHHHHHHA!!!!!!!!!!!!!!!!!!!!!!!!!<!!!!!!!!!!!!!!!!!!!!!!!!!!!!!!!!!!!!!!!!!!!!!!!!",
"!!!!!!!!!!!!!!!!!OU%%%%%%%%#%E%#%%%ehE``E!!!!!!!!!!!!!!!!!!!!!!!!!!!!!!!!!!!!!!!!OU%%%%%%%%#%E%#%%%ehE``E!!!!!!!!!!!!!!!!!!!!!!!!!!!!!!!!!!!!!!!!!T%aE`a%dQDDDDRDDDDDki```%%!!!!!!!!!!!!!!!!!!!!!!!!!!!!!!668!!OO11%-%%5OO=TTQHHHHDHHHHHHHDDSR!R%aa`R!!!!!!!!!!!!!!!!!!!!!!!!!!!!!!!!!!!=6<=!!8F==6GHHDRDHGHDRSDHHDDHA!!!!!!!!!!!!!!!!!!!!!!!!!!!!!!!!!!!!!!!!!!!!!!!!!!!!!!!!!!!!!!!!!!!!!!!!!!",
"!!!!!!!!!!!!!!!!!QT!!l%%%%%'%%%'%%%%%a%%!!!!!!!!!!!!!!!!!!!!!!!!!!!!!!!!!!!!!!!!!QT!!l%%%%%'%%%'%%%%%a%%!!!!!!!!!!!!!!!!!!!!!!!!!!!!!!!!!!!!!!!!!!dO%aa%%%%%%#%E%#%%%kiEEE`%!!!!!!!!!!!!!!!!!!!!!!!!!!!!!!88!!QT15001%1dTV=UDTPHDRRRDHHHHDHRR!!%%aaE%!!!!!!!!!!!!!!!!!!!!!!!!!!!!!!!!!!A=8IF=!F=fH=HHHHGGHHDRDSSRDRHGfA!!!!!!!!!!!!!!!!!!!!!!!!!!!!!=!!!!=!!!!!!!!!!!!!!!!!!!!!!!!!!!!!!!!!!!!!!",
"!!!!!!!!!!!!!!!!!!!!!%%%%%%$%%%$%%%%%%%%!!!!!!!!!!!!!!!!!!!!!!!!!!!!!!!!!!!!!!!!!!!!!%%%%%%$%%%$%%%%%%%%!!!!!!!!!!!!!!!!!!!!!!!!!!!!!!!!!!!!!!!!!!!OU%%l%%%%%,%%%,%%%ihE``E!!!!!!!!!!!!!!!!!!!!!!!!!!!!!!!!!!!QQmmm501TTUVV=UDHHDHHRHHDDHHDRR!!%%%aa%!!!!!!!!!!!!!!!!!!!!!!!!!!!!!!!!!=Mf=KJ=!If==HDRSRDDDHHDDS!!RDHHHf!!!!!!!!!!!!!!!!!!!!!!!!!!!!!!!!!!!!!!!!!!!!!!!!!!!!!!!!!!!!!!!!!!!!!!!!!",
"!!!!!!!!!!!!!!!!!!!!!%%%%SDDHHHDDDN%%%%D!!!!!!!!!!!!!!!!!!!!!!!!!!!!!!!!!!!!!!!!!!!!!%%%%SDDHHHDDDN%%%%D!!!!!!!!!!!!!!!!!!!!!!!!!!!!!!!!!!!!!!!!!!!QT!!%%%%%%$%%%$%%%%%%%%!!!!!!!!!!!!!!!!!!!!!!!!!!!!!!!!!!!!!!!!!!mmmddOb[ZUDDDRRRRRDRRDRS%!!!%aa%%!!!!!!!!!!!!!!!!!!!!!!!!!!!!!!!!=MMHfIKI!!R6D=SDHHDRRDDDRR!!RDaE`A!!!!!!!!!!!!!!!!!!!6!!!!!!!!!!!!!!!!!!!!!!!!!!!!!!!!!!!!!!!!!!!!!!!!!!!!!",
"!!!!!!!!!!!!!!!!!!!!!!AHHDNDDDDDNDDHHHGA!!!!!!!!!!!!!!!!!!!!!!!!!!!!!!!!!!!!!!!!!!!!!!AHHDNDDDDDNDDHHHGA!!!!!!!!!!!!!!!!!!!!!!!!!!!!!!!!!!!!!!!!!!!!!!!%%%%SDDHHHDDDR%%%%D!!!!!!!!!!!!!!!!!!!!!!!!!!!!!!!!!!!!!!!!!!!=!!dOUbZ[V%#%E%#%%%%%%%%!!!%%aE%!!!!!!!!!!!!!!!!!!!!!!!!!!!!!!!!=MMDR6IK=!HRRDRDHHHDDDRDS!!!!%aEa%!!!!!!!!!!!!!!!!!!!!!!!!!!!!!!!!!!!!!!!!,!!!!!!!!!!!!!!!!!!!!!!!!!!!!!!!!",
"!!!!!!!!!!!!!!!!!!!!!AGGHHDSDHDSDHHHGGHC!!!!!!!!!!!!!!!!!!!!!!!!!!!!!!!!!!!!!!!!!!!!!AGGHHDSDHDSDHHHGGHC!!!!!!!!!!!!!!!!!!!!!!!!!!!!!!!!!!!!!!!!!!!!!!!!HRRDRDDDDDRDDHRRRH!!!!!!!!!!!!!!!!!!!!!!!!!!!!!!!!!!!!!!!!!!!9!!!O!UcZZW,%%%,%%%%%E%%!!!!%%%%!!!!!!!!!!!!!!!!!!!!!!!!!!!!!!!!!RRfDRRIF!!ADHHSRS%%%%%%%!!!!%aaE%!!!!!!!!!!!!!!!!!!!!!!!!!!:=!!!!!!!!!!!!!,!!!!!!!!!!!!!!!!!!!!!!!!!!!!!!!",
"!!!!!!!!!!!!!!!!!!!!!CGHHDNNSSSNNDHHHHHC!!!!!!!!!!!!!!!!!!!!!!!!!!!!!!!!!!!!!!!!!!!!!CGHHDNNSSSNNDHHHHHC!!!!!!!!!!!!!!!!!!!!!!!!!!!!!!!!!!!!!!!!!!!!!!!!GGGHDSDHDSDHHHGGGA!!!!!!!!!!!!!!!!!!!!!!!!!!!!!!!!!!!!!!!!!!!=!!!!!%Ub[ZY%%%$%%%%%%%%H!!%aa`%!!!!!!!!!!!!!!!!!!!!!!!!!!%%%!!%%DDDDDRS!!!!GDR%$%%EEE%%%E!!!!%aa%!!!!!!!!!!!!!!!!!!!!!!!!!!!!!!!!=:!!!!!!%%,,%%ACCCA!!!!!!!!!!!!!!!!!!!!!!",
"!!!!!!!!!!!!!!!!!!!!!CHGHHHDNjNDHHHHHHHA!!!!!!!!!!!!!!!!!!!!!!!!!!!!!!!!!!!!!!!!!!!!!CHGHHHDNjNDHHHHHHHA!!!!!!!!!!!!!!!!!!!!!!!!!!!!!!!!!!!!!!!!!!!!!!!CGHHDRRSSSRRDHHHHHC!!!!!!!!!!!!!!!!!!!!!!!!!!!!!!!!!!!!!!!!!!9=!!!!!%%UbTTPDHDSDH%%%%GC!!Ea%aa%!!!!!!!!!!!!!!!!!!!!!!!!!!%%%%aaaHDDDRS!!!!H$%%,SDHGGHS%%!!!!%EE%!!!!!!!!!!!!!!!!!!!!!!!!!!!!!!:!!!!!!!%%%%%%,AGGHHGAA!!!!!!!!!!!!!!!!!!!!",
"!!!!!!!!!!!!!!!!!!!!AGHDDHHDNjNDDHHHGGGA!!!!!!!!!!!!!!!!!!!!!!!!!!!!!!!!!!!!!!!!!!!!AGHDDHHDNjNDDHHHGGGA!!!!!!!!!!!!!!!!!!!!!!!!!!!!!!!!!!!!!!!!!!!!!!!CHGHHHDRjRDHHHHHHHA!!!!!!!!!!!!!!!!!!!!!!!!!!!!!!!!!!!!!!!!!!=!!9!!!AGHdZOPVSSRRDHAGGHA!%a%%aE%!!!!!!!!!!!!!!!!!!!!!!!!!!%aEaaEEHRHRS!!!!!%,SDHGGHHGffD%!!!%%a`a%!!!!!!!!!!!!!!!!!!!!!!!!!!!!!!=G=!!!%%%51/%AGHHHHDGGA!!!!!!!!!!!!!!!!!!!",
"!!!!!!!!!!!!!!!!!!!!CGHHHHDDSjSDHHGHHHGA!!!!!!!!!!!!!!!!!!!!!!!!!!!!!!!!!!!!!!!!!!!!CGHHHHDDSjSDHHGHHHGA!!!!!!!!!!!!!!!!!!!!!!!!!!!!!!!!!!!!!!!!!!!!!!AGHDDHHDRjRDDHHHGGGA!!!!!!!!!!!!!!!!!!!!!!!!!!!!!!!!!!!!!!!!!!!!!=!!!AHQQiVP]jRDHHGHHHGA!%!!%a%!!!!!!!!!!!!!!!!!!!!!!!!%%Ea`EaEa`HDRS!!!%%%AHGGHHHGGGGGfA!!!%%%aa%!!!!!!!!!!!!!!!!!!!!!!!!!!69!66=H=!==%1/-%%AHHHHDGHHHAC!!!!!!!!!!!!!!!!!",
"!!!!!!!!!!!!!!!!!!!!AHGHHHHNSjSNHHHHHGHGA!!!!!!!!!!!!!!!!!!!!!!!!!!!!!!!!!!!!!!!!!!!AHGHHHHNSjSNHHHHHGHGA!!!!!!!!!!!!!!!!!!!!!!!!!!!!!!!!!!!!!!!!!!!!!CGHHHHDDSjSDHHGHHHGA!!!!!!!!!!!!!!!!!!!!!!!!!!!!!!!!!!!!!!!!!!!!!!!!AGGHeVVbPPRRDHHHAAHA!!!!!%%!!!!!!!!!!!!!!!!!!!!!!!!!%%aa%%%%SSSS!!!%%fGGGHHHHDHHGGGGf!!!%!!E%!!!!!!!!!!!!!!!!!!!!!!!!!!69!!RCAA:<!%6==--LDHDRSDHHDGHGAC!!!!!!!!!!!!!!!",
"!!!!!!!!!!!!!!!!!!!AHHHHHHHNj!jNDHHHHHHHA!!!!!!!!!!!!!!!!!!!!!!!!!!!!!!!!!!!!!!!!!!AHHHHHHHNj!jNDHHHHHHHA!!!!!!!!!!!!!!!!!!!!!!!!!!!!!!!!!!!!!!!!!!!!!AHGHHHHRSjSRHHHHHGHGA!!!!!!!!!!!!!!!!!!!!!!!!!!!!!!!!!!!!!!!!!!!!!!!CGHkhVQdOP^RHHDHHHGA!!!!!%!!!!!!!!!!!!!!!!!!!!!!=!!!!!%%!!!!!!!!!!!!fGHHHDHHDRHGHHHGA!!!!!!%%!!!!!!!!!!!!!!!!!!!!!!!!!!=!!!AAAGG=!%13/3LDHDHHDRSRDHGGHGA!!!!!!!!!!!!!!",
"!!!!!!!!!!!!!!!!!!!CGHHHHHDNj!jSNDDHHHHGC!!!!!!!!!!!!!!!!!!!!!!!!!!!!!!!!!!!!!!!!!!CGHHHHHDNj!jSNDDHHHHGC!!!!!!!!!!!!!!!!!!!!!!!!!!!!!!!!!!!!!!!!!!!!AHHHHHHHRj!jRDHHHHHHHA!!!!!!!!!!!!!!!!!!!!!!!!!!!!!!!!!!!!!!!!!!!!!!!CHkiiHQQd^^=HHHHHHHA!!!!!!!!!!!!!!!!!!!!!!!!!!!!96!!!!!!!!!!!!!!!!!fGHGHHDRDDSDHHHGHGf!!!!!%!!!!!!!!!!!!!!!!!!!!!!!!!!!!!!CGDHGR!!!16+5ADDHGGH%a%SDHR%%%!!!!!!!!!!!!!!",
"!!!!!!!!!!!!!!!!!!!CHDDHHDNNS!!jDHHHHHHGA!!!!!!!!!!!!!!!!!!!!!!!!!!!!!!!!!!!!!!!!!!CHDDHHDNNS!!jDHHHHHHGA!!!!!!!!!!!!!!!!!!!!!!!!!!!!!!!!!!!!!!!!!!!!CGHHHHHDRj!jSRDDHHHHGC!!!!!!!!!!!!!!!!!!!!!!!!!!!!!!!!!!!!!!!!!!!!!!!AHhiHQHQQS===HHHHHHGA!!!!!!!!!!!!!!!!!!!!!!!!!!!68!!!!!!!!!!!!!!!!OGHHHHHDDSRSRHHHHHHGf!!!!!!!!!!!!!!!!!!!!!!!!!!!!!!%%!!AAHDGRS!!6=51A=AHR(%%%%%%RD%aEE%!!%!!!!!!!!!!",
"!!!!!!!!!!!!!!!!!!!AHHGGHHDS!!!jjNDHHHHHA!!!!!!!!!!!!!!!!!!!!!!!!!!!!!!!!!!!!!!!!!!AHHGGHHDS!!!jjNDHHHHHA!!!!!!!!!!!!!!!!!!!!!!!!!!!!!!!!!!!!!!!!!!!!CHDDHHDRRS!!jDHHHHHHGA!!!!!!!!!!!!!!!!!!!!!!!!!!!!!!!!!!!!!!!!!!!!!!ACGHHHHDDRS!=66HGHGGCA!!!!!!!!!!!!!!!!!!!!!!!!!!668!!!!!!!!!!!!9!!!APHHHHDHRSMMRDHGHGGHf!!!!!!!!!!!!!!!!!!!!!!!!!!!E!!!%a%%RGRRS!!=!=!5AHD(%%RDH%%%AR%aaa`%%`%!!!!!!!!!",
"!!!!!!!!!!!!!!!!!!!AHHHHDNNNS!!jNDHDDDHGA!!!!!!!!!!!!!!!!!!!!!!!!!!!!!!!!!!!!!!!!!!AHHHHDNNNS!!jNDHDDDHGA!!!!!!!!!!!!!!!!!!!!!!!!!!!!!!!!!!!!!!!!!!!!AHHGGHHDS!!!jjRDHHHHHA!!!!!!!!!!!!!!!!!!!!!!!!!!!!!!!!!!!!!!!!!!!!!!AHHHHDDRRRS!S68FHHHGCA!!!!!!!!!!!!!!!!!!!!!!!!!!!68!!!!!!!U50!!=!!AUTTPDHDRSMMMSDHHGffGGA!!!!!!!!!!!!!!!!!!!!!!!!!!aE%aaE%aERSS!!!!!=!!ACAHHHHHDHHHGAAaaEaEE%%!!!!!!!!!",
"!!!!!!!!!!!!!!!!!!!!AHHHHHDNS!!jSDHHHHHHA!!!!!!!!!!!!!!!!!!!!!!!!!!!!!!!!!!!!!!!!!!!AHHHHHDNS!!jSDHHHHHHA!!!!!!!!!!!!!!!!!!!!!!!!!!!!!!!!!!!!!!!!!!!!AHHHHDRRRS!!jRDHDDDHGA!!!!!!!!!!!!!!!!!!!!!!!!!!!!!!!!!!!!!!!!!!!!!!HGHHHHDDRS!!SRFKKHHHGH!!!!!!!!!!!!!!!!!!!!!!!!!!!8!!!!!!!!T//1/!!OVUUTHHDRSMMMMMRHDHHDHGf!!!!!!!!!!!!!!!!!!!!!!!!!!%aE%%aaaaS!!!!!!!!!CAGGAADHHDHHGHGGAaaaaaE%!!!!!!!!!",
"!!!!!!!!!!!!!!!!!!!!DHDHHDNS%!!!jNDHHHDH!!!!!!!!!!!!!!!!!!!!!!!!!!!!!!!!!!!!!!!!!!!!DHDHHDNS%!!!jNDHHHDH!!!!!!!!!!!!!!!!!!!!!!!!!!!!!!!!!!!!!!!!!!!!!!AHHHHHDRS!!jSDHHHHHHA!!!!!!!!!!!!!!!!!!!!!!!!!!!!!!!!!!!!!!!!!!!!!!!RDDDDDSS!!!SRDKXXHHHD!!!!!!!!!!!!!!!!!!!!!!!!!!!!!!!!!!!!T1111-1TOV[UUDRSHAMMMMRDHDEEaDG!!!!!!!!!!!!!!!!!!!!!!!!=!!%aaaa%%!!!9!!!!!!A=HHHHHGRDRDHDHHACCAaaa%%!!!!!!!!!",
"!!!!!!!!!!!!!!!!!!!!%jSNNNSa%!!!%jSNNNS%!!!!!!!!!!!!!!!!!!!!!!!!!!!!!!!!!!!!!!!!!!!!%jSNNNSa%!!!%jSNNNS%!!!!!!!!!!!!!!!!!!!!!!!!!!!!!!!!!!!!!!!!!!!!!!DHDHHDRS%!!!jRDHHHDH!!!!!!!!!!!!!!!!!!!!!!!!!!!!!!!!!!!!!!!!!!!!!!!!!SRRRSa%!!!!SRDU%DRS%!!!!!!!!!!!!!!!!!!!!!!!!!!!!!!!!!!!!TT10015ddVcZ[VWDDHMMMMSDDaaEE%!!!!!!!!!!!!!!!!!!!!!!!!!9!!!!%%%!!!!!8!!!!!AGHDDRDHHDRSDDDHGHHHGA%%%!!!!!!!!!!",
"!!!!!!!!!!!!!!!!!!!!!%aaaaa%!!!!%aaaaaa%!!!!!!!!!!!!!!!!!!!!!!!!!!!!!!!!!!!!!!!!!!!!!%aaaaa%!!!!%aaaaaa%!!!!!!!!!!!!!!!!!!!!!!!!!!!!!!!!!!!!!!!!!!!!!!!jSRRRS%!!!!%aSRRRS%!!!!!!!!!!!!!!!!!!!!!!!!!!!!!!!!!!!!!!!!!!!!!!!!!%aaaa%!!!!!%SRRRRS%!!!!!!!!!!!!!!!!!!!!!!!!!!!!!!!!!!!!!Q555055m!ORcbZ[YPE%MMMMSaaEEa%!!!!!!!!!!!!!!!!!!!!!!!!!68!!!!!!!!!!!=!!!!!AHR%%%%RDRSSRDRHHHR%%H!!!!!!!!!!!!!",
"!!!!!!!!!!!!!!!!!!!!!%aE``E%!!!!%aaEEa%!!!!!!!!!!!!!!!!!!!!!!!!!!!!!!!!!!!!!!!!!!!!!!%aE``E%!!!!%aaEEa%!!!!!!!!!!!!!!!!!!!!!!!!!!!!!!!!!!!!!!!!!!!!!!!!%aE``E%!!!!%aaEEa%!!!!!!!!!!!!!!!!!!!!!!!!!!!!!!!!!!!!!!!!!!!!!!!!!!!%aE`a%!!!!!%aEEEa%!!!!!!!!!!!!!!!!!!!!!!!!!!!!!!!!!!!!!!!!!!!!!!!!!RcZOPQ`%MMMM%aaE`%%%!!!!!!!!!!!!!!!!!!!!!!668!!!!!!!!!!!!!!!!!=D%aE`E%RS!!!RSDHRE`E%%%%!!!!!!!!!!",
"!!!!!!!!!!!!!!!!!!!!!!%aaaEa%!!!!%E``E%!!!!!!!!!!!!!!!!!!!!!!!!!!!!!!!!!!!!!!!!!!!!!!!%aaaEa%!!!!%E``E%!!!!!!!!!!!!!!!!!!!!!!!!!!!!!!!!!!!!!!!!!!!!!!!!!%aaaEa%!!!!%E``E%!!!!!!!!!!!!!!!!!!!!!!!!!!!!!!!!!!!!!!!!!!!!!!!!!!!%aaaE%!!!!!%aaE`E%!!!!!!!!!!!!!!!!!!!!!!!!!!!!!!!!!!!!!!!!!!!!!!!!!!!QTV]P%MMMMM%aa%aE`%!!!!!!!!!!!!!!!!!!!!!!68!!!!!!!!!!!!!!!!!HD%aaE`E%!!!!!SDH%EE%%aE`%!!!!!!!!!",
"!!!!!!!!!!!!!!!!!!!!!%E``Eaa%!!!!%aaaa%!!!!!!!!!!!!!!!!!!!!!!!!!!!!!!!!!!!!!!!!!!!!!!%E``Eaa%!!!!%aaaa%!!!!!!!!!!!!!!!!!!!!!!!!!!!!!!!!!!!!!!!!!!!!!!!!%E``Eaa%!!!!%aaaa%!!!!!!!!!!!!!!!!!!!!!!!!!!!!!!!!!!!!!!!!!!!!!!!!!!%aEEE%%!!!!!!%aaaa%!!!!!!!!!!!!!!!!!!!!!!!!!!!!!!!!!!!!!!!!!!!!!!!!!!!eVVbO^^MMMM%aE%aaa%!!!!!!!!!!!!!!!!!!!!!!8!!!!!!!!!!!!!!!!!!!RS%aaa%%%!!!!RDD%a%%%aaa%!!!!!!!!!",
"!!!!!!!!!!!!!!!!!!!!%aaEEEaa%!!!%aEE`Ea%!!!!!!!!!!!!!!!!!!!!!!!!!!!!!!!!!!!!!!!!!!!!%aaEEEaa%!!!%aEE`Ea%!!!!!!!!!!!!!!!!!!!!!!!!!!!!!!!!!!!!!!!!!!!!!!%aaEEEaa%!!!%aEE`Ea%!!!!!!!!!!!!!!!!!!!!!!!!!!!!!!!!!!!!!!!!!!!!!!!!%aE`Ea%!!!!!!%aaE`Ea%!!!!!!!!!!!!!!!!!!!!!!!!!!!!!!!!!!!!!!!!!!!!!!!!!!ihQQQ^^==MMM%%aaaa%!!!!!!!!!!!!!!!!!!!!!!!!!!!!!!!!!!!!!!!!!!!E%%%%E`%!!!!!RD%aa%aaa%!!!!!!!!!!",
"!!!!!!!!!!!!!!!!!!!%aEE``Ea%!!!!%aaaEEE%!!!!!!!!!!!!!!!!!!!!!!!!!!!!!!!!!!!!!!!!!!!%aEE``Ea%!!!!%aaaEEE%!!!!!!!!!!!!!!!!!!!!!!!!!!!!!!!!!!!!!!!!!!!!!%aEE``Ea%!!!!%aaaEEE%!!!!!!!!!!!!!!!!!!!!!!!!!!!!!!!!!!!!!!!!!!!!!!!!%%%%%%!!!!!!!%aaEEaa%!!!!!!!!!!!!!!!!!!!!!!!!!!!!!!!!!!!!!!!!!!!!!!!!!!ii%dQa==6FKE%a%%%%!!!!!!!!!!!!!!!!!!!!!!!!!!!!!!!!!!!!!!==!!==%aEEaaa%!!!!!!RS%a%aaa%!!!!!!!!!!",
"!!!!!!!!!!!!!!!!!!!%aaEEaa%!!!!!!%aE``Ea%!!!!!!!!!!!!!!!!!!!!!!!!!!!!!!!!!!!!!!!!!!%aaEEaa%!!!!!%%aE``Ea%!!!!!!!!!!!!!!!!!!!!!!!!!!!!!!!!!!!!!!!!!!!!%aaEEaa%!!!!!!%aE``Ea%!!!!!!!!!!!!!!!!!!!!!!!!!!!!!!!!!!!!!!!!!!!!!!!!!!!!!!!!!!!!%%aaE`Ea%!!!!!!!!!!!!!!!!!!!!!!!!!!!!!!!!!!!!!!!!!!!!!!!hii!Q!!!!!6FKXXaaa%!!!!!!!!!!!!!!!!!!!!!!!!!!!!!!!!!!!!!!!!!!!!!%aaaa%%!!!!!!!!!!%aaa%!!!!!!!!!!!",
"!!!!!!!!!!!!!!!!!!!!%%%%%%!!!!!!!%%%%%%%%!!!!!!!!!!!!!!!!!!!!!!!!!!!!!!!!!!!!!!!!!!!%%%%%%!!!!!!!%%%%%%%%!!!!!!!!!!!!!!!!!!!!!!!!!!!!!!!!!!!!!!!!!!!!!%%%%%%!!!!!!!%%%%%%%%!!!!!!!!!!!!!!!!!!!!!!!!!!!!!!!!!!!!!!!!!!!!!!!!!!!!!!!!!!!!!%%%%%%%%!!!!!!!!!!!!!!!!!!!!!!!!!!!!!!!!!!!!!!!!!!!!!!!!h!!!!!!!!!!KU%%%%!!!!!!!!!!!!!!!!!!!!!!!!!!!!!!!!!!!!!!!!!!!!!!!%%%%!!!!!!!!!!!!!%%%!!!!!!!!!!!!"
};