/* XPM */
static const char *enemy_floor3_red_guard_death_f04[] = {
/* columns rows colors chars-per-pixel */
"64 64 57 1",
"! c None",
"# c #700404",
"$ c #840404",
"% c #AC0C0C",
"& c #C01010",
"' c #980808",
"( c #5C5C5C",
") c #747474",
"* c #000000",
"+ c #848484",
", c #D86464",
"- c #5C0000",
". c #704820",
"/ c #94602C",
"0 c #B08458",
"1 c #C4A080",
"2 c #603814",
"3 c #805424",
"4 c #3C3C3C",
"5 c #D0B094",
"6 c #A8784C",
"7 c #A06C3C",
"8 c #AC0C58",
"9 c #C01064",
": c #740438",
"; c #C42470",
"< c #989898",
"= c #880444",
"> c #98084C",
"? c #980088",
"@ c #C4C824",
"A c #500024",
"B c #480000",
"C c #340000",
"D c #200000",
"E c #2C2C2C",
"F c #4C4C4C",
"G c #008C8C",
"H c #78E0E0",
"I c #00A4A4",
"J c #007474",
"K c #00BCBC",
"L c #502400",
"M c #004444",
"N c #AC580C",
"O c #884404",
"P c #10C0C0",
"Q c #005C5C",
"R c #402810",
"S c #CC8038",
"T c #5CD8D8",
"U c #C06410",
"V c #003064",
"W c #CC3838",
"X c #043C74",
"Y c #0C5CAC",
"Z c #40D0D0",
"!!!!!!!!!!!!!!!!!!!!!!!!!!!!!!!!!!!!!!!!!!!!!!!!!!!!!!!!!!!!!!!!",
"!!!!!!!!!!!!!!!!!!!!!!!!!!!!!!!!!!!!!!!!!!!!!!!!!!!!!!!!!!!!!!!!",
"!!!!!!!!!!!!!!!!!!!!!!!!!!!!!!!!!!!!!!!!!!!!!!!!!!!!!!!!!!!!!!!!",
"!!!!!!!!!!!!!!!!!!!!!!!!!!!!!!!!!!!!!!!!!!!!!!!!!!!!!!!!!!!!!!!!",
"!!!!!!!!!!!!!!!!!!!!!!!!!!!!!!!!!!!!!!!!!!!!!!!!!!!!!!!!!!!!!!!!",
"!!!!!!!!!!!!!!!!!!!!!!!!!!!!!!!!!!!!!!!!!!!!!!!!!!!!!!!!!!!!!!!!",
"!!!!!!!!!!!!!!!!!!!!!!!!!!!!!!!!!!!!!!!!!!!!!!!!!!!!!!!!!!!!!!!!",
"!!!!!!!!!!!!!!!!!!!!!!!!!!!!!!!!!!!!!!!!!!!!!!!!!!!!!!!!!!!!!!!!",
"!!!!!!!!!!!!!!!!!!!!!!!!!!!!!!!!!!!!!!!!!!!!!!!!!!!!!!!!!!!!!!!!",
"!!!!!!!!!!!!!!!!!!!!!!!!!!!!!!!!!!!!!!!!!!!!!!!!!!!!!!!!!!!!!!!!",
"!!!!!!!!!!!!!!!!!!!!!!!!!!!!!!!!!!!!!!!!!!!!!!!!!!!!!!!!!!!!!!!!",
"!!!!!!!!!!!!!!!!!!!!!!!!!!!!!!!!!!!!!!!!!!!!!!!!!!!!!!!!!!!!!!!!",
"!!!!!!!!!!!!!!!!!!!!!!!!!!!!!!!!!!!!!!!!!!!!!!!!!!!!!!!!!!!!!!!!",
"!!!!!!!!!!!!!!!!!!!!!!!!!!!!!!!!!!!!!!!!!!!!!!!!!!!!!!!!!!!!!!!!",
"!!!!!!!!!!!!!!!!!!!!!!!!!!!!!!!!!!!!!!!!!!!!!!!!!!!!!!!!!!!!!!!!",
"!!!!!!!!!!!!!!!!!!!!!!!!!!!!!!!!!!!!!!!!!!!!!!!!!!!!!!!!!!!!!!!!",
"!!!!!!!!!!!!!!!!!!!!!!!!!!!!!!!!!!!!!!!!!!!!!!!!!!!!!!!!!!!!!!!!",
"!!!!!!!!!!!!!!!!!!!!!!!!!!!!!!!!!!!!!!!!!!!!!!!!!!!!!!!!!!!!!!!!",
"!!!!!!!!!!!!!!!!!!!!!!!!!!!!!!!!!!!!!!!!!!!!!!!!!!!!!!!!!!!!!!!!",
"!!!!!!!!!!!!!!!!!!!!!!!!!!!!!!!!!!!!!!!!!!!!!!!!!!!!!!!!!!!!!!!!",
"!!!!!!!!!!!!!!!!!#$!!!!!!!!!!!!!!!!!!!!!!!!!!!!!!!!!!!!!!!!!!!!!",
"!!!!!!!!!!!!!!!!!!!!!!%&!!!!!!!!!!!!!!!!!!!!!!!!!!!!!!!!!!!!!!!!",
"!!!!!!!!!!!!!!!!!!!!!!!!!!!!!!!'!!(!!!!!!!!!!!!!!!!!!!!!!!!!!!!!",
"!!!!!!!!!!!!!!!!!!!!!&!!!!!!!!!!!!)*!!!!!!!!!!!!!!!!!!!!!!!!!!!!",
"!!!!!!!!!!!!!!!!!!!!!!!!'!!!!!!!***+**!!!!!!!!!!!!!!!!!!!!!!!!!!",
"!!!!!!!!!!!!!!!!!$!!!!!!!!,!!!*****+***!!!!!!!!!!!!!!!!!!!!!!!!!",
"!!!!!!!!!!!!!!!!-!!!!!!!!!!!!***.***+***!!!!!!!!!!!!!!!!!!!!!!!!",
"!!!!!!!!!!!!!!!!!!!!!!!!!!!!!**/0/**+*(*!!!!!!!!!!!!!!!!!!!!!!!!",
"!!!!!!!!!!!!!!!!!!!!!!!!!!!!!*11/0.******!!!!!!!!!!!!!!!!!!!!!!!",
"!!!!!!!!!!!!!!!!!!!!!!!!!!!!!!/2*3/4****!!!!!!!!!!!!!!!!!!!!!!!!",
"!!!!!!!!!!!!!!!!!'!!!,!!!!!!!!2.250/**/3!!!!!!!!!!!!!!!!!!!!!!!!",
"!!!!!!!!!!!!!!!!!!!!!!!!!!!!!!0//676/.678!!9999!!!!!!!!!!!!!!!!!",
"!!!!!!!!!!!!!!!!!!!!!!!!!!,!!!!32*/6/.08:998888;9!!!!!!!!!!!!!!!",
"!!!!!!!!!!!!!!$'!!!!!!!!!!!&!!!!<376/368:=88>>>8;9!!!!!!!!!!!!!!",
"!!!!!!!!!!!!!-!!!!!!!!!&!!!&!!!,?01.3/8@@=>:>>8>>>8;!!!!!!!!!!!!",
"!!!!!!!!!!!!!!!!!!!!!!!!!!&!&!!&$&..8>@@>>=AA=>>>88>;!!!!!!!!!!!",
"!!!!!!!!!!!!!!!!!!!!!!!!!!!!!!!$,98&>>>>=::==A=>>>>>>9!!!!!!!!!!",
"!!!!!!!!!!!!!!!!!!!!!!!!&',&!!#-&&'8>>=:=>8>=:A=>>==>9!!!!!!!!!!",
"!!!!!!!!!!!!!!!!!!!!!!!9&#B-&!-&;>&>>>>88>>=:=AA:=:>8;9!!!!!!!!!",
"!!!!!!!!!!!!!!!!!!!!!!&?;&CD&!B;&&>=:A:===>>==A!!:=>>>;!!!!!!!!!",
"!!!!!!!!!!!!!!!!!!!!!&??>;BCB!!:'=&A=>>=::===::!!:=E4F9!!!!!!!!!",
"!!!!!!!!!!!!!!!!!!!!!&??=:'BC&!>::=:=>>>===:=A!!!!*E4E*!!!!!!!!!",
"!!!!!!!!!!!!!!!!!!!!!!::;=::B-!!9=>>A:A*******!!!!*EE4*!!!!!!!!!",
"!!!!!!!!!!!!!!!***!!**=====:A!!!!8=:*(**444***4!!!!*EE*!!!!!!!!!",
"!!!!!!!!!!!!!!!!****EEE>===:A!!!!>(**+A=>88>A**!!!!*44*!!!!!!!!!",
"!!!!!!!!!!!!!!!!*E4EE44>:>:A!!!!!*+A=>88>>8;;=*!!!**EFE*!!!!!!!!",
"!!!!!!!!!!!!!**4EF4E4EF>=:A!!!***9>88>>>88888;9!!!***EE*!!!!!!!!",
"!!!!!!!!!!!!!!**EE****AAAA!!!**;888>>>>=>>8888;!!!*!!4*!!!!!!!!!",
"!!!!!!!!!!&!!!!!**!!!!!!!!!!!!;8>>>=>>=:>8>>>89!!!!!!**!!!!!!!!!",
"!!!!!!!!!!$'!!!!!!!!!!!!!!!!!;8>8>>=:==A=>>>8>8;!!!!!*!!!!!!!!!!",
"!!!!!!!!!!'#!!!!!!!!!!!!!!!!G8>>>>>==A:A:>>>>>>8;!!!!!!!!!!!!!!!",
"!!!!!!!!!''#!!!!!!!!!!!!$!!!9H>>>>=>:A??:=>8>88>;!!!!!!!!!!!!!!!",
"!!!!!!!!!!'#!!!!!!!I2.!!&!!9IJJH=>=:A???A=>>8;;889!!!!!!!!!!!!!!",
"!!!!!!!!!!#!!!!!!!!J7737!!GKIIJ>>=:A?????:>=>>=>8;!!!!!!!!!!!!!!",
"!!!!!!!!!!!!!!!!!!!J333303JGKLII=:A>9????:=>=44E=8!!!!!!!!!!!!!!",
"!!!!!!!!!!!!!!!!!!!JJ3..32MMKNOLKP==>????A==EE44*!!!!!!!!!!!!!!!",
"!!!!!!!!!!!!!!!!!!!Q222.22R!G:NSOLTH4*????AEE44E*!!!!!!!!!!!!!!!",
"!!!!!!!!!!!!!!!!!!!!!!!!!!!!!!!:NOGHQF*????*EE4F***!!!!!!!!!!!!!",
"!!!!!!!!!!!!!!!!!!!!!!!!!!!!!!!!!QJKUH*?????*EE*E4F*!!!!!!!!!!!!",
"!!!!!!!!!!!!!!!!!!!!!!!!!!!!!!!!!VKKSGWW????*E4*EEE*!!!!!!!!!!!!",
"!!!!!!!!!!!!!!!!!!!!!!!!!!!!!!!!!XYQQQWW&&???**EEEE*!!!!!!!!!!!!",
"!!!!!!!!!!!!!!!!!!!!!!!!!!!!!!!!!XX*MQE&&'-C4*E****!!!!!!!!!!!!!",
"!!!!!!!!!!!!!!!!!!!!!!!!!!!!!!!YXX!Q!!!!!'-CZZEEE*!!!!!!!!!!!!!!",
"!!!!!!!!!!!!!!!!!!!!!!!!!!!!!!!!Y!!!!!!!!!!CI****!!!!!!!!!!!!!!!"
};