/* XPM */
static char *boss_floor1_death_f04[] = {
"64 64 32 1",
"a	c None",
"b	c #00C000",
"c	c #00A400",
"d	c #005C00",
"e	c #007400",
"f	c #44D444",
"g	c #008C00",
"h	c #10C410",
"i	c #00140C",
"j	c #002C1C",
"k	c #004428",
"l	c #007448",
"m	c #04A468",
"n	c #048C58",
"o	c #005C38",
"p	c #28CC28",
"q	c #4C4C4C",
"r	c #04BC78",
"s	c #60D8AC",
"t	c #18C084",
"u	c #48D09C",
"v	c #30C890",
"w	c #480000",
"x	c #5C0000",
"y	c #700404",
"z	c #007474",
"A	c #5CD8D8",
"B	c #005C5C",
"C	c #001414",
"D	c #008C8C",
"E	c #00A4A4",
"F	c #78E0E0",
"aaaaaaaaaaaaaaaaaaaaaaaaaaaaaaaaaaaaaaaaaaaaaaaaaaaaaaaaaaaaaaaa",
"aaaaaaaaaaaaaaaaaaaaaaaaaaaaaaaaaaaaaaaaaaaaaaaaaaaaaaaaaaaaaaaa",
"aaaaaaaaaaaaaaaaaaaaaaaaaaaaaaaaaaaaaaaaaaaaaaaaaaaaaaaaaaaaaaaa",
"aaaaaaaaaaabaaaaaaaaaaaaaaaaaaaaaaaaaaaaaaaaaaaaaaaaaaaaaaaaaaaa",
"aaaaaaaaaaaaaaaaaaaaaaaaaaaaaaaaaaaaaaaaaaaaaaaaaaaaaaaaaaaaaaaa",
"aaaaaaaaaaaaaaaaaaaaaaaaaaaaaaaaaaaaaaaaaaaaaaaaaaaaaaaaaaaaaaaa",
"aaaaaaaaaaaaacaaaaaaaaaaaaaaaaaaaaaaaaaaaaaaaaaaaaaaaaaaaaaaaaaa",
"aaaaaaaaaaaaaaaaaaaaaaaaaaaaaaaaaaaaaaaaaaaaaaaaaaaaaaaaaaaaaaaa",
"aaaaaaaaaaaaaaaacaaaacaaaaaaaaaaaaaaaaaaaaaaaaaaaaaaaaaaaaaaaaaa",
"aaaaaaaaaaaadeaaaaaaaaaaaaaaaaaaaaaaaaaaaaaaaaaaaaaaaaaaaaaaaaaa",
"aaaaaaaaaaaaafgaadeaaaaaaaaaaaaaaaaaaaaaaaaaaaaaaaaaaaaaaaaaaaaa",
"aaaaaaaaaaabaahaaafgaaaaaaiiiaaaaaaaaaaaaaaaaaaaaaaaaaaaaaaaaaaa",
"aaaaaaaaaaaaaaahaaahaaaaaiiijiaaaaaaaaaaaaaaaaaaaaaaaaaaaaaaaaaa",
"aaaaaaaaaaaaaaaaaaaahaaaaiiklkaaaaaaaaaaaaaaaaaaaaaaaaaaaaaaaaaa",
"aaaaaaaaaaadeaaaaaaaaaacaiklmnjaaaaaaaaaaaaaaaaaaaaaaaaaaaaaaaaa",
"aaaaaaaaaaaafgacaafgaaaaaijonojaaaaaaaaaaaaaaaaaaaaaaaaaaaaaaaaa",
"aaaaaaaaaaaaahaaaaaaaceaaakiklkaaaaaaaaaaaaaaaaaaaaaafaaaaaaaaaa",
"aaaaaaaaaaaaaahaaafgaaaaaaiklmnjaaaaaaaaaaaaaaaaaaaapeaaaaaaaaaa",
"aaaaaaaaaaaaaaaaaacaaaaaaaijonojaaaaaaaaaaaaaaaaaaapeaaaaaaaaaaa",
"aaaaaaaaaaaaaaaaaacaagaceaakiklkkaaaaaaaaaafaaacaaggaaaagaaaaaaa",
"aaaaaaaaaaaaaaaaaaaafgaaaaaiklmnjaaaaaaaaapeaaaaagaaaaaaaaaaaaaa",
"aaaaaaaaaaaaaaaaaaaafgaceaaijonojaaaaaaaapeaaacaaaaaaaaaaaaaaaaa",
"aaaaaaaaaaaaaaaaaaaaaaaaaaaaiklkkaaaaaaaggaaacacaaaaaaaaaaaaaaaa",
"aaaaaaaaaaaaaaaaaaagdagaaaaiklmnjaaaaaaaaaaaaaaaaaagaaaaaaaaaaaa",
"aaaaaaaaaaaaaaaaaaaaaafaacaijonojaaaaaaaaabaabaaaaaaaaaaaaaaaaaa",
"aaaaaaaaaaaaaaaaaaaaaaaaaaaaiklkkaabaaaabagaaaaaaahaaaaaaaaaaaaa",
"aaaaaaaaaaaaaaaaaaaaaaaaeaaiklmnjaaaaacaaaaaabgaaaaaaaaaaaaaaaaa",
"aaaaaaaaaaaaaaaaaaaaaadacacijonojaapaaaaaaaaaaaaaaaaaaaaaaaaaaaa",
"aaaaaaaaaaaaaaaaaaaaacdaajjjjjjjijaaafdaabagaaaaaaaaaaaaaaaaaaaa",
"aaaaaaaaaaaaaaaaaaaaaaaajjikmnlokjjafedaaaaaaaaaaaaaaaaaaaaaaaaa",
"aaaaaaaaaaaaaaaaaaaaaaajkiknkjjhjpoddaaafaaaaaaaaaaaaaaaaaaaaaaa",
"aaaaaaaaaaaaaaaaaaaaaajknokjiqiiqilojaapeaaabaaaaaaaaaaaaaaaaaaa",
"aaaaaaaaaaaaaaaaaaaaajknrnjkolhgkhlmojpeaaaagaaaaaaaaaaaaaaaaaaa",
"aaaaaaaaaaaaaaaaaaaaajklnlkijjgbjcblkggaaaaaaaaaaaaaaaaaaaaaaaaa",
"aaaaaaaaaaaaaaaaaaaajjkjjjkjiijhjjcijkjaaagaaaaaaaaaaaaaaaaaaaaa",
"aaaaaaaaaaaaaaaaaaakolnmnlokjijgkolnnlokaaaaaaaaaaaaaaaaaaaaaaaa",
"aaaaaaaaaaaakkkkkkkolnmstmnlkjjeljkkkonokaaaaaaaaaaaaaaaaaaaaaaa",
"aaaaaaaaaaaklnmnlokkkolnnllokjjejolnlojkkkaaaaaaaaaaaaaaaaaaaaaa",
"aaaaaaaaaakonrsmlkjjkrnlkookjjjjklmumloonlokkkkaaaaaaaaaaaaaaaaa",
"aaaaaaaaakolmsmlkjiionlokjkjjjjkkklmnlolumlkoookaaaaaaaaaaaaaaaa",
"aaaaaaaaajknrnokjokikkkkkjilokolnlollokomnnkmnlokaaaaaaaaaaaaaaa",
"aaaaaaaaajkonokjklkilokjkjiiiilmumlonnkjkkkomsnlokaaaaaaaaaaaaaa",
"aaaaaaaaajjkokjijnoimlkjjjijijkkolojvmkolnlolrmnokjjjaaaaaaaaaaa",
"aaaaaaaaajkjjkkijloinojjkjikkklnlokornkkolmlknnlojjkjjaaaaaaaaaa",
"aaaaaaaaajokkklojkkilkjiokiokomumloknojikonokolojjokkjjjaaaaaaaa",
"aaaaaaaaajklokonojkikkjilkikjklmnnkjlokiikokjkokjkkokjkkjaaaaaaa",
"aaaaaaaajjkkkjjokkkkkkjiokijiikookjjokkjjikjajjjkjkkjkllkjaaaaaa",
"aaaaaaaajomnkjajjkllooojjjiiwjkjjjjklokkjijaaaaiikiijolrnjaaaaaa",
"aaaaaaaajlmlojajklokkkkkjjixyklnkjkklokkjaaaaaaaaiijjkonmkjaaaaa",
"aaaaaaajkmnokjajkokjjjjkjjixykoljjoknokojaaaaaaaaaaajjkjjnkjaaaa",
"aaaaaaajkmlkjjajjokjiijkjiiaxwkojjlkmlkljjaaaaaaaaaaajjjjlojjaaa",
"aaaaaaazAzBjaaaajkkjjijkjjiaaajkkjokrlkojojaaaaaaaaaaaajkkokjaaa",
"aaaaaaazCCBjaaaajjkkjjjjjiaaaaajjjkkmokkjjjjjaaaaaaaaaajjjlkjaaa",
"aaaaaajDCCBaaaaaajjkjjjjjiaaaaaaaajknkkjjkokkjaaaaaaaaajkojjaaaa",
"aaaaajkDEzBjaaaaaaijkkkjiiaaaaaaaajklkjjklrnokaaaaaaaaaajjjaaaaa",
"aaaaajozFzBjaaaaaaaiiiiiiaaaaaaaaajkjjjjonurnoaaaaaaaaaaaaaaaaaa",
"aaaaaajDCCBjaaaaaaaaiiiiaaaaaaaaaakjkokkklrmlkaaaaaaaaaaaaaaaaaa",
"aaaaaaaDCCDaaaaaaaaaaaaaaaaaaajjjjjklrnojkookaaaaaaaaaaaaaaaaaaa",
"aaaaaaaaDDaaaaaaaaaaaaajjjjjjjkokkjonurnojkkaaaaaaaaaaaaaaaaaaaa",
"aaaaaaaaaaaaaaaaaaajjjjkjkokjklrnokklrmlokaaaaaaaaaaaaaaaaaaaaaa",
"aaaaaaaaaaaaaaajjjjkkjmlklrokonurnojkooojaaaaaaaaaaaaaaaaaaaaaaa",
"aaaaaaaaaaajjjjjklnuloumklrloklrmloaaaaaaaaaaaaaaaaaaaaaaaaaaaaa",
"aaaaaaaaaaaaaaaaakkoookkjkookjkoookaaaaaaaaaaaaaaaaaaaaaaaaaaaaa",
"aaaaaaaaaaaaaaaaaaaaaaaaaaaaaaaaaaaaaaaaaaaaaaaaaaaaaaaaaaaaaaaa"
};
