/* XPM */
static char *boss_floor1_death_f02[] = {
"64 64 39 1",
"a	c None",
"b	c #00A400",
"c	c #28CC28",
"d	c #10C410",
"e	c #98E898",
"f	c #007400",
"g	c #5CD85C",
"h	c #005C38",
"i	c #004428",
"j	c #00C000",
"k	c #002C1C",
"l	c #007448",
"m	c #048C58",
"n	c #04BC78",
"o	c #18C084",
"p	c #04A468",
"q	c #00140C",
"r	c #30C890",
"s	c #48D09C",
"t	c #B8ECB8",
"u	c #78E078",
"v	c #60D8AC",
"w	c #008C00",
"x	c #7CE0BC",
"y	c #007474",
"z	c #5CD8D8",
"A	c #005C5C",
"B	c #78E0E0",
"C	c #340000",
"D	c #98E4E4",
"E	c #B4ECEC",
"F	c #480000",
"G	c #5C0000",
"H	c #001414",
"I	c #200000",
"J	c #008C8C",
"K	c #00A4A4",
"L	c #700404",
"M	c #000000",
"aaaaaaaaaaaaaaaaaaaaaaaaaaaaaaaaaaaaaaaaaaaaaaaaaaaaaaaaaaaaaaaa",
"aaaaaaaaaaaaaaaaaaaaaaaaaaaaaaaabaaaaaaaaaaaaaaaaaaaaaaaaaaaaaaa",
"aaaaaaaaaaaaaaaaaaaaaaaaaaaaacadbaaabaaaaaaaaaaaaaaaaaaaaaaaaaaa",
"aaaaaaaaaaaaaaaaaaaaaaaaaaaaaaabaaaaaaaaaaaaaaaaaaaaaaaaaaaaaaaa",
"aaaaaaaaaaaaaaaaaaaaaaaaaaacaefaaeaaaaaaaaaaaaaaaaaaaaaaaaaaaaaa",
"aaaaaaaaaaaaaaaaaaaaaaaaaaaaagfaefabaaaaaaaaaaaaaaaaaaaaaaaaaaaa",
"aaaaaaaaaaaaaaaaaaaaaaaaaahhiajafakihhaaaaaaaaaaaaaaaaaaaaaaaaaa",
"aaaaaaaaaaaaaaaaaaaaaaaaahlmliihhiilmlhaaaaaaaaaaaaaaaaaaaaaaaaa",
"aaaaaaaaaaaaaaaaaaaaaaaaahlnomhmmhmonlhaaaaaaaaaaaaaaaaaaaaaaaaa",
"aaaaaaaaaaaaaaaaaaaaaaaaahhlpomhhmoplhhaaaaaaaaaaaaaaaaaaaaaaaaa",
"aaaaaaaaaaaaaaaaaaaaaaaaaiiihlpllplhiiiaaaaaaaaaaaaaaaaaaaaaaaaa",
"aaaaaaaaaaaaaaaaaaaaaaaaiihiqilllliqihikaaaaaaaaaaaaaaaaaaaaaaaa",
"aaaaaaaaaaaaaaaaaaaaaaaaihmhkqihmhikhmhkaaaaaaaaaaaaaaaaaaaaaaaa",
"aaaaaaaaaaaaaaaaaaaaaaaaihhmhqhmpmhlmiirnmaaaaaaaaaaaaaaaaaaaaaa",
"aaaaaaaaaaaaaaaaaaaaaaaakiilikmpmlihihrqqqiaaaaaaaaaaaaaaaaaaaaa",
"aaaaaaaaaaaaaaaaaaaaaaaakkiikimomiihmhrqqqiaaaaaaaaaaaaaaaaaaaaa",
"aaaaaaaaaaaaaaaaaaaaaaaaqqkkqimlhmplnhnqqqiaaaaaaaaaaaaaaaaaaaaa",
"aaaaaaaaaaaaaaaiiiiiiikaaqqkqkhmopsmhiiplhaaaaaaaaaaaaaaaaaaaaaa",
"aaaaaaaaaaaaaaihhhhhhiikkqqkkqkihihiiikqkjkaaaaaaaaaaaaaaaaaaaaa",
"aaaaaaaaaaaaaihmsopllhhiikkqkqqkkiiikkqtiukkkiiiiiaaaaaaaaaaaaaa",
"aaaaaaaaaaaaihmrnmpplhhlhhikqqkqqqkqqkjuulhhiihhhhiaaaaaaaaaaaaa",
"aaaaaaaaaaaakimnppopmmpovspmhiqqqqiihmwcvuhmhlnpsphiaaaaaaaaaaaa",
"aaaaaaaaaaaakkhpmppmlmovxvrplhikqkihlpmjivohlmpxvsphiaaaaaaaaaaa",
"aaaaaaaaaaaakqihlmllimppmmpmlhikikihlmqqqvpihlmxnpshiaaaaaaaaaaa",
"aaaaaaaaaaaakqkkhhiqillllllllhikqkhillpsvmihlhlomlphiaaaaaaaaaaa",
"aaaaaaaaaaakikqqqqqqkiiiiiiikiikikkkkiiiiiiikhhmlmlhiaaaaaaaaaaa",
"aaaaaaaaaaakhliikqqqkkkkkkkkiiikikihhkkkkkkkkkihhhikkkaaaaaaaaaa",
"aaaaaaaaaaakilhikqkikikkkkhmpomiiimopmikkkiikqqkikkkkkkaaaaaaaaa",
"aaaaaaaaaakkkiikqqikihhikhlpomlihilmoplikihhiqkkkkihiikkaaaaaaaa",
"aaaaaaaaaakkqqqkhikqkhlhkhlmlmhihihmlmlhihlhkqqqikiihikkaaaaaaaa",
"aaaaaaaaaakiikqkkkakqihhiihihhiikiihhihiihhiqkaqkikiikkikaaaaaaa",
"aaaaaaaaakhpmikqkaaaqkikiihlmomiqimomiiikhikqaaaqkiqkimhikaaaaaa",
"aaaaaaaaaklplhkkaaaaaqkhihhhlmliiilmplhiikkqaaaaaqqqkklplikaaaaa",
"aaaaaaaakipmhikaaaaaakiiiiikhlikikiimlhikkqqaaaaaaaqkkhlnmkaaaaa",
"aaaaaaaakiplikaaaaaaqkipmhikiihiiimpmiikiqqaaaaaaaaakkihmpikaaaa",
"aaaaaaaayzyAkaaaaaaqqkimllikqkkiiihmhhkihqqaaaaaaaaaakkihhhkaaaa",
"aaaaaaaayByAkaaaaaaqqqkhlikkhiqkhkkiikqkkqqaaaaaaaaaaakkkhikkaaa",
"aaaaaaakyByAaaaaaaaqqqkkhikhlhqqCqqqqqqqqkkqaaaaaaaaaaaakkmikaaa",
"aaaaaakiyDyAkaaaaaaqkkkkhkkihikqqCCCCqqqqqkkqaaaaaaaaaaaaklhkkaa",
"aaaaaakhyEyAkaaaaaaqkkiilikkkkkqqFFFFFqqihiikqaaaaaaaaaakiihikaa",
"aaaaaaakyDyAkaaaaaaakiiiliikqkqqqGGFFqqqkiiiiiiaaaaaaaaakkklikaa",
"aaaaaaaayHHAaaaaaaaakhihmihkqkqqCFFIqkkkkilmpliaaaaaaaaakihkkaaa",
"aaaaaaaaJHHAaaaaaaaaklilpilkqqqkFCCqkikkkhmxvphiaaaaaaaaakkkaaaa",
"aaaaaaaaKKyAaaaaaaaakkilnihkqqaLFCCqkhiikihlmlhiaaaaaaaaaaaaaaaa",
"aaaaaaaaKEyAaaaaaaaaakihpiikqaGLFCqkilhikkiiihiiaaaaaaaaaaaaaaaa",
"aaaaaaaaJByAaaaaaaaaakiimikaaaaLFkqkimhkiihhhiiaaaaaaaaaaaaaaaaa",
"aaaaaaaaJHHAaaaaaaaaakkilikaaaaaCaqkihikihmxpiiaaaaaaaaaaaaaaaaa",
"aaaaaaaaJHHAaaaaaaaaaakihikaaaaaaaqqkikiiilpmliaaaaaaaaaaaaaaaaa",
"aaaaaaaaaKKaaaaaaaaaaakhhkaaaaaaaaakiihlmlhllhiaaaaaaaaaaaaaaaaa",
"aaaaaaaaaaaaaaaaaaaaaakhikaaaaaaaakiihlpspliiiaaaaaaaaaaaaaaaaaa",
"aaaaaaaaaaaaaaaaaaaaaaklikaaaaaaaihhplhlpmmikaaaaaaaaaaaaaaaaaaa",
"aaaaaaaaaaaaaaaaaaaaaaklikkkkaaaihlpxplihlhiaaaaaaaaaaaaaaaaaaaa",
"aaaaaaaaaaaaaaaaaaaaakkkkiiiikkkiihlophikiikaaaaaaaaaaaaaaaaaaaa",
"aaaaaaaaaaaaaaaaaaakkiikkiplhikkkkkkkkkkkkkkkaaaaaaaaaaaaaaaaaaa",
"aaaaaaaaaaaaaaaaakkkhlhkkisplhkiiiikkkiiiiiiikaaaaaaaaaaaaaaaaaa",
"aaaaaaikaaaaaaakkiihsplhkiihhhiiplhikhplhhlhikaaaaaaaaaaaaaaaaaa",
"aaaaaikaaaaaakkkplhiihhhikkkkkiisplhkmspimspikaaaaaaaaaaaaaaaaaa",
"aaaaikaaaaakkiihsplikkkkaaaaakkiihhhiihiihmlikaaaaaaaaaaaaaaaaaa",
"aaaaihkaakkkplhhihikaaaaaaaaaaakkkkkkkkkkakkkaaaaaaaaaaaaaaaaaaa",
"aaaaahhkkiihspliaaaaaaaaaaaaaaaaaaaqkilkaaaaaaaaaaaaaaaaaaaaaaaa",
"aaaaaailmslhiiaaaaaaaaaaaaaaaaaaaaaqkkhkkaaaaaaaaaaaaaaaaaaaaaaa",
"aaaaaaaiihhaaaaaaaaaaaaaaaaaaaaaaaaMkkhhkiaaaaaaaaaaaaaaaaaaaaaa",
"aaaaaaaaaaaaaaaaaaaaaaaaaaaaaaaaaaakkhililkaaaaaaaaaaaaaaaaaaaaa",
"aaaaaaaaaaaaaaaaaaaaaaaaaaaaaaaaaaaakkkkkkaaaaaaaaaaaaaaaaaaaaaa"
};
