/* XPM */
static char *boss_floor1_death_sheet[] = {
"384 64 50 1",
"a	c None",
"b	c #004428",
"c	c #002C1C",
"d	c #00A400",
"e	c #005C38",
"f	c #28CC28",
"g	c #10C410",
"h	c #007448",
"i	c #00C000",
"j	c #98E898",
"k	c #007400",
"l	c #008C00",
"m	c #048C58",
"n	c #04A468",
"o	c #7CE0BC",
"p	c #30C890",
"q	c #5CD85C",
"r	c #18C084",
"s	c #00140C",
"t	c #04BC78",
"u	c #44D444",
"v	c #005C00",
"w	c #48D09C",
"x	c #60D8AC",
"y	c #B8ECB8",
"z	c #78E078",
"A	c #747474",
"B	c #4C4C4C",
"C	c #5C5C5C",
"D	c #545454",
"E	c #9CE4C8",
"F	c #B8ECD8",
"G	c #480000",
"H	c #5C0000",
"I	c #007474",
"J	c #5CD8D8",
"K	c #005C5C",
"L	c #78E0E0",
"M	c #700404",
"N	c #340000",
"O	c #98E4E4",
"P	c #B4ECEC",
"Q	c #840404",
"R	c #001414",
"S	c #200000",
"T	c #000000",
"U	c #008C8C",
"V	c #00A4A4",
"W	c #004400",
"X	c #40D0D0",
"aaaaaaaaaaaaaaaaaaaaaaaaaaaaaaaaaaaaaaaaaaaaaaaaaaaaaaaaaaaaaaaaaaaaaaaaaaaaaaaaaaaaaaaaaaaaaaaaaaaaaaaaaaaaaaaaaaaaaaaaaaaaaaaaaaaaaaaaaaaaaaaaaaaaaaaaaaaaaaaaaaaaaaaaaaaaaaaaaaaaaaaaaaaaaaaaaaaaaaaaaaaaaaaaaaaaaaaaaaaaaaaaaaaaaaaaaaaaaaaaaaaaaaaaaaaaaaaaaaaaaaaaaaaaaaaaaaaaaaaaaaaaaaaaaaaaaaaaaaaaaaaaaaaaaaaaaaaaaaaaaaaaaaaaaaaaaaaaaaaaaaaaaaaaaaaaaaaaaaaaaaaaaaaaaaaaaaaaaaaaaaaa",
"aaaaaaaaaaaaaaaaaaaaaaaaaaaaaaabbbbcaaaaaaaaaaaaaaaaaaaaaaaaaaaaaaaaaaaaaaaaaaaaaaaaaaaaaaaaaaaaaaaaaaaaaaaaaaaaaaaaaaaaaaaaaaaaaaaaaaaaaaaaaaaaaaaaaaaaaaaaaaaadaaaaaaaaaaaaaaaaaaaaaaaaaaaaaaaaaaaaaaaaaaaaaaaaaaaaaaaaaaaaaaaaaaaaaaaaaaaaaaaaaaaaaaaaaaaaaaaaaaaaaaaaaaaaaaaaaaaaaaaaaaaaaaaaaaaaaaaaaaaaaaaaaaaaaaaaaaaaaaaaaaaaaaaaaaaaaaaaaaaaaaaaaaaaaaaaaaaaaaaaaaaaaaaaaaaaaaaaaaaaaaa",
"aaaaaaaaaaaaaaaaaaaaaaaaaaaaaabbeeebcaaaaaaaaaaaaaaaaaaaaaaaaaaaaaaaaaaaaaaaaaaaaaaaaaaaaaaaabbbccaaaaaaaaaaaaaaaaaaaaaaaaaaaaaaaaaaaaaaaaaaaaaaaaaaaaaaaaaaafagdaaadaaaaaaaaaaaaaaaaaaaaaaaaaaaaaaaaaaaaaaaaaaaaaaaaaaaaaaaaaaaaaaaaaaaaaaaaaaaaaaaaaaaaaaaaaaaaaaaaaaaaaaaaaaaaaaaaaaaaaaaaaaaaaaaaaaaaaaaaaaaaaaaaaaaaaaaaaaaaaaaaaaaaaaaaaaaaaaaaaaaaaaaaaaaaaaaaaaaaaaaaaaaaaaaaaaaaaaaaaaa",
"aaaaaaaaaaaaaaaaaaaaaaaaaaaaabeehhebcaaaaaaaaaaaaaaaaaaaaaaaaaaaaaaaaaaaaaaaaaaaaaaaaaaaaaabbeeeebcaaaaaaaaaaaaaaaaaaaaaaaaaaaaaaaaaaaaaaaaaaaaaaaaaaaaaaaaaaaadaaaaaaaaaaaaaaaaaaaaaaaaaaaaaaaaaaaaaaaaaaaaaaaaaaaaaaaaaadaaaaaaaaaaaaaaaaaaaaaaaaaaaaaaaaaaaaaaaaaaaaaaaaiaaaaaaaaaaaaaaaaaaaaaaaaaaaaaaaaaaaaaaaaaaaaaaaaaaaaaaaaaaaaaaaaaaaaaaaaaaaaaaaaaaaaaaaaaaaaaaaaaaaaaaaaaaaaaaaaaaaa",
"aaaaaaaaaaaaaaaaaaaaaaaaaaaabbhhehheccaaaaaaaaaaaaaaaaaaaaaaaaaaaaaaaaaaaaaaaaaaaaaaaaaaaabehhehheccaaaaaaaaaaaaaaaaaaaaaaaaaaaaaaaaaaaaaaaaaaaaaaaaaaaaaaafajkaajaaaaaaaaaaaaaaaaaaaaaaaaaaaaaaaaaaaaaaaaaaaaaaaaaaaaalaakaaaaaaaaaaaaaaaaaaaaaaaaaaaaaaaaaaaaaaaaaaaaaaaaaaaaaaaaaaaaaaaaaaaaaaaaaaaaaaaaaaaaaaaaaaaaaaaaaaaaaaaaaaaaaaaaaaaaaaaaaaaaaaaaaaaaaaaaaaaaaaaaaaaaaaaaaaaaaaaaaaaaa",
"aaaaaaaaaaaaaaaaaaaaaaaaaaabbehmehnhbccaaaaaaaaaaaaaaaaaaaaaaaaaaaaaaaaaaaaaaaaaaaaaaaaaabeehoopehhbcaaaaaaaaaaaaaaaaaaaaaaaaaaaaaaaaaaaaaaaaaaaaaaaaaaaaaaaaqkajkadaaaaaaaaaaaaaaaaaaaaaaaaaaaaaaaaaaaaaaaaaaaaaaaaaaaaaaaaaaaaaaaaaaaaaaaaaaaaaaaaaaaaaaaaaaaaaaaaaaaaaaaaaaaaaaaaaaaaaaaaaaaaaaaaaaaaaaaaaaaaaaaaaaaaaaaaaaaaaaaaaaaaaaaaaaaaaaaaaaaaaaaaaaaaaaaaaaaaaaaaaaaaaaaaaaaaaaaaaaaa",
"aaaaaaaaaaaaaaaaaaaaaaaaaabbbbhmhehmeccaaaaaaaaaaaaaaaaaaaaaaaaaaaaaaaaaaaaaaaaaaaaaaaaabebershopehecaaaaaaaaaaaaaaaaaaaaaaaaaaaaaaaaaaaaaaaaaaaaaaaaaaaaaeebaiakacbeeaaaaaaaaaaaaaaaaaaaaaaaaaaaaaaaaaaaaaaaaaaaaaaaladaaaaaaaaaaaaaaaaaaaaaaaaaaaaaaaaaaaaaaaaaaaaaaaaaaaaadaaaaaaaaaaaaaaaaaaaaaaaaaaaaaaaaaaaaaaaaaaaaaaaaaaaaaaaaaaaaaaaaaaaaaaaaaaaaaaaaaaaaaaaaaaaaaaaaaaaaaaaaaaaaaaaaaa",
"aaaaaaaaaaaaaaaaaaaaaaaaaabhemmnmbhmhbccaaaaaaaaaaaaaaaaaaaaaaaaaaaaaaaaaaaaaaaaaaaaaaaaehebssshohmeccaaaaaaaaaaaaaaaaaaaaaaaaaaaaaaaaaaaaaaaaaaaaaaaaaaaehmhbbeebbhmheaaaaaaaaaaaaaaaaaaaaaaaaaaaaaaaaaaaaaaaaaaaaaaaaddaaaaaaaaaaaaaaaaaaaaaaaaaaaaaaaaaaaaaaaaaaaaaaaaaaaaaaaaaaaaaaaaaaaaaaaaaaaaaaaaaaaaaaaaaaaaaaaaaaaaaaaaaaaaaaaaaaaaaaaaaaaaaaaaaaaaaaaaaaaaaaaaaaaaaaaaaaaaaaaaaaaaaaa",
"aaaaaaaaaaaaaaaaaaaaaaaaabehbehmbehnmebcaaaaaaaaaaaaaaaaaaaaaaaaaaaaaaaaaaaaaaaaaaaaaaabhhebsshophnhbcaaaaaaaaaaaaaaaaaaaaaaaaaaaaaaaaaaaaaaaaaaaaaaaaaaaehtrmemmemrtheaaaaaaaaaaaaaaaaaaaaaaaaaaaaaaaaaaaaaaaaaaaaaaaalkaaadaaaaaaaaaaaaaaaaaaaaaaaaaaaaaaaaaaaaaaaaaaaaaaaaaaadaaaadaaaaaaaaaaaaaaaaaaaaaaaaaaaaaaaaaaaaaaaaaaaaaaaaaaaaaaaaaaaaaaaaaaaaaaaaaaaaaaaaaaaaaaaaaaaaaaaaaaaaaaaaaa",
"aaaaaaaaaaaaaaaaaaaaaaaaabhhebebbehtnebcaaaaaaaaaaaaaaaaaaaaaaaaaaaaaaaaaaaaaaaaaaaaaaabtmheshophmnmbcaaaaaaaaaaaaaaaaaaaaaaaaaaaaaaaaaaaaaaaaaaaaaaaaaaaeehnrmeemrnheeaaaaaaaaaaaaaaaaaaaaaaaaaaaaaaaaaaaaaaaaaaaaaaaaaukaaaaaaaaaaaaaaaaaaaaaaaaaaaaaaaaaaaaaaaaaaaaaaaaaavkaaaaaaaaaaaaaaaaaaaaaaaaaaaaaaaaaaaaaaaaaaaaaaaaaaaaaaaaaaaaaaaaaaaaaaaaaaaaaaaaaaaaaaaaaaaaaaaaaaaaaaaaaaaaaaaaaa",
"aaaaaaaaaaaaaaaaaaaaaaaaabtmhebbehhmnmbcaaaaaaaaaaaaaaaaaaaaaaaaaaaaaaaaaaaaaaaaaaaaaaaetrmempmhmtmmbcaaaaaaaaaaaaaaaaaaaaaaaaaaaaaaaaaaaaaaaaaaaaaaaaaaabbbehnhhnhebbbaaaaaaaaaaaaaaaaaaaaaaaaaaaaaaaaaaaaaaaaaaaaaaakaaaadkaaaaaaaaaaaaaaaaaaaaaaaaaaaaaaaaaaaaaaaaaaaaaaaaulaavkaaaaaaaaaaaaaaaaaaaaaaaaaaaaaaaaaaaaaaaaaaaaaaaaaaaaaaaaaaaaaaaaaaaaaaaaaaaaaaaaaaaaaaaaaaaaaaaaaaaaaaaaaaaaa",
"aaaaaaaaaaaaaaaaaaaaaaaabetrmebehhmmmmbcaaaaaaaaaaaaaaaaaaaaaaaaaaaaaaaaaaaaaaaaaaaaaaaehnrmeehrnheebcaaaaaaaaaaaaaaaaaaaaaaaaaaaaaaaaaaaaaaaaaaaaaaaaaabbebsbhhhhbsbebcaaaaaaaaaaaaaaaaaaaaaaaaaaaaaaaaaaaaaaaaaaaaaakaaaaukaakaaaacccaaaaaaaaaaaaaaadaaaaaaaaaaaaaaaaaaaaiaagaaaulaaaaaasssaaaaaaaaaaaaaaaaaaaaaaaaaaaaaaaaaaaaaaaaaaaaaaaaaaaaaaaaaaaaaaaaaaaaaaaaaaaaaaaaaaaaaaaaaaaaaaaaaaa",
"aaaaaaaaaaaaaaaaaaaaaaaabemnrmeehnttmhbcaaaaaaaaaaaaaaaaaaaaaaaaaaaaaaaaaaaaaaaaaaaaaaabbehnhenhebbebcaaaaaaaaaaaaaaaaaaaaaaaaaaaaaaaaaaaaaaaaaaaaaaaaaabemecsbemebcemecaaaaaaaaaaaaaaaaaaaaaaaaaaaaaaaaaaaaaaaaaaaaaaaaudakaaaaaaccsbeccaaaaaaaaaaaaaaaaaaaaaaaaaaaaaaaaaaaaaagaaagaaaaassscsaaaaaaaaaaaaaaaaaaaaaaaaaaaaaaaaaaaaaaaaaaaaaaaaaaaaaaaaaaaaaaaaaaaaaaaaaaaaaaaaaaaaaaaaaaaaaaaaaa",
"aaaaaaaaaaaaaaaaaaaaaaaabbehhnhhntmhbebcaaaaaaaaaaaaaaaaaaaaaaaaaaaaaaaaaaaaabbbbbbbcaaebsbhhehbcceebcaaaaaaaaaaaaaaaaaaaaaaaaaaaaaaaaaaaaaaaaaaaaaaaaaabeemesemnmehmbbptmaaaaaaaaaaaaaaaaaaaaaaaaaaaaaaaaaaaaaaaaaaaaakaaaaaaakacebsemecccmhaaaaaaaaaaaaaaaaaaaaaaaaaaaaaaaaaaaaaaagaaaassbhbaaaaaaaaaaaaaaaaaaaaaaaaaaaaaaaaaaaaaaaaaaaaaaaaaaaaaaaaaaaaaaaaaaaaaaaaaaaaaaaaaaaaaaaaaaaaaaaaaa",
"aaaaaaaaaaaaaaaaaaaaaabbbebbehmmtmhebebccccaaaaaaaaaaaaaaaaaaaaaaaaaaaaaaaaabeeeeeebbccmecsbemebcemebccccaaaaaaaaaaaaaaaaaaaaaaaaaaaaaaaaaaaaaaaaaaaaaaacbbhbcmnmhbebepsssbaaaaaaaaaaaaaaaaaaaaaaaaaaaaaaaaaaaaaaaaaaaakaaudadaacbhecsecehnsseaaaqaaaaaaaaaaaaaaaaaaaaaaaaavkaaaaaaaaaadasbhnmcaaaaaaaaaaaaaaaaaaaaaaaaaaaaaaaaaaaaaaaaaaaaaaaaaaaaaaaaaaaaaaaaaaaaaaaaaaaaaaaaaaaaaaaaaaaaaaaaa",
"aaaaaaaaaaaaaaaaaaaabbebehbcbeemmhecbebcbbcccbbbbbaaaaaaaaaaaaaaaaaaaaaaaaabemwrnhhhebbemebcbbbehmhbbcbbcccbbbbbaaaaaaaaaaaaaaaaaaaaaaaaaaaaaaaaaaaaaaaaccbbcbmrmbbemepsssbaaaaaaaaaaaaaaaaaaaaaaaaaaaaaaaaaaaaaaaaaaaaaaddaaaascbecsaaccetsseaagvaaaakaaaaaaaaaaaaaaaaaaaaauladaaulaaaaascemecaaaaaaaaaaaaaaaaaaaaaaaaaaaaaaaaaaaaaaaaaaaaaaaaaaaaaaaaaaaaaaaaaaaaaaaaaaaaaaaaaaaaaaaaaaaaaaaaa",
"aaaaaaaaaaaaaaabbbbbbehhbebbcbhnbeccbbbcenhebbeeeebaaaaaaaaaaaaaaaaaaaaaaabemptmnnhehheehbcbehebehebbsenhebbeeeebaaaaaaaaaaaaaaaaaaaaaaaaaaaaaaaaaaaaaaassccsbmhemnhtetsssbaaaaaaaaaaaaaaaaaaaaaaaaaaaaaaaaaaaaaaaaaaaaaauaaaasbhbssaaaaacseeaaivaadakaaaaaaaaaaaaaaaaaaaaaaagaaaaaaadkaaabsbhbaaaaaaaaaaaaaaaaaaaaaauaaaaaaaaaaaaaaaaaaaaaaaaaaaaaaaaaaaaaaaaaaaaaaaaaaaaaaaaaaaaaaaaaaaaaaaaaa",
"aaaaaaaaaaaaaabeeeeeeehmbheebemnebbbhbccbmhbehtnwnebaaaaaaaaaaaaaaaaaaaaaabemtnnrnhehmbsbcbehebbbebbcsbmhbehtnwnebaaaaaaaaaaaaaaaaaaaaaaaaaaaaabbbbbbbcaasscscemrnwmebbnheaaaaaaaaaaaaaaaaaaaaaaaaaaaaaaaaaaaaaaaaaaaaaaaddaasbhnmcsaaaaaaaaaaakaaadaaaaaaaaaaaaaaaaaaaaaaaaaagaaaulaaaaaasbhnmcaaaaaaaaaaaaaaaaaaaafkaaaaaaaaaaaaaaaaaaaaaaaaaaaaaaaaaaaaaaaaaaaaaaaaaaaaaaaaaaaaaaaaaaaaaaaaaa",
"aaaaaaaaaaaaabemwrnhhehmbehmhemnhheeecccbehehmnoxwnebaaaaaaaaaaaaaaaaaaaaabemnmnnmeehmebcsbhmthebbecccbehehmnoxwnebaaaaaaaaaaaaaaaaaaaaaaaaaaabeeeeeebbccssccscbebebbbcscicaaaaaaaaaaaaaaaaaaaaaaaaaaaaaaaaaaaaaaaaaaaaaaaaaascemecsaaaaaaaaqkaaaaaaaaaaaaaaaaaaaaaaaaaaaaaaaaaaaadaaaaaaascemecaaaaaaaaaaaaaaaaaaafkaaaaaaaaaaaaaaaaaaaaaaaaaaaaaaaaaaaaaaaaaaaaaaaaaaaaaaaaaaaaaaaaaaaaaaaaaaa",
"aaaaaaaaaaaabemptmnnebmnhccbehnrmhhebssbenmbehmotnwebaaaaaaaaaaaaaaaaaaaaacbehhmhhbbmnhebscehmbbccsssbenmbehmotnwebaaaaaaaaaaaaaaaaaaaaaaaaaabemwrnhheebbccscssccbbbccsybzcccbbbbbaaaaaaaaaaaaaaaaaaaaaaaaaaaaaaaaaaaaaaaaacccccccscaaaaaaakkakdaadaaaaaaaaaaaaaaaaaaaaaaaaaaaaaaadaaladkaabsbhbbaaaaaaaaaauaaadaallaaaalaaaaaaaaaaaaaaaaaaaaaaaaaaaaaaaaaaaaaaaaaaaaaaaaaaaaaaaaaaaaaaaaaaaaaaa",
"aaaaaaaaaaaacbmtnnrncbmnnhcbbemxmhbbcscennmbeehrmhnebaaaaaaaaaaaaaaaaaaaaacbbebbbscbmnnhebccbbebcsscbennmbeehrmhnebaaaaaaaaaaaaaaaaaaaaaaaaabemptmnnheeheebcsscssscsscizzheebbeeeebaaaaaaaaaaaaaaaaaaaaaaaaaaaaaaaaaaaaaaaccsbmheebccaaaaagkdadaaaaaaaaaaaaaaaaaaaaaaaaaaaaaaaaaaaaaulaaaaasbhnmcaaaaaaaaafkaaaaalaaaaaaaaaaaaaaaaaaaaaaaaaaaaaaaaaaaaaaaaaaaaaaaaaaaaaaaaaaaaaaaaaaaaaaaaaaaaaa",
"aaaaaaaaaaaaccenmnnmsbhmntccbehebbcsscbtnmhbbeemhmhebaaaaaaaaaaaaaaaaaaaaaccbbbbcssbhmnthbcbmtmbcsscetnmhbbeemhmhebaaaaaaaaaaaaaaaaaaaaaaaaacbmtnnrnmmnrxwnmebssssbbemlfxzemehtnwnebaaaaaaaaaaaaaaaaaaaaaaaaaaaaaaaaaaaaacbsbmbccccbbcaaaaaaaaaauaaaaaaaaaaaaaaaaaaaaaaaaaaaaaaaaaaauladkaascemecaaaaaaaafkaaadaaaaaaaaaaaaaaaaaaaaaaaaaaaaaaaaaaaaaaaaaaaaaaaaaaaaaaaaaaaaaaaaaaaaaaaaaaaaaaaaa",
"aaaaaaaaaaaacsbehmhssbehhhhsbemthebccbbhhhebcbbeeebbcaaaaaaaaaaaaaaaaaaaacbcccccsssbehhhhheseehmorhbhhhhebcbbeeebbcaaaaaaaaaaaaaaaaaaaaaaaaaccenmnnmhmrxoxpnhebcscbehnmibxrehmnoxwnebaaaaaaaaaaaaaaaaaaaaaaaaaaaaaaaaaaacbececABBAccebcaaadadaaikaaaaaaaaaaaaaaaaaaaaaaaaaaaaaaaaaaaaaaaaaaasbhbbaaaaaaallaaadadaaaaaaaaaaaaaaaaaaaaaaaaaaaaaaaaaaaaaaaaaaaaaaaaaaaaaaaaaaaaaaaaaaaaaaaaaaaaaaaa",
"aaaaaaaaaaaacscceebsccbeeeescbembbcsbcbbeebcssscbbbbbaaaaaaaaaaaaaaaaaaaccebbccsssccbeeeeebbbmmohemccbeebcssscbbbbbaaaaaaaaaaaaaaaaaaaaaaaaacsbehmhhbmnnmmnmhebcbcbehmsssxnbehmotnwebaaaaaaaaaaaaaaaaaaaaaaaaaaaaaaaaaacbemesACssDAemebcaaaaaaikaaaaaaaaaaaaaaaaaaaaaaaaaaaaaaaaaaalvalaaaasbhnmcaaaaaaaaaaaaaaaaaalaaaaaaaaaaaaaaaaaaaaaaaaaaaaaaaaaaaaaaaaaaaaaaaaaaaaaaaaaaaaaaaaaaaaaaaaaaaa",
"aaaaaaaaaaacbcsssssscscbbbbbccbbehcscccbbbcccscccbccccaaaaaaaaaaaaaaaaaacbheebcssscscbbbbbbcsexhssemsscbcccscccbccccaaaaaaaaaaaaaaaaaaaaaaaacscceebsbhhhhhhhhebcscebhhnwxmbehehrmhnebaaaaaaaaaaaaaaaaaaaaaaaaaaaaaaaaaacbbhbcsBikBsbhbbcaaqaaakaaaaaaaaaaaaaaaaaaaaaaaaaaaaaaaaaaaaaaauaadascemecaaaaaaaaaiaaiaaaaaaaaaaaaaaaaaaaaaaaaaaaaaaaaaaaaaaaaaaaaaaaaaaaaaaaaaaaaaaaaaaaaaaaaaaaaaaaaaa",
"aaaaaaaaaaacehbbcsssbbscsbehbccbnhccsbsscccscscsccebbccaaaaaaaaaaaaaaaaacemhebccbsbbscsbehmnbcresssmsssccscscbccebbccaaaaaaaaaaaaaaaaaaaaaacbcsssssscbbbbbbbcbbcbccccbbbbbbbceemhmhebaaaaaaaaaaaaaaaaaaaaaaaaaaaaaaaaaascbecbbehikblebcsaflaakaaaaaaaaaaaaaaaaaaaaaaaaaaaaaaaaaaaaaaaaaaaaaasbhbbaaiaaaaialaaaaaaagaaaaaaaaaaaaaaaaaaaaaaaaaaaaaaaaaaaaaaaaaaaaaaaaaaaaaaaaaaaaaaaaaaaaaaaaaaaaa",
"aaaaaaaaaaacbhebcscccbebscemnbcbbeecsccsscsbbccsscemebccaaaaaaaaaaaaaaaachnmebccbccbebscemnmebbresmecsscsbbccbccemebccaaaaaaaaaaaaaaaaaaaaacehbbcsssccccccccbbbcbcbeecccccccccbeeebcccaaaaaaaaaaaaaaaaaaaaaaaaaaaaaaaaassccbscsbfksglcscalaaaaaaaaaaaaaaaaaaaaaaaaaaaaaaaaaaaaaaaaaaaaaakaasbhnmcaaaaadaaaaaailaaaaaaaaaaaaaaaaaaaaaaaaaaaaaaaaaaaaaaaaaaaaaaaaaaaaaaaaaaaaaaaaaaaaaaaaaaaaaaaaa",
"aaaaaaaaaacccbbcssbasehesbbebbbccbmbssbcsbebcsasscbhnbbcaaaaaaaaaaaaaaaacbhebccbcasehesbbebbebscmmebbcsbebcsacecbhnbbcaaaaaaaaaaaaaaaaaaaaacbhebcscbcbccccemnrmbbbmrnmbcccbbcsscbccccccaaaaaaaaaaaaaaaaaaaaaaabbbbbbaaccbcscbcsvlsblcscbccaaaaaaaaaaaaaaaaaaaaaaaaaaaaaaaaaaaaaaaaaaaavadadscemecaafaaaaaaaaaaaaaaaaaaaaaaaaaaaaaaaaaaaaaaaaaaaaaaaaaaaaaaaaaaaaaaaaaaaaaaaaaaaaaaaaaaaaaaaaaaaa",
"aaaaaaaaaaccssscebcasbebscbcbehescehcscbsehessacsscbehebcaaaaaaaaaaaaaaaccbbbccbcasbebscbcbehesbehebcbsehessacbhcbehebcaaaaaaaaaaaaaaaaaaacccbbcssbcbeebcehnrmhbebhmrnhbcbeebsccccbebbccaaaaaaaaaaaaaaaaaaaaabhmnmmheeehmnmhebsvksbehmngfecaaaaaaaaaaaaaaaaaaaaaaaaaaaaaaaaaaaaaaaaaadvaacccccccscaaauvaaialaaaaaaaaaaaaaaaaaaaaaaaaaaaaaaaaaaaaaaaaaaaaaaaaaaaaaaaaaaaaaaaaaaaaaaaaaaaaaaaaaaaa",
"aaaaaaaaaacbbcscccaaasbccsscemnbscbnbsccsbebsaaacsscbbebcaaaaaaaaaaaaaaaaccccebcaaasbccsscemnbsemnmeccsbebsaaacbecbbbbcaaaaaaaaaaaaaaaaaaaccssscebcscehecehmhmebebemhmhebehecsssbcbbebccaaaaaaaaaaaaaaaaaaaabemtxwnmmhmEFExnmhbcvbhmnxmebmgcbbbbbaaaaaaaaaaaaaaaaaaaaaaaaaaaaaaaaaaaaaaaccsbnmhebccaukvaaaaaaaaaaaaaaaaaaaaaaaaaaaaaaaaaaaaaaaaaaaaaaaaaaaaaaaaaaaaaaaaaaaaaaaaaaaaaaaaaaaaaaaaa",
"aaaaaaaaacenmbcscaaaasscsccemnmcschmbscsccbsaaaaaccccbssbcaaaaaaaaaaaaaaccbccmeaaaasscsccemnmcsbhmnmesccbsaaaaacccccccccaaaaaaaaaaaaaaaaaacbbcscccacsbeebbebeebbcbbeebebbeebscascbcbbccbcaaaaaaaaaaaaaaaaaabemnxoxrnmnrxoxpnhebccbehnpxoxrmhheeeebaaaaaaaaaaaaaaaaaaaaaaaaaaaaaaaaaaaaacbsbmbccgcfevvaaauaaaaaaaaaaaaaaaaaaaaaaaaaaaaaaaaaaaaaaaaaaaaaaaaaaaaaaaaaaaaaaaaaaaaaaaaaaaaaaaaaaaaaaa",
"aaaaaaaaachnheccaaaaaasGHGGbebbccessccbcscssaaaaaaaccscbbccaaaaaaaaaaaaacehbcccaaaaasGHGGbebbccbeeeebcscssaaaaaaasebcecbcaaaaaaaaaaaaaaaacenmbcscaaascbcbbehmrmbsbmrmbbbcebcsaaascbscbmebcaaaaaaaaaaaaaaaaacbmtwxwtmmhnttnmhebccccbehmnttnhhmtnmhebaaaaaaaaaaaaaaaaaaaaaaaaaaaaaaaaaaacbmebcsBssBshecaafkaaaiaaaaaaaaaaaaaaaaaaaaaaaaaaaaaaaaaaaaaaaaaaaaaaaaaaaaaaaaaaaaaaaaaaaaaaaaaaaaaaaaaaa",
"aaaaaaaacbnmebcaaaaaaassssHGbbbbmssscbbcbssaaaaaaaaaccbheccaaaaaaaaaaaaabhhebccaaaaassssHGbbbbbbbbbcbcbssaaaaaaaaacscbmebcaaaaaaaaaaaaaaachnheccaaaaascebeeehmhbbbhmnhebbccsaaaaassscchnhbcaaaaaaaaaaaaaaaaccemnnmhebehheeebbccccccbbeeehhhmmnoxmhebaaaaaaaaaaaaaaaaaaaaaaaaaaaaaaaaacbmtmcbehglbghnecfkaaaalaaaaaaaaaaaaaaaaaaaaaaaaaaaaaaaaaaaaaaaaaaaaaaaaaaaaaaaaaaaaaaaaaaaaaaaaaaaaaaaaaaa",
"aaaaaaaacbnhbcaaaaaaacbbebsHGnmbemccbbcbessaaaaaaaaaacchcbcaaaaaaaaaaaacenmebcaaaaacbbebsHGnmbemnheccbessaaaaaaaaaaccchnhbcaaaaaaaaaaaaacbnmebcaaaaaacbbbbbcehbcbcbbmhebccssaaaaaaasccehtmcaaaaaaaaaaaaaaaacsbehhebccbbbbbbbbbbeeeeebbbbbbbehhmtnmebaaaaaaaaaaaaaaaaaaaaaaaaaaaaaaaaacbhmhbscclicdihbllaaaaaaaaaaaaaaaaaaaaaaaaaaaaaaaaaaaaaaaaaaaaaaaaaaaaaaaaaaaaaaaaaaaaaaaaaaaaaaaaaaaaaaaaa",
"aaaaaaaaIJIKcaaaaaaaccbeeeeHHGebcbebbcsbbssaaaaaaaaaacbcnmccaaaaaaaaaaachnheccaaaaccbeeeeHHGebcbemecsbbssaaaaaaaaaaaccehtmcaaaaaaaaaaaaacbnhbcaaaaaascbnmebcbbebbbmnmbbcbssaaaaaaaaaccbemnbcaaaaaaaaaaaaaaacbcccccccsccccemntmebbemtnebcccbbehhmmhebsaaaaaaaaaaaaaaaaaaaaaaaaaaaaaaaccbcccbcsscgccdscbcaaalaaaaaaaaaaaaaaaaaaaaaaaaaaaaaaaaaaaaaaaaaaaaaaaaaaaaaaaaaaaaaaaaaaaaaaaaaaaaaaaaaaaaa",
"aaaaaaaaILIKcaaaaaacbehmehmhHGGssccbbcsccssaaaaaaaaaaachhmbcaaaaaaaaaacbnmebcaaaacbehmehmhHGGssccbbcsccssaaaaaaaaaaaccbemnbcaaaaaaaaaaaaIJIKcaaaaaasscbmhhbcsccbbbemeecbessaaaaaaaaaaccbeeecaaaaaaaaaaaaaaacebsccsscssssbeheebbbbbbeeehesscbeeehhebcccaaaaaaaaaaaaaaaaaaaaaaaaaaaaabehmnmhebcsclbehmmhebaaaaaaaaaaaaaaaaaaaaaaaaaaaaaaaaaaaaaaaaaaaaaaaaaaabbbaaaaaaaaaaaaaaaaaaaaaaaaaaaaaaaaaa",
"aaaaaaacILIKaaaaaaacehmhebmhMHGeNsssssssssssaaaaaaaaaahcehbcaaaaaaaaaacbnhbcaaaaacehmhebmhMHGeNsssssssssssaaaaaaaaaaaccbeeecaaaaaaaaaaaaILIKcaaaaaassscehbccebsceccbbcsccssaaaaaaaaaaacccebccaaaaaaaaaaaaaacbhebcsssccscbbehmnmeeehtwnhbccsscbeeeccccccaaaaaaaaaaaaaaaaaaaaabbbbbbbehmnxrnmhbcckhcbbbemebaaaaaaaaaaaaaaaaaaaaaaaaaaaaaaaaaaaaaaaaaaaaaaaaabhebcaaaaaaaaaaaaaaaaaaaaaaaaaaaaaaaaa",
"aaaaaacbIOIKcaaaaaacbehebehnGMGnsNNNNssssssssaaaaaaaaacbeccaaaaaaaaaaaIJIKcaaaaaacbehebehnGMGnsNNNNssscbccsaaaaaaaaaaacccebccaaaaaaaaaacILIKaaaaaaasssccebcehessNssssssssccsaaaaaaaaaaaaccmbcaaaaaaaaaaaaaccbbbcssascbbbccbenmhbbhhmmmhbcebcsscbccbebbccaaaaaaaaaaaaaaaaaaabhmnmhebbbehmmhhebcckcehmhecbbbaaaaaaaaaaaaaaaaaaaaaaaaaaaaaaaaaaaaaaaaaaaaaaaacemebcaaaaaaaaaaaaaaaaaaaaaaaaaaaaaaaa",
"aaaaaaceIPIKcaaaaaaccbbbbbbhMMhncGGGGGssbessssaaaaaaaaacccaaaaaaaaaaaaILIKcaaaaaaccbbbbbbhMMhncGGGGGssbebbcsaaaaaaaaaaaaccmbcaaaaaaaaacbIOIKcaaaaaascccceccbebcssNNNNsssssccsaaaaaaaaaaaacheccaaaaaaaaaaaacenmbceaaschnmebcbebbbbbbeebbcbbccsccsbcbbebccbcaaaaaaaaaaaaaaaabemtxnhbccbtmhbeebccccbhnwnheemhebbbbaaaaaaaaaaaaaaaaaaaaaaaaaaaaaaaaaaaaaaaaaacccccccscaaaaaaaaaaaaaaaaaaaaaaaaaaaaaa",
"aaaaaaacIOIKcaaaaaasccbnmebbcQnecHHGGssscbsbbbbaaaaaaaaaaaaaaaaaaaaaacILIKaaaaaaasccbnmebbcQnecHHGGssccbbbbbbaaaaaaaaaaaacheccaaaaaaaaceIPIKcaaaaaasccbbhbcccccssGGGGGssbebbcsaaaaaaaaaacbbebcaaaaaaaaaaaachnheccaasbehebccbcscccccbcccscsscaaascbcbbcbmebcaaaaaaaaaaaaaabehnxnhbcssemhebcbccccbbbhnmhehwnhbeeebaaaaaaaaaaaaaaaaaaaaaaaaaaaaaaaaaaaaaaaabcsbnmhebccaaaaaaaaaaaaaaaaaaaaaaaaaaaaa",
"aaaaaaaaIRRKaaaaaaaascbmhhbcchncNGGSsccccbhmnhbaaaaaaaaaaaaaaaaaaaaacbIOIKcaaaaaaascbmhhbcchncNGGSsccccbhmnhbaaaaaaaaaaacbbebcaaaaaaaaacIOIKcaaaaaaacbbbhbbcscsssHHGGssscbbbbbbaaaaaaaaaccchbcaaaaaaaaaaacbnmebcaassbsbbcccbcssNssGGcbssssTsaaaassbsscchnhbcaaaaaaaaaaaaacbmtmebcebsbbbbbcshebehmhehhebenmmbnmhebaaaaaaaaaaaaaaaaaaaaaaaaaaaaaaaaaaaaaacbsbmbccccbecaaaaaaaaaaaaaaaaaaaaaaaaaaaa",
"aaaaaaaaURRKaaaaaaaaascbhbcchnecGNNscbcccemoxnebaaaaaaaaaaaaaaaaaaaaceIPIKcaaaaaaaascbhbcchnecGNNscbcccemoxnebaaaaaaaaaaccchbcaaaaaaaaaaIRRKaaaaaaaacebembecscssNGGSsccccbhmnhbaaaaaaaaacbeccaaaaaaaaaaaacbnhbccaassssccccbccssGNNScbebcccsscaaaaasssccehtmcaaaaaaaaaaaaacbemebcbhbshebcbcsssshnwnhemmbcbbbenxmhebaaaaaaaaaaaaaaaaaaaaaaaaaaaaaaaaaaaacbmebcsBssBsheccaaaaaaaaaaaaaaaaaaaaaaaaaa",
"aaaaaaaaVVIKaaaaaaaaascbebshnecMGNNscebbcbehmhebaaaaaaaaaaaaaaaaaaaaacIOIKcaaaaaaaascbebshnecMGNNscebbcbehmhebaaaaaaaaaacbeccaaaaaaaaaaaURRKaaaaaaaachbhnbhcssscGNNscbcccemoxnebaaaaaaaaacccaaaaaaaaaaaaaIJIKcaaaasmssnebccssssGGNcbemhbcccccccaaaaaaccbemnbcaaaaaaaaaaaaccbebcscmesnhbcccscscbbehecpnbehmhehtnmebcccaaaaaaaaaaaaaaaaaaaaaaaaaaaaaaacbbcccbcskWscccscbcaaaaaaaaaaaaaaaaaaaaaaaaa",
"aaaaaaaaVPIKaaaaaaaccccbhbcmecHMGNscbhebccbbbebbaaaaaaaaaaaaaaaaaaaaaaIOIKaaaaaaaccccbhbcmecHMGNscbhebccbbbebbaaaaaaaaaaacccaaaaaaaaaaaaVVIKaaaaaaaaccbhtbecssaMGNNscebbcbehmhebaaaaaaaaaaaaaaaaaaaaaaaaaIRRKcaaabshcsmbccsssssGNccbehmecbbeeeccaaaaaaccbeeecaaaaaaaaaaaacbccbbschesmeccbcsbbbhmhebetmbbehnhbmmheccbccaaaaaaaaaaaaaaaaaaaaaaaaaaaaacbehnmgdbcslkbehmmhebaaaaaaaaaaaaaaaaaaaaaaaa",
"aaaaaaaaULIKaaaaaacbeccbmbbccaaMGcscbmecbbeeebbaaaaaaaaaaaaaaaaaaaaaaaILIKaaaaaacbeccbmbbccaaMGcscbmecbbeeebbaaaaaaaaaaaaaaaaaaaaaaaaaaaVPIKaaaaaaaaacbenbbcsaHMGNscbhebccbbbebbaaaaaaaaaaaaaaaaaaaaaaaacURRKaaabbcebshcssbsssGNNcbebehbcbemoebcaaaaaaacccebccaaaaaaaaaaacebbbhecbbshbcsebsebenwnhebmecsbemebeheccebbcccaaaaaaaaaaaaaaaaaaaaaaaaaccbehnxrfmhbcgkhcbbbemebaaaaaaaaaaaaaaaaaaaaaaa",
"aaaaaaaaURRKaaaaacbbbbcemebcaaaaNascbebcbemonbbaaaaaaaaaaaaaaaaaaaaaaaIJIKaaaaacbbbbcemebcaaaaNascbebcbemonbbaaaaaaaaaaaaaaaaaaaaaaaaaaaULIKaaaaaaaaacbbmbcaaaaMGcscbmecbbeeebbaaaaaaaaaaaaaaaaaaaaaaaacbUVIKcaabmbbesbcscesssGNccbebcccbbbhnmbcaaaaaaaaaccmbcaaaaaaaaaaacbhebemecbsbbcshbsbcbhnmmbchebssbebcbebcbbebcbbcaaaaaaaaaaaaaaaaaaabbbccebbbehmfdhebdvccehmhecbbbaaaaaaaaaaaaaaaaaaaaaa",
"aaaaaaaaURRKaaaaacmnheccccbcaaaaGasscbcbbbhnmhbaaaaaaaaaaaaaaaaaaaaaaaUXVKaaaaacmnheccccbcaaaaGasscbcbbbhnmhbaaaaaaaaaaaaaaaaaaaaaaaaaaaURRKaaaaaaaaaccbhbcaaaaaNascbebcbemonbbaaaaaaaaaaaaaaaaaaaaaaaaceILIKcaacehcbebcsbbssHGNscbecbbehmhehebcaaaaaaaaaacheccaaaaaaaaaccbbbccebbbbbbcsebscssbeebccebbccsbcacccbcbbcbhhbcaaaaaaaaaaaaaaaaabehmmhbcccbbbibbbkvscbhnwnheebsebbbbaaaaaaaaaaaaaaaaa",
"aaaaaaaaaVVaaaaaacmwnccccbccaaaaGaacbbehmhehhebaaaaaaaaaaaaaaaaaaaaaaaURRKaaaaacmwnccccbccaaaaGaacbbehmhehhebaaaaaaaaaaaaaaaaaaaaaaaaaaaURRKaaaaaaaaaacbebcaaaaaaasscbcbbbhnmhbaaaaaaaaaaaaaaaaaaaaaaaaacILIKcaaacbbhheebcsssHGNasccbbehnwnhbccaaaaaaaaaacbbebcaaaaaaaaacenmbcaccbhheeecccssGcbccccbhebbcscaaaassbsscehtmcaaaaaaaaaaaaaaaabehnnhbccscccckbcckscbbbhnmmbbsbebeeebaaaaaaaaaaaaaaaa",
"aaaaaaaaaaaaaaaaaabbebbbbccaaaaaaacbbehnwnhbbbaaaaaaaaaaaaaaaaaaaaaaaaVVIKaaaaaabbebbbbccaaaaaaacbbehnwnhbbbaaaaaaaaaaaaaaaaaaaaaaaaaaaaaVVaaaaaaaaaaaceecaaaaaaaaacbbehmhehhebaaaaaaaaaaaaaaaaaaaaaaaaaaILIKaaaaccbeebbbcsssaGGaaceenhehnmbcaaaaaaaaaaaaccchbcaaaaaaaaachnhecacbhebbbbbccsHMbhmbcbbhebbcaaaaaaaassccbemnbcaaaaaaaaaaaaaacbhnmebccebsbbccvckscehmhbbebehsbhbemhebaaaaaaaaaaaaaaa",
"aaaaaaaaaaaaaaaaaaabcbnhecaaaaaaabeenhehnmmbcaaaaaaaaaaaaaaaaaaaaaaaaaVPIKaaaaaaabcbnhecaaaaaaabeenhehnmmbcaaaaaaaaaaaaaaaaaaaaaaaaaaaaaaaaaaaaaaaaaaacebcaaaaaaaacbbehnwnhbbbaaaaaaaaaaaaaaaaaaaaaaaaaaaURRKaaaaacbbcccbcssaaaaacbhnonebbbccaaaaaaaaaaaacbeccaaaaaaaaacbnmebcacbebccccbccsHMbehccebmebecaaaaaaaaaaaccbccmbcaaaaaaaaaaaaacbemebccchbshebcsvssbhneeccbbhnsemcbmmhebaaaaaaaaaaaaaa",
"aaaaaaaaaaaaaaaaaaaaabwnheccccaaaehnonhbehebaaaaaaaaaaaaaaaaaaaaaaaaaaVLIKaaaaaaaaabwnheccccaaachnonhbehebaaaaaaaaaaaaaaaaaaaaaaaaaaaaaaaaaaaaaaaaaaaachbcaaaaaaabeenhehnmmbcaaaaaaaaaaaaaaaaaaaaaaaaaaaaURRVaaaaaccbbccccssaaaaccbcbeebbcccaaaaaaaaaaaaaacccaaaaaaaaaacbnhbccaccebcsscbcssaHGbecchbnhbhccaaaaaaaaaaaccccheccaaaaaaaaaaaacbmtmccccmesnhbccvsscbbbccbcbemsehcsenmebcccaaaaaaaaaaa",
"aaaaaaaaaaaaaaaaaaaaabbeeebbbbcaaaacrnebcbbcaaaaaaaaaaaaaaaaaaaaaaaaaaVLIKaaaaaaaaabbeeebbbbcaabehrnebcbbcaaaaaaaaaaaaaaaaaaaaaaaaaaaaaaaaaaaaaaaaaaaachbccccaaabehnonhbehebaaaaaaaaaaaaaaaaaaaaaaaaaaaaaaVVaaaaaaaccbbccssaaaacbehmhbbccsaaaaaaaaaaaaaaaaaaaaaaaaaaaaaIJIKcaaaacbbccscbccsaaacbbcebthbececaaaaaaaaaaaacbbebcaaaaaaaaaaaacbhmecbbchesmeccbcccbhmscbescbhsbbcebmheccbccaaaaaaaaaa",
"aaaaaaaaaaaaaaaaaaaaacbcccbnhecccccccccccccccaaaaaaaaaaaaaaaaaaaaaaaaaVLIKaaaaaaaaacbcccbnhecccccccccccccccaaaaaaaaaaaaaaaaaaaaaaaaaaaaaaaaaaaaaaaaaaccccbbbbcccbbehrnebcbbcaaaaaaaaaaaaaaaaaaaaaaaaaaaaaaaaaaaaaaaascbbsssaaaccbbehnbccssaaaaaaaaaaaaaaaaaaaaaaaaaaaaaIRRKcaaaaccbbcccccsaaaaacccbbnebbcccccaaaaaaaaaaccchbcaaaaaaaaaaaacbbecsbecbbshbcsebscenwssbhscbbsbcembheccebbcccaaaaaaaa",
"aaaaaaaaaaaaaaaaaaaaabbhcbbwnhebbbbcccbbbbbbccaaaaaaaaaaaaaaaaaaaaaaaaULIKaaaaaaaaabbhcbbwnhebbbbcccbbbbbbccaaaaaaaaaaaaaaaaaaaaaaaaaaaaaaaaaaaaaaaccbbccbnhebcccccccccccccccaaaaaaaaaaaaaaaaaaaaaaaaaaaaaaaaaaaaaaaasssssaaaaceenhebbccccccaaaaaaaaaaaaaaaaaaaaaaaaaacURRKaaaaaaccbcccccsaaaaaaaacbmbbccbebbcaaaaaaaaacbeccaaaaaaaaaaaacbemhcsbmecbsbbcshbscbhnssbescbbbbbbecbbcbbebcbbcaaaaaaa",
"aaaaaaaaaaaaaaaaaaaaaebmbcbbeeebnheccenheehebcaaaaaaaaaaaaaaaaaaaaaaaaULIKaaaaaaaaaebmbcbbeeebnheccenheehebcaaaaaaaaaaaaaaaaaaaaaaaaaaaaaaaaaaaaaccceheccbwnhecbbbbcccbbbbbbbcaaaaaaaaaaaaaaaaaaaaaaaaaaaaaaaaaaaaaaaaaaaaaaaaccccbecccccbbbcaaaaaaaaaaaaaaaaaaaaaaaacbUVIKcaaaaaascbbbcssaaaaaaaacbhbccbhtmebaaaaaaaaaacccaaaaaaaaaaaaacbhebcscebbbbbbcsebsssbecsccceeehhbcccbcbcbbcbhhbcaaaaaa",
"aaaaaaaaaaaaaaaaaaaaahbbbbcbcccbwnhecmwnbmwnbcaaaaaaaaaaaaaaaaaaaaaaaaULIKaaaaaaaaahbbbbcbcccbwnhecmwnbmwnbcaaaaaaaaaaaaaaaaaaaaaaaaaabcaaaaaaaccbbewnhecbbeeebbnhebcenheehebcaaaaaaaaaaaaaaaaaaaaaaabaaaaaaaaaaaaaaaaaaaccccacccccecccccccccaaaaaaaaaaaaaaaaaaaaaaaaceILIKcaaaaaaassssssaaaaaaaaacbccccemwtmeaaaaaaaaaaaaaaaaaaaaaaaaaaIJIKccssccbhheeecccsGcbccsscbbbbbeccccehmhccccetmcaaaaaa",
"aaaaaaaaaaaaaaaaaaaaabcececaaccbbeeebbebbemhbcaaaaaaaaaaaaaaaaaaaaaaaaURRKaaaaaaaaabcececaaccbbeeebbebbemhbcaaaaaaaaaaaaaaaaaaaaaaaaabcaaaaaacccnhebbeeebcccccbbwnhecmwnbmwnbcaaaaaaaaaaaaaaaaaaaaaabcaaaaaaaaaaaaaccccccbebbccbebbccbebbcbebcaaaaaaaaaaaaaaaaaaaaaaaacURRKcaaaaaaaassssaaaaaaaaaabcbebbbhtnhbaaaaaaaaaaaaaaaaaaaaaaaaaaIRRKcssacbhebbbbbcssMbhmcsccccccccbeebceecbeebcenbcaaaaa",
"aaaaaaaaaaaaaaaaaaaaaacccbcaaaacccccaccccacccaaaaaaaaaaaaaaaaaaaaaaaaaaVVaaaaaaaaaaacccbcaaaacccccaccccacccaaaaaaaaaaaaaaaaaaaaaaaaabcaaaaaccbbewnhbccccaaaaaccbbeeebbebbemhbcaaaaaaaaaaaaaaaaaaaaabcaaaaaaacccccccbebbcbhtmebbhtmebbhtmebhtebaaaaaaaaaaaaaaaaaaaaaaaaaURRUaaaaaaaaaaaaaaaaaaacccccbhtmecbeebaaaaaaaaaaaaaaaaaaaaaaaaaacURRKsaaacbebccccbccccbehbcccccsbcbhmhebccbhmhebcembcaaaa",
"aaaaaaaaaaaaaaaaaaaaaaaacccaaaaaaaaacmhbaaaaaaaaaaaaaaaaaaaaaaaaaaaaaaaaaaaaaaaaaaaaaacccaaaaaaaaacmhbaaaaaaaaaaaaaaaaaaaaaaaaaaaaaabecaacccnheebebcaaaaaaaaaaaccccccccccacccaaaaaaaaaaaaaaaaaaaaaabecaaccccbcbebcbhtmebemwtmeemwtmeemwtmbhtheaaaaaaaaaaaaaaaaaaaaaaaaaaUUaaaaaaaaaaaaacccccccbebbcemwtmecbbaaaaaaaaaaaaaaaaaaaaaaaaaacbUVIKcaaaccebccccbcccccbbcbeeebbcbhnpnmebbhnpnmebcheccaaa",
"aaaaaaaaaaaaaaaaaaaaaaaaaaaaaaaaaaaacbhcaaaaaaaaaaaaaaaaaaaaaaaaaaaaaaaaaaaaaaaaaaaaaaaaaaaaaaaaascbhcaaaaaaaaaaaaaaaaaaaaaaaaaaaaaaaeeccbbewnhbaaaaaaaaaaaaaaaaaaascbhcaaaaaaaaaaaaaaaaaaaaaaaaaaaaeeccbbcnhbhtebemwtmebhtnhebhtnhebhtnhcbeebaaaaaaaaaaaaaaaaaaaaaaaaaaaaaaaaaaaaaccccbcbebcbhtmebbhtnhebaaaaaaaaaaaaaaaaaaaaaaaaaaaaceILIKcaaaacbccccccbehebbeehnpmeebempxwtmeempxwtmecbebcaaa",
"aaaaaaaaaaaaaaaaaaaaaaaaaaaaaaaaaaaacceccaaaaaaaaaaaaaaaaaaaaaaaaaaaaaaaaaaaaaaaaaaaaaaaaaaaaaaaascceccaaaaaaaaaaaaaaaaaaaaaaaaaaaaaaabhmwhebbaaaaaaaaaaaaaaaaaaaaascceccaaaaaaaaaaaaaaaaaaaaaaaaaaaabhmwhewnbhthebhtnhecbeeebcbeeebcbeeebaaaaaaaaaaaaaaaaaaaaaaaaaaaaaaaaaaaaaccccbbcnhbhtebemwtmecbeeecaaaaaaaaaaaaaaaaaaaaaaaaaaaaaacURRKcaaaacbbbhhbhmpxtmhhhhpxtmeeehnwnmheehnwnmhecchbcaaa",
"aaaaaaaaaaaaaaaaaaaaaaaaaaaaaaaaaaaacceecbaaaaaaaaaaaaaaaaaaaaaaaaaaaaaaaaaaaaaaaaaaaaaaaaaaaaaaaTcceecbaaaaaaaaaaaaaaaaaaaaaaaaaaaaaaabbeeaaaaaaaaaaaaaaaaaaaaaaaaTcceecbaaaaaaaaaaaaaaaaaaaaaaaaaaaabbeeebbcbeebcbeeebaaaaaaaaaaaaaaaaaaaaaaaaaaaaaaaaaaaaaaaaaaaaaaaaaaacccccbhmwhewnbhthebhtnheaaaaaaaaaaaaaaaaaaaaaaaaaaaaaaaaaaaaaURRUaaacccemxwteehnwmheeeenwmhebbbhmhhebcbhmhhebceccaaaa",
"aaaaaaaaaaaaaaaaaaaaaaaaaaaaaaaaaaaccebhbhcaaaaaaaaaaaaaaaaaaaaaaaaaaaaaaaaaaaaaaaaaaaaaaaaaaaaaaccebhbhcaaaaaaaaaaaaaaaaaaaaaaaaaaaaaaaaaaaaaaaaaaaaaaaaaaaaaaaaaaccebhbhcaaaaaaaaaaaaaaaaaaaaaaaaaaaaaaaaaaaaaaaaaaaaaaaaaaaaaaaaaaaaaaaaaaaaaaaaaaaaaaaaaaaaaaaaaaaaaaaaaaaaaabbeeebbcbeebcbeeebaaaaaaaaaaaaaaaaaaaaaaaaaaaaaaaaaaaaacccccbbbeehmmhhbcbhmhebccbhmhebcccbebbccccbebbcccccaaaaa",
"aaaaaaaaaaaaaaaaaaaaaaaaaaaaaaaaaaaaccccccaaaaaaaaaaaaaaaaaaaaaaaaaaaaaaaaaaaaaaaaaaaaaaaaaaaaaaaaccccccaaaaaaaaaaaaaaaaaaaaaaaaaaaaaaaaaaaaaaaaaaaaaaaaaaaaaaaaaaaaccccccaaaaaaaaaaaaaaaaaaaaaaaaaaaaaaaaaaaaaaaaaaaaaaaaaaaaaaaaaaaaaaaaaaaaaaaaaaaaaaaaaaaaaaaaaaaaaaaaaaaaaaaaaaaaaaaaaaaaaaaaaaaaaaaaaaaaaaaaaaaaaaaaaaaaaaaaaaacccccccccccccccccccccbebcccccbebccssaccccaaaaccccaaaaaaaaaa"
};
