/* XPM */
static char *boss_floor1_death_f03[] = {
"64 64 41 1",
"a	c None",
"b	c #00A400",
"c	c #008C00",
"d	c #007400",
"e	c #44D444",
"f	c #002C1C",
"g	c #00140C",
"h	c #004428",
"i	c #005C38",
"j	c #048C58",
"k	c #007448",
"l	c #04A468",
"m	c #5CD85C",
"n	c #04BC78",
"o	c #10C410",
"p	c #005C00",
"q	c #00C000",
"r	c #747474",
"s	c #4C4C4C",
"t	c #5C5C5C",
"u	c #545454",
"v	c #28CC28",
"w	c #60D8AC",
"x	c #48D09C",
"y	c #9CE4C8",
"z	c #B8ECD8",
"A	c #7CE0BC",
"B	c #18C084",
"C	c #30C890",
"D	c #340000",
"E	c #480000",
"F	c #000000",
"G	c #200000",
"H	c #007474",
"I	c #5CD8D8",
"J	c #005C5C",
"K	c #001414",
"L	c #008C8C",
"M	c #00A4A4",
"N	c #78E0E0",
"O	c #5C0000",
"aaaaaaaaaaaaaaaaaaaaaaaaaaaaaaaaaaaaaaaaaaaaaaaaaaaaaaaaaaaaaaaa",
"aaaaaaaaaaaaaaaaaaaaaaaaaaaaaaaaaaaaaaaaaaaaaaaaaaaaaaaaaaaaaaaa",
"aaaaaaaaaaaaaaaaaaaaaaaaaaaaaaaaaaaaaaaaaaaaaaaaaaaaaaaaaaaaaaaa",
"aaaaaaaaaaaaaaaaaaaaaaaaaabaaaaaaaaaaaaaaaaaaaaaaaaaaaaaaaaaaaaa",
"aaaaaaaaaaaaaaaaaaaaaaacaadaaaaaaaaaaaaaaaaaaaaaaaaaaaaaaaaaaaaa",
"aaaaaaaaaaaaaaaaaaaaaaaaaaaaaaaaaaaaaaaaaaaaaaaaaaaaaaaaaaaaaaaa",
"aaaaaaaaaaaaaaaaaaaaacabaaaaaaaaaaaaaaaaaaaaaaaaaaaaaaaaaaaaaaaa",
"aaaaaaaaaaaaaaaaaaaaaaabbaaaaaaaaaaaaaaaaaaaaaaaaaaaaaaaaaaaaaaa",
"aaaaaaaaaaaaaaaaaaaaaaacdaaabaaaaaaaaaaaaaaaaaaaaaaaaaaaaaaaaaaa",
"aaaaaaaaaaaaaaaaaaaaaaaaedaaaaaaaaaaaaaaaaaaaaaaaaaaaaaaaaaaaaaa",
"aaaaaaaaaaaaaaaaaaaaaadaaaabdaaaaaaaaaaaaaaaaaaaaaaaaaaaaaaaaaaa",
"aaaaaaaaaaaaaaaaaaaaaadaaaaedaadaaaafffaaaaaaaaaaaaaaabaaaaaaaaa",
"aaaaaaaaaaaaaaaaaaaaaaaaebadaaaaaaffghiffaaaaaaaaaaaaaaaaaaaaaaa",
"aaaaaaaaaaaaaaaaaaaaaaadaaaaaaadafihgijifffjkaaaaaaaaaaaaaaaaaaa",
"aaaaaaaaaaaaaaaaaaaaaaadaaebabaafhkifgifiklggiaaamaaaaaaaaaaaaaa",
"aaaaaaaaaaaaaaaaaaaaaaaaabbaaaagfhifgaaffinggiaaopaaaadaaaaaaaaa",
"aaaaaaaaaaaaaaaaaaaaaaaaaeaaaaghkhggaaaaafgiiaaqpaabadaaaaaaaaaa",
"aaaaaaaaaaaaaaaaaaaaaaaaabbaaghkljfgaaaaaaaaaaadaaabaaaaaaaaaaaa",
"aaaaaaaaaaaaaaaaaaaaaaaaaaaaagfijifgaaaaaaaamdaaaaaaaaaaaaaaaaaa",
"aaaaaaaaaaaaaaaaaaaaaaaaaaafffffffgfaaaaaaaddadbaabaaaaaaaaaaaaa",
"aaaaaaaaaaaaaaaaaaaaaaaaaaffghjkiihffaaaaaodbabaaaaaaaaaaaaaaaaa",
"aaaaaaaaaaaaaaaaaaaaaaaaafhghjhffffhhfaaaaaaaaaaeaaaaaaaaaaaaaaa",
"aaaaaaaaaaaaaaaaaaaaaaaafhififrssrffihfaaababaaqdaaaaaaaaaaaaaaa",
"aaaaaaaaaaaaaaaaaaaaaaafhijigrtggurijihfaaaaaaqdaaaaaaaaaaaaaaaa",
"aaaaaaaaaaaaaaaaaaaaaaafhhkhfgsqdsghkhhfaamaaadaaaaaaaaaaaaaaaaa",
"aaaaaaaaaaaaaaaaaaaaaaagfhifhhikqdhcihfgavcaadaaaaaaaaaaaaaaaaaa",
"aaaaaaaaaaaaaaaaaaaaaaaggffhgfghvdgocfgfacaaaaaaaaaaaaaaaaaaaaaa",
"aaaaaaaaaaaaaahhhhhhaaffhfgfhfgpcghcfgfhffaaaaaaaaaaaaaaaaaaaaaa",
"aaaaaaaaaaaaahkjljjkiiikjljkihgpdghikjlovifaaaaaaaaaaaaaaaaaaaaa",
"aaaaaaaaaaaahijnwxljjkjyzywljkhfphkjlwjihjofhhhhhaaaaaaaaaaaaaaa",
"aaaaaaaaaaahijlwAwBljlBwAwClkihffhiklCwAwBjkkiiiihaaaaaaaaaaaaaa",
"aaaaaaaaaaafhjnxwxnjjklnnljkihffffhikjlnnlkkjnljkihaaaaaaaaaaaaa",
"aaaaaaaaaaaffijlljkihikkiiihhffffffhhiiikkkjjlAwjkihaaaaaaaaaaaa",
"aaaaaaaaaaafghikkihffhhhhhhhhhhiiiiihhhhhhhikkjnljihaaaaaaaaaaaa",
"aaaaaaaaaaafhfffffffgffffijlnjihhijnlihfffhhikkjjkihgaaaaaaaaaaa",
"aaaaaaaaaaafihgffggfgggghikiihhhhhhiiikiggfhiiikkihfffaaaaaaaaaa",
"aaaaaaaaaaafhkihfgggffgfhhikjljiiiknxlkhffggfhiiiffffffaaaaaaaaa",
"aaaaaaaaaaffhhhfggagfhhhffhiljkhhkkjjjkhfihfggfhffhihhffaaaaaaaa",
"aaaaaaaaaafiljhfiaagfkljihfhihhhhhhiihhfhhffgffghfhhihffhfaaaaaa",
"aaaaaaaaaafklkiffaaghikihffhfgfffffhfffgfggfaaagfhfhhfhjihfaaaaa",
"aaaaaaaaafhljihfaagghghhfffhfggDggEEfhggggFgaaaagghggffklkhfaaaa",
"aaaaaaaaafhlkhffaaggggffffhffggEDDGfhihfffggfaaaaagggffiknjfaaaa",
"aaaaaaaaaHIHJfaaaagjgglihffggggEEDfhijkhfffffffaaaaaaffhijlhfaaa",
"aaaaaaaaaHKKJfaaahgkfgjhffgggggEDffhikjifhhiiiffaaaaaaffhiiifaaa",
"aaaaaaaafLKKJaaahhfihgkfgghgggEDDfhihikhfhijAihfaaaaaaafffihffaa",
"aaaaaaafhLMHJfaahjhhighfgfigggEDffhihfffhhhkljhfaaaaaaaaaffjhfaa",
"aaaaaaafiHNHJfaafikfhihfghhggOEDgfhifhhikjkikihfaaaaaaaaaafkiffa",
"aaaaaaaafHNHJfaaafhhkkiihfgggOEDagffhhiklxlkhffaaaaaaaaaafhhihfa",
"aaaaaaaaaHNHJaaaaffhiihhhfgggaEEaafiilkikljhfaaaaaaaaaaaafffkhfa",
"aaaaaaaaaLKKJaaaaafhhfffhfggaaaaafhklAlihhhffaaaaaaaaaaaafhiffaa",
"aaaaaaaaaLKKMaaaaaffhhffffggaaaaffhfhiihhfffaaaaaaaaaaaaaafffaaa",
"aaaaaaaaaaMMaaaaaaaffhhffggaaaafhikjkhhffgaaaaaaaaaaaaaaaaaaaaaa",
"aaaaaaaaaaaaaaaaaaaagfhhgggaaaffhhiklhffggaaaaaaaaaaaaaaaaaaaaaa",
"aaaaaaaaaaaaaaaaaaaaagggggaaaafiilkihhffffffaaaaaaaaaaaaaaaaaaaa",
"aaaaaaaaaaaaaaaaaaaaaaaaaaaaaaffffhifffffhhhfaaaaaaaaaaaaaaaaaaa",
"aaaaahaaaaaaaaaaaaaaaaaaaffffafffffifffffffffaaaaaaaaaaaaaaaaaaa",
"aaaahfaaaaaaaaaaaaaffffffhihhffhihhffhihhfhihfaaaaaaaaaaaaaaaaaa",
"aaahfaaaaaaafffffffhihhfhknjihhknjihhknjihknihaaaaaaaaaaaaaaaaaa",
"aaahifaaffffhfhihfhknjihijxnjiijxnjiijxnjhknkiaaaaaaaaaaaaaaaaaa",
"aaaaiiffhhflkhknihijxnjihknlkihknlkihknlkfhiihaaaaaaaaaaaaaaaaaa",
"aaaaahkjxkixlhknkihknlkifhiiihfhiiihfhiiihaaaaaaaaaaaaaaaaaaaaaa",
"aaaaaahhiiihhfhiihfhiiihaaaaaaaaaaaaaaaaaaaaaaaaaaaaaaaaaaaaaaaa",
"aaaaaaaaaaaaaaaaaaaaaaaaaaaaaaaaaaaaaaaaaaaaaaaaaaaaaaaaaaaaaaaa",
"aaaaaaaaaaaaaaaaaaaaaaaaaaaaaaaaaaaaaaaaaaaaaaaaaaaaaaaaaaaaaaaa"
};
