/* XPM */
static char *boss_floor1_death_f01[] = {
"64 64 31 1",
"a	c None",
"b	c #004428",
"c	c #002C1C",
"d	c #005C38",
"e	c #007448",
"f	c #7CE0BC",
"g	c #30C890",
"h	c #18C084",
"i	c #00140C",
"j	c #048C58",
"k	c #04A468",
"l	c #04BC78",
"m	c #48D09C",
"n	c #60D8AC",
"o	c #480000",
"p	c #5C0000",
"q	c #700404",
"r	c #340000",
"s	c #007474",
"t	c #5CD8D8",
"u	c #005C5C",
"v	c #78E0E0",
"w	c #840404",
"x	c #98E4E4",
"y	c #200000",
"z	c #B4ECEC",
"A	c #008C8C",
"B	c #40D0D0",
"C	c #00A4A4",
"D	c #001414",
"E	c #000000",
"aaaaaaaaaaaaaaaaaaaaaaaaaaaaaaaaaaaaaaaaaaaaaaaaaaaaaaaaaaaaaaaa",
"aaaaaaaaaaaaaaaaaaaaaaaaaaaaaaaaaaaaaaaaaaaaaaaaaaaaaaaaaaaaaaaa",
"aaaaaaaaaaaaaaaaaaaaaaaaaaaaabbbccaaaaaaaaaaaaaaaaaaaaaaaaaaaaaa",
"aaaaaaaaaaaaaaaaaaaaaaaaaaabbddddbcaaaaaaaaaaaaaaaaaaaaaaaaaaaaa",
"aaaaaaaaaaaaaaaaaaaaaaaaaabdeedeedccaaaaaaaaaaaaaaaaaaaaaaaaaaaa",
"aaaaaaaaaaaaaaaaaaaaaaaaabddeffgdeebcaaaaaaaaaaaaaaaaaaaaaaaaaaa",
"aaaaaaaaaaaaaaaaaaaaaaaabdbdhiefgdedcaaaaaaaaaaaaaaaaaaaaaaaaaaa",
"aaaaaaaaaaaaaaaaaaaaaaaadedbiiiefejdccaaaaaaaaaaaaaaaaaaaaaaaaaa",
"aaaaaaaaaaaaaaaaaaaaaaabeedbiiefgekebcaaaaaaaaaaaaaaaaaaaaaaaaaa",
"aaaaaaaaaaaaaaaaaaaaaaabljediefgejkjbcaaaaaaaaaaaaaaaaaaaaaaaaaa",
"aaaaaaaaaaaaaaaaaaaaaaadlhjdjgjejljjbcaaaaaaaaaaaaaaaaaaaaaaaaaa",
"aaaaaaaaaaaaaaaaaaaaaaadekhjddehkeddbcaaaaaaaaaaaaaaaaaaaaaaaaaa",
"aaaaaaaaaaaaaaaaaaaaaaabbdekedkedbbdbcaaaaaaaaaaaaaaaaaaaaaaaaaa",
"aaaaaaaaaaaaabbbbbbbcaadbibeedebccddbcaaaaaaaaaaaaaaaaaaaaaaaaaa",
"aaaaaaaaaaaabddddddbbccjdcibdjdbcdjdbccccaaaaaaaaaaaaaaaaaaaaaaa",
"aaaaaaaaaaabdjmhkeeedbbdjdbcbbbdejebbcbbcccbbbbbaaaaaaaaaaaaaaaa",
"aaaaaaaaaabdjgljkkedeeddebcbdedbdedbbidkedbbddddbaaaaaaaaaaaaaaa",
"aaaaaaaaaabdjlkkhkedejbibcbdedbbbdbbcibjebdelkmkdbaaaaaaaaaaaaaa",
"aaaaaaaaaabdjkjkkjddejdbcibejledbbdcccbdedejkfnmkdbaaaaaaaaaaaaa",
"aaaaaaaaaacbdeejeebbjkedbicdejbbcciiibdkjbdejflkmdbaaaaaaaaaaaaa",
"aaaaaaaaaacbbdbbbicbjkkedbccbbdbciicbdkkjbddehjekdbaaaaaaaaaaaaa",
"aaaaaaaaaaccbbbbciibejklebcbjljbciicdlkjebbddjejedbaaaaaaaaaaaaa",
"aaaaaaaaacbccccciiibdeeeeediddejfhebeeeedbcbbdddbbcaaaaaaaaaaaaa",
"aaaaaaaaccdbbcciiiccbdddddbbbjjfedjccbddbciiicbbbbbaaaaaaaaaaaaa",
"aaaaaaaacbeddbciiicicbbbbbbcidneiidjiicbcccicccbccccaaaaaaaaaaaa",
"aaaaaaaacdjedbccbibbicibdejkbchdiiijiiiccicicbccdbbccaaaaaaaaaaa",
"aaaaaaaacekjdbccbccbdbicdjkjdbbhdijdciicibbccbccdjdbccaaaaaaaaaa",
"aaaaaaaacbedbccbcaidedibbdbbdbicjjdbbcibdbciacdcbekbbcaaaaaaaaaa",
"aaaaaaaaccbbbccbcaibdbicbcbdedibdedbcbidediiacbecbdedbcaaaaaaaaa",
"aaaaaaaaaccccdbcaaaibcciicdjkbidjkjdccibdbiaaacbdcbbbbcaaaaaaaaa",
"aaaaaaaaccbccjdaaaaiiciccdjkjcibejkjdiccbiaaaaacccccccccaaaaaaaa",
"aaaaaaaacdebcccaaaaaiopoobdbbccbddddbciciiaaaaaaaidbcdcbcaaaaaaa",
"aaaaaaaabeedbccaaaaaiiiipobbbbbbbbbcbcbiiaaaaaaaaacicbjdbcaaaaaa",
"aaaaaaacdkjdbcaaaaacbbdbipokjbdjkedccbdiiaaaaaaaaaacccekebcaaaaa",
"aaaaaaacekedccaaaaccbddddppodbcbdjdcibbiiaaaaaaaaaaaccdeljcaaaaa",
"aaaaaacbkjdbcaaaacbdejdejepooiiccbbcicciiaaaaaaaaaaaccbdjkbcaaaa",
"aaaaaacbkebcaaaaacdejedbjeqpodriiiiiiiiiiiaaaaaaaaaaaccbdddcaaaa",
"aaaaaastsucaaaaaacbdedbdekoqokirrrriiicbcciaaaaaaaaaaacccdbccaaa",
"aaaaaasvsucaaaaaaccbbbbbbeqqekcoooooiibdbbciaaaaaaaaaaaaccjbcaaa",
"aaaaacsvsuaaaaaaaiccbkjdbbcwkdcppooiiccbbbbbbaaaaaaaaaaaacedccaa",
"aaaacbsxsucaaaaaaaicbjeebccekcrooyiccccbejkebaaaaaaaaaaacbbdbcaa",
"aaaacdszsucaaaaaaaaicbebccekdcorricbcccdjfnkdbaaaaaaaaaacccebcaa",
"aaaaacsxsucaaaaaaaaicbdbiekdcqorricdbbcbdejedbaaaaaaaaaacbdccaaa",
"aaaaaasxsuaaaaaaaccccbebcjdcpqoricbedbccbbbdbbaaaaaaaaaaacccaaaa",
"aaaaaasvsuaaaaaacbdccbjbbccaaqocicbjdcbbdddbbaaaaaaaaaaaaaaaaaaa",
"aaaaaastsuaaaaacbbbbcdjdbcaaaaraicbdbcbdjfkbbaaaaaaaaaaaaaaaaaaa",
"aaaaaaABCuaaaaacjkedccccbcaaaaoaiicbcbbbekjebaaaaaaaaaaaaaaaaaaa",
"aaaaaaADDuaaaaacjmkccccbccaaaaoaacbbdejedeedbaaaaaaaaaaaaaaaaaaa",
"aaaaaaCCsuaaaaaabbdbbbbccaaaaaaacbbdekmkebbbaaaaaaaaaaaaaaaaaaaa",
"aaaaaaCzsuaaaaaaabcbkedcaaaaaaabddkedekjjbcaaaaaaaaaaaaaaaaaaaaa",
"aaaaaaCvsuaaaaaaaaabmkedccccaaacekfkebdedbaaaaaaaaaaaaaaaaaaaaaa",
"aaaaaaCvsuaaaaaaaaabbdddbbbbcaabdehkdbcbbcaaaaaaaaaaaaaaaaaaaaaa",
"aaaaaaCvsuaaaaaaaaacbcccbkedcccccccccccccccaaaaaaaaaaaaaaaaaaaaa",
"aaaaaaAvsuaaaaaaaaabbecbbmkedbbbbcccbbbbbbccaaaaaaaaaaaaaaaaaaaa",
"aaaaaaAvsuaaaaaaaaadbjbcbbdddbkedccdkeddedbcaaaaaaaaaaaaaaaaaaaa",
"aaaaaaAvsuaaaaaaaaaebbbbcbcccbmkedcjmkbjmkbcaaaaaaaaaaaaaaaaaaaa",
"aaaaaaADDuaaaaaaaaabcdcdcaaccbbdddbbdbbdjebcaaaaaaaaaaaaaaaaaaaa",
"aaaaaaaCCaaaaaaaaaaacccbcaaaacccccaccccacccaaaaaaaaaaaaaaaaaaaaa",
"aaaaaaaaaaaaaaaaaaaaaacccaaaaaaaaacjebaaaaaaaaaaaaaaaaaaaaaaaaaa",
"aaaaaaaaaaaaaaaaaaaaaaaaaaaaaaaaaicbecaaaaaaaaaaaaaaaaaaaaaaaaaa",
"aaaaaaaaaaaaaaaaaaaaaaaaaaaaaaaaaiccdccaaaaaaaaaaaaaaaaaaaaaaaaa",
"aaaaaaaaaaaaaaaaaaaaaaaaaaaaaaaaaEccddcbaaaaaaaaaaaaaaaaaaaaaaaa",
"aaaaaaaaaaaaaaaaaaaaaaaaaaaaaaaaaccdbebecaaaaaaaaaaaaaaaaaaaaaaa",
"aaaaaaaaaaaaaaaaaaaaaaaaaaaaaaaaaaccccccaaaaaaaaaaaaaaaaaaaaaaaa"
};
