/* XPM */
static const char *enemy_floor3_red_guard_firing_f00[] = {
/* columns rows colors chars-per-pixel */
"64 64 49 1",
"! c None",
"# c #A0A0A0",
"$ c #5C5C5C",
"% c #000000",
"& c #6C6C6C",
"' c #7C7C7C",
"( c #684018",
") c #94602C",
"* c #A06C3C",
"+ c #B08458",
", c #C4A080",
"- c #A8784C",
". c #5C340C",
"/ c #00003C",
"0 c #E4C098",
"1 c #805424",
"2 c #BCBCBC",
"3 c #D0B094",
"4 c #CC3880",
"5 c #880444",
"6 c #C01064",
"7 c #98084C",
"8 c #AC0C58",
"9 c #C4C824",
": c #640030",
"; c #78E0E0",
"< c #00A4A4",
"= c #007474",
"> c #500024",
"? c #00BCBC",
"@ c #10C0C0",
"A c #008C8C",
"B c #884404",
"C c #502400",
"D c #980808",
"E c #5C0000",
"F c #40D0D0",
"G c #3C001C",
"H c #CC8038",
"I c #AC580C",
"J c #840404",
"K c #480000",
"L c #4C4C4C",
"M c #3C3C3C",
"N c #2C2C2C",
"O c #004444",
"P c #005C5C",
"Q c #0C5CAC",
"R c #003064",
"!!!!!!!!!!!!!!!!!!!!!!!!!!!!!!!!!!!!!!!!!!!!!!!!!!!!!!!!!!!!!!!!",
"!!!!!!!!!!!!!!!!!!!!!!!!!!!!!!!!!!!!!!!!!!!!!!!!!!!!!!!!!!!!!!!!",
"!!!!!!!!!!!!!!!!!!!!!!!!!!!!!!!!!!!!!!!!!!!!!!!!!!!!!!!!!!!!!!!!",
"!!!!!!!!!!!!!!!!!!!!!!!!!!!!!!!!!!!!!!!!!!!!!!!!!!!!!!!!!!!!!!!!",
"!!!!!!!!!!!!!!!!!!!!!!!!!!!!!!!!!!!!!!!!!!!!!!!!!!!!!!!!!!!!!!!!",
"!!!!!!!!!!!!!!!!!!!!!!!!!!!!!!!!!!!!!!!!!!!!!!!!!!!!!!!!!!!!!!!!",
"!!!!!!!!!!!!!!!!!!!!!!!!!!!!!!!!!!!!!!!!!!!!!!!!!!!!!!!!!!!!!!!!",
"!!!!!!!!!!!!!!!!!!!!!!!!!!!!!!!!!!!!!!!!!!!!!!!!!!!!!!!!!!!!!!!!",
"!!!!!!!!!!!!!!!!!!!!!!!!!!!!!!!!!!!!!#!!!!!!!!!!!!!!!!!!!!!!!!!!",
"!!!!!!!!!!!!!!!!!!!!!!!!!!!!!!!!!!!!!$!!!!!!!!!!!!!!!!!!!!!!!!!!",
"!!!!!!!!!!!!!!!!!!!!!!!!!!!!%%%%%%%!!&!!!!!!!!!!!!!!!!!!!!!!!!!!",
"!!!!!!!!!!!!!!!!!!!!!!!!!!!%%%%%%%%%!'!!!!!!!!!!!!!!!!!!!!!!!!!!",
"!!!!!!!!!!!!!!!!!!!!!!!!!!%())(%())(%'!!!!!!!!!!!!!!!!!!!!!!!!!!",
"!!!!!!!!!!!!!!!!!!!!!!!!!!%*++,,,++*%'!!!!!!!!!!!!!!!!!!!!!!!!!!",
"!!!!!!!!!!!!!!!!!!!!!!!!!!%%()*-*)(%%'!!!!!!!!!!!!!!!!!!!!!!!!!!",
"!!!!!!!!!!!!!!!!!!!!!!!!!!%)./()(/.)%%!!!!!!!!!!!!!!!!!!!!!!!!!!",
"!!!!!!!!!!!!!!!!!!!!!!!!!!)+,,-,-,,+$&!!!!!!!!!!!!!!!!!!!!!!!!!!",
"!!!!!!!!!!!!!!!!!!!!!!!!!!.)-*,0,*-)%%!!!!!!!!!!!!!!!!!!!!!!!!!!",
"!!!!!!!!!!!!!!!!!!!!!!!!!!!-*1)1)1*-%%!!!!!!!!!!!!!!!!!!!!!!!!!!",
"!!!!!!!!!!!!!!!!!!!!!!!!!!!)-.#2#.-)!!!!!!!!!!!!!!!!!!!!!!!!!!!!",
"!!!!!!!!!!!!!!!!!!!!!!!!!!!1*-+3+-*1!!!!!!!!!!!!!!!!!!!!!!!!!!!!",
"!!!!!!!!!!!!!!!!!!!!!!!!!!!4)1(((1)4!!!!!!!!!!!!!!!!!!!!!!!!!!!!",
"!!!!!!!!!!!!!!!!!!!!!!!!!!56-)*)*)-65!!!!!!!!!!!!!!!!!!!!!!!!!!!",
"!!!!!!!!!!!!!!!!!!!!!!6446578-,-,-875646!!!!!!!!!!!!!!!!!!!!!!!!",
"!!!!!!!!!!!!!!!!!!!!!48877757888887577884!!!!!!!!!!!!!!!!!!!!!!!",
"!!!!!!!!!!!!!!!!!!!!6877868755787558687886!!!!!!!!!!!!!!!!!!!!!!",
"!!!!!!!!!!!!!!!!!!!!67787777777788777777787!!!!!!!!!!!!!!!!!!!!!",
"!!!!!!!!!!!!!!!!!!!687777777775875999777757!!!!!!!!!!!!!!!!!!!!!",
"!!!!!!!!!!!!!!!!!!!47557777777577:9997775784!!!!!!!!!!!!!!!!!!!!",
"!!!!!!!!!!!!!!!!!!!677:57777;<%77:::775578786!!!!!!!!!!!!!!!!!!!",
"!!!!!!!!!!!!!!!!!!6877:557777=57777775:577776!!!!!!!!!!!!!!!!!!!",
"!!!!!!!!!!!!!!!!!!475:>>5555<?@<<55555>:577586!!!!!!!!!!!!!!!!!!",
"!!!!!!!!!!!!!!!!!!677775>::A?BC;;DEF%%G>::5776!!!!!!!!!!!!!!!!!!",
"!!!!!!!!!!!!!!!!!!!578875:5=AHI?AJK=%%>:778876!!!!!!!!!!!!!!!!!!",
"!!!!!!!!!!!!!!!!!!!>5LMN%>:O=<<?OOP5::%NN77876!!!!!!!!!!!!!!!!!!",
"!!!!!!!!!!!!!!!!!!!>LMMMN%L=OA%?PPA:%%NMLN77>!!!!!!!!!!!!!!!!!!!",
"!!!!!!!!!!!!!!!!!!!!NMMMNM%NMM%Q%NMN%LMMNNN>!!!!!!!!!!!!!!!!!!!!",
"!!!!!!!!!!!!!!!!!!!!%NNML%M%NN%R%%NMM%LNN%%!!!!!!!!!!!!!!!!!!!!!",
"!!!!!!!!!!!!!!!!!!!!!%%NM%NM%%%R%NMNM%%%%!!!!!!!!!!!!!!!!!!!!!!!",
"!!!!!!!!!!!!!!!!!!!!!!!%%%N%%%%Q%%NN%%%%%!!!!!!!!!!!!!!!!!!!!!!!",
"!!!!!!!!!!!!!!!!!!!!!!!%%%%P5777>%%%%:%%%!!!!!!!!!!!!!!!!!!!!!!!",
"!!!!!!!!!!!!!!!!!!!!!!!6775:55555:5577786!!!!!!!!!!!!!!!!!!!!!!!",
"!!!!!!!!!!!!!!!!!!!!!!688775>575>57778874!!!!!!!!!!!!!!!!!!!!!!!",
"!!!!!!!!!!!!!!!!!!!!!!48775::>>>::5777774!!!!!!!!!!!!!!!!!!!!!!!",
"!!!!!!!!!!!!!!!!!!!!!!4787775:G:577777776!!!!!!!!!!!!!!!!!!!!!!!",
"!!!!!!!!!!!!!!!!!!!!!68755775:G:557778886!!!!!!!!!!!!!!!!!!!!!!!",
"!!!!!!!!!!!!!!!!!!!!!48777755>G>577877786!!!!!!!!!!!!!!!!!!!!!!!",
"!!!!!!!!!!!!!!!!!!!!!6787777:>G>:777778786!!!!!!!!!!!!!!!!!!!!!!",
"!!!!!!!!!!!!!!!!!!!!67777777:G!G:577777776!!!!!!!!!!!!!!!!!!!!!!",
"!!!!!!!!!!!!!!!!!!!!48777775:G!G>:55777784!!!!!!!!!!!!!!!!!!!!!!",
"!!!!!!!!!!!!!!!!!!!!4755775::>!!G577777786!!!!!!!!!!!!!!!!!!!!!!",
"!!!!!!!!!!!!!!!!!!!!67788775>!!!GG:5777776!!!!!!!!!!!!!!!!!!!!!!",
"!!!!!!!!!!!!!!!!!!!!677775:::>!!G:57555786!!!!!!!!!!!!!!!!!!!!!!",
"!!!!!!!!!!!!!!!!!!!!!6777775:>!!G>57777776!!!!!!!!!!!!!!!!!!!!!!",
"!!!!!!!!!!!!!!!!!!!!!575775:>%!!!G:577757!!!!!!!!!!!!!!!!!!!!!!!",
"!!!!!!!!!!!!!!!!!!!!!%G>:::>N%!!!%G>:::>%!!!!!!!!!!!!!!!!!!!!!!!",
"!!!!!!!!!!!!!!!!!!!!!!%NNNNN%!!!!%NNNNNN%!!!!!!!!!!!!!!!!!!!!!!!",
"!!!!!!!!!!!!!!!!!!!!!!%NMLLM%!!!!%NNMMN%!!!!!!!!!!!!!!!!!!!!!!!!",
"!!!!!!!!!!!!!!!!!!!!!!!%NNNMN%!!!!%MLLM%!!!!!!!!!!!!!!!!!!!!!!!!",
"!!!!!!!!!!!!!!!!!!!!!!%MLLMNN%!!!!%NNNN%!!!!!!!!!!!!!!!!!!!!!!!!",
"!!!!!!!!!!!!!!!!!!!!!%NNMMMNN%!!!%NMMLMN%!!!!!!!!!!!!!!!!!!!!!!!",
"!!!!!!!!!!!!!!!!!!!!%NMMLLMN%!!!!%NNNMMM%!!!!!!!!!!!!!!!!!!!!!!!",
"!!!!!!!!!!!!!!!!!!!!%NNMMNN%!!!!!%%NMLLMN%!!!!!!!!!!!!!!!!!!!!!!",
"!!!!!!!!!!!!!!!!!!!!!%%%%%%!!!!!!!%%%%%%%%!!!!!!!!!!!!!!!!!!!!!!"
};