/* XPM */
static const char *enemy_floor3_red_guard_firing_f01[] = {
/* columns rows colors chars-per-pixel */
"64 64 37 1",
"! c None",
"# c #A0A0A0",
"$ c #5C5C5C",
"% c #000000",
"& c #6C6C6C",
"' c #7C7C7C",
"( c #684018",
") c #94602C",
"* c #A06C3C",
"+ c #B08458",
", c #C4A080",
"- c #A8784C",
". c #5C340C",
"/ c #00003C",
"0 c #E4C098",
"1 c #805424",
"2 c #BCBCBC",
"3 c #480000",
"4 c #700404",
"5 c #C01064",
"6 c #CC3880",
"7 c #880444",
"8 c #C01010",
"9 c #D0B094",
": c #98084C",
"; c #AC0C58",
"< c #C4C824",
"= c #640030",
"> c #007474",
"? c #00A4A4",
"@ c #500024",
"A c #008C8C",
"B c #2C2C2C",
"C c #4C4C4C",
"D c #3C3C3C",
"E c #005C5C",
"F c #3C001C",
"!!!!!!!!!!!!!!!!!!!!!!!!!!!!!!!!!!!!!!!!!!!!!!!!!!!!!!!!!!!!!!!!",
"!!!!!!!!!!!!!!!!!!!!!!!!!!!!!!!!!!!!!!!!!!!!!!!!!!!!!!!!!!!!!!!!",
"!!!!!!!!!!!!!!!!!!!!!!!!!!!!!!!!!!!!!!!!!!!!!!!!!!!!!!!!!!!!!!!!",
"!!!!!!!!!!!!!!!!!!!!!!!!!!!!!!!!!!!!!!!!!!!!!!!!!!!!!!!!!!!!!!!!",
"!!!!!!!!!!!!!!!!!!!!!!!!!!!!!!!!!!!!!!!!!!!!!!!!!!!!!!!!!!!!!!!!",
"!!!!!!!!!!!!!!!!!!!!!!!!!!!!!!!!!!!!!!!!!!!!!!!!!!!!!!!!!!!!!!!!",
"!!!!!!!!!!!!!!!!!!!!!!!!!!!!!!!!!!!!!!!!!!!!!!!!!!!!!!!!!!!!!!!!",
"!!!!!!!!!!!!!!!!!!!!!!!!!!!!!!!!!!!!!!!!!!!!!!!!!!!!!!!!!!!!!!!!",
"!!!!!!!!!!!!!!!!!!!!!!!!!!!!!!!!!!!!!!#!!!!!!!!!!!!!!!!!!!!!!!!!",
"!!!!!!!!!!!!!!!!!!!!!!!!!!!!!!!!!!!!!!$!!!!!!!!!!!!!!!!!!!!!!!!!",
"!!!!!!!!!!!!!!!!!!!!!!!!!!!!!%%%%%%%!!&!!!!!!!!!!!!!!!!!!!!!!!!!",
"!!!!!!!!!!!!!!!!!!!!!!!!!!!!%%%%%%%%%!'!!!!!!!!!!!!!!!!!!!!!!!!!",
"!!!!!!!!!!!!!!!!!!!!!!!!!!!%())(%())(%'!!!!!!!!!!!!!!!!!!!!!!!!!",
"!!!!!!!!!!!!!!!!!!!!!!!!!!!%*++,,,++*%'!!!!!!!!!!!!!!!!!!!!!!!!!",
"!!!!!!!!!!!!!!!!!!!!!!!!!!!%%()*-*)(%%'!!!!!!!!!!!!!!!!!!!!!!!!!",
"!!!!!!!!!!!!!!!!!!!!!!!!!!!%)./()(/.)%%!!!!!!!!!!!!!!!!!!!!!!!!!",
"!!!!!!!!!!!!!!!!!!!!!!!!!!!)+,,-,-,,+$&!!!!!!!!!!!!!!!!!!!!!!!!!",
"!!!!!!!!!!!!!!!!!!!!!!!!!!!.)-*,0,*-)%%!!!!!!!!!!!!!!!!!!!!!!!!!",
"!!!!!!!!!!!!!!!!!!!!!!!!!!!!-*-)1)-*-%%!!!!!!!!!!!!!!!!!!!!!!!!!",
"!!!!!!!!!!!!!!!!!!!!!!!!!!!!)-.#2#.-)!!!!!!!!!!!!!!!!!!!!!!!!!!!",
"!!!!!!!!!!!!!!!!!!!!!!!!!!!!1*13431*1!!!!!!!!!!!!!!!!!!!!!!!!!!!",
"!!!!!!!!!!!!!!!!!!!!!!!!!!!56*1#2#1)65!!!!!!!!!!!!!!!!!!!!!!!!!!",
"!!!!!!!!!!!!!!!!!!!!!!!!!!!758-+9+--57!!!!!!!!!!!!!!!!!!!!!!!!!!",
"!!!!!!!!!!!!!!!!!!!!!!!!6657:;1(((1;:766!!!!!!!!!!!!!!!!!!!!!!!!",
"!!!!!!!!!!!!!!!!!!!!!!!6;;::7:;;;;;:7;;;6!!!!!!!!!!!!!!!!!!!!!!!",
"!!!!!!!!!!!!!!!!!!!!!!5;::55:77:;:775;:;;5!!!!!!!!!!!!!!!!!!!!!!",
"!!!!!!!!!!!!!!!!!!!!!!5::5:::;::;;::::;::5!!!!!!!!!!!!!!!!!!!!!!",
"!!!!!!!!!!!!!!!!!!!!!5:::::::::57<<<7:::::5!!!!!!!!!!!!!!!!!!!!!",
"!!!!!!!!!!!!!!!!!!!!!6;77:::::7;=<<<=7:::76!!!!!!!!!!!!!!!!!!!!!",
"!!!!!!!!!!!!!!!!!!!!!5::7::::%7:===:7==77:6!!!!!!!!!!!!!!!!!!!!!",
"!!!!!!!!!!!!!!!!!!!!5:::=7:::>7:::::=::;;:5!!!!!!!!!!!!!!!!!!!!!",
"!!!!!!!!!!!!!!!!!!!!6:7==77::??::::7@::::7:5!!!!!!!!!!!!!!!!!!!!",
"!!!!!!!!!!!!!!!!!!!!::;;:==7?%%?====7@=77::6!!!!!!!!!!!!!!!!!!!!",
"!!!!!!!!!!!!!!!!!!!!:;;::=7:A%%?:::7%B::;;:6!!!!!!!!!!!!!!!!!!!!",
"!!!!!!!!!!!!!!!!!!!!!@:CDB%7AEE?77%BDCD::;:5!!!!!!!!!!!!!!!!!!!!",
"!!!!!!!!!!!!!!!!!!!!!@DDCDB%>>>A%BDCDBB::::5!!!!!!!!!!!!!!!!!!!!",
"!!!!!!!!!!!!!!!!!!!!!!BBDD%B&CD%BB%BB%%:@@@!!!!!!!!!!!!!!!!!!!!!",
"!!!!!!!!!!!!!!!!!!!!!!%%%BB%CCBB%B%%%BB@%B%!!!!!!!!!!!!!!!!!!!!!",
"!!!!!!!!!!!!!!!!!!!!!!!BB%D%DDC%BBBBB%%%%%%!!!!!!!!!!!!!!!!!!!!!",
"!!!!!!!!!!!!!!!!!!!!!!!!%BB%CCBBB%%%%%%%%%%!!!!!!!!!!!!!!!!!!!!!",
"!!!!!!!!!!!!!!!!!!!!!!!!%%%%%EE====@=7:;%%%!!!!!!!!!!!!!!!!!!!!!",
"!!!!!!!!!!!!!!!!!!!!!!!!6;:7=77777=77:::;6!!!!!!!!!!!!!!!!!!!!!!",
"!!!!!!!!!!!!!!!!!!!!!!!!57::7@7:7@7:::::;6!!!!!!!!!!!!!!!!!!!!!!",
"!!!!!!!!!!!!!!!!!!!!!!!5;::7==@@@==7::;;:5!!!!!!!!!!!!!!!!!!!!!!",
"!!!!!!!!!!!!!!!!!!!!!!!5:::::7=F=7::;:::;5!!!!!!!!!!!!!!!!!!!!!!",
"!!!!!!!!!!!!!!!!!!!!!!5;;::::7=F==7::::::5!!!!!!!!!!!!!!!!!!!!!!",
"!!!!!!!!!!!!!!!!!!!!!!6;:::::7==@=::7:::;5!!!!!!!!!!!!!!!!!!!!!!",
"!!!!!!!!!!!!!!!!!!!!!!6:::::7=7=@=:::::::5!!!!!!!!!!!!!!!!!!!!!!",
"!!!!!!!!!!!!!!!!!!!!!!5:77:::7=@@=7::::::;5!!!!!!!!!!!!!!!!!!!!!",
"!!!!!!!!!!!!!!!!!!!!!56;::::77=@!@=::;:;;65!!!!!!!!!!!!!!!!!!!!!",
"!!!!!!!!!!!!!!!!!!!!!5::::77===@!@=7::::;65!!!!!!!!!!!!!!!!!!!!!",
"!!!!!!!!!!!!!!!!!!!!!:;::::77=@!!@=:77:::;:!!!!!!!!!!!!!!!!!!!!!",
"!!!!!!!!!!!!!!!!!!!!!!=77777@@%!!@=7::::::7!!!!!!!!!!!!!!!!!!!!!",
"!!!!!!!!!!!!!!!!!!!!!!%@===@BB%!!!@=7777=@!!!!!!!!!!!!!!!!!!!!!!",
"!!!!!!!!!!!!!!!!!!!!!!%BBBBBB%!!!!%@====@B%!!!!!!!!!!!!!!!!!!!!!",
"!!!!!!!!!!!!!!!!!!!!!!!%BBBBB%!!!!%BBBBBBB%!!!!!!!!!!!!!!!!!!!!!",
"!!!!!!!!!!!!!!!!!!!!!!!%BBBB%!!!!!%BDDCDB%!!!!!!!!!!!!!!!!!!!!!!",
"!!!!!!!!!!!!!!!!!!!!!!!!%BDCB%!!!!!%BDDDB%!!!!!!!!!!!!!!!!!!!!!!",
"!!!!!!!!!!!!!!!!!!!!!!!!%BBBD%!!!!!%BBDCD%!!!!!!!!!!!!!!!!!!!!!!",
"!!!!!!!!!!!!!!!!!!!!!!!%BDDD%%!!!!!!%BBBB%!!!!!!!!!!!!!!!!!!!!!!",
"!!!!!!!!!!!!!!!!!!!!!!%BDCDB%!!!!!!%BBDCDB%!!!!!!!!!!!!!!!!!!!!!",
"!!!!!!!!!!!!!!!!!!!!!!%%%%%%!!!!!!!%BBDDBB%!!!!!!!!!!!!!!!!!!!!!",
"!!!!!!!!!!!!!!!!!!!!!!!!!!!!!!!!!!!%%BBDCDB%!!!!!!!!!!!!!!!!!!!!",
"!!!!!!!!!!!!!!!!!!!!!!!!!!!!!!!!!!!!%%%%%%%%!!!!!!!!!!!!!!!!!!!!"
};