/* XPM */
static const char *enemy_floor3_red_guard_firing_sheet[] = {
/* columns rows colors chars-per-pixel */
"192 64 56 1",
"! c None",
"# c #A0A0A0",
"$ c #5C5C5C",
"% c #000000",
"& c #6C6C6C",
"' c #7C7C7C",
"( c #684018",
") c #94602C",
"* c #A06C3C",
"+ c #B08458",
", c #C4A080",
"- c #A8784C",
". c #5C340C",
"/ c #00003C",
"0 c #E4C098",
"1 c #805424",
"2 c #BCBCBC",
"3 c #D0B094",
"4 c #480000",
"5 c #700404",
"6 c #CC3880",
"7 c #C01064",
"8 c #880444",
"9 c #C01010",
": c #98084C",
"; c #AC0C58",
"< c #C06410",
"= c #CC8038",
"> c #C4C824",
"? c #FCFCFC",
"@ c #640030",
"A c #740438",
"B c #78E0E0",
"C c #00A4A4",
"D c #007474",
"E c #500024",
"F c #00BCBC",
"G c #10C0C0",
"H c #008C8C",
"I c #884404",
"J c #502400",
"K c #980808",
"L c #5C0000",
"M c #40D0D0",
"N c #3C001C",
"O c #2C2C2C",
"P c #AC580C",
"Q c #840404",
"R c #3C3C3C",
"S c #343434",
"T c #747474",
"U c #4C4C4C",
"V c #004444",
"W c #005C5C",
"X c #0C5CAC",
"Y c #003064",
"!!!!!!!!!!!!!!!!!!!!!!!!!!!!!!!!!!!!!!!!!!!!!!!!!!!!!!!!!!!!!!!!!!!!!!!!!!!!!!!!!!!!!!!!!!!!!!!!!!!!!!!!!!!!!!!!!!!!!!!!!!!!!!!!!!!!!!!!!!!!!!!!!!!!!!!!!!!!!!!!!!!!!!!!!!!!!!!!!!!!!!!!!!!!!!!!",
"!!!!!!!!!!!!!!!!!!!!!!!!!!!!!!!!!!!!!!!!!!!!!!!!!!!!!!!!!!!!!!!!!!!!!!!!!!!!!!!!!!!!!!!!!!!!!!!!!!!!!!!!!!!!!!!!!!!!!!!!!!!!!!!!!!!!!!!!!!!!!!!!!!!!!!!!!!!!!!!!!!!!!!!!!!!!!!!!!!!!!!!!!!!!!!!!",
"!!!!!!!!!!!!!!!!!!!!!!!!!!!!!!!!!!!!!!!!!!!!!!!!!!!!!!!!!!!!!!!!!!!!!!!!!!!!!!!!!!!!!!!!!!!!!!!!!!!!!!!!!!!!!!!!!!!!!!!!!!!!!!!!!!!!!!!!!!!!!!!!!!!!!!!!!!!!!!!!!!!!!!!!!!!!!!!!!!!!!!!!!!!!!!!!",
"!!!!!!!!!!!!!!!!!!!!!!!!!!!!!!!!!!!!!!!!!!!!!!!!!!!!!!!!!!!!!!!!!!!!!!!!!!!!!!!!!!!!!!!!!!!!!!!!!!!!!!!!!!!!!!!!!!!!!!!!!!!!!!!!!!!!!!!!!!!!!!!!!!!!!!!!!!!!!!!!!!!!!!!!!!!!!!!!!!!!!!!!!!!!!!!!",
"!!!!!!!!!!!!!!!!!!!!!!!!!!!!!!!!!!!!!!!!!!!!!!!!!!!!!!!!!!!!!!!!!!!!!!!!!!!!!!!!!!!!!!!!!!!!!!!!!!!!!!!!!!!!!!!!!!!!!!!!!!!!!!!!!!!!!!!!!!!!!!!!!!!!!!!!!!!!!!!!!!!!!!!!!!!!!!!!!!!!!!!!!!!!!!!!",
"!!!!!!!!!!!!!!!!!!!!!!!!!!!!!!!!!!!!!!!!!!!!!!!!!!!!!!!!!!!!!!!!!!!!!!!!!!!!!!!!!!!!!!!!!!!!!!!!!!!!!!!!!!!!!!!!!!!!!!!!!!!!!!!!!!!!!!!!!!!!!!!!!!!!!!!!!!!!!!!!!!!!!!!!!!!!!!!!!!!!!!!!!!!!!!!!",
"!!!!!!!!!!!!!!!!!!!!!!!!!!!!!!!!!!!!!!!!!!!!!!!!!!!!!!!!!!!!!!!!!!!!!!!!!!!!!!!!!!!!!!!!!!!!!!!!!!!!!!!!!!!!!!!!!!!!!!!!!!!!!!!!!!!!!!!!!!!!!!!!!!!!!!!!!!!!!!!!!!!!!!!!!!!!!!!!!!!!!!!!!!!!!!!!",
"!!!!!!!!!!!!!!!!!!!!!!!!!!!!!!!!!!!!!!!!!!!!!!!!!!!!!!!!!!!!!!!!!!!!!!!!!!!!!!!!!!!!!!!!!!!!!!!!!!!!!!!!!!!!!!!!!!!!!!!!!!!!!!!!!!!!!!!!!!!!!!!!!!!!!!!!!!!!!!!!!!!!!!!!!!!!!!!!!!!!!!!!!!!!!!!!",
"!!!!!!!!!!!!!!!!!!!!!!!!!!!!!!!!!!!!!#!!!!!!!!!!!!!!!!!!!!!!!!!!!!!!!!!!!!!!!!!!!!!!!!!!!!!!!!!!!!!!!!#!!!!!!!!!!!!!!!!!!!!!!!!!!!!!!!!!!!!!!!!!!!!!!!!!!!!!!!!!!!!!!!#!!!!!!!!!!!!!!!!!!!!!!!!!",
"!!!!!!!!!!!!!!!!!!!!!!!!!!!!!!!!!!!!!$!!!!!!!!!!!!!!!!!!!!!!!!!!!!!!!!!!!!!!!!!!!!!!!!!!!!!!!!!!!!!!!!$!!!!!!!!!!!!!!!!!!!!!!!!!!!!!!!!!!!!!!!!!!!!!!!!!!!!!!!!!!!!!!!$!!!!!!!!!!!!!!!!!!!!!!!!!",
"!!!!!!!!!!!!!!!!!!!!!!!!!!!!%%%%%%%!!&!!!!!!!!!!!!!!!!!!!!!!!!!!!!!!!!!!!!!!!!!!!!!!!!!!!!!!!%%%%%%%!!&!!!!!!!!!!!!!!!!!!!!!!!!!!!!!!!!!!!!!!!!!!!!!!!!!!!!!!%%%%%%%!!&!!!!!!!!!!!!!!!!!!!!!!!!!",
"!!!!!!!!!!!!!!!!!!!!!!!!!!!%%%%%%%%%!'!!!!!!!!!!!!!!!!!!!!!!!!!!!!!!!!!!!!!!!!!!!!!!!!!!!!!!%%%%%%%%%!'!!!!!!!!!!!!!!!!!!!!!!!!!!!!!!!!!!!!!!!!!!!!!!!!!!!!!%%%%%%%%%!'!!!!!!!!!!!!!!!!!!!!!!!!!",
"!!!!!!!!!!!!!!!!!!!!!!!!!!%())(%())(%'!!!!!!!!!!!!!!!!!!!!!!!!!!!!!!!!!!!!!!!!!!!!!!!!!!!!!%())(%())(%'!!!!!!!!!!!!!!!!!!!!!!!!!!!!!!!!!!!!!!!!!!!!!!!!!!!!%())(%())(%'!!!!!!!!!!!!!!!!!!!!!!!!!",
"!!!!!!!!!!!!!!!!!!!!!!!!!!%*++,,,++*%'!!!!!!!!!!!!!!!!!!!!!!!!!!!!!!!!!!!!!!!!!!!!!!!!!!!!!%*++,,,++*%'!!!!!!!!!!!!!!!!!!!!!!!!!!!!!!!!!!!!!!!!!!!!!!!!!!!!%*++,,,++*%'!!!!!!!!!!!!!!!!!!!!!!!!!",
"!!!!!!!!!!!!!!!!!!!!!!!!!!%%()*-*)(%%'!!!!!!!!!!!!!!!!!!!!!!!!!!!!!!!!!!!!!!!!!!!!!!!!!!!!!%%()*-*)(%%'!!!!!!!!!!!!!!!!!!!!!!!!!!!!!!!!!!!!!!!!!!!!!!!!!!!!%%()*-*)(%%'!!!!!!!!!!!!!!!!!!!!!!!!!",
"!!!!!!!!!!!!!!!!!!!!!!!!!!%)./()(/.)%%!!!!!!!!!!!!!!!!!!!!!!!!!!!!!!!!!!!!!!!!!!!!!!!!!!!!!%)./()(/.)%%!!!!!!!!!!!!!!!!!!!!!!!!!!!!!!!!!!!!!!!!!!!!!!!!!!!!%)./()(/.)%%!!!!!!!!!!!!!!!!!!!!!!!!!",
"!!!!!!!!!!!!!!!!!!!!!!!!!!)+,,-,-,,+$&!!!!!!!!!!!!!!!!!!!!!!!!!!!!!!!!!!!!!!!!!!!!!!!!!!!!!)+,,-,-,,+$&!!!!!!!!!!!!!!!!!!!!!!!!!!!!!!!!!!!!!!!!!!!!!!!!!!!!)+,,-,-,,+$&!!!!!!!!!!!!!!!!!!!!!!!!!",
"!!!!!!!!!!!!!!!!!!!!!!!!!!.)-*,0,*-)%%!!!!!!!!!!!!!!!!!!!!!!!!!!!!!!!!!!!!!!!!!!!!!!!!!!!!!.)-*,0,*-)%%!!!!!!!!!!!!!!!!!!!!!!!!!!!!!!!!!!!!!!!!!!!!!!!!!!!!.)-*,0,*-)%%!!!!!!!!!!!!!!!!!!!!!!!!!",
"!!!!!!!!!!!!!!!!!!!!!!!!!!!-*1)1)1*-%%!!!!!!!!!!!!!!!!!!!!!!!!!!!!!!!!!!!!!!!!!!!!!!!!!!!!!!-*-)1)-*-%%!!!!!!!!!!!!!!!!!!!!!!!!!!!!!!!!!!!!!!!!!!!!!!!!!!!!!-*-)1)-*-%%!!!!!!!!!!!!!!!!!!!!!!!!!",
"!!!!!!!!!!!!!!!!!!!!!!!!!!!)-.#2#.-)!!!!!!!!!!!!!!!!!!!!!!!!!!!!!!!!!!!!!!!!!!!!!!!!!!!!!!!!)-.#2#.-)!!!!!!!!!!!!!!!!!!!!!!!!!!!!!!!!!!!!!!!!!!!!!!!!!!!!!!!)-.#2#.-)!!!!!!!!!!!!!!!!!!!!!!!!!!!",
"!!!!!!!!!!!!!!!!!!!!!!!!!!!1*-+3+-*1!!!!!!!!!!!!!!!!!!!!!!!!!!!!!!!!!!!!!!!!!!!!!!!!!!!!!!!!1*14541*1!!!!!!!!!!!!!!!!!!!!!!!!!!!!!!!!!!!!!!!!!!!!!!!!!!!!!!!1*14541*1!!!!!!!!!!!!!!!!!!!!!!!!!!!",
"!!!!!!!!!!!!!!!!!!!!!!!!!!!6)1(((1)6!!!!!!!!!!!!!!!!!!!!!!!!!!!!!!!!!!!!!!!!!!!!!!!!!!!!!!!76*1#2#1)67!!!!!!!!!!!!!!!!!!!!!!!!!!!!!!!!!!!!!!!!!!!!!!!!!!!!!76*1#2#1)67!!!!!!!!!!!!!!!!!!!!!!!!!!",
"!!!!!!!!!!!!!!!!!!!!!!!!!!87-)*)*)-78!!!!!!!!!!!!!!!!!!!!!!!!!!!!!!!!!!!!!!!!!!!!!!!!!!!!!!879-+3+--78!!!!!!!!!!!!!!!!!!!!!!!!!!!!!!!!!!!!!!!!!!!!!!!!!!!!!879-+3+--78!!!!!!!!!!!!!!!!!!!!!!!!!!",
"!!!!!!!!!!!!!!!!!!!!!!76678:;-,-,-;:8767!!!!!!!!!!!!!!!!!!!!!!!!!!!!!!!!!!!!!!!!!!!!!!!!6678:;1(((1;:866!!!!!!!!!!!!!!!!!!!!!!!!!!!!!!!!!!!!!!!!!!!!!!!!6678:-1(((1;:866!!!!!!!!!!!!!!!!!!!!!!!!",
"!!!!!!!!!!!!!!!!!!!!!6;;:::8:;;;;;:8::;;6!!!!!!!!!!!!!!!!!!!!!!!!!!!!!!!!!!!!!!!!!!!!!!6;;::8:;;;;;:8;;;6!!!!!!!!!!!!!!!!!!!!!!!!!!!!!!!!!!!!!!!!!!!!!!6;;::8<66666:8;;;6!!!!!!!!!!!!!!!!!!!!!!!",
"!!!!!!!!!!!!!!!!!!!!7;::;7;:88:;:88;7;:;;7!!!!!!!!!!!!!!!!!!!!!!!!!!!!!!!!!!!!!!!!!!!!7;::77:88:;:887;:;;7!!!!!!!!!!!!!!!!!!!!!!!!!!!!!!!!!!!!!!!!!!!!7;7777:<:777::7;:;;7!!!!!!!!!!!!!!!!!!!!!!",
"!!!!!!!!!!!!!!!!!!!!7::;::::::::;;:::::::;:!!!!!!!!!!!!!!!!!!!!!!!!!!!!!!!!!!!!!!!!!!!7::7:::;::;;::::;::7!!!!!!!!!!!!!!!!!!!!!!!!!!!!!!!!!!!!!!!!!!!!7776777=77777777;::7!!!!!!!!!!!!!!!!!!!!!!",
"!!!!!!!!!!!!!!!!!!!7;:::::::::8;:8>>>::::8:!!!!!!!!!!!!!!!!!!!!!!!!!!!!!!!!!!!!!!!!!!7:::::::::78>>>8:::::7!!!!!!!!!!!!!!!!!!!!!!!!!!!!!!!!!!!!!!!!!!67767766=766?>>667:::6!!!!!!!!!!!!!!!!!!!!!",
"!!!!!!!!!!!!!!!!!!!6:88:::::::8::@>>>:::8:;6!!!!!!!!!!!!!!!!!!!!!!!!!!!!!!!!!!!!!!!!!6;88:::::8;@>>>@8:::86!!!!!!!!!!!!!!!!!!!!!!!!!!!!!!!!!!!!!!!!!!77667669>966???A667::6!!!!!!!!!!!!!!!!!!!!!",
"!!!!!!!!!!!!!!!!!!!7::@8::::BC%::@@@::88:;:;7!!!!!!!!!!!!!!!!!!!!!!!!!!!!!!!!!!!!!!!!7::8::::%8:@@@:8@@88:6!!!!!!!!!!!!!!!!!!!!!!!!!!!!!!!!!!!!!!!!!7:76A666<><:66668667;:7!!!!!!!!!!!!!!!!!!!!!",
"!!!!!!!!!!!!!!!!!!7;::@88::::D8::::::8@8::::7!!!!!!!!!!!!!!!!!!!!!!!!!!!!!!!!!!!!!!!7:::@8:::D8:::::@::;;:7!!!!!!!!!!!!!!!!!!!!!!!!!!!!!!!!!!!!!!!!!6766A89=>?>=9666A667:8:7!!!!!!!!!!!!!!!!!!!!",
"!!!!!!!!!!!!!!!!!!6:8@EE8888CFGCC88888E@8::8;7!!!!!!!!!!!!!!!!!!!!!!!!!!!!!!!!!!!!!!6:8@@88::CC::::8E::::8:7!!!!!!!!!!!!!!!!!!!!!!!!!!!!!!!!!!!!!!!!:969<==>???>==<9E9678::6!!!!!!!!!!!!!!!!!!!!",
"!!!!!!!!!!!!!!!!!!7::::8E@@HFIJBBKLM%%NE@@8::7!!!!!!!!!!!!!!!!!!!!!!!!!!!!!!!!!!!!!!::;;:@@8C%%C@@@@8E@88::6!!!!!!!!!!!!!!!!!!!!!!!!!!!!!!!!!!!!!!!!:776:A9=>?>=9777%O66;;:6!!!!!!!!!!!!!!!!!!!!",
"!!!!!!!!!!!!!!!!!!!8:;;:8@8DH=PFHQ4D%%E@::;;:7!!!!!!!!!!!!!!!!!!!!!!!!!!!!!!!!!!!!!!:;;::@8:H%%C:::8%O::;;:6!!!!!!!!!!!!!!!!!!!!!!!!!!!!!!!!!!!!!!!!!E7RRS%:<><C66%$TTO67;:7!!!!!!!!!!!!!!!!!!!!",
"!!!!!!!!!!!!!!!!!!!E8URO%E@VDCCFVVW8@@%OO::;:7!!!!!!!!!!!!!!!!!!!!!!!!!!!!!!!!!!!!!!!E:URO%8HWWC88%ORUR::;:7!!!!!!!!!!!!!!!!!!!!!!!!!!!!!!!!!!!!!!!!!ER$T$S%9>9H%$$T$$O7:::7!!!!!!!!!!!!!!!!!!!!",
"!!!!!!!!!!!!!!!!!!!EURRRO%UDVH%FWWH@%%ORUO::E!!!!!!!!!!!!!!!!!!!!!!!!!!!!!!!!!!!!!!!!ERRURO%DDDH%ORUROO::::7!!!!!!!!!!!!!!!!!!!!!!!!!!!!!!!!!!!!!!!!!!OO$T%OT=R%$TT$O%%:EEE!!!!!!!!!!!!!!!!!!!!!",
"!!!!!!!!!!!!!!!!!!!!ORRROR%ORR%X%ORO%URROOOE!!!!!!!!!!!!!!!!!!!!!!!!!!!!!!!!!!!!!!!!!!OORR%O&UR%OO%OO%%:EEE!!!!!!!!!!!!!!!!!!!!!!!!!!!!!!!!!!!!!!!!!!!%%%$$%U=RR%$%%%OOE%%%!!!!!!!!!!!!!!!!!!!!!",
"!!!!!!!!!!!!!!!!!!!!%OORU%R%OO%Y%%ORR%UOO%%!!!!!!!!!!!!!!!!!!!!!!!!!!!!!!!!!!!!!!!!!!!%%%OO%UUOO%O%%%OOE%O%!!!!!!!!!!!!!!!!!!!!!!!!!!!!!!!!!!!!!!!!!!!!OO%R%R<U%SSSSS%%%%O%!!!!!!!!!!!!!!!!!!!!!",
"!!!!!!!!!!!!!!!!!!!!!%%OR%OR%%%Y%OROR%%%%!!!!!!!!!!!!!!!!!!!!!!!!!!!!!!!!!!!!!!!!!!!!!!OO%R%RRU%OOOOO%%%%%%!!!!!!!!!!!!!!!!!!!!!!!!!!!!!!!!!!!!!!!!!!!!!%SS%U<SSS%%%%%%%%%%!!!!!!!!!!!!!!!!!!!!!",
"!!!!!!!!!!!!!!!!!!!!!!!%%%O%%%%X%%OO%%%%%!!!!!!!!!!!!!!!!!!!!!!!!!!!!!!!!!!!!!!!!!!!!!!!%OO%UUOOO%%%%%%%%%%!!!!!!!!!!!!!!!!!!!!!!!!!!!!!!!!!!!!!!!!!!!!!%%%%%9W%%$%%%%%%%%%!!!!!!!!!!!!!!!!!!!!!",
"!!!!!!!!!!!!!!!!!!!!!!!%%%%W8:::E%%%%@%%%!!!!!!!!!!!!!!!!!!!!!!!!!!!!!!!!!!!!!!!!!!!!!!!%%%%%WW@@@@E@8:;%%%!!!!!!!!!!!!!!!!!!!!!!!!!!!!!!!!!!!!!!!!!!!!!%%A88AAAAAAEA8:;%%%!!!!!!!!!!!!!!!!!!!!!",
"!!!!!!!!!!!!!!!!!!!!!!!7::8@88888@88:::;7!!!!!!!!!!!!!!!!!!!!!!!!!!!!!!!!!!!!!!!!!!!!!!!6;:8@88888@88:::;6!!!!!!!!!!!!!!!!!!!!!!!!!!!!!!!!!!!!!!!!!!!!!!6;:8A98888A88:::;6!!!!!!!!!!!!!!!!!!!!!!",
"!!!!!!!!!!!!!!!!!!!!!!7;;::8E8:8E8:::;;:6!!!!!!!!!!!!!!!!!!!!!!!!!!!!!!!!!!!!!!!!!!!!!!!78::8E8:8E8:::::;6!!!!!!!!!!!!!!!!!!!!!!!!!!!!!!!!!!!!!!!!!!!!!!78::8E8:8E8:::::;6!!!!!!!!!!!!!!!!!!!!!!",
"!!!!!!!!!!!!!!!!!!!!!!6;::8@@EEE@@8:::::6!!!!!!!!!!!!!!!!!!!!!!!!!!!!!!!!!!!!!!!!!!!!!!7;::8@@EEE@@8::;;:7!!!!!!!!!!!!!!!!!!!!!!!!!!!!!!!!!!!!!!!!!!!!!7;::8AAEEEAA8::;;:7!!!!!!!!!!!!!!!!!!!!!!",
"!!!!!!!!!!!!!!!!!!!!!!6:;:::8@N@8:::::::7!!!!!!!!!!!!!!!!!!!!!!!!!!!!!!!!!!!!!!!!!!!!!!7:::::8@N@8::;:::;7!!!!!!!!!!!!!!!!!!!!!!!!!!!!!!!!!!!!!!!!!!!!!7:::::8ANA8::;:::;7!!!!!!!!!!!!!!!!!!!!!!",
"!!!!!!!!!!!!!!!!!!!!!7;:88::8@N@88:::;;;7!!!!!!!!!!!!!!!!!!!!!!!!!!!!!!!!!!!!!!!!!!!!!7;;::::8@N@@8::::::7!!!!!!!!!!!!!!!!!!!!!!!!!!!!!!!!!!!!!!!!!!!!7;;::::8ANAA8::::::7!!!!!!!!!!!!!!!!!!!!!!",
"!!!!!!!!!!!!!!!!!!!!!6;::::88ENE8::;:::;7!!!!!!!!!!!!!!!!!!!!!!!!!!!!!!!!!!!!!!!!!!!!!6;:::::8@@E@::8:::;7!!!!!!!!!!!!!!!!!!!!!!!!!!!!!!!!!!!!!!!!!!!!6;:::::8AAEA::8:::;7!!!!!!!!!!!!!!!!!!!!!!",
"!!!!!!!!!!!!!!!!!!!!!7:;::::@ENE@:::::;:;7!!!!!!!!!!!!!!!!!!!!!!!!!!!!!!!!!!!!!!!!!!!!6:::::8@8@E@:::::::7!!!!!!!!!!!!!!!!!!!!!!!!!!!!!!!!!!!!!!!!!!!!6:::::8A8AEA:::::::7!!!!!!!!!!!!!!!!!!!!!!",
"!!!!!!!!!!!!!!!!!!!!7:::::::@N!N@8:::::::7!!!!!!!!!!!!!!!!!!!!!!!!!!!!!!!!!!!!!!!!!!!!7:88:::8@EE@8::::::;7!!!!!!!!!!!!!!!!!!!!!!!!!!!!!!!!!!!!!!!!!!!7:88:::8AEEA8::::::;7!!!!!!!!!!!!!!!!!!!!!",
"!!!!!!!!!!!!!!!!!!!!6;:::::8@N!NE@88::::;6!!!!!!!!!!!!!!!!!!!!!!!!!!!!!!!!!!!!!!!!!!!76;::::88@E!E@::;:;;67!!!!!!!!!!!!!!!!!!!!!!!!!!!!!!!!!!!!!!!!!!7:;::::88AE!EA::;:;;67!!!!!!!!!!!!!!!!!!!!!",
"!!!!!!!!!!!!!!!!!!!!6:88::8@@E!!N8::::::;7!!!!!!!!!!!!!!!!!!!!!!!!!!!!!!!!!!!!!!!!!!!7::::88@@@E!E@8::::;67!!!!!!!!!!!!!!!!!!!!!!!!!!!!!!!!!!!!!!!!!!7::::88AAAE!EA8::::;67!!!!!!!!!!!!!!!!!!!!!",
"!!!!!!!!!!!!!!!!!!!!7::;;::8E!!!NN@8:::::7!!!!!!!!!!!!!!!!!!!!!!!!!!!!!!!!!!!!!!!!!!!:;::::88@E!!E@:88:::;:!!!!!!!!!!!!!!!!!!!!!!!!!!!!!!!!!!!!!!!!!!:;::::88AE!!EA:88:::;:!!!!!!!!!!!!!!!!!!!!!",
"!!!!!!!!!!!!!!!!!!!!7::::8@@@E!!N@8:888:;7!!!!!!!!!!!!!!!!!!!!!!!!!!!!!!!!!!!!!!!!!!!!@88888EE%!!E@8::::::8!!!!!!!!!!!!!!!!!!!!!!!!!!!!!!!!!!!!!!!!!!!A88888EE%!!EA8::::::8!!!!!!!!!!!!!!!!!!!!!",
"!!!!!!!!!!!!!!!!!!!!!7:::::8@E!!NE8::::::7!!!!!!!!!!!!!!!!!!!!!!!!!!!!!!!!!!!!!!!!!!!!%E@@@EOO%!!!E@8888@E!!!!!!!!!!!!!!!!!!!!!!!!!!!!!!!!!!!!!!!!!!!!%EAAAEOO%!!!EA8888AE!!!!!!!!!!!!!!!!!!!!!!",
"!!!!!!!!!!!!!!!!!!!!!8:8::8@E%!!!N@8:::8:!!!!!!!!!!!!!!!!!!!!!!!!!!!!!!!!!!!!!!!!!!!!!%OOOOOO%!!!!%E@@@@EO%!!!!!!!!!!!!!!!!!!!!!!!!!!!!!!!!!!!!!!!!!!!%OOOOOO%!!!!%EAAAAEO%!!!!!!!!!!!!!!!!!!!!!",
"!!!!!!!!!!!!!!!!!!!!!%NE@@@EO%!!!%NE@@@E%!!!!!!!!!!!!!!!!!!!!!!!!!!!!!!!!!!!!!!!!!!!!!!%OOOOO%!!!!%OOOOOOO%!!!!!!!!!!!!!!!!!!!!!!!!!!!!!!!!!!!!!!!!!!!!%OOOOO%!!!!%OOOOOOO%!!!!!!!!!!!!!!!!!!!!!",
"!!!!!!!!!!!!!!!!!!!!!!%OOOOO%!!!!%OOOOOO%!!!!!!!!!!!!!!!!!!!!!!!!!!!!!!!!!!!!!!!!!!!!!!%OOOO%!!!!!%ORRURO%!!!!!!!!!!!!!!!!!!!!!!!!!!!!!!!!!!!!!!!!!!!!!%OOOO%!!!!!%OR$T$O%!!!!!!!!!!!!!!!!!!!!!!",
"!!!!!!!!!!!!!!!!!!!!!!%ORUUR%!!!!%OORRO%!!!!!!!!!!!!!!!!!!!!!!!!!!!!!!!!!!!!!!!!!!!!!!!!%ORUO%!!!!!%ORRRO%!!!!!!!!!!!!!!!!!!!!!!!!!!!!!!!!!!!!!!!!!!!!!!%OT$O%!!!!!%O$T$O%!!!!!!!!!!!!!!!!!!!!!!",
"!!!!!!!!!!!!!!!!!!!!!!!%OOORO%!!!!%RUUR%!!!!!!!!!!!!!!!!!!!!!!!!!!!!!!!!!!!!!!!!!!!!!!!!%OOOR%!!!!!%OORUR%!!!!!!!!!!!!!!!!!!!!!!!!!!!!!!!!!!!!!!!!!!!!!!%OOOR%!!!!!%OO$T$%!!!!!!!!!!!!!!!!!!!!!!",
"!!!!!!!!!!!!!!!!!!!!!!%RUUROO%!!!!%OOOO%!!!!!!!!!!!!!!!!!!!!!!!!!!!!!!!!!!!!!!!!!!!!!!!%ORRR%%!!!!!!%OOOO%!!!!!!!!!!!!!!!!!!!!!!!!!!!!!!!!!!!!!!!!!!!!!%O$T$%%!!!!!!%OOOO%!!!!!!!!!!!!!!!!!!!!!!",
"!!!!!!!!!!!!!!!!!!!!!%OORRROO%!!!%ORRURO%!!!!!!!!!!!!!!!!!!!!!!!!!!!!!!!!!!!!!!!!!!!!!%ORURO%!!!!!!%OORURO%!!!!!!!!!!!!!!!!!!!!!!!!!!!!!!!!!!!!!!!!!!!%O$T$O%!!!!!!%OO$T$O%!!!!!!!!!!!!!!!!!!!!!",
"!!!!!!!!!!!!!!!!!!!!%ORRUURO%!!!!%OOORRR%!!!!!!!!!!!!!!!!!!!!!!!!!!!!!!!!!!!!!!!!!!!!!%%%%%%!!!!!!!%OORROO%!!!!!!!!!!!!!!!!!!!!!!!!!!!!!!!!!!!!!!!!!!!%%%%%%!!!!!!!%OO$TOO%!!!!!!!!!!!!!!!!!!!!!",
"!!!!!!!!!!!!!!!!!!!!%OORROO%!!!!!%%ORUURO%!!!!!!!!!!!!!!!!!!!!!!!!!!!!!!!!!!!!!!!!!!!!!!!!!!!!!!!!!%%OORURO%!!!!!!!!!!!!!!!!!!!!!!!!!!!!!!!!!!!!!!!!!!!!!!!!!!!!!!!%%OO$T$O%!!!!!!!!!!!!!!!!!!!!",
"!!!!!!!!!!!!!!!!!!!!!%%%%%%!!!!!!!%%%%%%%%!!!!!!!!!!!!!!!!!!!!!!!!!!!!!!!!!!!!!!!!!!!!!!!!!!!!!!!!!!%%%%%%%%!!!!!!!!!!!!!!!!!!!!!!!!!!!!!!!!!!!!!!!!!!!!!!!!!!!!!!!!%%%%%%%%!!!!!!!!!!!!!!!!!!!!"
};