/* XPM */
static const char *ammo_2[] = {
/* columns rows colors chars-per-pixel */
"92 84 65 1 ",
"H c None",
". c #EEF0EE",
"- c #C7C8C8",
"+ c #B8B6B6",
"@ c #8F8D8E",
"# c #888D87",
"$ c #878687",
"% c #848484",
"& c #535353",
"* c #313030",
"= c #363636",
"; c #353635",
": c #232423",
"> c #5E625D",
", c #DBDDDA",
"< c #A2A09F",
"? c #959593",
"! c #989D97",
"~ c #797878",
"^ c #4D4C4D",
"| c #454545",
"/ c #424141",
"0 c #585757",
"1 c #7E7C7D",
"2 c #828181",
"3 c #7E7E7E",
"4 c #7A7B7A",
"5 c #7A7375",
"6 c #737372",
"7 c #101010",
"8 c #191918",
"9 c #1F1F1F",
"a c #080707",
"b c #3D3D3D",
"c c #7E807E",
"d c #6A696A",
"e c #2C2C2C",
"f c #292929",
"g c #333332",
"h c #403F3F",
"i c #2E2F2E",
"j c #393939",
"k c #141414",
"l c #3C3C3C",
"m c #5C5B5B",
"n c #4A4949",
"o c #1B1C1B",
"p c #373737",
"q c #3B3B3B",
"r c #3E3F3E",
"s c #40403F",
"t c #5D4A4D",
"u c #404040",
"v c #373A37",
"w c #779572",
"x c #56AF4B",
"y c #50944B",
"z c #95A893",
"A c #404240",
"B c #54BF48",
"C c #88B584",
"D c #667465",
"E c #404042",
"F c #2A3D2A",
"G c #4C534C",
"HHHHHHHHHHHHHHHHHHHHHHHHHHHHHHHHHHHHHHHHHHHHHHHHHHHHHHHHHHHHHHHHHHHHHHHHHHHHHHHHHHHHHHHHHHHH",
"HHHHHHHHHHHHHHHHHH.-+++-+@@@@@@@@###$%%%$$$$#@@&*=;;:>,HHHHH<?!!!??@@@@@$%%$$$$$$$?~^|/|:0,H",
"HHHHHHHHHHHHHHHHHH,+<+++<112311444~~566666666~~=7889ab,HHHH,!2@#$$%2c311~dd66666d61>efeg7|,H",
"HHHHHHHHHHHHHHHHHH,+++++<%%$%222c3314~~~~~~4~12h899f7|,HHHH,!$@@@@#$%%2%4666666666~>*eijk^,H",
"HHHHHHHHHHHHHHHHHH,+++++<$%$%%2223334~~~~~~~~~1l899fah,H.HH,?$@@@@$$%%%%1666666ddd6mife;kn,H",
"HHHHHHHHHHHHHHHHHH,+++++<$$$$%%222cc4~~~~~~~~~1bko89aj,H,.H-@%@###$$%%%%166666dddd60effgkn,H",
"HHHHHHHHHHHHHHHHHH,+++++<$$$$%%22ccc4~5566dddd6*a88oaf-H,.H,#2#$##$%%%%%466666ddddd&f:fgkn,H",
"HHHHHHHHHHHHH+<<<<<????!?$$$$$%222c2~6664>f89::k%,--++!%%2@@2%$$$$$%%2223~~~46^b|//;fff=k^,H",
"HHHHHHHHHHHHH+@???@$$$$$$#$$$%222c33~666~m87887k+....,$d~66~c2%%%%%222c313343~|*j==geefp8^,H",
"HHHHHHHHHHHHH+?!!<?$$$$$$@@$$$%222cc45664m98o988<.,,.,@61111c2222222c233311134^;bqqp*iiq8&,H",
"HHHHHHHHHHHHH+@??!?$$$$$$$$$$%%22222~66d~>:9::99<.,,,-$6144413cc22c31331144~1~^=rbrqg**q8&,H",
"HHHHHHHHHHHHH+@?!<?$$$$$@??@@$%2222222c4@69akkaa+....,#6144ccccccc311111222c%c^psrrq;g*l8&,H",
"HHHHHHH,,,,,,<#@??@$$#$@$~~14132222$d0&&mng/nnn^<----+2~$2211c33311111116dddddnprbrl;g*q8^,H",
"HHHHHHH<$????$2%%%$$$$$@c00>md~3c2c@&9::98%,----<%$$$#5d5tttt6c111111434&hnnnnulbbrqg*iq8^,H",
"HHHHHHH<%@@@@2c%%%$$$$$@1m0mmd64133#^9:f:8@,,-,-<2$$2#5tttttt5c313111431&b|||n/qllbqg*ijkn,H",
"HHHHHHH<$??@?%32%%%%%$%#~m0mmd6~411$^:ffeo1-----<$#$$?5ttttt52c22c33313cm/|||n/jqqqj*iipk|,H",
"HHHHHHH<%?@@?212c222%%2$~m0mmd6655~$^f*gv9%,----<$$$$?5ttttt5%c222c11141mh||||rpjjj=iefg7|,H",
"HHHHHHH?~$%%$1441133331%6&^&0d~332$?raaaaa>,----<%%%$?5555551c%%%2%$$%%%ms||||b;;==geff*7/,H",
"HHHHHHH<!<<<<24cwwwwwwww6>>dddm00&m/|2@@?@+---++<???!!?@@$%$4~222%~dd>>0/jblllpggg;gfffi7/,H",
"HH...H,++----#wwxxxxxxxxyww4c6fk88oa>......<?<<<<<!!!zzzzz#z%~2%%$>|n|Al;*ggggggggg*fff*7|,H",
"HH,,,,,+-----wxxxBBBBBxxxyw646f7kkoam......+#<<<<!!zzzzCCCCz#~c%2$>|n||/j*ggggg;ggg*fff*7|,H",
"HHHHHH,------wxxBBBBBBxxxywD46*ko8:am......+#<<<!!!zzzzCCCCC#42%2$d|nn||qg;;g;=;;;=gfffg7|,H",
"HHHHHH,------wxBBBBBBBxxyyw446i7889a0......+#!!!!????zzCCCCCw4c2c$d|nn||q;;;;;p===pgeee=kn,H",
"HHHHHHH,-,---wBBBBBBBBBByyw44~i788:am......+zzzzz!?zzzCCCCCCwc%%%@d|nn|nr=pjpjbsrbrj*i*j8^,H",
"H.,,,,,++++-+xBBBBBBBBBxyDD666iko8:a&,.,,..zwwwwwwwwwwxxxxxxw6~44c>|nnnnhpjqqjg*gg=g*ggl8^,H",
"H-!<<<<#wxxxxBBBBBBBxBBxwddddd*89o:a^------wxxxxxxxxxBBBBBxxym>>>d^lrrrrljqqlq:kooo9g;gbo&,H",
"H-?!!?<wxBBBBBBBBBBBCBBCwdddddg899:a^------xBBBBBxxBBBBBBBxxy&m>m>^jllllqllqlq:8oo89g=*ro&,H",
"H-!<<<<CBBBBBBBBBBBxCCCC4ddd66go:9fa^-,----wxBxxxxxxxxBBBBBxy0m>>d^lhhhbllllbq:o99o:==*r8^,H",
"H-!<<<<wBBBBBBBBBxxxwwwC4d6666go:9fa^-,----wxxxxxxxxxxxBBxxxD0m>>d^jbbllqqqqlq:o99o9g=*b8^,H",
"H-?<<<<wxBBBBBxCCCCCCCCC~ddd66;8:9fa^-,----CxxxxxxwwwwxxxxxwD0m>>d^lhhrrlqqqlj9k88koggil8^,H",
"H+?<<!<#wwwwxwwwwwwwww##6ddd66=o:9fa^,,--,,zwwwww4cc444DwwwwD0m>>d^g;g;pjqqjqjf:::9:i*iqkn,H",
"H+?!!!!@#####c~~~~~556~~ddddd6=o::fa^,.....+w###212211~d2#%#60m>md/88o8o*qjjjjjqjjq;eeepkn,H",
"H+@!!?!@@@@@@15555556666ddddd6po::ean,.....+#??@%22231~6%@$@500mm>j77k77ej=p=pqqqqrpfff;kn,H",
"H+@????@@@@@@155555555~~6dddd6jo::ean,.....+@?@@$22211~6%@$@50000>;7kk7kfp;;;;pjjpqpeff;kn,H",
"H+@????$$@$$$56666666665ddddd~lo::ean,.....+@??@%3221~6d%?@@~&&00>g77777ejg;;;=jjjqpeff;kn,H",
"H+?!!<<?!!??!$222222222%~665~2Eo::ea^......+?<!!@$$$%%25@<?<1&&mm>*a777ki=g;g=qllb/jefe=k^,H",
"H!>ddd6>>ddd6ddddd>>>>>dm0000m*o99fab<+!<<<~>d>mmm00000&0mm>^bssr/i9::::ffeeiifffeiii**q8&,H",
"H2ln^|^e:eii*g;==pp=g;;;g;;g*g98oo97f0&^^^^veieeiiiiieeeff::feefff*==;=*fffe*fk7kkk:pp;ho&.H",
"H#n0m0mjig;;==jjqqqvppp=;;;g;g9k88o7:md>>>mr*;ppppppp=;ggggg*ii*iig;;;=geeiige8kkk7:qqp/90.H",
"H#n0m00j*=pjjqqlbbqjjpp=;gggggokkk8a90>0mm0jeggg;;;==;gggggg****ig=;==j=ieii*iok888:llj|90.H",
"H@&m>m>b;jjqqllbblqjjpp;g***iio7kk8a90>0mm0;f*****ggggg;==;;ggggg;jjjjqjg***=go7k879lbj|:m.H",
"H@|00&0gfi***gggg**iiieefeffff87kk8aon^nnn/:o:::::::fffeeeeee*i**gqlllrlifei*e::::9fqqj|:0.H",
"H!mdddd^|nnnnnn^^^nn||||/bbljq97kk8a9m>mm>m|r|||nnnn^^^^^^^^nrlqjbblbbAq:8oo8o*/hbbrjjp/90.H",
"H+?<<!<#%%2%%%%%%%2c1144dmmmm>f7kk8ae<+<<+<%64113cc322%%%$%@~00m0m|jbbhp97kk78=/bh/b=;;ho&.H",
"H-<<<<<?@@@#$$$$$$%22233dmm>>>f7kkoa*+-++++%~444444133222%%@4>>>>dn=lqb=o7k778gqpjjpgg*l8&,H",
"H-?!!!<$c22cc2ccc2314441dm>m>>ek889ag<+<<+<26~~~~~~~41133cc$~mm>>>|;jpj;o777ak*q=pj=*i*jk^,H",
"H+?!!?!%1311131333144441d>>>>d*ko89ag++<++<%~44~~~~~~441131$~mm>>>|=ljbpkaaaa7*q==j;iiijk^,H",
"H+?<<<<#2%2%%%%%%%%%%%2%~dddd6gkoo:ag+-++-+?%$$%%22cc2222%2@4mm>>>ufiee:8kk778*p==j;iiijk^,H",
"H+2$$$#6dd666666666ddddddmmmm>i8oo:7i<+<<<<266ddddddddddddd6d^nnn^f77777*|jjjjj===j=iiijk&,H",
"H#b|n|npg;pjjjjqlbqppp=p=;=;=j:8oo9k9&0&&m0/jqjp=;gggggg===j=ieii;oa7777;|hEErj===j;iiiqk&.H",
"H~fvlqlifeii**ggg;g*******gg;;:8ooo8on0&&0&rqrlqqj==;ggggggggeeei;977k7kg/qqqqjjppqjg**l80.H",
"H4q||||vg;;ppjjjqqqjvjvvpgg=jj:8oo98o0dmm>m|u/Euhrllqqjjjjjqj*i**=9a7777=|bhrblqqqlq;gghomHH",
"H~;AAAAvg;;;;vvvvvvvpvvv;ggg;;98oo98o&>mmm0|huhhrbqqqjjjpppjpii*g;:77k78p|rhrrrrrrslgggbo0HH",
"H6FrrrAvg;vvvvvvvvvvvvvv;ggg;;98oo98o&>00m&|h/hhblqjjpp=;;;;;g**ggqhbr/|uhuuuuAuuh/bieipk0.H",
"HDFvvvAv;vvvvvvvvvvvvvvv;ffigg98oo98o&>00m&/rhhblqj=;ggg****g*gggg^>mm>>nh////EA/u|rieipk&.H",
"HDFFvvrFFvvvvvvvvvvvvvvvioo:ffo8ooo8o&>0mm0|brbqjp;g**iiiiiiii*gg;n&&&&&|u///////u|r*ei=k&.H",
"HDFFFFAFFvvvvvvvvvFFFFFv:8o9::o8ooo88nm000&/lblqp=gg*iiiiiiiig;;vv^m00mmnu///////u|h*eipk^,H",
"HD8FFFFFFFFFFFFFFFFFFFFF8k8oo88oooooop||||/q=;ggieff:::9::9::ee**g&m00mmnh///////u|h*ee;7n,H",
"HCyyyGGGAGGGGGGGGGGGGGG0F:FFFF98oo9kf4#ccccD>>m0&^nnnn||AAAAFFFFFA&&^^&^|h///////u|reff*7n,H",
"HH...,,+++++++++++++++++wyyyyyFkoo9a;,.....+z+<<<<<<<<<<<zzCyyyyyyGl//uhuuuuA////u|b:oo:a|,H",
"H.----,+<<<<<<<<<<<<<<<+cyyyyyFk889ae-,--,-CCz!<<<!<<<<<<zzCyyyyyyGh||///uuuuu///unb98o9a|,H",
"H.----,+<<<<<<<<<<<<<<<+cyyyyyF78koae-,--,,CCz!!!!??<<!<!!zCyyyyyyGr/////ushhuA//u|l9o9:an,H",
"H,----,+<<<<<<<<<<<<<<<+2yyyyyF7kkoa:-,--,-CCz!!!!??<<<<<!zCyyyyyyGr////hhshhuuu/unb:99ea^.H",
"H,----,+<<<<<+++++++++++cyyyyyF7k78a9-,--,-CCzz!!!???!!!!zzCyyyyyyGr///uhhuuuu///u^rka7kan.H",
"H,----,<zCzzzzz<<<<<<<<<4yyyyDf7k78ao+,+--+CwCwCCwwwwwwwwwwwyyyyyDGb/////////uhhuh/qeff*:>.H",
"H-@?<!<wxBBBBBxBxxxxxwwwDGGGGG:7k78a8wCCCCCyyyyyxxxxxxxxxxywD&G0>>nbhhhssu//|Ae:f*8|-,,,,,HH",
"H+2#?@?wxBBBBBBBBBBBxxxwDG&&&&:7kk8aoCCCCCCyyyyyxBxxxxyxxxywD^&000nqbbbrhhuh|Af9:ea^,HHHHHHH",
"H-?!!!<wxBBBBBBBxxxxxxxwDG&&&0fk88oaoCCCzzCyyyyyxxxxxxyyyywwD&&00m|pqqllbbbl/uf9:*7n,HHHHHHH",
"H-?!!!!#wxxxxxxxxxxxxxwCDGG&&0fk88o79CzzzzzwDDDwwwwwwwyywwww6^^&&&/pjjqjqqqqhrf:f*7n,HHHHHHH",
"H-?!<!<#wwwwwxywwwwwwww#Dn^&&&fko897:z<!!!!#c#@?@#wwwwDDwww#d^^&&&E;ppjjjqqjsr97koaj,HHHHHHH",
"H-?!<!<@wwwwww4wc444444%>nn^G&fko897:z+!!!!#c%%$$#####44ccc2d^^&&&ug==;=*eii*f;//^hd,HHHHHHH",
"H-?!<!<#4cccc4~~~66666d6m|nn^G:k8897:?<!!!!$12ccc3334444~~64d^^&&&r*gg;g8a787a!HHHHHHHHHHHHH",
"H+?!!!<$1c3331~~~6666666m||nn^:78ko7:?<!!!!$c222222ccc1444~4d^^&&&h*gg;g877kaa?HHHHHHHHHHHHH",
"H+@?!?!$411114~~66666666m||nn^:7kk87:@<?!!!$c222222c311444~1d&^&&&h*g*g*877kaa?HHHHHHHHHHHHH",
"H+@???!%~44444~~66666666m|||nn97778a9@<?!?!$3222222cc331114cd&&&&&/gg*g*877k7a!HHHHHHHHHHHHH",
"H+@???!%~44444~~~666666~>||nnn:7778ao@<?!!!$12222222222222c2d&&000|*g*;*7aaaaa!HHHHHHHHHHHHH",
"H<3%%%$~d666666666666666mnnnn^:ko89794?%$#@16~~441113331114cd&&00m|efe::nm&&^0+HHHHHHHHHHHHH",
"H@^000m&|nn^^^^^&&&&&&&^^^^^^^fo999k9n^^^n^n|nnnn^^^^^^^^^^^^^^^n^gkk9a:-HHHHHHHHHHHHHHHHHHH",
"H@&>>m>&n^^^^^&&&&&&&&&&&&&&^&i9:9:89^m&&&&^nnn^^^^^^^^^^^^^^^^^^&=oo:7f+HHHHHHHHHHHHHHHHHHH",
"H?0>>mm&nnnn^^^^^&&&&&&0&&&&&&*9:::o:^0&&&&^|nnnnnn^^^^^^^&&&&&^^&po9:7f-HHHHHHHHHHHHHHHHHHH",
"H?0>>>>&nnn^nn^^^^^^&&&&&&&&&&*::::o:^m&&&&^|n|||nnnn^^^^^^^&&^^^&=o9fkf-HHHHHHHHHHHHHHHHHHH",
"H?&mm00nh//uhhuA//////||||n|nn978k87k/&^nnn/brblllllbbhu//|||||||^fakoaf-HHHHHHHHHHHHHHHHHHH",
"H<6422246~~~~~~~~66~~4432%$$@#d>dd>>d2$%%%21~~~666666666666~4133c2d&0m^d,HHHHHHHHHHHHHHHHHHH",
"HHHHHHHHHHHHHHHHHHHHHHHHHHHHHHHHHHHHHHHHHHHHHHHHHHHHHHHHHHHHHHHHHHHHHHHHHHHHHHHHHHHHHHHHHHHH"
};
