/* XPM */
static const char *cyborg_boss_death_f00[] = {
/* columns rows colors chars-per-pixel */
"64 64 85 1",
"! c None",
"# c #805424",
"$ c #704820",
"% c #503418",
"& c #A06C3C",
"' c #B08458",
"( c #94602C",
") c #60401C",
"* c #C4A080",
"+ c #402810",
", c #640030",
"- c #880444",
". c #D8649C",
"/ c #CC3880",
"0 c #BC906C",
"1 c #A8784C",
"2 c #D0B094",
"3 c #D8BCA8",
"4 c #884404",
"5 c #007474",
"6 c #201408",
"7 c #301C0C",
"8 c #984C08",
"9 c #00A4A4",
": c #008C8C",
"; c #000000",
"< c #005C5C",
"= c #CC8038",
"> c #10C0C0",
"? c #28C8C8",
"@ c #004444",
"A c #C06410",
"B c #DCAC7C",
"C c #00BCBC",
"D c #98E4E4",
"E c #B4ECEC",
"F c #D8F4F4",
"G c #5CD8D8",
"H c #40D0D0",
"I c #AC580C",
"J c #D09050",
"K c #ECD0B4",
"L c #78E0E0",
"M c #C47024",
"N c #002C2C",
"O c #001414",
"P c #444444",
"Q c #743804",
"R c #E4C098",
"S c #545454",
"T c #643000",
"U c #D89C64",
"V c #747474",
"W c #343434",
"X c #CC3838",
"Y c #700404",
"Z c #3C3C3C",
"[ c #7C7C7C",
"] c #C4C4C4",
"^ c #989898",
"_ c #5C5C5C",
"` c #A8A8A8",
"a c #646464",
"b c #A0A0A0",
"c c #980088",
"d c #502400",
"e c #002C1C",
"f c #5884B0",
"g c #848484",
"h c #8C8C8C",
"i c #4C4C4C",
"j c #2C2C2C",
"k c #001C3C",
"l c #043C74",
"m c #044488",
"n c #003064",
"o c #085098",
"p c #0C5CAC",
"q c #2474C4",
"r c #1068C0",
"s c #3C1C00",
"t c #6C6C6C",
"u c #B0B0B0",
"v c #242424",
"w c #1C1C1C",
"!!!!!!!!!!!!!!!!!!!!!!!!!!!!!!!!!!!!!!!!!!!!!!!!!!!!!!!!!!!!!!!!",
"!!!!!!!!!!!!!!!!!!!!!!!###$!!!!!$###!!!!!!!!!!!!!!!!!!!!!!!!!!!!",
"!!!!!!!!!!!!!!!!!!!!!!%&'&($)!)$(&'&%!!!!!!!!!!!!!!!!!!!!!!!!!!!",
"!!!!!!!!!!!!!!!!!!!!!%)*'(#$#(#$#('*)%!!!!!!!!!!!!!!!!!!!!!!!!!!",
"!!!!!!!!!!!!!!!!!!!!!)%($$)%)&)%)$$(%)!!!!!!!!!!!!!!!!!!!!!!!!!!",
"!!!!!!!!!!!!!!!!!!!!)%+$)%%)#&#)%%)$+%)!!!!!!!!!!!!!!!!!!!!!!!!!",
"!!!!!!!!!!!!!!!!!!!!%)%,-./$(0($/.-,%)%!!!!!!!!!!!!!!!!!!!!!!!!!",
"!!!!!!!!!!!!!!!!!!!!+#)%,000121000,%)#+!!!!!!!!!!!!!!!!!!!!!!!!!",
"!!!!!!!!!!!!!!!!!!!!+$(#0&#&030&#&0#($+!!!!!!!!!!!!!!!!!!!!!!!!!",
"!!!!!!!!!!!!!!!!!!!!+)$1&$%$&0&$%$&1$)+!!!!!!!!!!!!!!!!!!!!!!!!!",
"!!!!!!!!!!!!!!!!!!!!+#$($++%#*#%++$($#+!!!!!!!!!!!!!!!!!!!!!!!!!",
"!!!!!!4455555!!!!!!+%(##%67#&&&#76%##(%+!!!!!!!!!!!!!!!!!!!!!!!!",
"!!!!!889999:::55555+%&()%%#);;;)#%%)(&%+5<<<<<!!!!!!!!!!!!!!!!!!",
"!!!!8=>>?>??>>9999+%)##))$%;;;;;%$))##)%+55::9:5<<@@!!!!!!!!!!!!",
"!!!!ABCCDDEFEDGGH>+%)$$#)%6666;66%)#$$)%+::99C>9554III!!!!!!!!!!",
"!!!!JKGG>?HGLDGH?>++%)$$&($%+6+%$(&$$)%++9?HGDGLC4M===I8!!!!!!!!",
"!!!!8B>>>999999999@N++%)#&(&111&(&#)%+O@+:::99EF9=BBB=B=!!!!!!!!",
"!!!!4A>E99:5555555<@NN+++%)$###$)%+++ON@@55555CL9KKKKBKJP!!!!!!!",
"!!!!Q8GE>:5<<<<<<<@@@NNOO+++++++76OOOON@+@@<<<599JBBB=RBS!!!!!!!",
"!!!!!TGFD9:5555<<@@@@@NNOO++)$)76OOOONNNNNNNN@<<9<8888UPV!!!!!!!",
"!!!!!@9GFG9:5555<<@@@@@@NNO++++OOOOONNNNNNNNNNN5><TTWTVPV!!!!!!!",
"!!!!!!@9HFG9:::55<<@@@@@@@NOOOOOOOONNNNNXYXNN@5FL<9Z[]^_V!!!!!!!",
"!!!!!!!@5HD>>>9955<<@@@@@@@@NNNNNNNNNNNNNNNNN@FL95:__]`a_V!!!!!!",
"!!!!!!!8I5:L>>9:555<<<<@@@@@@@NNNNNNNNNNNNNN@FL955:5Zb]VSV!!!!!!",
"!!!!!!!M=J5:99:5555555<<<<<<@@@@@NNNNNNNN@@<?9::::5NN[]VPVMA!!!!",
"!!!!!!!884Q55:59>>>C9:5@NNNNNNNNNNNNNNNNNNN@<5::55<ccJUBUBB=!!!!",
"!!!!!!!!dddT559><NNOOOOOOOOOOOOOOOOOOOOOOONN@<555<cc4IIIIIRU!!!!",
"!!!!!!!!!O_[_<><NOOOOOOOOOe<f:<@NeOOOOOOOOOON@<<<cccQNSVg8KR!!!!",
"!!!!!!!!!O_g_c<NOOOOOOOOOO@<5@NeeeOOOOOOOOOOON@<ccccNSh`[4BU!!!!",
"!!!!!!!!!O_h_ccNNNNNNNNNNN@:`:@@@NNNNNNNNNNNNNNccccNS`][QTJA!!!!",
"!!!!!!!!!O_g_ccccNNNNNccc@@<5@NeN@cccNNNNccccc@5@@NSh]hiddA!!!!!",
"!!!!!!!!!Z_hSjcccccccccccN@:`:@@@Nccccccccccc@>DHC:55^i!!!!!!!!!",
"!!!!!!!!<PShS@cccccccccccc@59@NONccccccccccc<:OO@559Zi!!!!!!!!!!",
"!!!!!!!<5CZSZ<cccccccccccc<CFC<<<cccccccccc@OOcc:>L5N!!!!!!!!!!!",
"!!!!!!!<C:5::5cccccccccccc@@<@NONccccccccccNccc59L5<N!!!!!!!!!!!",
"!!!!!!!5C<@@<5@ccccccccccc5?D?:@Ncccccccccccccc:<N@ON!!!!!!!!!!!",
"!!!!!!!5:kllk@NccccccccccN@59@NONNcccccccccccc:<@@<ON!!!!!!!!!!!",
"!!!!!!!!5kkkkk888888Q5<<<N<CFC<<<N<<<@8IIIII8c:@!!:ON!!!!!!!!!!!",
"!!!!!!!!!!kkkkMMJUUJ8:55<N@59@NOON<55<MJJJJJM:@!!!5@N!!!!!!!!!!!",
"!!!!!!!!!!lmnkKBRKKRAEHH5N@5:55<@N5HH9KAAAAA:@!!!!5O!!!!!!!!!!!!",
"!!!!!!!!!!!opkR5@@@<8D>9:<N@@@<@N<:99:RIIIII4!!!!!5O!!!!!!!!!!!!",
"!!!!!!!!!!!lqmJ@igP@4L:::5<NNNNN<5:::5J888884!!!!@O!!!!!!!!!!!!!",
"!!!!!!!!!!!!orA;i^i;8H555555555555555<A44444Q!!!!@!!!!!!!!!!!!!!",
"!!!!!!!!!!!!lm8<_^i@Q:<<<<<<<<<<<<<<<@8QQQQQT!!!!!!!!!!!!!!!!!!!",
"!!!!!!!!!!!!!m4@V`S@d<@@@@@@@@@@@@@@@N4ddddds!!!!!!!!!!!!!!!!!!!",
"!!!!!!!!!!!!!!I444448@5555::999:::555NITTTTTd!!!!!!!!!!!!!!!!!!!",
"!!!!!!!!!!!!!!MM=J=MI!!!!!!!!!!!!!!!!!!WSaiW!!!!!!!!!!!!!!!!!!!!",
"!!!!!!!!!!!!!!UJBKBJM!!!!!!!!!!!!!!!!!!WSaiW!!!!!!!!!!!!!!!!!!!!",
"!!!!!!!!!!!!!!BMJU=AI!!!!!!!!!!!!!!!!!!WSaiW!!!!!!!!!!!!!!!!!!!!",
"!!!!!!!!!!!!!!=8@V@8A!!!!!!!!!!!!!!!!!dWi_PWO!!!!!!!!!!!!!!!!!!!",
"!!!!!!!!!!!!!!ANVhiQ8!!!!!!!!!!!!!!!!!TTZiZTT!!!!!!!!!!!!!!!!!!!",
"!!!!!!!!!!!!!!4Ptb_WQ!!!!!!!!!!!!!!!!!QQQQQQQ!!!!!!!!!!!!!!!!!!!",
"!!!!!!!!!!!!!!!@Vu_N!!!!!!!!!!!!!!!!!!dssssss!!!!!!!!!!!!!!!!!!!",
"!!!!!!!!!!!!!!!@VuVN!!!!!!!!!!!!!!!!!!!@hbVN!!!!!!!!!!!!!!!!!!!!",
"!!!!!!!!!!!!!!!@<<VN!!!!!!!!!!!!!!!!!!@@hb_NN!!!!!!!!!!!!!!!!!!!",
"!!!!!!!!!!<@@N!@C@Vj:<!!!!!!!!!!!!!!!@55<9<<@N!!!!!!!!!!!!!!!!!!",
"!!!!!!!!!<55<<NN:N@5:@!!!!!!!!!!!!!!@:@@5:NN@N!!!!!!!!!!!!!!!!!!",
"!!!!!!!!!<!!55<@5<<<:N!!!!!!!!!!!!!<9@NN:5N<<@N!!!!!!!!!!!!!!!!!",
"!!!!!!!!!!!!!@@@@@@@N!!!!!!!!!!!!!!5@N!!:<!!!<@!!!!!!!!!!!!!!!!!",
"!!!!!!!!!!!!!!NNNNNN!!!!!!!!!!!!!!!<@v!!:<!!!<@!!!!!!!!!!!!!!!!!",
"!!!!!!!!!!!!!!!!!!!!!!!!!!!!!!!!!!!<w!!!:<!!!<<!!!!!!!!!!!!!!!!!",
"!!!!!!!!!!!!!!!!!!!!!!!!!!!!!!!!!!!!!!!!!!!!!!!!!!!!!!!!!!!!!!!!",
"!!!!!!!!!!!!!!!!!!!!!!!!!!!!!!!!!!!!!!!!!!!!!!!!!!!!!!!!!!!!!!!!",
"!!!!!!!!!!!!!!!!!!!!!!!!!!!!!!!!!!!!!!!!!!!!!!!!!!!!!!!!!!!!!!!!"
};