/* XPM */
static const char *cyborg_boss_death_f04[] = {
/* columns rows colors chars-per-pixel */
"64 64 70 1",
"! c None",
"# c #00A400",
"$ c #007400",
"% c #10C410",
"& c #008C00",
"' c #00C000",
"( c #005C00",
") c #98E898",
"* c #980088",
"+ c #A8784C",
", c #BC906C",
"- c #5CD85C",
". c #503418",
"/ c #D8BCA8",
"0 c #A06C3C",
"1 c #805424",
"2 c #704820",
"3 c #B08458",
"4 c #94602C",
"5 c #402810",
"6 c #60401C",
"7 c #78E078",
"8 c #28CC28",
"9 c #004400",
": c #008C8C",
"; c #B8ECB8",
"< c #301C0C",
"= c #002C2C",
"> c #201408",
"? c #984C08",
"@ c #004444",
"A c #005C5C",
"B c #007474",
"C c #CC8038",
"D c #884404",
"E c #10C0C0",
"F c #00BCBC",
"G c #00A4A4",
"H c #5CD8D8",
"I c #B4ECEC",
"J c #98E4E4",
"K c #78E0E0",
"L c #40D0D0",
"M c #28C8C8",
"N c #C06410",
"O c #DCAC7C",
"P c #D8F4F4",
"Q c #AC580C",
"R c #D09050",
"S c #ECD0B4",
"T c #C47024",
"U c #002C00",
"V c #002C1C",
"W c #3C1C00",
"X c #001414",
"Y c #743804",
"Z c #545454",
"[ c #502400",
"] c #643000",
"^ c #E4C098",
"_ c #3C3C3C",
"` c #001C3C",
"a c #D89C64",
"b c #8C8C8C",
"c c #5C5C5C",
"d c #989898",
"e c #2C2C2C",
"f c #043C74",
"g c #044488",
"h c #4C4C4C",
"!!!!!!!!!!!!!!!!!!!!!!!!!!!!!!!!!!!!!!!!!!!!!!!!!!!!!!!!!!!!!!!!",
"!!!!!!!!!!!!!!!!!!!!!!!!!!!!!!!!!!!!!!!!!!!!!!!!!!!!!!!!!!!!!!!!",
"!!!!!!!!!!!!!!!!!!!!!!!!!!!!!!!!!!!!!!!!!!!!!!!!!!!!!!!!!!!!!!!!",
"!!!!!!!!!!!!!!!!!!!!!!!!!!!!!!!!!!!!!!!!!!!!!!!!!!!!!!!!!!!!!!!!",
"!!!!!!!!!!!!!!!!!!!!!!!!!!!!!!!!!!!!!!!!!!!!!!!!!!!!!!!!!!!!!!!!",
"!!!!!!!!!!!!!!!!!!!!!!!!!!!!!!!!!!!!!!!!!!!!!!!!!!!!!!!!!!!!!!!!",
"!!!!!!!!!!!!!!!!!!!!!!!!!!!!!!!!!!!!!!!!!!!!!!!!!!!!!!!!!!!!!!!!",
"!!!!!!!!!!!!!!!!!!!!!!!!!!!!!!!!!!!!!!!!!!!!!!!!!!!!!!!!!!!!!!!!",
"!!!!!!!!!!!!!!!!!!!!!!!!!!!!!!!!!!!!!!!!!!!!!!!!!!!!!!!!!!!!!!!!",
"!!!!!!!!!!!!!!!!!!!!!!!!!!!!!!!!!!!!!!!!!!!!!!!!!!!!!!!!!!!!!!!!",
"!!!!!!!!!!!!!!!!!!!!!!!!!!!!!!!!!!!!!!!!!!!!!!!!!!!!!!!!!!!!!!!!",
"!!!!!!!!!!!!!!!!!!!!!!!!!!!!!!!!!!!!!!!!!!!!!!!!!!!!!!!!!!!!!!!!",
"!!!!!!!!!!!!!!!!!!!!!!!!!!!!!!!!!!!!!!!!!!!!!!!!!!!!!!!!!!!!!!!!",
"!!!!!!!!!!!!!!!!!!!!!!!!!!!!!!!!!!!!!!!!!!!!!!!!!!!!!!!!!!!!!!!!",
"!!!!!!!!!!!!!!!!!!!!!!!!!!!!!!!!!!!!!!!!!!!!!!!!!!!!!!!!!!!!!!!!",
"!!!!!!!!!!!!!!!!!!!!!!!!!!!!!!!!!!!!!!!!!!!!!!!!!!!!!!!!!!!!!!!!",
"!!!!!!!!!!!!!!!!!!!!!!!!!!!!!!!!!!!!!!!!!!!!!!!!!!!!!!!!!!!!!!!!",
"!!!!!!!!!!!!!!!!!!!!!!!!!!!!!!!!!!!!!!!!!!!!!!!!!!!!!!!!!!!!!!!!",
"!!!!!!!!!!!!!!!!!!!!!!!!!!!!!!!!!!!!!!!!!!!!!!!!!!!!!!!!!!!!!!!!",
"!!!!!!!!!!!!!!!!!!!!!!!!!!!!!!!!!!!!!!!!!!!!!!!!!!!!!!!!!!!!!!!!",
"!!!!!!!!!!!!!!!!!!!!!!!!!!!!!!!!!!!!!!!!!!!!!!!!!!!!!!!!!!!!!!!!",
"!!!!!!!!!!!!!!!!!!!!!!!!!!!!!!!!!!!!!!!!!!!!!!!!!!!!!!!!!!!!!!!!",
"!!!!!!!!!!!!!!!!!!!!!!!!!!!!!!!!!!!!!!!!!!!!!!!!!!!!!!!!!!!!!!!!",
"!!!!!!!!!!!!!!!!!!!!!!!!!!!!!!!!!!!!!!!!!!!!!!!!!!!!!!!!!!!!!!!!",
"!!!!!!!!!!!!!!!!!!!!!!!!!!!!!!!!!!!!!!!!!!!!!!!!!!!!!!!!!!!!!!!!",
"!!!!!!!!!!!!!!!!#!!!!!!!!!!!!!!!!!!!!!!!!!!!!!!!!!!!!!!!!!!!!!!!",
"!!!!!!!!!!!!!!!!!!!!!!!!!!!!!!!!!!!!!!!!!!!!!!!!!!!!!!!!!!!!!!!!",
"!!!!!!$!!!!!!!!!!$!!!!!!!!!!!!!!!!!!!!!!!!!!!!!!!!!!!!!!!!!!!!!!",
"!!!!!!!%!!!!!!!!!!!!!!!!!!!!!!!!!!!!!!!!!!!!!!!!!!!!!&!!!!!!!!!!",
"!!!!!!!!!!!!$&!!!$!!!!!!!!!!!!!'#!!!!!!!!!!!!!!!!!!!'(!!!!!!!!!!",
"!!!!!!!!!!!!!!!!!!!'!!!!!!!!!!!$(!!!!!!!!!!!!!!!!!!!!!!!!!!!!!!!",
"!!!!!$$!!)!!'!!!(!!!!!!!!!!!!!!$!!&!!!!!!!!!!!!!!!!!!!!!!!!!!!!!",
"!!!!!%!!!!!)*)!!!!'!!!!!!!!!!!!!!!!!!!!!!!!!!!!!!!!!!!!!!!!!!!!!",
"!!!!!!!!!)!!(!!!%!$!!!!!!!!!!&!!!!!!!+,,!!!!!!!!!!!!!!!!!!!!!!!!",
"!!!!!!%!)!!!!-!)!!!!!!!!!!!!!!!!&!!./,00,1!!!!!!!!!!!!!!!!!!!!!!",
"!!!!!!!!!!!!!!!!!!!!!!!11,,+1!!!!!!.,02*0+!!!!!!!!!!!!!!!!!!!!!!",
"!!!!!!!%!#&!!&##!##!%.!++00,.!!!$!!!!34*24!!(!!!!!!!!!!!!!!!!!!!",
"!!!!!!!!!!-&!!--!!!!!5!64.20.!!&!!!1!0!411!!!!!!!!!!!!!!!!!!!!!!",
"!!!!!!!!!#$*7#*$#$!!5!!21.4326!!!!6!!!!!(!!!!!!!!!!!!!!!!!!!!!!!",
"!!!!!!!!--*7'$88$##5!!614+10266!666!!!!(!!!2!!!!!!!!!!!!!!!!!!!!",
"!!!!!!!!!!##)9:';$$5<664=1============><5!4!!!!!!!!!!!!!!!!!!!!!",
"!!!!!???!))$#:):9:)===@AABBAAAAA@@@@@=====AAAAA5!!!!!!!!!!!!!!!!",
"!!!!??CDE#7$F'$F(&G2A:HIJKHLMEFG:BBAABG:BABB::G:BA@@@!!!!!!!!!!!",
"!!!!NNOF#J:():F&:(-A:HPIJKFG:BBBBBBBB::GG:::GGFEGBBDQQQ!!!!!!!!!",
"!!!!RRS7HE$9:$#G&$G:MPHFBA@@@@@@@@@@@@@ABGGMLHJHKFBTCCCQ?!!!!!!!",
"!!!!??OEE7G'F)::)&::I:@=UVV&VVVVVVVVVV==@AGG:GGIPF:OOOCOC!!!!!!!",
"!!!!DDNEIGG:';#&#-JI:A=$9$9UWXXXXXXXXXXX=ABFGBBFKG:SSSOSR!Q!!!!!",
"!!!!YY?HI77BGGZ@=W[=$D?DY]==@B:BBA@=XXXXXXXXX@AFGBBOOOC^O?TQ!!!!",
"!!!!!]]HPJBF_Z_`??@B@?YB)AB=)@@)A@=)B&A@?QQQQQ?:::A????a]?SN!!!!",
"!!!!!!@@BL==B::`TT@:AR?:BB:=======AB:)BATRRRRRTB::A]]]]Y]?OO!!!!",
"!!!!!!??QBA===A`QD@F@D?IL===AALLLLLLA=LGSNNNNNQAA******bA@RT!!!!",
"!!!!!!![[A:A@@=`TT@:=TQJ=@@AGGAGG)GGAA=:^QQQQQAA******bc@XN!!!!!",
"!!!!!!!!ABB`AB@==@@BAR==@BA:::::::::AB@=R????A=******cdcX!!!!!!!",
"!!!!!!!!AB!``@BAA====@AAB@BBBBBBBBBBA:A=N[e_@B=****BB::B@!!!!!!!",
"!!!!!!!!!B!ffg@BAAAAABAB@AAAAAAAAAAAA:G@=e_h@:=***:GGEFG@!!!!!!!",
"!!!!!!!!!!!!!!!@:@@@@@@@@@@@@@@@@@@@@=FA==c@FA=**BB@@:AX!!!!!!!!",
"!!!!!!!!!!!!!!!!=G=====@BBBB::GGG:::BBFFA=@@:=]**:XXXB@X!!!!!!!!",
"!!!!!!!!!!!!!!!!!=A====!!!!!!!!!!!!!!!AGA==BB@***:XX*A@X!!!!!!!!",
"!!!!!!!!!!!!!!!!!!====!!!!!!!!!!!!!!!!!@:AAA:::::BA@===X!!!!!!!!",
"!!!!!!!!!!!!!!!!!!!!!!!!!!!!!!!!!!!!!!!=B@@AAAA@@@=XX@=X!!!!!!!!",
"!!!!!!!!!!!!!!!!!!!!!!!!!!!!!!!!!!!!!!!XA==@@@@=XXX**XX!!!!!!!!!",
"!!!!!!!!!!!!!!!!!!!!!!!!!!!!!!!!!!!!!!!X=====XXX!!XeeXX!!!!!!!!!",
"!!!!!!!!!!!!!!!!!!!!!!!!!!!!!!!!!!!!!!!XXXXXXX!!!!!X!X!!!!!!!!!!",
"!!!!!!!!!!!!!!!!!!!!!!!!!!!!!!!!!!!!!!!!XXXX!!!!!!!!!!!!!!!!!!!!"
};