/* XPM */
static const char *cyborg_boss_death_f02[] = {
/* columns rows colors chars-per-pixel */
"64 64 92 1",
"! c None",
"# c #10C410",
"$ c #805424",
"% c #D0B094",
"& c #A8784C",
"' c #BC906C",
"( c #503418",
") c #D8BCA8",
"* c #A06C3C",
"+ c #94602C",
", c #704820",
"- c #007400",
". c #60401C",
"/ c #402810",
"0 c #00A400",
"1 c #B08458",
"2 c #78E078",
"3 c #98E898",
"4 c #004400",
"5 c #28CC28",
"6 c #980088",
"7 c #008C00",
"8 c #000000",
"9 c #44D444",
": c #201408",
"; c #005C00",
"< c #002C00",
"= c #848484",
"> c #5CD85C",
"? c #301C0C",
"@ c #00C000",
"A c #B8ECB8",
"B c #984C08",
"C c #002C2C",
"D c #004444",
"E c #005C5C",
"F c #007474",
"G c #CC8038",
"H c #884404",
"I c #10C0C0",
"J c #00A4A4",
"K c #008C8C",
"L c #5CD8D8",
"M c #B4ECEC",
"N c #98E4E4",
"O c #78E0E0",
"P c #40D0D0",
"Q c #28C8C8",
"R c #00BCBC",
"S c #C06410",
"T c #DCAC7C",
"U c #D8F4F4",
"V c #AC580C",
"W c #D09050",
"X c #ECD0B4",
"Y c #C47024",
"Z c #002C1C",
"[ c #001414",
"] c #444444",
"^ c #743804",
"_ c #E4C098",
"` c #545454",
"a c #643000",
"b c #3C1C00",
"c c #D89C64",
"d c #747474",
"e c #343434",
"f c #502400",
"g c #4C4C4C",
"h c #3C3C3C",
"i c #7C7C7C",
"j c #C4C4C4",
"k c #989898",
"l c #5C5C5C",
"m c #A8A8A8",
"n c #646464",
"o c #A0A0A0",
"p c #8C8C8C",
"q c #2C2C2C",
"r c #001C3C",
"s c #6C6C6C",
"t c #043C74",
"u c #044488",
"v c #1068C0",
"w c #003064",
"x c #085098",
"y c #0C5CAC",
"z c #2474C4",
"{ c #BCBCBC",
"| c #D8D8D8",
"} c #1C1C1C",
"~ c #242424",
"!!!!!!!!!!!!!!!!!!!!!!!!!!!!!!!!!!!!!!!!!!!!!!!!!!!!!!!!!!!!!!!!",
"!!!!!!!!!!!!!!!!!!!!!!!!!!!!!!!!!!!!!!!!!!!!!!!!!!!!!!!!!!!!!!!!",
"!!!!!!!!!!!!#!!!!!!!!!!!!!!!!!!$%&''!!!!!!!!!!!!!!!!!!!!!!!!!!!!",
"!!!!!!!!#!!!!!!!!!!!!!!!!$$#'&#()'**'$!!!!!!!!!!!!!!!!!!!!!!!!!!",
"!!!!!!!!!!!!!!!!!!!$+$,(!&&**#-('*,,*&!!!!!!!!!!!!!!!!!!!!!!!!!!",
"!!!!!!!!!!!!!!!!!!!+././-.+(,0-.11+/,+!!!!!!!!!!!!!!!!!!!!!!!!!!",
"!!!!!!!#!!2!3!!!!!!././-4,$(#1-$!*$+$$!!!!!!!!!!!!!!!!!!!!!!!!!!",
"!!!!!!!!!!!!!#!!!!!(//04.$+&$0,!!!!!!!!!!!!!!!5!!!!!!!!!!!!!!!!!",
"!!!!!!!!3!#!!#!3!!!(467..+*$.880.$$,.!0!!!!!!5-!!!!!!!!!!!!!!!!!",
"!!!!!!#!!39!!!9!!!!!!4(((+,(8///8(,.(!!(!!!!5-!!!!!!!!!!!!!!!!!!",
"!!!!!#!!!!!3!3!!!!..!!(/.$(:/:;:/8..6/./(.!-!!!!!!!!!!!!!!!!!!!!",
"!!!!!!!!!3!!!!!!#!(#!!.(.,*::;<6::*$6/.(.(!!!!!!!!!!!!!!!!!!!!!!",
"!!!!!##!3=!!>>03!!//$!..,($:6<<66:,(6/,.$/!!!!!!!!!!!!!!!!!!!!!!",
"!!!!!!!!!!!!!!!!!??/,!!+,+,(/(,+/..66(,+,/?!!!!!!!!!!!!!!!!!!!!!",
"!!!5!!!#!0322700!??(,!!$.*+*&*+*?/.,6?.$,(?!!!!!!!!!!!!!!!!!!!!!",
"!!!#7!!!!>>766>>!?#/.!!!!!.,$,.67;;6+.?../?!!!!!!!!!!!!!!!!!!!!!",
"!!!!!!!!!0-3206-0-::!!(((//:6676;-;@6++.(:!!!!!!!!!!!!!!!!!!!!!!",
"!!!!!!!!>>22@-55-006???(//::::@:::::/(?++?!!!!!!!!!!!!!!!!!!!!!!",
"!!!!!!!!!!00340@A--/??:?.((///(@.@?0/(:?!!!!!!!!!!!!!!!!!!!!!!!!",
"!!!!!BBB!33-02304;3CCCDEEFFEE88888:://(CCCEEEEE!!!!!!!!!!!!!!!!!",
"!!!!BBGHI02--@--;7J/EKLMNOLPQIRJKF@E@FJKFEFFKKJKFEDDD!!!!!!!!!!!",
"!!!!SSTR0N@;3>A79;>EKLUMNORJKFFFFFFFFKKJJKKKJJRIJFFHVVV!!!!!!!!!",
"!!!!WWX2LI-43-0-7-JKQULRFEDDDDDDDDDDDDDEFJJQPLNLORFYGGGVB!!!!!!!",
"!!!!BBTII2J@A3#-37KKMKDC<ZZ7ZZZZZZZZZZCCDEJJKJJMURKTTTGTG!!!!!!!",
"!!!!HHSIMJJK@A070>NMKEC878884[4[[[[[[[[[CEFRJFFROJKXXXTXW]!!!!!!",
"!!!!^^BLM22FD@->2@MKDC-488-45[[[[[[[[[[[[CDKIREFJJFTTTG_T`!!!!!!",
"!!!!!aaLUNJLFEEKLLKDa;4-4-4<b[[[[[[[[[[[[[[DKLJEFJEBBBBc]d!!!!!!",
"!!!!!DDJLULNIFEFRJD<<<<7H^a<2[5[[[[2[[[[[[[[DKRJKIEaaead]d!!!!!!",
"!!!!!!DDJPUKOIIJJE<<a^;475afDgDCC[[[[[[[[[[[[EKJJREJhijkld!!!!!!",
"!!!!!!!DDFPJKJJKFDb4<7HBH40f82828C[[[[[[[[[[[DFJRJFKlljmnld!!!!!",
"!!!!!!!BBVFFKKJKE[bfa^H44^afKmKDD[[5[[[[[[[[[CEFKKKKFhojd`dTG!!!",
"!!!!!!!!ffWFKKKKD[bfa-HBH^aD98888D[[[[[[[[[[[[DEFKKFCCijd]HYS!!!",
"!!!!!!!!![[lplEEDCbfa^HBH5a[KmKDD[[[[[[[[[[[[CDDEE!!!aaaaaBX_!!!",
"!!!!!!!!![[l=l6EEEDfa^HBH^aD88888D[[[[[[[CDEEEEEE!!!!YYYYYHTc!!!",
"!!!!!!!!!hhlp`q66EEEEDDDDD88KmKDD8CDDDDDEEEEDC!!!!!!!BBBBBaWS!!!",
"!!!!!!!!EE]`p`DC666666666CCDFKFFEDC!!!!!!!!!!!!!!!!!!!^^^^fS!!!!",
"!!!!!!!EEFRh`hrBBBBBB^FEEFCCDDDEDCEFEEDBVVVVVB!!!!!!!!lpl[!!!!!!",
"!!!!!!!EERKFKKrYYWccWBKFFKEECCCCCEFKFFEYWWWWWY!!!!!!!!lkl[!!!!!!",
"!!!!!!!FFREDDErXTpsp_SMPPPPPPPPPPPPPPPJXSSSSSV!!!!!!!!lpl[!!!!!!",
"!!!!!!!FFKrttrr_pDDDpBNIJJJJJJJJJJJJJJK_VVVVVB!!!!!!!!lpl[!!!!!!",
"!!!!!!!!FFrrrruVHHHHHBOKKKKKKKKKKKKKKKFWBBBBBH!!!!!!!!l=l[!!!!!!",
"!!!!!!!!!!rrrrvYYGWGYVPFFFFFFFFFFFFFFFESfqhqf^!!!!!!!FFKKFD!!!!!",
"!!!!!!!!!!ttuwucWTXTWYKEEEEEEEEEEEEEEEDBqhg]qa!!!!!!KJJIRJK[!!!!",
"!!!!!!!!!!!xxyuTYWcGSVEDDDDDDDDDDDDDDDCHelk`eb!!!!!FFDDKE[D[!!!!",
"!!!!!!!!!!!ttzGGBDdDBSDFFFFKKJJJKKKFFFCVes{nef!!!!!K[[[FD[[D[!!!",
"!!!!!!!!!!!!xxSSCdpg^B!!!!!!!!!!!!!!!!!!es|ne!!!!!!K[[!ED[[ED!!!",
"!!!!!!!!!!!!ttHH]sole^!!!!!!!!!!!!!!!!!!es{ne!!!!!!J[!!EC[!ED!!!",
"!!!!!!!!!!!!!!!DDEElC!!!!!!!!!!!!!!!!!!aaaaaaa!!!!!F[!!DC[!ED!!!",
"!!!!!!!!!!!!!!!DDRDdC!!!!!!!!!!!!!!!!!!HHHHHHH!!!!!E[!![[!![!!!!",
"!!!!!!!!!!EED!!CCKCdCKE!!!!!!!!!!!!!!!!SSGWGSS!!!!!![!![[![!!!!!",
"!!!!!!!!!EEFFDCDDFEdqKD!!!!!!!!!!!!!!!!VVVVVVV!!!!!!![![!!!!!!!!",
"!!!!!!!!!EEFFKECCCCDFKC!!!!!!!!!!!!!!!!^^^^^^^!!!!!!!!!!!!!!!!!!",
"!!!!!!!!!!!!FFKEEKEFEC!!!!!!!!!!!!!!!!!!Dd=gC!!!!!!!!!!!!!!!!!!!",
"!!!!!!!!!!!!!DDKDDDDDC!!!!!!!!!!!!!!!!!!Dd=gC!!!!!!!!!!!!!!!!!!!",
"!!!!!!!!!!!!!!CCCCCCC!!!!!!!!!!!!!!!!!!!Dd=gC!!!!!!!!!!!!!!!!!!!",
"!!!!!!!!!!!!!!!!!!!!!!!!!!!!!!!!!!!!!!!!Dd=gC!!!!!!!!!!!!!!!!!!!",
"!!!!!!!!!!!!!!!!!!!!!!!!!!!!!!!!!!!!!!!DDd=gCC!!!!!!!!!!!!!!!!!!",
"!!!!!!!!!!!!!!!!!!!!!!!!!!!!!!!!!!!!!!DFFEJEEDC!!!!!!!!!!!!!!!!!",
"!!!!!!!!!!!!!!!!!!!!!!!!!!!!!!!!!!!!!DKDDFKCCDC!!!!!!!!!!!!!!!!!",
"!!!!!!!!!!!!!!!!!!!!!!!!!!!!!!!!!!!!EJDCCKFCEEDC!!!!!!!!!!!!!!!!",
"!!!!!!!!!!!!!!!!!!!!!!!!!!!!!!!!!!!!FDC}!KE}}}ED!!!!!!!!!!!!!!!!",
"!!!!!!!!!!!!!!!!!!!!!!!!!!!!!!!!!!!!ED}!!KE!!~ED!!!!!!!!!!!!!!!!",
"!!!!!!!!!!!!!!!!!!!!!!!!!!!!!!!!!!!!E~~!!KE!!!EE!!!!!!!!!!!!!!!!",
"!!!!!!!!!!!!!!!!!!!!!!!!!!!!!!!!!!!!!!!!!!!!!!!!!!!!!!!!!!!!!!!!"
};