/* XPM */
static const char *cyborg_boss_death_f01[] = {
/* columns rows colors chars-per-pixel */
"64 64 98 2",
"!! c None",
"!# c #805424",
"!$ c #704820",
"!% c #503418",
"!& c #A06C3C",
"!' c #B08458",
"!( c #94602C",
"!) c #60401C",
"!* c #C4A080",
"!+ c #402810",
"!, c #CC3880",
"!- c #5CD85C",
"!. c #00A400",
"!/ c #A8784C",
"!0 c #BC906C",
"!1 c #640030",
"!2 c #880444",
"!3 c #D8649C",
"!4 c #D8BCA8",
"!5 c #78E078",
"!6 c #008C00",
"!7 c #980088",
"!8 c #007400",
"!9 c #301C0C",
"!: c #201408",
"!; c #00C000",
"!< c #28CC28",
"!= c #884404",
"!> c #007474",
"!? c #98E898",
"!@ c #004400",
"!A c #B8ECB8",
"!B c #000000",
"!C c #984C08",
"!D c #00A4A4",
"!E c #005C00",
"!F c #005C5C",
"!G c #CC8038",
"!H c #10C0C0",
"!I c #44D444",
"!J c #008C8C",
"!K c #004444",
"!L c #C06410",
"!M c #DCAC7C",
"!N c #00BCBC",
"!O c #98E4E4",
"!P c #AC580C",
"!Q c #D09050",
"!R c #ECD0B4",
"!S c #5CD8D8",
"!T c #28C8C8",
"!U c #40D0D0",
"!V c #78E0E0",
"!W c #C47024",
"!X c #10C410",
"!Y c #002C2C",
"!Z c #001414",
"![ c #B4ECEC",
"!] c #D8F4F4",
"!^ c #444444",
"!_ c #743804",
"!` c #E4C098",
"!a c #545454",
"!b c #643000",
"!c c #D89C64",
"!d c #747474",
"!e c #343434",
"!f c #CC3838",
"!g c #700404",
"!h c #3C3C3C",
"!i c #7C7C7C",
"!j c #C4C4C4",
"!k c #989898",
"!l c #5C5C5C",
"!m c #A8A8A8",
"!n c #646464",
"!o c #A0A0A0",
"!p c #502400",
"!q c #3C1C00",
"!r c #2C1400",
"!s c #002C1C",
"!t c #5884B0",
"!u c #848484",
"!v c #8C8C8C",
"!w c #4C4C4C",
"!x c #2C2C2C",
"!y c #001C3C",
"!z c #043C74",
"!{ c #044488",
"!| c #003064",
"!} c #085098",
"!~ c #0C5CAC",
"#! c #2474C4",
"## c #1068C0",
"#$ c #6C6C6C",
"#% c #B0B0B0",
"#& c #242424",
"#' c #1C1C1C",
"!!!!!!!!!!!!!!!!!!!!!!!!!!!!!!!!!!!!!!!!!!!!!!!!!!!!!!!!!!!!!!!!!!!!!!!!!!!!!!!!!!!!!!!!!!!!!!!!!!!!!!!!!!!!!!!!!!!!!!!!!!!!!!!!",
"!!!!!!!!!!!!!!!!!!!!!!!!!!!!!!!!!!!!!!!!!!!!!!!#!#!#!$!!!!!!!!!!!$!#!#!#!!!!!!!!!!!!!!!!!!!!!!!!!!!!!!!!!!!!!!!!!!!!!!!!!!!!!!!!",
"!!!!!!!!!!!!!!!!!!!!!!!!!!!!!!!!!!!!!!!!!!!!!%!&!'!&!(!$!)!!!)!$!(!&!'!&!%!!!!!!!!!!!!!!!!!!!!!!!!!!!!!!!!!!!!!!!!!!!!!!!!!!!!!!",
"!!!!!!!!!!!!!!!!!!!!!!!!!!!!!!!!!!!!!!!!!!!%!)!*!'!(!#!$!#!(!#!$!#!(!'!*!)!%!!!!!!!!!!!!!!!!!!!!!!!!!!!!!!!!!!!!!!!!!!!!!!!!!!!!",
"!!!!!!!!!!!!!!!!!!!!!!!!!!!!!!!!!!!!!!!!!!!)!%!(!$!$!)!%!+!&!)!%!$!,!$!(!%!)!!!!!!!!!!!!!!!!!!!!!!!!!!!!!!!!!!!!!!!!!!!!!!!!!!!!",
"!!!!!!!!!!!!!!!!!!!!!!!!!-!.!!!!!!!!!!!!!)!%!+!$!)!%!%!+!)!$!)!/!0!0!0!$!+!%!)!!!!!!!!!!!!!!!!!!!!!!!!!!!!!!!!!!!!!!!!!!!!!!!!!!",
"!!!!!!!!!!!!!!!!!!!!!!!!!!!!!!!!!!!!!!!!!%!)!%!1!2!3!,!#!+!%!4!0!&!#!&!0!%!)!%!!!!!!!!!!!!!!!!!!!!!!!!!!!!!!!!!!!!!!!!!!!!!!!!!!",
"!!!!!!!!!!!!!!!!!!!.!!!5!6!!!.!!!!!.!!!!!+!#!)!%!1!0!0!0!&!#!0!&!$!%!$!&!/!#!+!!!!!!!!!!!!!!!!!!!!!!!!!!!!!!!!!!!!!!!!!!!!!!!!!!",
"!!!!!!!!!!!!!!!!!!!-!6!!!!!!!-!!!!!!!!!!!+!$!(!#!0!&!#!&!0!&!#!#!%!+!+!$!(!$!+!!!!!!!!!!!!!!!!!!!!!!!!!!!!!!!!!!!!!!!!!!!!!!!!!!",
"!!!!!!!!!!!!!!!!!!!.!7!5!.!!!!!.!8!!!!!!!+!)!$!/!&!$!%!$!&!0!)!&!#!9!:!%!#!#!+!!!!!!!!!!!!!!!!!!!!!!!!!!!!!!!!!!!!!!!!!!!!!!!!!!",
"!!!!!!!!!!!!!!!!!-!7!5!;!8!!!<!8!7!.!8!!!+!#!$!(!$!+!+!%!#!(!)!%!)!#!%!%!)!%!+!!!!!!!!!!!!!!!!!!!!!!!!!!!!!!!!!!!!!!!!!!!!!!!!!!",
"!!!!!!!!!!!!!=!=!>!>!.!?!@!.!;!A!7!8!7!+!%!(!#!#!%!:!9!#!&!%!+!:!B!%!$!)!%!+!%!+!!!!!!!!!!!!!!!!!!!!!!!!!!!!!!!!!!!!!!!!!!!!!!!!",
"!!!!!!!!!!!C!C!D!D!?!8!.!5!?!.!@!E!?!>!+!%!&!(!)!%!%!#!)!+!:!:!:!:!+!%!%!9!%!%!+!>!F!F!F!F!F!!!!!!!!!!!!!!!!!!!!!!!!!!!!!!!!!!!!",
"!!!!!!!!!C!G!H!H!.!5!;!8!;!I!8!E!6!D!+!%!)!#!#!)!)!$!%!9!B!B!:!:!:!%!%!)!#!#!)!%!+!>!>!J!J!D!J!>!F!F!K!K!!!!!!!!!!!!!!!!!!!!!!!!",
"!!!!!!!!!L!M!N!.!O!;!E!?!-!A!6!I!E!-!+!%!)!$!$!#!)!%!9!:!:!:!B!:!+!%!)!#!$!$!)!%!+!J!J!D!D!N!H!D!>!>!=!P!P!P!!!!!!!!!!!!!!!!!!!!",
"!!!!!!!!!Q!R!S!S!H!8!@!?!5!.!8!6!8!D!+!+!%!)!$!$!&!%!:!:!:!:!:!+!)!(!&!$!$!)!%!+!+!D!T!U!S!O!S!V!N!=!W!G!G!G!P!C!!!!!!!!!!!!!!!!",
"!!!!!!!!!C!M!H!H!5!D!;!A!?!X!;!?!6!J!K!Y!+!+!%!)!(!$!%!+!:!%!)!#!(!&!#!)!%!+!Z!K!+!J!J!J!D!D![!]!D!G!M!M!M!G!M!G!!!!!!!!!!!!!!!!",
"!!!!!!!!!=!L!H![!D!D!J!;!A!.!6!.!-!O!E!J!Y!Y!+!+!)!(!&!/!/!/!&!#!)!%!+!+!+!Z!Y!K!K!>!>!>!>!>!N!V!D!R!R!R!R!M!R!Q!^!!!!!!!!!!!!!!",
"!!!!!!!!!_!C!S![!5!5!>!K!;!A!-!5!;!H!S!O!J!Y!Y!Z!Z!)!$!#!#!#!$!%!+!9!Z!Z!Z!Z!Y!K!+!K!K!F!F!F!>!D!D!Q!M!M!M!G!`!M!a!!!!!!!!!!!!!!",
"!!!!!!!!!!!b!S!]!O!D!>!5!>!;!@!;!Y!S!T!O!D!>!Y!Y!Z!Z!+!+!)!$!)!%!9!9!Z!Z!Z!Y!Y!Y!Y!Y!Y!Y!Y!K!F!F!D!F!C!C!C!C!c!^!d!!!!!!!!!!!!!!",
"!!!!!!!!!!!K!D!S!]!S!D!K!F!>!Y!Y!F!S!N!O!D!>!K!K!Y!Y!Z!+!+!+!+!+!+!+!Z!Z!Y!Y!Y!Y!Y!Y!Y!Y!Y!Y!Y!>!H!F!b!b!e!b!d!^!d!!!!!!!!!!!!!!",
"!!!!!!!!!!!!!K!D!U!]!S!>!F!J!J!S!S!D!O!D!>!K!K!K!K!K!Y!Z!Z!Z!Z!Z!Z!Z!Z!Y!Y!Y!Y!Y!f!g!f!Y!Y!K!>!]!V!F!D!h!i!j!k!l!d!!!!!!!!!!!!!!",
"!!!!!!!!!!!!!!!K!>!U!O!H!>!F!>!N!V!O!D!>!K!K!K!K!K!K!K!K!Y!Y!Y!Y!Y!Y!Y!Y!Y!Y!Y!Y!Y!Y!Y!Y!Y!K!]!V!D!>!J!l!l!j!m!n!l!d!!!!!!!!!!!!",
"!!!!!!!!!!!!!!!C!P!>!J!V!H!H!D!J!>!>!>!F!F!F!F!K!K!K!K!K!K!K!Y!Y!Y!Y!Y!Y!Y!Y!Y!Y!Y!Y!Y!Y!K!]!V!D!>!>!J!>!h!o!j!d!a!d!!!!!!!!!!!!",
"!!!!!!!!!!!!!!!W!G!Q!>!J!D!D!J!>!>!>!>!>!>!>!F!F!F!F!F!F!K!K!K!K!K!Y!Y!Y!Y!Y!Y!Y!Y!K!K!F!T!D!J!J!J!J!>!Y!Y!i!j!d!^!d!W!L!!!!!!!!",
"!!!!!!!!!!!!!!!C!C!=!_!>!>!J!>!D!H!H!H!N!D!J!>!K!Y!Y!Y!Y!Y!Y!Y!Y!Y!Y!Y!Y!Y!Y!Y!Y!Y!Y!Y!K!F!>!J!J!>!>!F!7!7!Q!c!M!c!M!M!G!!!!!!!!",
"!!!!!!!!!!!!!!!!!p!p!p!b!>!>!D!H!F!p!b!_!=!C!=!_!b!p!q!r!r!Z!Z!Z!Z!Z!Z!Z!q!p!b!p!q!Z!Y!Y!K!F!>!>!>!F!7!7!=!P!P!P!P!P!`!c!!!!!!!!",
"!!!!!!!!!!!!!!!!!!!Z!l!i!l!F!H!F!Y!p!b!_!=!C!=!_!b!p!s!F!t!J!F!K!Y!s!Z!Z!q!p!b!p!q!Z!Z!Z!Y!K!F!F!F!7!7!7!_!Y!a!d!u!C!R!`!!!!!!!!",
"!!!!!!!!!!!!!!!!!!!Z!l!u!l!7!F!Y!q!p!b!_!=!C!=!_!b!p!K!F!>!K!Y!s!s!s!Z!Z!q!p!b!p!q!Z!Z!Z!Z!Y!K!F!7!7!7!7!Y!a!v!m!i!=!M!c!!!!!!!!",
"!!!!!!!!!!!!!!!!!!!Z!l!v!l!7!7!Y!Y!p!p!b!_!p!Y!Y!Y!Y!K!J!m!J!K!K!K!Y!Y!Y!Y!Y!Y!Y!Y!Y!Y!Y!Y!Y!Y!7!7!7!7!Y!a!m!j!i!_!b!Q!L!!!!!!!!",
"!!!!!!!!!!!!!!!!!!!Z!l!u!l!7!7!7!7!Y!Y!Y!Y!Y!7!7!7!K!K!F!>!K!Y!s!Y!K!7!7!7!Y!Y!Y!Y!7!7!7!7!7!K!>!K!K!Y!a!v!j!v!w!p!p!L!!!!!!!!!!",
"!!!!!!!!!!!!!!!!!!!h!l!v!a!x!7!7!7!7!7!7!7!7!7!7!7!Y!K!J!m!J!K!K!K!Y!7!7!7!7!7!7!7!7!7!7!7!K!H!O!U!N!J!>!>!k!w!!!!!!!!!!!!!!!!!!",
"!!!!!!!!!!!!!!!!!F!^!a!v!a!K!7!7!7!7!7!7!7!7!7!7!7!7!K!>!D!K!Y!Z!Y!7!7!7!7!7!7!7!7!7!7!7!F!J!Z!Z!K!>!>!D!h!w!!!!!!!!!!!!!!!!!!!!",
"!!!!!!!!!!!!!!!F!>!N!h!a!h!F!7!7!7!7!7!7!7!7!7!7!7!7!F!N!]!N!F!F!F!7!7!7!7!7!7!7!7!7!7!K!Z!Z!7!7!J!H!V!>!Y!!!!!!!!!!!!!!!!!!!!!!",
"!!!!!!!!!!!!!!!F!N!J!>!J!J!>!7!7!7!7!7!7!7!7!7!7!7!7!K!K!F!K!Y!Z!Y!7!7!7!7!7!7!7!7!7!7!Y!7!7!7!>!D!V!>!F!Y!!!!!!!!!!!!!!!!!!!!!!",
"!!!!!!!!!!!!!!!>!N!F!K!K!F!>!K!7!7!7!7!7!7!7!7!7!7!7!>!T!O!T!J!K!Y!7!7!7!7!7!7!7!7!7!7!7!7!7!7!J!F!Y!K!Z!Y!!!!!!!!!!!!!!!!!!!!!!",
"!!!!!!!!!!!!!!!>!J!y!z!z!y!K!Y!7!7!7!7!7!7!7!7!7!7!Y!K!>!D!K!Y!Z!Y!Y!7!7!7!7!7!7!7!7!7!7!7!7!J!F!K!K!F!Z!Y!!!!!!!!!!!!!!!!!!!!!!",
"!!!!!!!!!!!!!!!!!>!y!y!y!y!y!C!C!C!C!C!C!_!>!F!F!F!Y!F!N!]!N!F!F!F!Y!F!F!F!K!C!P!P!P!P!P!C!7!J!K!!!!!J!Z!Y!!!!!!!!!!!!!!!!!!!!!!",
"!!!!!!!!!!!!!!!!!!!!!y!y!y!y!W!W!Q!c!c!Q!C!J!>!>!F!Y!K!>!D!K!Y!Z!Z!Y!F!>!>!F!W!Q!Q!Q!Q!Q!W!J!K!!!!!!!>!K!Y!!!!!!!!!!!!!!!!!!!!!!",
"!!!!!!!!!!!!!!!!!!!!!z!{!|!y!R!M!`!R!R!`!L![!U!U!>!Y!K!>!J!>!>!F!K!Y!>!U!U!D!R!L!L!L!L!L!J!K!!!!!!!!!>!Z!!!!!!!!!!!!!!!!!!!!!!!!",
"!!!!!!!!!!!!!!!!!!!!!!!}!~!y!`!>!K!K!K!F!C!O!H!D!J!F!Y!K!K!K!F!K!Y!F!J!D!D!J!`!P!P!P!P!P!=!!!!!!!!!!!>!Z!!!!!!!!!!!!!!!!!!!!!!!!",
"!!!!!!!!!!!!!!!!!!!!!!!z#!!{!Q!K!w!u!^!K!=!V!J!J!J!>!F!Y!Y!Y!Y!Y!F!>!J!J!J!>!Q!C!C!C!C!C!=!!!!!!!!!K!Z!!!!!!!!!!!!!!!!!!!!!!!!!!",
"!!!!!!!!!!!!!!!!!!!!!!!!!}##!L!B!w!k!w!B!C!U!>!>!>!>!>!>!>!>!>!>!>!>!>!>!>!F!L!=!=!=!=!=!_!!!!!!!!!K!!!!!!!!!!!!!!!!!!!!!!!!!!!!",
"!!!!!!!!!!!!!!!!!!!!!!!!!z!{!C!F!l!k!w!K!_!J!F!F!F!F!F!F!F!F!F!F!F!F!F!F!F!K!C!_!_!_!_!_!b!!!!!!!!!!!!!!!!!!!!!!!!!!!!!!!!!!!!!!",
"!!!!!!!!!!!!!!!!!!!!!!!!!!!{!=!K!d!m!a!K!p!F!K!K!K!K!K!K!K!K!K!K!K!K!K!K!K!Y!=!p!p!p!p!p!q!!!!!!!!!!!!!!!!!!!!!!!!!!!!!!!!!!!!!!",
"!!!!!!!!!!!!!!!!!!!!!!!!!!!!!P!=!=!=!=!=!C!K!>!>!>!>!J!J!D!D!D!J!J!J!>!>!>!Y!P!b!b!b!b!b!p!!!!!!!!!!!!!!!!!!!!!!!!!!!!!!!!!!!!!!",
"!!!!!!!!!!!!!!!!!!!!!!!!!!!!!W!W!G!Q!G!W!P!!!!!!!!!!!!!!!!!!!!!!!!!!!!!!!!!!!!!e!a!n!w!e!!!!!!!!!!!!!!!!!!!!!!!!!!!!!!!!!!!!!!!!",
"!!!!!!!!!!!!!!!!!!!!!!!!!!!!!c!Q!M!R!M!Q!W!!!!!!!!!!!!!!!!!!!!!!!!!!!!!!!!!!!!!e!a!n!w!e!!!!!!!!!!!!!!!!!!!!!!!!!!!!!!!!!!!!!!!!",
"!!!!!!!!!!!!!!!!!!!!!!!!!!!!!M!W!Q!c!G!L!P!!!!!!!!!!!!!!!!!!!!!!!!!!!!!!!!!!!!!e!a!n!w!e!!!!!!!!!!!!!!!!!!!!!!!!!!!!!!!!!!!!!!!!",
"!!!!!!!!!!!!!!!!!!!!!!!!!!!!!G!C!K!d!K!C!L!!!!!!!!!!!!!!!!!!!!!!!!!!!!!!!!!!!p!e!w!l!^!e!Z!!!!!!!!!!!!!!!!!!!!!!!!!!!!!!!!!!!!!!",
"!!!!!!!!!!!!!!!!!!!!!!!!!!!!!L!Y!d!v!w!_!C!!!!!!!!!!!!!!!!!!!!!!!!!!!!!!!!!!!b!b!h!w!h!b!b!!!!!!!!!!!!!!!!!!!!!!!!!!!!!!!!!!!!!!",
"!!!!!!!!!!!!!!!!!!!!!!!!!!!!!=!^#$!o!l!e!_!!!!!!!!!!!!!!!!!!!!!!!!!!!!!!!!!!!_!_!_!_!_!_!_!!!!!!!!!!!!!!!!!!!!!!!!!!!!!!!!!!!!!!",
"!!!!!!!!!!!!!!!!!!!!!!!!!!!!!!!K!d#%!l!Y!!!!!!!!!!!!!!!!!!!!!!!!!!!!!!!!!!!!!p!q!q!q!q!q!q!!!!!!!!!!!!!!!!!!!!!!!!!!!!!!!!!!!!!!",
"!!!!!!!!!!!!!!!!!!!!!!!!!!!!!!!K!d#%!d!Y!!!!!!!!!!!!!!!!!!!!!!!!!!!!!!!!!!!!!!!K!v!o!d!Y!!!!!!!!!!!!!!!!!!!!!!!!!!!!!!!!!!!!!!!!",
"!!!!!!!!!!!!!!!!!!!!!!!!!!!!!!!K!F!F!d!Y!!!!!!!!!!!!!!!!!!!!!!!!!!!!!!!!!!!!!K!K!v!o!l!Y!Y!!!!!!!!!!!!!!!!!!!!!!!!!!!!!!!!!!!!!!",
"!!!!!!!!!!!!!!!!!!!!!F!K!K!Y!!!K!N!K!d!x!J!F!!!!!!!!!!!!!!!!!!!!!!!!!!!!!!!K!>!>!F!D!F!F!K!Y!!!!!!!!!!!!!!!!!!!!!!!!!!!!!!!!!!!!",
"!!!!!!!!!!!!!!!!!!!F!>!>!F!F!Y!Y!J!Y!K!>!J!K!!!!!!!!!!!!!!!!!!!!!!!!!!!!!K!J!K!K!>!J!Y!Y!K!Y!!!!!!!!!!!!!!!!!!!!!!!!!!!!!!!!!!!!",
"!!!!!!!!!!!!!!!!!!!F!!!!!>!>!F!K!>!F!F!F!J!Y!!!!!!!!!!!!!!!!!!!!!!!!!!!F!D!K!Y!Y!J!>!Y!F!F!K!Y!!!!!!!!!!!!!!!!!!!!!!!!!!!!!!!!!!",
"!!!!!!!!!!!!!!!!!!!!!!!!!!!K!K!K!K!K!K!K!Y!!!!!!!!!!!!!!!!!!!!!!!!!!!!!>!K!Y!!!!!J!F!!!!!!!F!K!!!!!!!!!!!!!!!!!!!!!!!!!!!!!!!!!!",
"!!!!!!!!!!!!!!!!!!!!!!!!!!!!!Y!Y!Y!Y!Y!Y!!!!!!!!!!!!!!!!!!!!!!!!!!!!!!!F!K#&!!!!!J!F!!!!!!!F!K!!!!!!!!!!!!!!!!!!!!!!!!!!!!!!!!!!",
"!!!!!!!!!!!!!!!!!!!!!!!!!!!!!!!!!!!!!!!!!!!!!!!!!!!!!!!!!!!!!!!!!!!!!!!F#'!!!!!!!J!F!!!!!!!F!F!!!!!!!!!!!!!!!!!!!!!!!!!!!!!!!!!!",
"!!!!!!!!!!!!!!!!!!!!!!!!!!!!!!!!!!!!!!!!!!!!!!!!!!!!!!!!!!!!!!!!!!!!!!!!!!!!!!!!!!!!!!!!!!!!!!!!!!!!!!!!!!!!!!!!!!!!!!!!!!!!!!!!",
"!!!!!!!!!!!!!!!!!!!!!!!!!!!!!!!!!!!!!!!!!!!!!!!!!!!!!!!!!!!!!!!!!!!!!!!!!!!!!!!!!!!!!!!!!!!!!!!!!!!!!!!!!!!!!!!!!!!!!!!!!!!!!!!!",
"!!!!!!!!!!!!!!!!!!!!!!!!!!!!!!!!!!!!!!!!!!!!!!!!!!!!!!!!!!!!!!!!!!!!!!!!!!!!!!!!!!!!!!!!!!!!!!!!!!!!!!!!!!!!!!!!!!!!!!!!!!!!!!!!"
};