/* XPM */
static char *emerging_f01[] = {
"194 64 11 1",
"a	c None",
"b	c None",
"c	c #D8D8F4",
"d	c #98C0E4",
"e	c #3884CC",
"f	c #B4D0EC",
"g	c #1068C0",
"h	c #0C5CAC",
"i	c #2474C4",
"j	c #7CACDC",
"k	c #64A0D8",
"aaaaaaaaaaaaaaaaaaaaaaaaaaaaaaaaaaaaaaaaaaaaaaaaaaaaaaaaaaaaaaaabaaaaaaaaaaaaaaaaaaaaaaaaaaaaaaaaaaaaaaaaaaaaaaaaaaaaaaaaaaaaaaaabaaaaaaaaaaaaaaaaaaaaaaaaaaaaaaaaaaaaaaaaaaaaaaaaaaaaaaaaaaaaaaaa",
"aaaaaaaaaaaaaaaaaaaaaaaaaaaaaaaaaaaaaaaaaaaaaaaaaaaaaaaaaaaaaaaabaaaaaaaaaaaaaaaaaaaaaaaaaaaaaaaaaaaaaaaaaaaaaaaaaaaaaaaaaaaaaaaabaaaaaaaaaaaaaaaaaaaaaaaaaaaaaaaaaaaaaaaaaaaaaaaaaaaaaaaaaaaaaaaa",
"aaaaaaaaaaaaaaaaaaaaaaaaaaaaaaaaaaaaaaaaaaaaaaaaaaaaaaaaaaaaaaaabaaaaaaaaaaaaaaaaaaaaaaaaaaaaaaaaaaaaaaaaaaaaaaaaaaaaaaaaaaaaaaaabaaaaaaaaaaaaaaaaaaaaaaaaaaaaaaaaaaaaaaaaaaaaaaaaaaaaaaaaaaaaaaaa",
"aaaaaaaaaaaaaaaaaaaaaaaaaaaaaaaaaaaaaaaaaaaaaaaaaaaaaaaaaaaaaaaabaaaaaaaaaaaaaaaaaaaaaaaaaaaaaaaaaaaaaaaaaaaaaaaaaaaaaaaaaaaaaaaabaaaaaaaaaaaaaaaaaaaaaaaaaaaaaaaaaaaaaaaaaaaaaaaaaaaaaaaaaaaaaaaa",
"aaaaaaaaaaaaaaaaaaaaaaaaaaaaaaaaaaaaaaaaaaaaaaaaaaaaaaaaaaaaaaaabaaaaaaaaaaaaaaaaaaaaaaaaaaaaaaaaaaaaaaaaaaaaaaaaaaaaaaaaaaaaaaaabaaaaaaaaaaaaaaaaaaaaaaaaaaaaaaaaaaaaaaaaaaaaaaaaaaaaaaaaaaaaaaaa",
"aaaaaaaaaaaaaaaaaaaaaaaaaaaaaaaaaaaaaaaaaaaaaaaaaaaaaaaaaaaaaaaabaaaaaaaaaaaaaaaaaaaaaaaaaaaaaaaaaaaaaaaaaaaaaaaaaaaaaaaaaaaaaaaabaaaaaaaaaaaaaaaaaaaaaaaaaaaaaaaaaaaaaaaaaaaaaaaaaaaaaaaaaaaaaaaa",
"aaaaaaaaaaaaaaaaaaaaaaaaaaaaaaaaaaaaaaaaaaaaaaaaaaaaaaaaaaaaaaaabaaaaaaaaaaaaaaaaaaaaaaaaaaaaaaaaaaaaaaaaaaaaaaaaaaaaaaaaaaaaaaaabaaaaaaaaaaaaaaaaaaaaaaaaaaaaaaaaaaaaaaaaaaaaaaaaaaaaaaaaaaaaaaaa",
"aaaaaaaaaaaaaaaaaaaaaaaaaaaaaaaaaaaaaaaaaaaaaaaaaaaaaaaaaaaaaaaabaaaaaaaaaaaaaaaaaaaaaaaaaaaaaaaaaaaaaaaaaaaaaaaaaaaaaaaaaaaaaaaabaaaaaaaaaaaaaaaaaaaaaaaaaaaaaaacccccaaaaaaaaaaaaaaaaaaaaaaaaaaaa",
"aaaaaaaaaaaaaaaaaaaaaaaaaaaaaaaaaaaaaaaaaaaaaaaaaaaaaaaaaaaaaaaabaaaaaaaaaaaaaaaaaaaaaaaaaaaaaaaaaaaaaaaaaaaaaaaaaaaaaaaaaaaaaaaabaaaaaaaaaaaaaaaaaaaaaaaaaaaaaccdddddcaaaaaaaaaaaaaaaaaaaaaaaaaaa",
"aaaaaaaaaaaaaaaaaaaaaaaaaaaaaaaaaaaaaaaaaaaaaaaaaaaaaaaaaaaaaaaabaaaaaaaaaaaaaaaaaaaaaaaaaaaaaaaaaaaaaaaaaaaaaaaaaaaaaaaaaaaaaaaabaaaaaaaaaaaaaaaaaaaaaaaaaaaacdeeaeaedcaaaaaaaaaaaaaaaaaaaaaaaaaa",
"aaaaaaaaaaaaaaaaaaaaaaaaaaaaaaaaaaaaaaaaaaaaaaaaaaaaaaaaaaaaaaaabaaaaaaaaaaaaaaaaaaaaaaaaaaaaaaaaaaaaaaaaaaaaaaaaaaaaaaaaaaaaaaaabaaaaaaaaaaaaaaaaaaaaaaaaaaacdeaaadddadcaaaaaaaaaaaaaaaaaaaaaaaaa",
"aaaaaaaaaaaaaaaaaaaaaaaaaaaaaaaaaaaaaaaaaaaaaaaaaaaaaaaaaaaaaaaabaaaaaaaaaaaaaaaaaaaaaaaaaaaaaaaaaaaaaaaaaaaaaaaaaaaaaaaaaaaaaaaabaaaaaaaaaaaaaaaaaaaaaaaaaacdeaaaddffdecaaaaaaaaaaaaaaaaaaaaaaaaa",
"aaaaaaaaaaaaaaaaaaaaaaaaaaaaaaaaaaaaaaaaaaaaaaaaaaaaaaaaaaaaaaaabaaaaaaaaaaaaaaaaaaaaaaaaaaaaaaaaaaaaaaaaaaaaaaaaaaaaaaaaaaaaaaaabaaaaaaaaaaaaaaaaaaaaaaaaacdeaaaadffffacaaaaaaaaaaaaaaaaaaaaaaaaa",
"aaaaaaaaaaaaaaaaaaaaaaaaaaaaaaaaaaaaaaaaaaaaaaaaaaaaaaaaaaaaaaaabaaaaaaaaaaaaaaaaaaaaaaaaaaaaaaaaaaaaaaaaaaaaaaaaaaaaaaaaaaaaaaaabaaaaaaaaaaaaaaaaaaaaaaaacdeaaadddffffacaaaaaaaaaaaaaaaaaaaaaaaaa",
"aaaaaaaaaaaaaaaaaaaaaaaaaaaaaaaaaaaaaaaaaaaaaaaaaaaaaaaaaaaaaaaabaaaaaaaaaaaaaaaaaaaaaaaaaaaaaaaaaaaaaaaaaaaaaaaaaaaaaaaaaaaaaaaabaaaaaaaaaaaaaaaaaaaaaaacdeaaaeedcdffdacaaaaaaaaaaaaaaaaaaaaaaaaa",
"aaaaaaaaaaaaaaaaaaaaaaaaaaaaaaaaaaaaaaaaaaaaaaaaaaaaaaaaaaaaaaaabaaaaaaaaaaaaaaaaaaaaaaaaaaaaaaaaaaaaaaaaaaaaaaaaaaaaaaaaaaaaaaaabaaaaaaaaaaaaaaaaaaaaaacdeaaaaeaadddffdecaaaaaaaaaaaaaaaaaaaaaaaa",
"aaaaaaaaaaaaaaaaaaaaaaaaaaaaaaaaaaaaaaaaaaaaaaaaaaaaaaaaaaaaaaaabaaaaaaaaaaaaaaaaaaaaaaaaaaaaaaaaaaaaaaaaaaaaaaaaaaaaaaaaaaaaaaaabaaaaaaaaaaaaaaaaaaaaacdeaaaaaeaaaedffdadcaaaaaaaaaaaaaaaaaaaaaaa",
"aaaaaaaaaaaaaaaaaaaaaaaaaaaaaaaaaaaaaaaaaaaaaaaaaaaaaaaaaaaaaaaabaaaaaaaaaaaaaaaaaaaaaaaaaaaaaaaaaaaaaaaaaaaaaaaaaaaaaaaaaaaaaaaabaaaaaaaaaaaaaaaaaaaacdeaaaaaaaeeeeadfdaacaaaaaaaaaaaaaaaaaaaaaaa",
"aaaaaaaaaaaaaaaaaaaaaaaaaaaaaaaaaaaaaaaaaaaaaaaaaaaaaaaaaaaaaaaabaaaaaaaaaaaaaaaaaaaaaaaaaaaaaaaaaaaaaaaaaaaaaaaaaaaaaaaaaaaaaaaabaaaaaaaaaaaaaaaaaaacdeaadaaaaaaaaaaadfdaecaaaaaaaaaaaaaaaaaaaaaa",
"aaaaaaaaaaaaaaaaaaaaaaaaaaaaaaaaaaaaaaaaaaaaaaaaaaaaaaaaaaaaaaaabaaaaaaaaaaaaaaaaaaaaaaaaaaaaaaaaaaaaaaaaaaaaaaaaaaaaaaaaaaaaaaaabaaaaaaaaaaaaaaaaaacdeaadaaaaadddaacaadfaadcaaaaaaaaaaaaaaaaaaaaa",
"aaaaaaaaaaaaaaaaaaaaaaaaaaaaaaaaaaaaaaaaaaaaaaaaaaaaaaaaaaaaaaaabaaaaaaaaaaaaaaaaaaaaaaaaaaaaaaacccccaaaaaaaaaaaaaaaaaaaaaaaaaaaabaaaaaaaaaaaaaaaaacdeaadaaaaaeedcdaaaaadfaacaaaaaaaaaaaaaaaaaaaaa",
"aaaaaaaaaaaaaaaaaaaaaaaaaaaaaaaaaaaaaaaaaaaaaaaaaaaaaaaaaaaaaaaabaaaaaaaaaaaaaaaaaaaaaaaaaaaaaccdddddccaaaaaaaaaaaaaaaaaaaaaaaaaabaaaaaaaaaaaaaaaacdeeafaaaaaaeaaddaaaaaaddadcaaaaaaaaaaaaaaaaaaaa",
"aaaaaaaaaaaaaaaaaaaaaaaaaaaaaaaaaaaaaaaaaaaaaaaaaaaaaaaaaaaaaaaabaaaaaaaaaaaaaaaaaaaaaaaaaaaacdeeaaeaedcaaaaaaaaaaaaaaaaaaaaaaaaabaaaaaaaaaaaaaaacddeafaaaaaaaaeeeaaddaaadfaacaaaaaaaaaaaaaaaaaaaa",
"aaaaaaaaaaaaaaaaaaaaaaaaaaaaaaaaaaaaaaaaaaaaaaaaaaaaaaaaaaaaaaaabaaaaaaaaaaaaaaaaaaaaaaaaaacceaaadddffedcaaaaaaaaaaaaaaaaaaaaaaaabaaaaaaaaaaaaaaacdeeafaaaaaaaaaaaaeecdaaaddaacaaaaaaaaaaaaaaaaaaa",
"aaaaaaaaaaaaaaaaaaaaaaaaaaaaaaaaaaaaaaaaaaaaaaaaaaaaaaaaaaaaaaaabaaaaaaaaaaaaaaaaaaaaaaaaccdeaaadddffffadcaaaaaaaaaaaaaaaaaaaaaaabaaaaaaaaaaaaaacddeafaaaaaaaadaaaaeaadaaadfaaecaaaaaaaaaaaaaaaaaa",
"aaaaaaaaaaaaaaaaaaaaaaaaaaaaaaaaaaaaaaaaaaaaaaaaaaaaaaaaaaaaaaaabaaaaaaaaaaaaaaaaaaaaaaccdeaaaaadddffffaacaaaaaaaaaaaaaaaaaaaaaaabaaaaaaaaaaaaaacdeeadaaaaaaaaaaaaaaeeaaaaaddaadcaaaaaaaaaaaaaaaaa",
"aaaaaaaaaaaaaaaaaaaaaaaaaaaaaaaaaaaaaaaaaaaaaaaaaaaaaaaaaaaaaaaabaaaaaaaaaaaaaaaaaaaaacdeaaaaaaaadddfffaadcaaaaaaaaaaaaaaaaaaaaaabaaaaaaaaaaaaaacdeadaaaaaaaaaaaaaeaaaaaaaedfaaedcaaaaaaaaaaaaaaaa",
"aaaaaaaaaaaaaaaaaaaaaaaaaaaaaaaaaaaaaaaaaaaaaaaaaaaaaaaaaaaaaaaabaaaaaaaaaaaaaaaaaaaacdeaaaaaaaaaaadddfdaacaaaaaaaaaaaaaaaaaaaaaabaaaaaaaaaaaaacddeadaaaeegaaaaaaaaaaaaaaaaadaaadcaaaaaaaaaaaaaaaa",
"aaaaaaaaaaaaaaaaaaaaaaaaaaaaaaaaaaaaaaaaaaaaaaaaaaaaaaaaaaaaaaaabaaaaaaaaaaaaaaaaaaacdeaaaaaaaaaaaaaadffaadcaaaaaaaaaaaaaaaaaaaaabaaaaaaaaaaaaacddaadaaeaadhaaaaaaaaaaaaaaaaddaaedcaaaaaaaaaaaaaaa",
"aaaaaaaaaaaaaaaaaaaaaaaaaaaaaaaaaaacccaaaaaaaaaaaaaaaaaaaaaaaaaabaaaaaaaaaaaaaaaaaccdaaaaaaaaaaaddddaadfaaadcaaaaaaaaaaaaaaaaaaaabaaaaaaaaaaaaacdeeaaaeaaadeiaaaaeaadaaaaaaadfaaidcaaaaaaaaaaaaaaa",
"aaaaaaaaaaaaaaaaaaaaaaaaaaaaaaaaaccdddccaaaaaaaaaaaaaaaaaaaaaaaabaaaaaaaaaaaaaaaccdeadaaaaaaaaaeedccdaadfaaadcaaaaaaaaaaaaaaaaaaabaaaaaaaaaaaaacdeaaaeaaaaadhaaaaaaaaaaaacaaadaaadcaaaaaaaaaaaaaaa",
"aaaaaaaaaaaaaaaaaaaaaaaaaaaaaaaacddeeeddcaaaaaaaaaaaaaaaaaaaaaaabaaaaaaaaaaaaaacdeaafaaaaaaaaaaeaadcdaadfaaaadcaaaaaaaaaaaaaaaaaabaaaaaaaaaaaaacdeaaaeaaaaadeiaaaadddaaaaaaaaddaaecaaaaaaaaaaaaaaa",
"aaaaaaaaaaaaaaaaaaaaaaaaaaaaaaaacdeaaaedcaaaaaaaaaaaaaaaaaaaaaaabaaaaaaaaaaaaacdeaafaaaaaaaaaaaeaaaedaaadfaaaadccaaaaaaaaaaaaaaaabaaaaaaaaaaaaacdeaaeaaaaaaadgaaaeeccdaaaaaaaadaaecaaaaaaaaaaaaaaa",
"aaaaaaaaaaaaaaaaaaaaaaaaaaaaaaacdeaadddedcaaaaaaaaaaaaaaaaaaaaaabaaaaaaaaaaaacdeaadaaaaaaaaaaaaaeeeeaaaaadfaaaaedcaaaaaaaaaaaaaaabaaaaaaaaaaaaacdaaaeaaaaaaadhaaaeadcdaaaaaaaafaaicaaaaaaaaaaaaaaa",
"aaaaaaaaaaaaaaaaaaaaaaaaaaaaaaaceaadfffdedcaaaaaaaaaaaaaaaaaaaaabaaaaaaaaaaaacdeadaaaaaaaaaaaaaaaaaaaaaaaaafaaaaadcaaaaaaaaaaaaaabaaaaaaaaaaaaacdeaeaaaaaaaachiaaeaaedaaaadaaadaaecaaaaaaaaaaaaaaa",
"aaaaaaaaaaaaaaaaaaaaaaaaaaaaaacdaaaddfffdedcaaaaaaaaaaaaaaaaaaaabaaaaaaaaaaacdeaadaaaaeeiaaaaadddaaacaaaaaaadaaaaadcaaaaaaaaaaaaabaaaaaaaaaaaaacdaaeaaaaaaaadhiaaaeeeaaaaaaaaaaaaicaaaaaaaaaaaaaaa",
"aaaaaaaaaaaaaaaaaaaaaaaaaaacccdaaaaadddffaecaaaaaaaaaaaaaaaaaaaabaaaaaaaaaaacdeadaaaeeaadeiaaeedcdaaaaaaaaaaadaaaaecaaaaaaaaaaaaabaaaaaaaaaaaaacdaaeaaaaaaaachiaaaaaaaaaaaaaaaaaaacaaaaaaaaaaaaaaa",
"aaaaaaaaaaaaaaaaaaaaaaaacccddeaaaaaaaaadfdedcaaaaaaaaaaaaaaaaaaabaaaaaaaaaaacdeadaaeaaaaadjiaeaaddaaaaaaaacaadaaaaadcaaaaaaaaaaaabaaaaaaaaaaaaacdaeaaaaaaaaachiaaaaaaaaaaaaaaaaaaacaaaaaaaaaaaaaaa",
"aaaaaaaaaaaaaaaaacccccccddeeaaaaaaaaaaaadfadcaaaaaaaaaaaaaaaaaaabaaaaaaaaaaacdaaaaeaaaaaaadeiaeeeaaaddaaaaaaaadaaaadcaaaaaaaaaaaabaaaaaaaaaaaaacdaeaaaaaaaaachiaaadaaaaaaaaaaaaeaacaaaaaaaaaaaaaaa",
"aaaaaaaaaaaaaacccdddeeaaaaaaaaaaaaaaaaaadfaacaaaaaaaaaaaaaaaaaaabaaaaaaaaaaacdaaaeaaaaaaaaddeaaaaaaeecdaaaaaaadaaaaecaaaaaaaaaaaabaaaaaaaaaaaaacdaeaaaaaaaaachiaaaaaaaaeaaaaaaeaeacaaaaaaaaaaaaaaa",
"aaaaaaaaaaaaacdeaaaaaaaaaaaaaaaaaaaaaaaaadaacaaaaaaaaaaaaaaaaaaabaaaaaaaaaaacdaaeaaaaaaaaaachidaaaaeaadaaaadaaaaaaaecaaaaaaaaaaaabaaaaaaaaaaaaaaceaaaaaaaaaachiaaaacaaaaaaaaaaeaecdaaaaaaaaaaaaaaa",
"aaaaaaaaaaaacdeaffdaaaaaaaaaaaaaaaaaaaaaaddacaaaaaaaaaaaaaaaaaaabaaaaaaaaaaacdaaeaaaaaaaaaadhiaaaaaaeeaaaaaaaaaaaaaacaaaaaaaaaaaabaaaaaaaaaaaaaaceaaaaaaaaaachiaaaaaaadaaaaaaaeaeceaaaaaaaaaaaaaaa",
"aaaaaaaaaaacdeafaaaaaaaaaaaaaaaaaaaaaaaaadfacaaaaaaaaaaaaaaaaaaabaaaaaaaaaaacdaeaaaaaaaaaaachiaaaaeaaaaaaaaaaaaaaaaacaaaaaaaaaaaabaaaaaaaaaaaaaaceaaaaaaaaaachiaaeaaaaaaaaaaadaaecaaaaaaaaaaaaaaaa",
"aaaaaaaaaaaceafaaaaaaaaaaaaaaaaaddddaaaaaafacaaaaaaaaaaaaaaaaaaabaaaaaaaaaaacdaeaaaaaaaaaaachiaaaaaaaaaaaaaaaaaaeeaacaaaaaaaaaaaabaaaaaaaaaaaaaacaaaaaaaaaaachiaaaadaaaaaaaaadaaecaaaaaaaaaaaaaaaa",
"aaaaaaaaaacdiafaaaaaaaaaaaaaaaaeedccdaaaaadacaaaaaaaaaaaaaaaaaaabaaaaaaaaaaacdaeaaaaaaaaaaachiaaaaaaaaaaaaaaaaaeaaeacaaaaaaaaaaaabaaaaaaaaaaaaaacaaaaaaaaaacdhiaaaaadddaaaadadaadcaaaaaaaaaaaaaaaa",
"aaaaaaaaaacdifaaaaaaaaaaaaaaaaaeaadcdaaaaadadcaaaaccaaaaaaaaaaaabaaaaaaaaaaaaceaaaaaaaaaaaachiaaaeaadaaaaaaaaaaeaaeceaaaaaaaaaaaabaaaaaaaaaaaaaacaaaaaaaaaacehiaaaaeedcdaaaaadaaecaaaaaaaaaaaaaaaa",
"aaaaaaaaaaceidaaaaaaaaaaaaaaaaaeaaaedaaaaadaecaaccddcaaaaaaaaaaabaaaaaaaaaaaaceaaaaaaaaaaaachiaaaaaaaaaaacaaaaeaaaecaaaaaaaaaaaaabaaaaaaaaaaaaaacaaaaaaaaaachgiaaeaeaaddaaadadaadcaaaaaaaaaaaaaaaa",
"aaaaaaaaaaceidaaaaaaaaaaaaaaaaaaeeeeaaaaaaadadccddeedcaaaaaaaaaabaaaaaaaaaaaacaaaaaaaaaaaaachiaaaaadddaaaaaaaaeaaaecaaaaaaaaaaaaabaaaaaaaaaaaaaacaaaaaaaaaachgiaaaaaeeeaaaadacaacdaaaaaaaaaaaaaaaa",
"aaaaaaaaaachiaaaaaaaaaaaaaaaaaaaaaaaaaaaaaadaeddeeaadcaaaaaaaaaabaaaaaaaaaaaaaaaaaaaaaaaaacehiaaaaeeccdaaaaaaadaaaecaaaaaaaaaaaaabaaaaaaaaaaaaaadaaaaaaaaacdhiiaaaaaaaaaaaadacaaceaaaaaaaaaaaaaaaa",
"aaaaaaaaaachidaaaaaaeeeaaaaaaadddaacaaaaaaadaaeeafdaecaaaaaaaaaabaaaaaaaaaaaadaaaaaaaaaaaachgiaaaaeadcdaaaaadadaaadcaaaaaaaaaaaaabaaaaaaaaaaaaaaaaaaaaaaaacehiiaaaddaaaaaaadacaacaaaaaaaaaaaaaaaaa",
"aaaaaaaaaachiaaaaaaeaaaeaaaaaeedcdaaaaaaaaaadaaaaaefacaaaaaaaaaabaaaaaaaaaaaaaaaaaaaaaaaacdhgiaaaaeaaedaaadadacaaacdaaaaaaaaaaaaabaaaaaaaaaaaaaadaaaaaaaaachhiiaaeecdaaaaaddacaacaaaaaaaaaaaaaaaaa",
"aaaaaaaaaachiaaaaaeaaaadaaaaaeaaddaaaaaaacaadaaaaaadacaaaaaaaaaabaaaaaaaaaaaadaaaaaaaaaaacehiiaaaaaeeeaaaaaadacaaacaaaaaaaaaaaaaabaaaaaaaaaaaaaadaaaaaaaacdhgiaaaeaadaaaaadfacaacaaaaaaaaaaaaaaaaa",
"aaaaaaaaaachiaaaaadaaaadiaaaaaeeeaaddaaaaaaaaaaaaaaaacaaaaaaaaaabaaaaaaaaaaaaaaaaaaaaaaacdhhiaaaaaaaaaaaaaaddacaaacaaaaaaaaaaaaaabaaaaaaaaaaaaaaaaaaaaaaacehgiaaaaeeaaaaaadfacaacaaaaaaaaaaaaaaaaa",
"aaaaaaaaaachiaaaaadaaaaciaaaaaaaaaeecdaaaaaaadaaaaadadcaaaaaaaaabaaaaaaaaaaaaaaaaaaaaaacdehgiaaaaaaaaaaaaaadfacaaacaaaaaaaaaaaaaabaaaaaaaaaaaaaaaaaaaaaacdhhiiaaaaaaadaaaadfacacdcaaaaaaaaaaaaaaaa",
"aaaaaaaaaachiaaaaacaaaaciaaaadaaaaeaadaaaadaaaaaaaaaaecaaaaaaaaabaaaaaaaaaaaaaaaaaaaaacdehhiiaaaaadaaaaaaaadfacaacdcaaaaaaaaaaaaabaaaaaaaaaaaaaadaaaaaaacehhiiaaaaaaaaaaaadfadcdecaaaaaaaaaaaaaaaa",
"aaaaaaaaaachiaaaaacaaaacgaaaaaaaaaaeeaaaaaaaaaadaaaaaacaaaaaaaaabaaaaaaaaaaaacaaaaaaacdehhgiaaaaaaaaaaaeaaadfadccdecaaaaaaaaaaaaabaaaaaaaaaaaaaaaaaaaaacdhhgiaaaaaaaeaaaaadffedeacaaaaaaaaaaaaaaaa",
"aaaaaaaaaachiaaaaadcaacdgaaaaaaaaeaaaaaaaaaaaaaadaaaaacaaaaaaaaabaaaaaaaaaaaaaaaaaaacdehhgiiaaaaaaacaaaaaaaadfaeeaadcaaaaaaaaaaaabaaaaaaaaaaaaaaaaaaaacdhhhiiaaaaaaaaaaaaaadfaeaadcaaaaaaaaaaaaaaa",
"aaaaaaaaaachiaaaaaedccdiiaaaaaaaaaaaaaaaaaaaaaaaadfaaacaaaaaaaaabaaaaaaaaaaaacaaaaccdehhgiiaaaaaaaaaaadaaaaaddfaadaacaaaaaaaaaaaabaaaaaaaaaaaaaaaaaaacdhhhiiaaaacaaaaaaaaaaddfadaacaaaaaaaaaaaaaaa",
"aaaaaaaaacehiaaaaaaeddegaaaaaaaaaaaaaaaaaaaaaaaaaadffaecaaaaaaaabaaaaaaaaaaaacccccdehhhgiiaaaaaaaeaaaaaaaaaaaddffdaadcaaaaaaaaaaabaaaaaaaaaaaaaaaaaccdhhhiiiaaaaaaaddaaaaaaaddfdaadcaaaaaaaaaaaaaa",
"aaaaaaadcehiaaaaaaaaeghiaaaaaaaaeaadaaaaaaaaaaaaacfcccdckaaaaaaabaaaaaaaaaaacacdehhhgiiiaaaaaaaaaaaaaaaaaaaaaadfdfddfcdaaaaaaaaaabaaaaaaaaaaaaaaaacddhhhiiiaaaaaaaeecdaaaaaaaadddaacaaaaaaaaaaaaaa",
"aaaaaaaadfcccccfddaihhgaaaaaaaaaaaaaaaaacaaadcccdaaaaaaaaaaaaaaabaaaaaaaaaadcccccccfkkaaaaaaaaaaaaaaaaaaaaaaafccccccdaaaaaaaaaaaabaaaaaaaaaaaaaadccccchiiiaaaiaaaaeaadaaaaaaaaaaddacdaaaaaaaaaaaaa",
"aaaaaaaaaaaaaaaaaadccccdaaaaaaaaakaaaaaaaaakaaaaaaaaaaaaaaaaaaaabaaaaaaaaaaaaaaaaaaaaadccccaaaaaaaadaaaaaaakkaaaaaaaaaaaaaaaaaaaabaaaaaaaaaaaaaaaaaaaadcccciiaadaaaecaaaaaaaccccccdaaaaaaaaaaaaaaa",
"aaaaaaaaaaaaaaaaaaaaaaaadcccccccdadcccccccdaaaaaaaaaaaaaaaaaaaaabaaaaaaaaaaaaaaaaaaaaaaaaaadccccccdadcccccdaaaaaaaaaaaaaaaaaaaaaabaaaaaaaaaaaaaaaaaaaaaaaadccccccccdadccccccdaaaaaaaaaaaaaaaaaaaaa",
"aaaaaaaaaaaaaaaaaaaaaaaaaaaaaaaaaaaaaaaaaaaaaaaaaaaaaaaaaaaaaaaabaaaaaaaaaaaaaaaaaaaaaaaaaaaaaaaaaaaaaaaaaaaaaaaaaaaaaaaaaaaaaaaabaaaaaaaaaaaaaaaaaaaaaaaaaaaaaaaaaaaaaaaaaaaaaaaaaaaaaaaaaaaaaaaa"
};